P3
172 37
255
96 83 100 96 83 100 96 83 100 96 83 100 78 65 82 75 62 79 70 57 74 63 50 67 55 42 59 48 35 52 43 30 47 39 28 44 29 18 32 26 18 31 24 16 29 21 13 26 19 11 24 16 8 21 14 6 19 13 5 18 12 4 17 12 4 17 12 4 17 12 4 17 12 4 17 12 4 17 12 4 17 11 5 17 7 4 15 6 4 15 6 4 15 6 4 15 6 4 15 6 4 15 6 4 15 6 4 15 9 7 18 9 7 18 9 7 18 9 7 18 9 7 18 9 7 18 9 7 18 9 7 18 6 6 16 6 6 16 6 6 16 6 6 16 6 6 16 6 6 16 6 6 16 6 6 16 8 8 18 8 8 18 8 8 18 8 8 18 8 8 18 8 8 18 8 8 18 6 9 16 8 11 16 7 12 15 7 12 15 7 12 15 7 12 15 7 12 15 7 12 15 7 12 15 9 14 17 9 14 17 9 14 17 9 14 17 9 14 17 9 14 17 9 14 17 9 14 17 8 13 17 8 13 17 8 13 17 8 13 17 8 13 17 8 13 17 8 13 17 8 13 17 8 13 17 8 13 17 8 13 17 8 13 17 8 13 17 8 13 17 8 13 17 8 13 17 9 10 15 9 10 15 9 10 15 9 10 15 9 10 15 9 10 15 9 10 15 9 10 15 3 4 9 3 4 9 3 4 9 3 4 9 3 4 9 3 4 9 3 4 9 3 4 8 0 4 7 2 6 7 4 8 9 7 11 12 11 15 16 14 18 19 16 20 21 18 22 23 14 18 19 16 20 21 21 25 26 28 32 33 34 38 39 41 45 46 46 50 51 48 52 53 64 66 65 66 68 67 71 73 72 78 80 79 84 86 85 91 93 92 96 98 97 98 100 99 99 101 100 105 107 106 113 115 114 118 120 119 118 120 119 113 115 114 105 107 106 99 101 100 70 68 69 63 61 62 53 51 52 44 42 43 41 39 40 43 41 42 49 47 48 53 51 52 44 42 43 44 42 43 44 42 43 44 42 43 44 42 43 44 42 43 44 42 43 44 42 43 39 37 38 39 37 38 39 37 38 39 37 38 39 37 38 39 37 38 39 37 38 39 37 38 43 41 42 43 41 42 43 41 42 43 41 42 43 41 42 43 41 42 43 41 42 43 41 42
93 82 99 93 82 98 93 82 99 93 82 98 69 58 75 66 55 71 60 49 66 52 41 57 44 33 50 37 26 42 31 20 37 28 17 33 21 13 28 20 14 26 18 12 26 16 10 22 14 8 22 12 6 18 10 4 18 10 4 16 11 5 19 11 5 17 11 5 19 11 5 17 11 5 19 11 5 17 11 5 19 11 5 17 6 4 15 5 5 15 6 4 15 5 5 15 6 4 15 5 5 15 6 4 15 5 5 15 9 7 18 8 8 18 9 7 18 8 8 18 9 7 18 8 8 18 9 7 18 8 8 18 6 6 16 4 7 16 6 6 16 4 7 16 6 6 16 4 7 16 6 6 16 4 7 16 8 8 18 6 9 18 8 8 18 6 9 18 8 8 18 6 9 18 8 8 18 6 9 16 7 12 16 7 12 15 7 12 16 7 12 15 7 12 16 7 12 15 7 12 16 7 12 15 9 14 18 9 14 17 9 14 18 9 14 17 9 14 18 9 14 17 9 14 18 9 14 18 8 13 17 8 13 17 8 13 17 8 13 17 8 13 17 8 13 17 8 13 17 8 13 17 8 13 17 8 13 17 8 13 17 8 13 17 8 13 17 8 13 17 8 13 17 8 13 17 7 10 15 9 10 15 9 10 15 9 10 15 9 10 15 9 10 15 9 10 15 9 10 15 3 4 9 3 4 9 3 4 9 3 4 9 3 4 9 3 4 9 3 4 9 1 4 9 0 4 7 2 6 7 4 8 9 7 11 12 11 15 16 14 18 19 16 20 21 18 22 23 14 18 19 16 20 21 21 25 26 28 32 33 34 38 39 41 45 46 46 50 51 48 52 53 64 66 65 66 68 67 71 73 72 78 80 79 84 86 85 91 93 92 96 98 97 98 100 99 98 100 99 103 105 104 111 113 112 117 119 118 117 119 118 111 113 112 103 105 104 98 100 99 69 69 69 63 61 62 53 51 52 44 42 43 41 39 40 43 41 42 49 47 48 53 51 52 44 42 43 44 42 43 44 42 43 44 42 43 44 42 43 44 42 43 44 42 43 44 42 43 39 37 38 39 37 38 39 37 38 39 37 38 39 37 38 39 37 38 39 37 38 39 37 38 43 41 42 43 41 42 43 41 42 43 41 42 43 41 42 43 41 42 43 41 42 43 41 42
58 51 69 50 43 59 44 37 55 41 34 50 11 4 22 11 4 20 11 4 22 11 4 20 11 4 22 11 4 20 11 4 22 11 4 20 6 2 17 6 2 16 6 2 17 6 2 16 6 2 17 6 2 16 6 2 17 6 2 16 6 2 17 6 2 16 6 2 17 6 2 16 6 2 17 6 2 16 6 2 17 5 3 16 6 6 18 4 6 18 6 6 18 4 6 18 6 6 18 4 6 18 6 6 18 4 6 18 5 5 17 3 5 17 5 5 17 3 5 17 5 5 17 3 5 17 5 5 17 3 5 17 8 11 20 7 11 20 8 11 20 7 11 20 8 11 20 7 11 20 8 11 20 7 11 20 9 12 21 8 12 21 9 12 21 8 12 21 9 12 21 8 12 21 9 12 21 8 12 21 8 13 19 6 14 17 6 13 19 6 14 17 6 13 19 6 14 17 6 13 19 6 14 17 5 12 18 5 13 16 5 12 18 5 13 16 5 12 18 5 13 16 5 12 18 5 12 18 6 13 19 6 13 19 6 13 19 6 13 19 6 13 19 6 13 19 6 13 19 6 13 19 5 12 18 5 12 18 5 12 18 5 12 18 5 12 18 5 12 18 5 12 18 7 12 18 2 5 10 4 7 12 6 9 14 9 12 17 13 16 21 16 19 24 18 21 26 20 23 28 2 5 10 2 5 10 2 5 10 2 5 10 2 5 10 2 5 10 2 5 10 2 5 10 0 3 6 0 5 8 2 7 10 5 10 13 9 14 17 12 17 20 14 19 22 16 21 24 23 28 31 25 30 33 27 32 35 30 35 38 34 39 42 37 42 45 39 44 47 41 47 47 59 63 62 61 66 62 63 68 64 66 71 67 70 75 71 73 78 74 75 80 76 77 82 78 99 104 100 99 104 100 99 104 100 99 104 100 99 104 100 99 104 100 99 104 100 101 103 100 77 77 75 70 69 67 57 56 54 45 44 42 38 37 35 37 36 34 40 39 37 43 42 40 41 40 38 41 40 38 41 40 38 41 40 38 41 40 38 41 40 38 41 40 38 41 40 38 39 37 38 39 37 38 39 37 38 39 37 38 39 37 38 39 37 38 39 37 38 39 37 38 38 36 37 38 36 37 38 36 37 38 36 37 38 36 37 38 36 37 38 36 37 38 36 37
46 42 59 39 35 52 34 30 47 31 27 44 9 5 22 9 5 22 9 5 22 9 5 22 9 5 22 9 5 22 9 5 22 9 5 22 5 3 17 5 3 17 5 3 17 5 3 17 5 3 17 5 3 17 5 3 17 5 3 17 5 3 17 5 3 17 5 3 17 5 3 17 5 3 17 5 3 17 5 3 17 4 3 17 6 6 18 4 6 18 4 6 18 4 6 18 4 6 18 4 6 18 4 6 18 4 6 18 3 5 17 3 5 17 3 5 17 3 5 17 3 5 17 3 5 17 3 5 17 3 5 17 7 11 20 7 11 20 7 11 20 7 11 20 7 11 20 7 11 20 7 11 20 7 11 20 8 12 21 8 12 21 8 12 21 8 12 21 8 12 21 8 12 21 8 12 21 8 12 21 6 13 19 6 13 19 6 13 19 6 13 19 6 13 19 6 13 19 6 13 19 6 13 19 5 12 18 5 12 18 5 12 18 5 12 18 5 12 18 5 12 18 5 12 18 5 12 18 6 13 19 6 13 19 6 13 19 6 13 19 6 13 19 6 13 19 6 13 19 6 13 19 5 12 18 5 12 18 5 12 18 5 12 18 5 12 18 5 12 18 5 12 18 5 12 18 2 5 10 4 7 12 6 9 14 9 12 17 13 16 21 16 19 24 18 21 26 20 23 28 2 5 10 2 5 10 2 5 10 2 5 10 2 5 10 2 5 10 2 5 10 2 5 10 0 3 6 0 5 8 2 7 10 5 10 13 9 14 17 12 17 20 14 19 22 16 21 24 23 28 31 25 30 33 27 32 35 30 35 38 34 39 42 37 42 45 39 44 47 41 47 47 59 63 62 61 66 62 63 68 64 66 71 67 70 75 71 73 78 74 75 80 76 77 82 78 97 102 98 97 102 98 97 102 98 97 102 98 97 102 98 97 102 98 97 102 98 99 101 98 77 77 75 70 69 67 57 56 54 45 44 42 38 37 35 37 36 34 40 39 37 43 42 40 41 40 38 41 40 38 41 40 38 41 40 38 41 40 38 41 40 38 41 40 38 41 40 38 39 37 38 39 37 38 39 37 38 39 37 38 39 37 38 39 37 38 39 37 38 39 37 38 38 36 37 38 36 37 38 36 37 38 36 37 38 36 37 38 36 37 38 36 37 38 36 37
32 28 45 26 22 39 22 18 35 19 15 32 9 5 22 9 5 22 9 5 22 9 5 22 9 5 22 9 5 22 9 5 22 9 5 22 5 3 17 5 3 17 5 3 17 5 3 17 5 3 17 5 3 17 5 3 17 5 3 17 5 3 17 5 3 17 5 3 17 5 3 17 5 3 17 5 3 17 5 3 17 4 3 17 6 6 18 4 6 18 4 6 18 4 6 18 4 6 18 4 6 18 4 6 18 4 6 18 3 5 17 3 5 17 3 5 17 3 5 17 3 5 17 3 5 17 3 5 17 3 5 17 7 11 20 7 11 20 7 11 20 7 11 20 7 11 20 7 11 20 7 11 20 7 11 20 8 12 21 8 12 21 8 12 21 8 12 21 8 12 21 8 12 21 8 12 21 8 12 21 6 13 19 6 13 19 6 13 19 6 13 19 6 13 19 6 13 19 6 13 19 6 13 19 5 12 18 5 12 18 5 12 18 5 12 18 5 12 18 5 12 18 5 12 18 5 12 18 6 13 19 6 13 19 6 13 19 6 13 19 6 13 19 6 13 19 6 13 19 6 13 19 5 12 18 5 12 18 5 12 18 5 12 18 5 12 18 5 12 18 5 12 18 5 12 18 2 5 10 4 7 12 6 9 14 9 12 17 13 16 21 16 19 24 18 21 26 20 23 28 2 5 10 2 5 10 2 5 10 2 5 10 2 5 10 2 5 10 2 5 10 2 5 10 0 3 6 0 5 8 2 7 10 5 10 13 9 14 17 12 17 20 14 19 22 16 21 24 23 28 31 25 30 33 27 32 35 30 35 38 34 39 42 37 42 45 39 44 47 41 47 47 59 63 62 61 66 62 63 68 64 66 71 67 70 75 71 73 78 74 75 80 76 77 82 78 95 100 96 95 100 96 95 100 96 95 100 96 95 100 96 95 100 96 95 100 96 97 99 96 77 77 75 70 69 67 57 56 54 45 44 42 38 37 35 37 36 34 40 39 37 43 42 40 41 40 38 41 40 38 41 40 38 41 40 38 41 40 38 41 40 38 41 40 38 41 40 38 39 37 38 39 37 38 39 37 38 39 37 38 39 37 38 39 37 38 39 37 38 39 37 38 38 36 37 38 36 37 38 36 37 38 36 37 38 36 37 38 36 37 38 36 37 38 36 37
17 13 30 13 9 26 10 6 23 8 4 21 9 5 22 9 5 22 9 5 22 9 5 22 9 5 22 9 5 22 9 5 22 9 5 22 5 3 17 5 3 17 5 3 17 5 3 17 5 3 17 5 3 17 5 3 17 5 3 17 5 3 17 5 3 17 5 3 17 5 3 17 5 3 17 5 3 17 5 3 17 4 3 17 6 6 18 4 6 18 4 6 18 4 6 18 4 6 18 4 6 18 4 6 18 4 6 18 3 5 17 3 5 17 3 5 17 3 5 17 3 5 17 3 5 17 3 5 17 3 5 17 7 11 20 7 11 20 7 11 20 7 11 20 7 11 20 7 11 20 7 11 20 7 11 20 8 12 21 8 12 21 8 12 21 8 12 21 8 12 21 8 12 21 8 12 21 8 12 21 6 13 19 6 13 19 6 13 19 6 13 19 6 13 19 6 13 19 6 13 19 6 13 19 5 12 18 5 12 18 5 12 18 5 12 18 5 12 18 5 12 18 5 12 18 5 12 18 6 13 19 6 13 19 6 13 19 6 13 19 6 13 19 6 13 19 6 13 19 6 13 19 5 12 18 5 12 18 5 12 18 5 12 18 5 12 18 5 12 18 5 12 18 5 12 18 2 5 10 4 7 12 6 9 14 9 12 17 13 16 21 16 19 24 18 21 26 20 23 28 2 5 10 2 5 10 2 5 10 2 5 10 2 5 10 2 5 10 2 5 10 2 5 10 0 3 6 0 5 8 2 7 10 5 10 13 9 14 17 12 17 20 14 19 22 16 21 24 23 28 31 25 30 33 27 32 35 30 35 38 34 39 42 37 42 45 39 44 47 41 47 47 59 63 62 61 66 62 63 68 64 66 71 67 70 75 71 73 78 74 75 80 76 77 82 78 92 97 93 92 97 93 92 97 93 92 97 93 92 97 93 92 97 93 92 97 93 94 96 93 77 77 75 70 69 67 57 56 54 45 44 42 38 37 35 37 36 34 40 39 37 43 42 40 41 40 38 41 40 38 41 40 38 41 40 38 41 40 38 41 40 38 41 40 38 41 40 38 39 37 38 39 37 38 39 37 38 39 37 38 39 37 38 39 37 38 39 37 38 39 37 38 38 36 37 38 36 37 38 36 37 38 36 37 38 36 37 38 36 37 38 36 37 38 36 37
8 4 21 6 2 19 4 0 17 3 0 16 9 5 22 9 5 22 9 5 22 9 5 22 9 5 22 9 5 22 9 5 22 9 5 22 5 3 17 5 3 17 5 3 17 5 3 17 5 3 17 5 3 17 5 3 17 5 3 17 5 3 17 5 3 17 5 3 17 5 3 17 5 3 17 5 3 17 5 3 17 4 3 17 6 6 18 4 6 18 4 6 18 4 6 18 4 6 18 4 6 18 4 6 18 4 6 18 3 5 17 3 5 17 3 5 17 3 5 17 3 5 17 3 5 17 3 5 17 3 5 17 7 11 20 7 11 20 7 11 20 7 11 20 7 11 20 7 11 20 7 11 20 7 11 20 8 12 21 8 12 21 8 12 21 8 12 21 8 12 21 8 12 21 8 12 21 8 12 21 6 13 19 6 13 19 6 13 19 6 13 19 6 13 19 6 13 19 6 13 19 6 13 19 5 12 18 5 12 18 5 12 18 5 12 18 5 12 18 5 12 18 5 12 18 5 12 18 6 13 19 6 13 19 6 13 19 6 13 19 6 13 19 6 13 19 6 13 19 6 13 19 5 12 18 5 12 18 5 12 18 5 12 18 5 12 18 5 12 18 5 12 18 5 12 18 2 5 10 4 7 12 6 9 14 9 12 17 13 16 21 16 19 24 18 21 26 20 23 28 2 5 10 2 5 10 2 5 10 2 5 10 2 5 10 2 5 10 2 5 10 2 5 10 0 3 6 0 5 8 2 7 10 5 10 13 9 14 17 12 17 20 14 19 22 16 21 24 23 28 31 25 30 33 27 32 35 30 35 38 34 39 42 37 42 45 39 44 47 41 47 47 59 63 62 61 66 62 63 68 64 66 71 67 70 75 71 73 78 74 75 80 76 77 82 78 88 93 89 88 93 89 88 93 89 88 93 89 88 93 89 88 93 89 88 93 89 90 92 89 77 77 75 70 69 67 57 56 54 45 44 42 38 37 35 37 36 34 40 39 37 43 42 40 41 40 38 41 40 38 41 40 38 41 40 38 41 40 38 41 40 38 41 40 38 41 40 38 39 37 38 39 37 38 39 37 38 39 37 38 39 37 38 39 37 38 39 37 38 39 37 38 38 36 37 38 36 37 38 36 37 38 36 37 38 36 37 38 36 37 38 36 37 38 36 37
5 1 18 4 0 17 4 0 17 3 0 16 9 5 22 9 5 22 9 5 22 9 5 22 9 5 22 9 5 22 9 5 22 9 5 22 5 3 17 5 3 17 5 3 17 5 3 17 5 3 17 5 3 17 5 3 17 5 3 17 5 3 17 5 3 17 5 3 17 5 3 17 5 3 17 5 3 17 5 3 17 4 3 17 6 6 18 4 6 18 4 6 18 4 6 18 4 6 18 4 6 18 4 6 18 4 6 18 3 5 17 3 5 17 3 5 17 3 5 17 3 5 17 3 5 17 3 5 17 3 5 17 7 11 20 7 11 20 7 11 20 7 11 20 7 11 20 7 11 20 7 11 20 7 11 20 8 12 21 8 12 21 8 12 21 8 12 21 8 12 21 8 12 21 8 12 21 8 12 21 6 13 19 6 13 19 6 13 19 6 13 19 6 13 19 6 13 19 6 13 19 6 13 19 5 12 18 5 12 18 5 12 18 5 12 18 5 12 18 5 12 18 5 12 18 5 12 18 6 13 19 6 13 19 6 13 19 6 13 19 6 13 19 6 13 19 6 13 19 6 13 19 5 12 18 5 12 18 5 12 18 5 12 18 5 12 18 5 12 18 5 12 18 5 12 18 2 5 10 4 7 12 6 9 14 9 12 17 13 16 21 16 19 24 18 21 26 20 23 28 2 5 10 2 5 10 2 5 10 2 5 10 2 5 10 2 5 10 2 5 10 2 5 10 0 3 6 0 5 8 2 7 10 5 10 13 9 14 17 12 17 20 14 19 22 16 21 24 23 28 31 25 30 33 27 32 35 30 35 38 34 39 42 37 42 45 39 44 47 41 47 47 59 63 62 61 66 62 63 68 64 66 71 67 70 75 71 73 78 74 75 80 76 77 82 78 85 90 86 85 90 86 85 90 86 85 90 86 85 90 86 85 90 86 85 90 86 87 89 86 77 77 75 70 69 67 57 56 54 45 44 42 38 37 35 37 36 34 40 39 37 43 42 40 41 40 38 41 40 38 41 40 38 41 40 38 41 40 38 41 40 38 41 40 38 41 40 38 39 37 38 39 37 38 39 37 38 39 37 38 39 37 38 39 37 38 39 37 38 39 37 38 38 36 37 38 36 37 38 36 37 38 36 37 38 36 37 38 36 37 38 36 37 38 36 37
6 2 19 7 3 20 7 3 20 7 3 20 9 5 22 9 5 22 9 5 22 9 5 22 9 5 22 9 5 22 9 5 22 9 5 22 5 3 17 5 3 17 5 3 17 5 3 17 5 3 17 5 3 17 5 3 17 5 3 17 5 3 17 5 3 17 5 3 17 5 3 17 5 3 17 5 3 17 5 3 17 4 3 17 6 6 18 4 6 18 4 6 18 4 6 18 4 6 18 4 6 18 4 6 18 4 6 18 3 5 17 3 5 17 3 5 17 3 5 17 3 5 17 3 5 17 3 5 17 3 5 17 7 11 20 7 11 20 7 11 20 7 11 20 7 11 20 7 11 20 7 11 20 7 11 20 8 12 21 8 12 21 8 12 21 8 12 21 8 12 21 8 12 21 8 12 21 8 12 21 6 13 19 6 13 19 6 13 19 6 13 19 6 13 19 6 13 19 6 13 19 6 13 19 5 12 18 5 12 18 5 12 18 5 12 18 5 12 18 5 12 18 5 12 18 5 12 18 6 13 19 6 13 19 6 13 19 6 13 19 6 13 19 6 13 19 6 13 19 6 13 19 5 12 18 5 12 18 5 12 18 5 12 18 5 12 18 5 12 18 5 12 18 5 12 18 2 5 10 4 7 12 6 9 14 9 12 17 13 16 21 16 19 24 18 21 26 20 23 28 2 5 10 2 5 10 2 5 10 2 5 10 2 5 10 2 5 10 2 5 10 2 5 10 0 3 6 0 5 8 2 7 10 5 10 13 9 14 17 12 17 20 14 19 22 16 21 24 23 28 31 25 30 33 27 32 35 30 35 38 34 39 42 37 42 45 39 44 47 41 47 47 59 63 62 61 66 62 63 68 64 66 71 67 70 75 71 73 78 74 75 80 76 77 82 78 83 88 84 83 88 84 83 88 84 83 88 84 83 88 84 83 88 84 83 88 84 85 87 84 77 77 75 70 69 67 57 56 54 45 44 42 38 37 35 37 36 34 40 39 37 43 42 40 41 40 38 41 40 38 41 40 38 41 40 38 41 40 38 41 40 38 41 40 38 41 40 38 39 37 38 39 37 38 39 37 38 39 37 38 39 37 38 39 37 38 39 37 38 39 37 38 38 36 37 38 36 37 38 36 37 38 36 37 38 36 37 38 36 37 38 36 37 38 36 37
8 4 21 10 6 23 10 6 23 11 7 24 9 5 22 9 5 22 9 5 22 9 5 22 9 5 22 9 5 22 9 5 22 9 5 22 5 3 17 5 3 17 5 3 17 5 3 17 5 3 17 5 3 17 5 3 17 5 3 17 5 3 17 5 3 17 5 3 17 5 3 17 5 3 17 5 3 17 5 3 17 4 3 17 6 6 18 4 6 18 4 6 18 4 6 18 4 6 18 4 6 18 4 6 18 4 6 18 3 5 17 3 5 17 3 5 17 3 5 17 3 5 17 3 5 17 3 5 17 3 5 17 7 11 20 7 11 20 7 11 20 7 11 20 7 11 20 7 11 20 7 11 20 7 11 20 8 12 21 8 12 21 8 12 21 8 12 21 8 12 21 8 12 21 8 12 21 8 12 21 6 13 19 6 13 19 6 13 19 6 13 19 6 13 19 6 13 19 6 13 19 6 13 19 5 12 18 5 12 18 5 12 18 5 12 18 5 12 18 5 12 18 5 12 18 5 12 18 6 13 19 6 13 19 6 13 19 6 13 19 6 13 19 6 13 19 6 13 19 6 13 19 5 12 18 5 12 18 5 12 18 5 12 18 5 12 18 5 12 18 5 12 18 5 12 18 2 5 10 4 7 12 6 9 14 9 12 17 13 16 21 16 19 24 18 21 26 20 23 28 2 5 10 2 5 10 2 5 10 2 5 10 2 5 10 2 5 10 2 5 10 2 5 10 0 3 6 0 5 8 2 7 10 5 10 13 9 14 17 12 17 20 14 19 22 16 21 24 23 28 31 25 30 33 27 32 35 30 35 38 34 39 42 37 42 45 39 44 47 41 47 47 59 63 62 61 66 62 63 68 64 66 71 67 70 75 71 73 78 74 75 80 76 77 82 78 81 86 82 81 86 82 81 86 82 81 86 82 81 86 82 81 86 82 81 86 82 83 85 82 77 77 75 70 69 67 57 56 54 45 44 42 38 37 35 37 36 34 40 39 37 43 42 40 41 40 38 41 40 38 41 40 38 41 40 38 41 40 38 41 40 38 41 40 38 41 40 38 39 37 38 39 37 38 39 37 38 39 37 38 39 37 38 39 37 38 39 37 38 39 37 38 38 36 37 38 36 37 38 36 37 38 36 37 38 36 37 38 36 37 38 36 37 38 36 37
5 1 18 5 1 18 5 1 18 5 1 18 6 2 19 6 2 19 6 2 19 6 2 19 6 2 19 6 2 19 6 2 19 6 2 19 5 3 17 5 3 17 5 3 17 5 3 17 5 3 17 5 3 17 5 3 17 5 3 17 8 6 20 8 6 20 8 6 20 8 6 20 8 6 20 8 6 20 8 6 20 7 6 20 8 8 20 6 8 20 6 8 20 6 8 20 6 8 20 6 8 20 6 8 20 6 8 20 5 7 19 5 7 19 5 7 19 5 7 19 5 7 19 5 7 19 5 7 19 5 7 19 4 8 17 4 8 17 4 8 17 4 8 17 4 8 17 4 8 17 4 8 17 4 8 17 7 11 20 7 11 20 7 11 20 7 11 20 7 11 20 7 11 20 7 11 20 7 11 20 7 14 20 7 14 20 7 14 20 7 14 20 7 14 20 7 14 20 7 14 20 7 14 20 7 14 20 7 14 20 7 14 20 7 14 20 7 14 20 7 14 20 7 14 20 7 14 20 7 14 20 7 14 20 7 14 20 7 14 20 7 14 20 7 14 20 7 14 20 7 14 20 7 14 20 7 14 20 7 14 20 7 14 20 7 14 20 7 14 20 7 14 20 7 14 20 9 12 17 9 12 17 9 12 17 9 12 17 9 12 17 9 12 17 9 12 17 9 12 17 2 5 10 2 5 10 2 5 10 2 5 10 2 5 10 2 5 10 2 5 10 2 5 10 5 10 13 5 10 13 5 10 13 5 10 13 5 10 13 5 10 13 5 10 13 5 10 13 21 26 29 23 28 31 25 30 33 28 33 36 32 37 40 35 40 43 37 42 45 39 45 45 46 50 49 48 53 49 50 55 51 53 58 54 57 62 58 60 65 61 62 67 63 64 69 65 77 82 78 77 82 78 77 82 78 77 82 78 77 82 78 77 82 78 77 82 78 79 81 78 61 61 59 60 59 57 55 54 52 48 47 45 42 41 39 35 34 32 30 29 27 28 27 25 35 34 32 35 34 32 35 34 32 35 34 32 35 34 32 35 34 32 35 34 32 35 34 32 35 33 34 35 33 34 35 33 34 35 33 34 35 33 34 35 33 34 35 33 34 35 33 34 37 35 36 37 35 36 37 35 36 37 35 36 37 35 36 37 35 36 37 35 36 37 35 36
5 1 18 5 1 18 5 1 18 5 1 18 6 2 19 6 2 19 6 2 19 6 2 19 6 2 19 6 2 19 6 2 19 6 2 19 5 3 17 5 3 17 5 3 17 5 3 17 5 3 17 5 3 17 5 3 17 5 3 17 8 6 20 8 6 20 8 6 20 8 6 20 8 6 20 8 6 20 8 6 20 7 6 20 8 8 20 6 8 20 6 8 20 6 8 20 6 8 20 6 8 20 6 8 20 6 8 20 5 7 19 5 7 19 5 7 19 5 7 19 5 7 19 5 7 19 5 7 19 5 7 19 4 8 17 4 8 17 4 8 17 4 8 17 4 8 17 4 8 17 4 8 17 4 8 17 7 11 20 7 11 20 7 11 20 7 11 20 7 11 20 7 11 20 7 11 20 7 11 20 7 14 20 7 14 20 7 14 20 7 14 20 7 14 20 7 14 20 7 14 20 7 14 20 7 14 20 7 14 20 7 14 20 7 14 20 7 14 20 7 14 20 7 14 20 7 14 20 7 14 20 7 14 20 7 14 20 7 14 20 7 14 20 7 14 20 7 14 20 7 14 20 7 14 20 7 14 20 7 14 20 7 14 20 7 14 20 7 14 20 7 14 20 7 14 20 9 12 17 9 12 17 9 12 17 9 12 17 9 12 17 9 12 17 9 12 17 9 12 17 2 5 10 2 5 10 2 5 10 2 5 10 2 5 10 2 5 10 2 5 10 2 5 10 5 10 13 5 10 13 5 10 13 5 10 13 5 10 13 5 10 13 5 10 13 5 10 13 21 26 29 23 28 31 25 30 33 28 33 36 32 37 40 35 40 43 37 42 45 39 45 45 46 50 49 48 53 49 50 55 51 53 58 54 57 62 58 60 65 61 62 67 63 64 69 65 75 80 76 75 80 76 75 80 76 75 80 76 75 80 76 75 80 76 75 80 76 77 79 76 61 61 59 60 59 57 55 54 52 48 47 45 42 41 39 35 34 32 30 29 27 28 27 25 35 34 32 35 34 32 35 34 32 35 34 32 35 34 32 35 34 32 35 34 32 35 34 32 35 33 34 35 33 34 35 33 34 35 33 34 35 33 34 35 33 34 35 33 34 35 33 34 37 35 36 37 35 36 37 35 36 37 35 36 37 35 36 37 35 36 37 35 36 37 35 36
5 1 18 5 1 18 5 1 18 5 1 18 6 2 19 6 2 19 6 2 19 6 2 19 6 2 19 6 2 19 6 2 19 6 2 19 5 3 17 5 3 17 5 3 17 5 3 17 5 3 17 5 3 17 5 3 17 5 3 17 8 6 20 8 6 20 8 6 20 8 6 20 8 6 20 8 6 20 8 6 20 7 6 20 8 8 20 6 8 20 6 8 20 6 8 20 6 8 20 6 8 20 6 8 20 6 8 20 5 7 19 5 7 19 5 7 19 5 7 19 5 7 19 5 7 19 5 7 19 5 7 19 4 8 17 4 8 17 4 8 17 4 8 17 4 8 17 4 8 17 4 8 17 4 8 17 7 11 20 7 11 20 7 11 20 7 11 20 7 11 20 7 11 20 7 11 20 7 11 20 7 14 20 7 14 20 7 14 20 7 14 20 7 14 20 7 14 20 7 14 20 7 14 20 7 14 20 7 14 20 7 14 20 7 14 20 7 14 20 7 14 20 7 14 20 7 14 20 7 14 20 7 14 20 7 14 20 7 14 20 7 14 20 7 14 20 7 14 20 7 14 20 7 14 20 7 14 20 7 14 20 7 14 20 7 14 20 7 14 20 7 14 20 7 14 20 9 12 17 9 12 17 9 12 17 9 12 17 9 12 17 9 12 17 9 12 17 9 12 17 2 5 10 2 5 10 2 5 10 2 5 10 2 5 10 2 5 10 2 5 10 2 5 10 5 10 13 5 10 13 5 10 13 5 10 13 5 10 13 5 10 13 5 10 13 5 10 13 21 26 29 23 28 31 25 30 33 28 33 36 32 37 40 35 40 43 37 42 45 39 45 45 46 50 49 48 53 49 50 55 51 53 58 54 57 62 58 60 65 61 62 67 63 64 69 65 73 78 74 73 78 74 73 78 74 73 78 74 73 78 74 73 78 74 73 78 74 75 77 74 61 61 59 60 59 57 55 54 52 48 47 45 42 41 39 35 34 32 30 29 27 28 27 25 35 34 32 35 34 32 35 34 32 35 34 32 35 34 32 35 34 32 35 34 32 35 34 32 35 33 34 35 33 34 35 33 34 35 33 34 35 33 34 35 33 34 35 33 34 35 33 34 37 35 36 37 35 36 37 35 36 37 35 36 37 35 36 37 35 36 37 35 36 37 35 36
5 1 18 5 1 18 5 1 18 5 1 18 6 2 19 6 2 19 6 2 19 6 2 19 6 2 19 6 2 19 6 2 19 6 2 19 5 3 17 5 3 17 5 3 17 5 3 17 5 3 17 5 3 17 5 3 17 5 3 17 8 6 20 8 6 20 8 6 20 8 6 20 8 6 20 8 6 20 8 6 20 7 6 20 8 8 20 6 8 20 6 8 20 6 8 20 6 8 20 6 8 20 6 8 20 6 8 20 5 7 19 5 7 19 5 7 19 5 7 19 5 7 19 5 7 19 5 7 19 5 7 19 4 8 17 4 8 17 4 8 17 4 8 17 4 8 17 4 8 17 4 8 17 4 8 17 7 11 20 7 11 20 7 11 20 7 11 20 7 11 20 7 11 20 7 11 20 7 11 20 7 14 20 7 14 20 7 14 20 7 14 20 7 14 20 7 14 20 7 14 20 7 14 20 7 14 20 7 14 20 7 14 20 7 14 20 7 14 20 7 14 20 7 14 20 7 14 20 7 14 20 7 14 20 7 14 20 7 14 20 7 14 20 7 14 20 7 14 20 7 14 20 7 14 20 7 14 20 7 14 20 7 14 20 7 14 20 7 14 20 7 14 20 7 14 20 9 12 17 9 12 17 9 12 17 9 12 17 9 12 17 9 12 17 9 12 17 9 12 17 2 5 10 2 5 10 2 5 10 2 5 10 2 5 10 2 5 10 2 5 10 2 5 10 5 10 13 5 10 13 5 10 13 5 10 13 5 10 13 5 10 13 5 10 13 5 10 13 21 26 29 23 28 31 25 30 33 28 33 36 32 37 40 35 40 43 37 42 45 39 45 45 46 50 49 48 53 49 50 55 51 53 58 54 57 62 58 60 65 61 62 67 63 64 69 65 70 75 71 70 75 71 70 75 71 70 75 71 70 75 71 70 75 71 70 75 71 72 74 71 61 61 59 60 59 57 55 54 52 48 47 45 42 41 39 35 34 32 30 29 27 28 27 25 35 34 32 35 34 32 35 34 32 35 34 32 35 34 32 35 34 32 35 34 32 35 34 32 35 33 34 35 33 34 35 33 34 35 33 34 35 33 34 35 33 34 35 33 34 35 33 34 37 35 36 37 35 36 37 35 36 37 35 36 37 35 36 37 35 36 37 35 36 37 35 36
5 1 18 5 1 18 5 1 18 5 1 18 6 2 19 6 2 19 6 2 19 6 2 19 6 2 19 6 2 19 6 2 19 6 2 19 5 3 17 5 3 17 5 3 17 5 3 17 5 3 17 5 3 17 5 3 17 5 3 17 8 6 20 8 6 20 8 6 20 8 6 20 8 6 20 8 6 20 8 6 20 7 6 20 8 8 20 6 8 20 6 8 20 6 8 20 6 8 20 6 8 20 6 8 20 6 8 20 5 7 19 5 7 19 5 7 19 5 7 19 5 7 19 5 7 19 5 7 19 5 7 19 4 8 17 4 8 17 4 8 17 4 8 17 4 8 17 4 8 17 4 8 17 4 8 17 7 11 20 7 11 20 7 11 20 7 11 20 7 11 20 7 11 20 7 11 20 7 11 20 7 14 20 7 14 20 7 14 20 7 14 20 7 14 20 7 14 20 7 14 20 7 14 20 7 14 20 7 14 20 7 14 20 7 14 20 7 14 20 7 14 20 7 14 20 7 14 20 7 14 20 7 14 20 7 14 20 7 14 20 7 14 20 7 14 20 7 14 20 7 14 20 7 14 20 7 14 20 7 14 20 7 14 20 7 14 20 7 14 20 7 14 20 7 14 20 9 12 17 9 12 17 9 12 17 9 12 17 9 12 17 9 12 17 9 12 17 9 12 17 2 5 10 2 5 10 2 5 10 2 5 10 2 5 10 2 5 10 2 5 10 2 5 10 5 10 13 5 10 13 5 10 13 5 10 13 5 10 13 5 10 13 5 10 13 5 10 13 21 26 29 23 28 31 25 30 33 28 33 36 32 37 40 35 40 43 37 42 45 39 45 45 46 50 49 48 53 49 50 55 51 53 58 54 57 62 58 60 65 61 62 67 63 64 69 65 66 71 67 66 71 67 66 71 67 66 71 67 66 71 67 66 71 67 66 71 67 68 70 67 61 61 59 60 59 57 55 54 52 48 47 45 42 41 39 35 34 32 30 29 27 28 27 25 35 34 32 35 34 32 35 34 32 35 34 32 35 34 32 35 34 32 35 34 32 35 34 32 35 33 34 35 33 34 35 33 34 35 33 34 35 33 34 35 33 34 35 33 34 35 33 34 37 35 36 37 35 36 37 35 36 37 35 36 37 35 36 37 35 36 37 35 36 37 35 36
5 1 18 5 1 18 5 1 18 5 1 18 6 2 19 6 2 19 6 2 19 6 2 19 6 2 19 6 2 19 6 2 19 6 2 19 5 3 17 5 3 17 5 3 17 5 3 17 5 3 17 5 3 17 5 3 17 5 3 17 8 6 20 8 6 20 8 6 20 8 6 20 8 6 20 8 6 20 8 6 20 7 6 20 8 8 20 6 8 20 6 8 20 6 8 20 6 8 20 6 8 20 6 8 20 6 8 20 5 7 19 5 7 19 5 7 19 5 7 19 5 7 19 5 7 19 5 7 19 5 7 19 4 8 17 4 8 17 4 8 17 4 8 17 4 8 17 4 8 17 4 8 17 4 8 17 7 11 20 7 11 20 7 11 20 7 11 20 7 11 20 7 11 20 7 11 20 7 11 20 7 14 20 7 14 20 7 14 20 7 14 20 7 14 20 7 14 20 7 14 20 7 14 20 7 14 20 7 14 20 7 14 20 7 14 20 7 14 20 7 14 20 7 14 20 7 14 20 7 14 20 7 14 20 7 14 20 7 14 20 7 14 20 7 14 20 7 14 20 7 14 20 7 14 20 7 14 20 7 14 20 7 14 20 7 14 20 7 14 20 7 14 20 7 14 20 9 12 17 9 12 17 9 12 17 9 12 17 9 12 17 9 12 17 9 12 17 9 12 17 2 5 10 2 5 10 2 5 10 2 5 10 2 5 10 2 5 10 2 5 10 2 5 10 5 10 13 5 10 13 5 10 13 5 10 13 5 10 13 5 10 13 5 10 13 5 10 13 21 26 29 23 28 31 25 30 33 28 33 36 32 37 40 35 40 43 37 42 45 39 45 45 46 50 49 48 53 49 50 55 51 53 58 54 57 62 58 60 65 61 62 67 63 64 69 65 63 68 64 63 68 64 63 68 64 63 68 64 63 68 64 63 68 64 63 68 64 65 67 64 61 61 59 60 59 57 55 54 52 48 47 45 42 41 39 35 34 32 30 29 27 28 27 25 35 34 32 35 34 32 35 34 32 35 34 32 35 34 32 35 34 32 35 34 32 35 34 32 35 33 34 35 33 34 35 33 34 35 33 34 35 33 34 35 33 34 35 33 34 35 33 34 37 35 36 37 35 36 37 35 36 37 35 36 37 35 36 37 35 36 37 35 36 37 35 36
5 1 18 5 1 18 5 1 18 5 1 18 6 2 19 6 2 19 6 2 19 6 2 19 6 2 19 6 2 19 6 2 19 6 2 19 5 3 17 5 3 17 5 3 17 5 3 17 5 3 17 5 3 17 5 3 17 5 3 17 8 6 20 8 6 20 8 6 20 8 6 20 8 6 20 8 6 20 8 6 20 7 6 20 8 8 20 6 8 20 6 8 20 6 8 20 6 8 20 6 8 20 6 8 20 6 8 20 5 7 19 5 7 19 5 7 19 5 7 19 5 7 19 5 7 19 5 7 19 5 7 19 4 8 17 4 8 17 4 8 17 4 8 17 4 8 17 4 8 17 4 8 17 4 8 17 7 11 20 7 11 20 7 11 20 7 11 20 7 11 20 7 11 20 7 11 20 7 11 20 7 14 20 7 14 20 7 14 20 7 14 20 7 14 20 7 14 20 7 14 20 7 14 20 7 14 20 7 14 20 7 14 20 7 14 20 7 14 20 7 14 20 7 14 20 7 14 20 7 14 20 7 14 20 7 14 20 7 14 20 7 14 20 7 14 20 7 14 20 7 14 20 7 14 20 7 14 20 7 14 20 7 14 20 7 14 20 7 14 20 7 14 20 7 14 20 9 12 17 9 12 17 9 12 17 9 12 17 9 12 17 9 12 17 9 12 17 9 12 17 2 5 10 2 5 10 2 5 10 2 5 10 2 5 10 2 5 10 2 5 10 2 5 10 5 10 13 5 10 13 5 10 13 5 10 13 5 10 13 5 10 13 5 10 13 5 10 13 21 26 29 23 28 31 25 30 33 28 33 36 32 37 40 35 40 43 37 42 45 39 45 45 46 50 49 48 53 49 50 55 51 53 58 54 57 62 58 60 65 61 62 67 63 64 69 65 61 66 62 61 66 62 61 66 62 61 66 62 61 66 62 61 66 62 61 66 62 63 65 62 61 61 59 60 59 57 55 54 52 48 47 45 42 41 39 35 34 32 30 29 27 28 27 25 35 34 32 35 34 32 35 34 32 35 34 32 35 34 32 35 34 32 35 34 32 35 34 32 35 33 34 35 33 34 35 33 34 35 33 34 35 33 34 35 33 34 35 33 34 35 33 34 37 35 36 37 35 36 37 35 36 37 35 36 37 35 36 37 35 36 37 35 36 37 35 36
5 1 18 5 1 16 5 1 18 5 1 16 6 2 19 6 2 17 6 2 19 6 2 17 6 2 19 6 2 17 6 2 19 5 3 17 5 3 17 4 3 17 5 3 17 4 3 17 5 3 17 4 3 17 5 3 17 4 3 17 8 6 20 7 6 20 8 6 20 7 6 20 8 6 20 7 6 20 8 6 20 7 7 19 6 8 20 6 9 18 6 8 20 6 9 18 6 8 20 6 9 18 6 8 20 6 9 18 5 7 19 5 8 17 5 7 19 5 8 17 5 7 19 5 8 17 5 7 19 5 8 17 4 8 17 4 8 17 4 8 17 4 8 17 4 8 17 4 8 17 4 8 17 4 8 17 7 11 20 7 11 20 7 11 20 7 11 20 7 11 20 7 11 20 7 11 20 7 11 20 7 14 20 7 14 20 7 14 20 7 14 20 7 14 20 7 14 20 7 14 20 7 14 20 7 14 20 7 14 20 7 14 20 7 14 20 7 14 20 7 14 20 7 14 20 7 14 20 7 14 20 7 14 20 7 14 20 7 14 20 7 14 20 7 14 20 7 14 20 7 14 20 7 14 20 7 14 20 7 14 20 7 14 20 7 14 20 7 14 20 7 14 20 7 14 20 8 13 17 8 13 17 9 12 17 8 13 17 9 12 17 8 13 17 9 12 17 8 13 17 2 5 10 1 6 10 2 5 10 1 6 10 2 5 10 1 6 10 2 5 10 1 6 10 5 10 13 5 10 13 5 10 13 5 10 13 5 10 13 5 10 13 5 10 13 5 10 13 21 26 29 23 28 31 25 30 33 28 33 36 32 37 40 35 40 43 37 42 45 39 45 45 46 50 49 48 53 49 50 55 51 53 58 54 57 62 58 60 65 61 62 67 63 64 69 65 59 64 60 59 64 60 59 64 60 59 64 60 59 64 60 59 64 60 59 64 60 61 63 60 61 61 59 60 59 57 55 54 52 48 47 45 42 41 39 35 34 32 30 29 27 28 27 25 35 34 32 35 34 32 35 34 32 35 34 32 35 34 32 35 34 32 35 34 32 35 34 32 35 33 34 35 33 34 37 33 34 35 33 34 37 33 34 35 33 34 37 33 34 35 33 34 39 35 36 37 35 36 39 35 36 37 35 36 39 35 36 37 35 36 39 35 36 37 35 36
4 2 16 4 2 15 4 2 16 4 2 15 5 3 17 5 3 16 5 3 17 5 3 16 5 3 17 5 3 16 5 3 17 5 3 16 5 5 17 3 5 17 5 5 17 3 5 17 5 5 17 3 5 17 5 5 17 3 5 17 6 6 18 4 6 18 6 6 18 4 6 18 6 6 18 4 6 18 6 6 18 4 6 18 3 6 15 3 6 13 3 6 15 3 6 13 3 6 15 3 6 13 3 6 15 3 6 13 3 6 15 3 6 13 3 6 15 3 6 13 3 6 15 3 6 13 3 6 15 3 6 15 4 7 16 4 7 16 4 7 16 4 7 16 4 7 16 4 7 16 4 7 16 4 7 16 7 10 19 7 10 19 7 10 19 7 10 19 7 10 19 7 10 19 7 10 19 6 10 19 7 14 20 7 14 20 7 14 20 7 14 20 7 14 20 7 14 20 7 14 20 7 14 20 7 14 20 7 14 20 7 14 20 7 14 20 7 14 20 7 14 20 7 14 20 7 14 20 14 22 25 13 21 24 9 17 20 5 13 16 0 8 11 0 4 7 0 2 5 0 2 5 8 16 19 8 16 19 8 16 19 8 16 19 8 16 19 8 16 19 8 16 19 8 16 19 0 8 11 1 9 12 7 12 16 9 17 20 16 21 25 18 26 29 24 29 33 24 32 35 18 23 27 14 22 25 14 19 23 9 17 20 7 12 16 2 10 13 2 7 11 0 6 9 4 12 15 4 12 15 4 12 15 4 12 15 4 12 15 4 12 15 4 12 15 4 12 15 15 23 26 17 25 28 19 27 30 22 30 33 26 34 37 29 37 40 31 39 42 35 40 43 43 47 48 43 47 46 43 47 46 43 47 46 43 47 46 43 47 46 43 47 46 43 47 46 55 59 58 55 59 58 55 59 58 55 59 58 55 59 58 55 59 58 55 59 58 57 59 58 46 45 43 46 42 41 44 40 39 41 37 36 37 33 32 34 30 29 32 28 27 30 26 25 35 31 30 35 31 30 35 31 30 35 31 30 35 31 30 35 31 30 35 31 30 35 31 30 36 32 31 36 32 31 37 31 31 36 32 31 37 31 31 36 32 31 37 31 31 36 32 31 38 32 32 37 33 32 38 32 32 37 33 32 38 32 32 37 33 32 38 32 32 37 33 32
4 2 15 4 2 15 4 2 15 4 2 15 5 3 16 5 3 16 5 3 16 5 3 16 5 3 16 5 3 16 5 3 16 4 4 16 5 5 17 3 5 17 3 5 17 3 5 17 3 5 17 3 5 17 3 5 17 3 5 17 4 6 18 4 6 18 4 6 18 4 6 18 4 6 18 4 6 18 4 6 18 4 7 16 3 6 15 3 6 13 3 6 13 3 6 13 3 6 13 3 6 13 3 6 13 3 6 13 3 6 13 3 6 13 3 6 13 3 6 13 3 6 13 3 6 13 3 6 13 3 6 13 4 7 16 4 7 16 4 7 16 4 7 16 4 7 16 4 7 16 4 7 16 4 7 16 7 10 19 7 10 19 7 10 19 7 10 19 7 10 19 7 10 19 7 10 19 6 10 19 9 14 20 7 14 20 7 14 20 7 14 20 7 14 20 7 14 20 7 14 20 7 14 20 7 14 20 7 14 20 7 14 20 7 14 20 7 14 20 7 14 20 7 14 20 7 14 20 14 22 25 12 20 23 9 17 20 6 14 17 2 10 13 0 6 9 0 3 6 0 2 5 10 18 21 10 18 21 10 18 21 10 18 21 10 18 21 10 18 21 10 18 21 10 18 21 4 12 15 6 14 17 9 17 20 12 20 23 16 24 27 20 28 31 23 31 34 24 32 35 16 24 27 14 22 25 12 20 23 9 17 20 5 13 16 2 10 13 0 8 11 0 6 9 4 12 15 4 12 15 4 12 15 4 12 15 4 12 15 4 12 15 4 12 15 4 12 15 15 23 26 17 25 28 19 27 30 22 30 33 26 34 37 29 37 40 31 39 42 33 41 43 43 47 48 43 47 46 43 47 46 43 47 46 43 47 46 43 47 46 43 47 46 43 47 46 53 57 56 53 57 56 53 57 56 53 57 56 53 57 56 53 57 56 53 57 56 55 57 56 46 45 43 46 42 41 44 40 39 41 37 36 37 33 32 34 30 29 32 28 27 30 26 25 35 31 30 35 31 30 35 31 30 35 31 30 35 31 30 35 31 30 35 31 30 35 31 30 37 31 31 37 31 31 37 31 31 37 31 31 37 31 31 37 31 31 37 31 31 37 31 31 38 32 32 38 32 32 38 32 32 38 32 32 38 32 32 38 32 32 38 32 32 38 32 32
4 2 15 4 2 15 4 2 15 4 2 15 5 3 16 5 3 16 5 3 16 5 3 16 5 3 16 5 3 16 5 3 16 4 4 16 5 5 17 3 5 17 3 5 17 3 5 17 3 5 17 3 5 17 3 5 17 3 5 17 4 6 18 4 6 18 4 6 18 4 6 18 4 6 18 4 6 18 4 6 18 4 7 16 3 6 15 3 6 13 3 6 13 3 6 13 3 6 13 3 6 13 3 6 13 3 6 13 3 6 13 3 6 13 3 6 13 3 6 13 3 6 13 3 6 13 3 6 13 3 6 13 4 7 16 4 7 16 4 7 16 4 7 16 4 7 16 4 7 16 4 7 16 4 7 16 7 10 19 7 10 19 7 10 19 7 10 19 7 10 19 7 10 19 7 10 19 6 10 19 9 14 20 7 14 20 7 14 20 7 14 20 7 14 20 7 14 20 7 14 20 7 14 20 7 14 20 7 14 20 7 14 20 7 14 20 7 14 20 7 14 20 7 14 20 7 14 20 13 21 24 12 20 23 10 18 21 7 15 18 5 13 16 2 10 13 0 8 11 0 7 10 15 23 26 15 23 26 15 23 26 15 23 26 15 23 26 15 23 26 15 23 26 15 23 26 12 20 23 13 21 24 15 23 26 18 26 29 21 29 32 23 31 34 25 33 36 26 34 37 16 24 27 14 22 25 12 20 23 9 17 20 5 13 16 2 10 13 0 8 11 0 6 9 4 12 15 4 12 15 4 12 15 4 12 15 4 12 15 4 12 15 4 12 15 4 12 15 15 23 26 17 25 28 19 27 30 22 30 33 26 34 37 29 37 40 31 39 42 33 41 43 43 47 48 43 47 46 43 47 46 43 47 46 43 47 46 43 47 46 43 47 46 43 47 46 51 55 54 51 55 54 51 55 54 51 55 54 51 55 54 51 55 54 51 55 54 53 55 54 46 45 43 46 42 41 44 40 39 41 37 36 37 33 32 34 30 29 32 28 27 30 26 25 35 31 30 35 31 30 35 31 30 35 31 30 35 31 30 35 31 30 35 31 30 35 31 30 37 31 31 37 31 31 37 31 31 37 31 31 37 31 31 37 31 31 37 31 31 37 31 31 38 32 32 38 32 32 38 32 32 38 32 32 38 32 32 38 32 32 38 32 32 38 32 32
4 2 15 4 2 15 4 2 15 4 2 15 5 3 16 5 3 16 5 3 16 5 3 16 5 3 16 5 3 16 5 3 16 4 4 16 5 5 17 3 5 17 3 5 17 3 5 17 3 5 17 3 5 17 3 5 17 3 5 17 4 6 18 4 6 18 4 6 18 4 6 18 4 6 18 4 6 18 4 6 18 4 7 16 3 6 15 3 6 13 3 6 13 3 6 13 3 6 13 3 6 13 3 6 13 3 6 13 3 6 13 3 6 13 3 6 13 3 6 13 3 6 13 3 6 13 3 6 13 3 6 13 4 7 16 4 7 16 4 7 16 4 7 16 4 7 16 4 7 16 4 7 16 4 7 16 7 10 19 7 10 19 7 10 19 7 10 19 7 10 19 7 10 19 7 10 19 6 10 19 9 14 20 7 14 20 7 14 20 7 14 20 7 14 20 7 14 20 7 14 20 7 14 20 7 14 20 7 14 20 7 14 20 7 14 20 7 14 20 7 14 20 7 14 20 7 14 20 12 20 23 11 19 22 11 19 22 10 18 21 9 17 20 8 16 19 7 15 18 7 15 18 22 30 33 22 30 33 22 30 33 22 30 33 22 30 33 22 30 33 22 30 33 22 30 33 23 31 34 24 32 35 24 32 35 25 33 36 26 34 37 27 35 38 28 36 39 28 36 39 16 24 27 14 22 25 12 20 23 9 17 20 5 13 16 2 10 13 0 8 11 0 6 9 4 12 15 4 12 15 4 12 15 4 12 15 4 12 15 4 12 15 4 12 15 4 12 15 15 23 26 17 25 28 19 27 30 22 30 33 26 34 37 29 37 40 31 39 42 33 41 43 43 47 48 43 47 46 43 47 46 43 47 46 43 47 46 43 47 46 43 47 46 43 47 46 48 52 51 48 52 51 48 52 51 48 52 51 48 52 51 48 52 51 48 52 51 50 52 51 46 45 43 46 42 41 44 40 39 41 37 36 37 33 32 34 30 29 32 28 27 30 26 25 35 31 30 35 31 30 35 31 30 35 31 30 35 31 30 35 31 30 35 31 30 35 31 30 37 31 31 37 31 31 37 31 31 37 31 31 37 31 31 37 31 31 37 31 31 37 31 31 38 32 32 38 32 32 38 32 32 38 32 32 38 32 32 38 32 32 38 32 32 38 32 32
4 2 15 4 2 15 4 2 15 4 2 15 5 3 16 5 3 16 5 3 16 5 3 16 5 3 16 5 3 16 5 3 16 4 4 16 5 5 17 3 5 17 3 5 17 3 5 17 3 5 17 3 5 17 3 5 17 3 5 17 4 6 18 4 6 18 4 6 18 4 6 18 4 6 18 4 6 18 4 6 18 4 7 16 3 6 15 3 6 13 3 6 13 3 6 13 3 6 13 3 6 13 3 6 13 3 6 13 3 6 13 3 6 13 3 6 13 3 6 13 3 6 13 3 6 13 3 6 13 3 6 13 4 7 16 4 7 16 4 7 16 4 7 16 4 7 16 4 7 16 4 7 16 4 7 16 7 10 19 7 10 19 7 10 19 7 10 19 7 10 19 7 10 19 7 10 19 6 10 19 9 14 20 7 14 20 7 14 20 7 14 20 7 14 20 7 14 20 7 14 20 7 14 20 7 14 20 7 14 20 7 14 20 7 14 20 7 14 20 7 14 20 7 14 20 7 14 20 10 18 21 11 19 22 11 19 22 12 20 23 13 21 24 14 22 25 15 23 26 15 23 26 28 36 39 28 36 39 28 36 39 28 36 39 28 36 39 28 36 39 28 36 39 28 36 39 35 43 46 34 42 45 34 42 45 33 41 44 32 40 43 31 39 42 30 38 41 30 38 41 16 24 27 14 22 25 12 20 23 9 17 20 5 13 16 2 10 13 0 8 11 0 6 9 4 12 15 4 12 15 4 12 15 4 12 15 4 12 15 4 12 15 4 12 15 4 12 15 15 23 26 17 25 28 19 27 30 22 30 33 26 34 37 29 37 40 31 39 42 33 41 43 43 47 48 43 47 46 43 47 46 43 47 46 43 47 46 43 47 46 43 47 46 43 47 46 44 48 47 44 48 47 44 48 47 44 48 47 44 48 47 44 48 47 44 48 47 46 48 47 46 45 43 46 42 41 44 40 39 41 37 36 37 33 32 34 30 29 32 28 27 30 26 25 35 31 30 35 31 30 35 31 30 35 31 30 35 31 30 35 31 30 35 31 30 35 31 30 37 31 31 37 31 31 37 31 31 37 31 31 37 31 31 37 31 31 37 31 31 37 31 31 38 32 32 38 32 32 38 32 32 38 32 32 38 32 32 38 32 32 38 32 32 38 32 32
4 2 15 4 2 15 4 2 15 4 2 15 5 3 16 5 3 16 5 3 16 5 3 16 5 3 16 5 3 16 5 3 16 4 4 16 5 5 17 3 5 17 3 5 17 3 5 17 3 5 17 3 5 17 3 5 17 3 5 17 4 6 18 4 6 18 4 6 18 4 6 18 4 6 18 4 6 18 4 6 18 4 7 16 3 6 15 3 6 13 3 6 13 3 6 13 3 6 13 3 6 13 3 6 13 3 6 13 3 6 13 3 6 13 3 6 13 3 6 13 3 6 13 3 6 13 3 6 13 3 6 13 4 7 16 4 7 16 4 7 16 4 7 16 4 7 16 4 7 16 4 7 16 4 7 16 7 10 19 7 10 19 7 10 19 7 10 19 7 10 19 7 10 19 7 10 19 6 10 19 9 14 20 7 14 20 7 14 20 7 14 20 7 14 20 7 14 20 7 14 20 7 14 20 7 14 20 7 14 20 7 14 20 7 14 20 7 14 20 7 14 20 7 14 20 7 14 20 9 17 20 10 18 21 12 20 23 15 23 26 17 25 28 20 28 31 22 30 33 23 31 34 35 43 46 35 43 46 35 43 46 35 43 46 35 43 46 35 43 46 35 43 46 35 43 46 46 54 57 45 53 56 43 51 54 40 48 51 37 45 48 35 43 46 33 41 44 32 40 43 16 24 27 14 22 25 12 20 23 9 17 20 5 13 16 2 10 13 0 8 11 0 6 9 4 12 15 4 12 15 4 12 15 4 12 15 4 12 15 4 12 15 4 12 15 4 12 15 15 23 26 17 25 28 19 27 30 22 30 33 26 34 37 29 37 40 31 39 42 33 41 43 43 47 48 43 47 46 43 47 46 43 47 46 43 47 46 43 47 46 43 47 46 43 47 46 41 45 44 41 45 44 41 45 44 41 45 44 41 45 44 41 45 44 41 45 44 43 45 44 46 45 43 46 42 41 44 40 39 41 37 36 37 33 32 34 30 29 32 28 27 30 26 25 35 31 30 35 31 30 35 31 30 35 31 30 35 31 30 35 31 30 35 31 30 35 31 30 37 31 31 37 31 31 37 31 31 37 31 31 37 31 31 37 31 31 37 31 31 37 31 31 38 32 32 38 32 32 38 32 32 38 32 32 38 32 32 38 32 32 38 32 32 38 32 32
4 2 15 4 2 15 4 2 15 4 2 15 5 3 16 5 3 16 5 3 16 5 3 16 5 3 16 5 3 16 5 3 16 4 4 16 5 5 17 3 5 17 3 5 17 3 5 17 3 5 17 3 5 17 3 5 17 3 5 17 4 6 18 4 6 18 4 6 18 4 6 18 4 6 18 4 6 18 4 6 18 4 7 16 3 6 15 3 6 13 3 6 13 3 6 13 3 6 13 3 6 13 3 6 13 3 6 13 3 6 13 3 6 13 3 6 13 3 6 13 3 6 13 3 6 13 3 6 13 3 6 13 4 7 16 4 7 16 4 7 16 4 7 16 4 7 16 4 7 16 4 7 16 4 7 16 7 10 19 7 10 19 7 10 19 7 10 19 7 10 19 7 10 19 7 10 19 6 10 19 9 14 20 7 14 20 7 14 20 7 14 20 7 14 20 7 14 20 7 14 20 7 14 20 7 14 20 7 14 20 7 14 20 7 14 20 7 14 20 7 14 20 7 14 20 7 14 20 8 16 19 10 18 21 13 21 24 16 24 27 20 28 31 24 32 35 27 35 38 29 37 40 40 48 51 40 48 51 40 48 51 40 48 51 40 48 51 40 48 51 40 48 51 40 48 51 54 62 65 52 60 63 49 57 60 46 54 57 42 50 53 38 46 49 35 43 46 34 42 45 16 24 27 14 22 25 12 20 23 9 17 20 5 13 16 2 10 13 0 8 11 0 6 9 4 12 15 4 12 15 4 12 15 4 12 15 4 12 15 4 12 15 4 12 15 4 12 15 15 23 26 17 25 28 19 27 30 22 30 33 26 34 37 29 37 40 31 39 42 33 41 43 43 47 48 43 47 46 43 47 46 43 47 46 43 47 46 43 47 46 43 47 46 43 47 46 39 43 42 39 43 42 39 43 42 39 43 42 39 43 42 39 43 42 39 43 42 41 43 42 46 45 43 46 42 41 44 40 39 41 37 36 37 33 32 34 30 29 32 28 27 30 26 25 35 31 30 35 31 30 35 31 30 35 31 30 35 31 30 35 31 30 35 31 30 35 31 30 37 31 31 37 31 31 37 31 31 37 31 31 37 31 31 37 31 31 37 31 31 37 31 31 38 32 32 38 32 32 38 32 32 38 32 32 38 32 32 38 32 32 38 32 32 38 32 32
4 2 15 4 2 15 4 2 15 4 2 15 5 3 16 5 3 16 5 3 16 5 3 16 5 3 16 5 3 16 5 3 16 4 4 16 5 5 17 3 5 17 3 5 17 3 5 17 3 5 17 3 5 17 3 5 17 3 5 17 4 6 18 4 6 18 4 6 18 4 6 18 4 6 18 4 6 18 4 6 18 4 7 16 3 6 15 3 6 13 3 6 13 3 6 13 3 6 13 3 6 13 3 6 13 3 6 13 3 6 13 3 6 13 3 6 13 3 6 13 3 6 13 3 6 13 3 6 13 3 6 13 4 7 16 4 7 16 4 7 16 4 7 16 4 7 16 4 7 16 4 7 16 4 7 16 7 10 19 7 10 19 7 10 19 7 10 19 7 10 19 7 10 19 7 10 19 6 10 19 9 14 20 7 14 20 7 14 20 7 14 20 7 14 20 7 14 20 7 14 20 7 14 20 7 14 20 7 14 20 7 14 20 7 14 20 7 14 20 7 14 20 7 14 20 7 14 20 8 16 19 9 17 20 13 21 24 17 25 28 22 30 33 26 34 37 30 38 41 32 40 43 42 50 53 42 50 53 42 50 53 42 50 53 42 50 53 42 50 53 42 50 53 42 50 53 58 66 69 57 65 68 53 61 64 49 57 60 44 52 55 40 48 51 36 44 47 34 42 45 16 24 27 14 22 25 12 20 23 9 17 20 5 13 16 2 10 13 0 8 11 0 6 9 4 12 15 4 12 15 4 12 15 4 12 15 4 12 15 4 12 15 4 12 15 4 12 15 15 23 26 17 25 28 19 27 30 22 30 33 26 34 37 29 37 40 31 39 42 33 41 43 43 47 48 43 47 46 43 47 46 43 47 46 43 47 46 43 47 46 43 47 46 43 47 46 37 41 40 37 41 40 37 41 40 37 41 40 37 41 40 37 41 40 37 41 40 39 41 40 46 45 43 46 42 41 44 40 39 41 37 36 37 33 32 34 30 29 32 28 27 30 26 25 35 31 30 35 31 30 35 31 30 35 31 30 35 31 30 35 31 30 35 31 30 35 31 30 37 31 31 37 31 31 37 31 31 37 31 31 37 31 31 37 31 31 37 31 31 37 31 31 38 32 32 38 32 32 38 32 32 38 32 32 38 32 32 38 32 32 38 32 32 38 32 32
5 3 16 5 3 16 5 3 16 5 3 16 4 2 15 4 2 15 4 2 15 4 2 15 4 2 15 4 2 15 4 2 15 3 3 15 5 5 17 3 5 17 3 5 17 3 5 17 3 5 17 3 5 17 3 5 17 3 5 17 2 4 16 2 4 16 2 4 16 2 4 16 2 4 16 2 4 16 2 4 16 2 5 14 3 6 15 3 6 13 3 6 13 3 6 13 3 6 13 3 6 13 3 6 13 3 6 13 5 8 15 5 8 15 5 8 15 5 8 15 5 8 15 5 8 15 5 8 15 5 8 15 4 7 16 4 7 16 4 7 16 4 7 16 4 7 16 4 7 16 4 7 16 4 7 16 7 10 19 7 10 19 7 10 19 7 10 19 7 10 19 7 10 19 7 10 19 6 10 19 12 17 23 10 17 23 10 17 23 10 17 23 10 17 23 10 17 23 10 17 23 10 17 23 0 1 7 0 3 9 0 5 11 1 8 14 5 12 18 8 15 21 10 17 23 12 19 25 27 35 38 30 38 41 36 44 47 43 51 54 51 59 62 59 67 70 65 73 76 68 76 79 51 59 62 51 59 62 51 59 62 51 59 62 51 59 62 51 59 62 51 59 62 51 59 62 47 55 58 46 54 57 43 51 54 40 48 51 37 45 48 33 41 44 31 39 42 30 38 41 21 29 32 19 27 30 17 25 28 14 22 25 10 18 21 7 15 18 5 13 16 3 11 14 9 17 20 9 17 20 9 17 20 9 17 20 9 17 20 9 17 20 9 17 20 9 17 20 22 30 33 22 30 33 22 30 33 22 30 33 22 30 33 22 30 33 22 30 33 22 30 32 31 35 36 31 35 34 31 35 34 31 35 34 31 35 34 31 35 34 31 35 34 31 35 34 31 35 34 31 35 34 31 35 34 31 35 34 31 35 34 31 35 34 31 35 34 33 35 34 31 30 28 33 29 28 33 29 28 33 29 28 33 29 28 33 29 28 33 29 28 33 29 28 35 31 30 35 31 30 35 31 30 35 31 30 35 31 30 35 31 30 35 31 30 35 31 30 35 29 29 35 29 29 35 29 29 35 29 29 35 29 29 35 29 29 35 29 29 35 29 29 38 32 32 38 32 32 38 32 32 38 32 32 38 32 32 38 32 32 38 32 32 38 32 32
5 3 16 5 3 16 5 3 16 5 3 16 4 2 15 4 2 15 4 2 15 4 2 15 4 2 15 4 2 15 4 2 15 3 3 15 5 5 17 3 5 17 3 5 17 3 5 17 3 5 17 3 5 17 3 5 17 3 5 17 2 4 16 2 4 16 2 4 16 2 4 16 2 4 16 2 4 16 2 4 16 2 5 14 3 6 15 3 6 13 3 6 13 3 6 13 3 6 13 3 6 13 3 6 13 3 6 13 5 8 15 5 8 15 5 8 15 5 8 15 5 8 15 5 8 15 5 8 15 5 8 15 4 7 16 4 7 16 4 7 16 4 7 16 4 7 16 4 7 16 4 7 16 4 7 16 7 10 19 7 10 19 7 10 19 7 10 19 7 10 19 7 10 19 7 10 19 6 10 19 12 17 23 10 17 23 10 17 23 10 17 23 10 17 23 10 17 23 10 17 23 10 17 23 0 5 11 0 7 13 2 9 15 5 12 18 9 16 22 12 19 25 14 21 27 16 23 29 30 38 41 33 41 44 38 46 49 45 53 56 52 60 63 59 67 70 65 73 76 68 76 79 53 61 64 53 61 64 53 61 64 53 61 64 53 61 64 53 61 64 53 61 64 53 61 64 48 56 59 47 55 58 45 53 56 41 49 52 38 46 49 35 43 46 32 40 43 31 39 42 21 29 32 19 27 30 17 25 28 14 22 25 10 18 21 7 15 18 5 13 16 3 11 14 9 17 20 9 17 20 9 17 20 9 17 20 9 17 20 9 17 20 9 17 20 9 17 20 22 30 33 22 30 33 22 30 33 22 30 33 22 30 33 22 30 33 22 30 33 22 30 32 31 35 36 31 35 34 31 35 34 31 35 34 31 35 34 31 35 34 31 35 34 31 35 34 31 35 34 31 35 34 31 35 34 31 35 34 31 35 34 31 35 34 31 35 34 33 35 34 31 30 28 33 29 28 33 29 28 33 29 28 33 29 28 33 29 28 33 29 28 33 29 28 35 31 30 35 31 30 35 31 30 35 31 30 35 31 30 35 31 30 35 31 30 35 31 30 35 29 29 35 29 29 35 29 29 35 29 29 35 29 29 35 29 29 35 29 29 35 29 29 38 32 32 38 32 32 38 32 32 38 32 32 38 32 32 38 32 32 38 32 32 38 32 32
5 3 16 5 3 16 5 3 16 5 3 16 4 2 15 4 2 15 4 2 15 4 2 15 4 2 15 4 2 15 4 2 15 3 3 15 5 5 17 3 5 17 3 5 17 3 5 17 3 5 17 3 5 17 3 5 17 3 5 17 2 4 16 2 4 16 2 4 16 2 4 16 2 4 16 2 4 16 2 4 16 2 5 14 3 6 15 3 6 13 3 6 13 3 6 13 3 6 13 3 6 13 3 6 13 3 6 13 5 8 15 5 8 15 5 8 15 5 8 15 5 8 15 5 8 15 5 8 15 5 8 15 4 7 16 4 7 16 4 7 16 4 7 16 4 7 16 4 7 16 4 7 16 4 7 16 7 10 19 7 10 19 7 10 19 7 10 19 7 10 19 7 10 19 7 10 19 6 10 19 12 17 23 10 17 23 10 17 23 10 17 23 10 17 23 10 17 23 10 17 23 10 17 23 6 13 19 7 14 20 9 16 22 13 20 26 16 23 29 19 26 32 22 29 35 23 30 36 36 44 47 38 46 49 42 50 53 48 56 59 54 62 65 60 68 71 64 72 75 67 75 78 55 63 66 55 63 66 55 63 66 55 63 66 55 63 66 55 63 66 55 63 66 55 63 66 51 59 62 49 57 60 47 55 58 44 52 55 40 48 51 37 45 48 35 43 46 33 41 44 21 29 32 19 27 30 17 25 28 14 22 25 10 18 21 7 15 18 5 13 16 3 11 14 9 17 20 9 17 20 9 17 20 9 17 20 9 17 20 9 17 20 9 17 20 9 17 20 22 30 33 22 30 33 22 30 33 22 30 33 22 30 33 22 30 33 22 30 33 22 30 32 31 35 36 31 35 34 31 35 34 31 35 34 31 35 34 31 35 34 31 35 34 31 35 34 31 35 34 31 35 34 31 35 34 31 35 34 31 35 34 31 35 34 31 35 34 33 35 34 31 30 28 33 29 28 33 29 28 33 29 28 33 29 28 33 29 28 33 29 28 33 29 28 35 31 30 35 31 30 35 31 30 35 31 30 35 31 30 35 31 30 35 31 30 35 31 30 35 29 29 35 29 29 35 29 29 35 29 29 35 29 29 35 29 29 35 29 29 35 29 29 38 32 32 38 32 32 38 32 32 38 32 32 38 32 32 38 32 32 38 32 32 38 32 32
5 3 16 5 3 16 5 3 16 5 3 16 4 2 15 4 2 15 4 2 15 4 2 15 4 2 15 4 2 15 4 2 15 3 3 15 5 5 17 3 5 17 3 5 17 3 5 17 3 5 17 3 5 17 3 5 17 3 5 17 2 4 16 2 4 16 2 4 16 2 4 16 2 4 16 2 4 16 2 4 16 2 5 14 3 6 15 3 6 13 3 6 13 3 6 13 3 6 13 3 6 13 3 6 13 3 6 13 5 8 15 5 8 15 5 8 15 5 8 15 5 8 15 5 8 15 5 8 15 5 8 15 4 7 16 4 7 16 4 7 16 4 7 16 4 7 16 4 7 16 4 7 16 4 7 16 7 10 19 7 10 19 7 10 19 7 10 19 7 10 19 7 10 19 7 10 19 6 10 19 12 17 23 10 17 23 10 17 23 10 17 23 10 17 23 10 17 23 10 17 23 10 17 23 15 22 28 16 23 29 19 26 32 22 29 35 26 33 39 29 36 42 31 38 44 32 39 45 43 51 54 45 53 56 48 56 59 52 60 63 56 64 67 61 69 72 64 72 75 65 73 76 58 66 69 58 66 69 58 66 69 58 66 69 58 66 69 58 66 69 58 66 69 58 66 69 54 62 65 53 61 64 50 58 61 47 55 58 44 52 55 40 48 51 38 46 49 37 45 48 21 29 32 19 27 30 17 25 28 14 22 25 10 18 21 7 15 18 5 13 16 3 11 14 9 17 20 9 17 20 9 17 20 9 17 20 9 17 20 9 17 20 9 17 20 9 17 20 22 30 33 22 30 33 22 30 33 22 30 33 22 30 33 22 30 33 22 30 33 22 30 32 31 35 36 31 35 34 31 35 34 31 35 34 31 35 34 31 35 34 31 35 34 31 35 34 31 35 34 31 35 34 31 35 34 31 35 34 31 35 34 31 35 34 31 35 34 33 35 34 31 30 28 33 29 28 33 29 28 33 29 28 33 29 28 33 29 28 33 29 28 33 29 28 35 31 30 35 31 30 35 31 30 35 31 30 35 31 30 35 31 30 35 31 30 35 31 30 35 29 29 35 29 29 35 29 29 35 29 29 35 29 29 35 29 29 35 29 29 35 29 29 38 32 32 38 32 32 38 32 32 38 32 32 38 32 32 38 32 32 38 32 32 38 32 32
5 3 16 5 3 16 5 3 16 5 3 16 4 2 15 4 2 15 4 2 15 4 2 15 4 2 15 4 2 15 4 2 15 3 3 15 5 5 17 3 5 17 3 5 17 3 5 17 3 5 17 3 5 17 3 5 17 3 5 17 2 4 16 2 4 16 2 4 16 2 4 16 2 4 16 2 4 16 2 4 16 2 5 14 3 6 15 3 6 13 3 6 13 3 6 13 3 6 13 3 6 13 3 6 13 3 6 13 5 8 15 5 8 15 5 8 15 5 8 15 5 8 15 5 8 15 5 8 15 5 8 15 4 7 16 4 7 16 4 7 16 4 7 16 4 7 16 4 7 16 4 7 16 4 7 16 7 10 19 7 10 19 7 10 19 7 10 19 7 10 19 7 10 19 7 10 19 6 10 19 12 17 23 10 17 23 10 17 23 10 17 23 10 17 23 10 17 23 10 17 23 10 17 23 26 33 39 27 34 40 29 36 42 32 39 45 36 43 49 39 46 52 42 49 55 43 50 56 51 59 62 52 60 63 54 62 65 56 64 67 59 67 70 61 69 72 63 71 74 64 72 75 62 70 73 62 70 73 62 70 73 62 70 73 62 70 73 62 70 73 62 70 73 62 70 73 57 65 68 56 64 67 54 62 65 50 58 61 47 55 58 44 52 55 41 49 52 40 48 51 21 29 32 19 27 30 17 25 28 14 22 25 10 18 21 7 15 18 5 13 16 3 11 14 9 17 20 9 17 20 9 17 20 9 17 20 9 17 20 9 17 20 9 17 20 9 17 20 22 30 33 22 30 33 22 30 33 22 30 33 22 30 33 22 30 33 22 30 33 22 30 32 31 35 36 31 35 34 31 35 34 31 35 34 31 35 34 31 35 34 31 35 34 31 35 34 31 35 34 31 35 34 31 35 34 31 35 34 31 35 34 31 35 34 31 35 34 33 35 34 31 30 28 33 29 28 33 29 28 33 29 28 33 29 28 33 29 28 33 29 28 33 29 28 35 31 30 35 31 30 35 31 30 35 31 30 35 31 30 35 31 30 35 31 30 35 31 30 35 29 29 35 29 29 35 29 29 35 29 29 35 29 29 35 29 29 35 29 29 35 29 29 38 32 32 38 32 32 38 32 32 38 32 32 38 32 32 38 32 32 38 32 32 38 32 32
5 3 16 5 3 16 5 3 16 5 3 16 4 2 15 4 2 15 4 2 15 4 2 15 4 2 15 4 2 15 4 2 15 3 3 15 5 5 17 3 5 17 3 5 17 3 5 17 3 5 17 3 5 17 3 5 17 3 5 17 2 4 16 2 4 16 2 4 16 2 4 16 2 4 16 2 4 16 2 4 16 2 5 14 3 6 15 3 6 13 3 6 13 3 6 13 3 6 13 3 6 13 3 6 13 3 6 13 5 8 15 5 8 15 5 8 15 5 8 15 5 8 15 5 8 15 5 8 15 5 8 15 4 7 16 4 7 16 4 7 16 4 7 16 4 7 16 4 7 16 4 7 16 4 7 16 7 10 19 7 10 19 7 10 19 7 10 19 7 10 19 7 10 19 7 10 19 6 10 19 12 17 23 10 17 23 10 17 23 10 17 23 10 17 23 10 17 23 10 17 23 10 17 23 35 42 48 36 43 49 39 46 52 42 49 55 45 52 58 49 56 62 51 58 64 52 59 65 59 67 70 59 67 70 60 68 71 61 69 72 61 69 72 62 70 73 62 70 73 63 71 74 65 73 76 65 73 76 65 73 76 65 73 76 65 73 76 65 73 76 65 73 76 65 73 76 61 69 72 59 67 70 57 65 68 54 62 65 50 58 61 47 55 58 45 53 56 43 51 54 21 29 32 19 27 30 17 25 28 14 22 25 10 18 21 7 15 18 5 13 16 3 11 14 9 17 20 9 17 20 9 17 20 9 17 20 9 17 20 9 17 20 9 17 20 9 17 20 22 30 33 22 30 33 22 30 33 22 30 33 22 30 33 22 30 33 22 30 33 22 30 32 31 35 36 31 35 34 31 35 34 31 35 34 31 35 34 31 35 34 31 35 34 31 35 34 31 35 34 31 35 34 31 35 34 31 35 34 31 35 34 31 35 34 31 35 34 33 35 34 31 30 28 33 29 28 33 29 28 33 29 28 33 29 28 33 29 28 33 29 28 33 29 28 35 31 30 35 31 30 35 31 30 35 31 30 35 31 30 35 31 30 35 31 30 35 31 30 35 29 29 35 29 29 35 29 29 35 29 29 35 29 29 35 29 29 35 29 29 35 29 29 38 32 32 38 32 32 38 32 32 38 32 32 38 32 32 38 32 32 38 32 32 38 32 32
5 3 16 5 3 16 5 3 16 5 3 16 4 2 15 4 2 15 4 2 15 4 2 15 4 2 15 4 2 15 4 2 15 3 3 15 5 5 17 3 5 17 3 5 17 3 5 17 3 5 17 3 5 17 3 5 17 3 5 17 2 4 16 2 4 16 2 4 16 2 4 16 2 4 16 2 4 16 2 4 16 2 5 14 3 6 15 3 6 13 3 6 13 3 6 13 3 6 13 3 6 13 3 6 13 3 6 13 5 8 15 5 8 15 5 8 15 5 8 15 5 8 15 5 8 15 5 8 15 5 8 15 4 7 16 4 7 16 4 7 16 4 7 16 4 7 16 4 7 16 4 7 16 4 7 16 7 10 19 7 10 19 7 10 19 7 10 19 7 10 19 7 10 19 7 10 19 6 10 19 12 17 23 10 17 23 10 17 23 10 17 23 10 17 23 10 17 23 10 17 23 10 17 23 42 49 55 44 51 57 46 53 59 49 56 62 53 60 66 56 63 69 58 65 71 60 67 73 65 73 76 65 73 76 64 72 75 64 72 75 63 71 74 62 70 73 62 70 73 62 70 73 67 75 78 67 75 78 67 75 78 67 75 78 67 75 78 67 75 78 67 75 78 67 75 78 63 71 74 62 70 73 59 67 70 56 64 67 53 61 64 49 57 60 47 55 58 46 54 57 21 29 32 19 27 30 17 25 28 14 22 25 10 18 21 7 15 18 5 13 16 3 11 14 9 17 20 9 17 20 9 17 20 9 17 20 9 17 20 9 17 20 9 17 20 9 17 20 22 30 33 22 30 33 22 30 33 22 30 33 22 30 33 22 30 33 22 30 33 22 30 32 31 35 36 31 35 34 31 35 34 31 35 34 31 35 34 31 35 34 31 35 34 31 35 34 31 35 34 31 35 34 31 35 34 31 35 34 31 35 34 31 35 34 31 35 34 33 35 34 31 30 28 33 29 28 33 29 28 33 29 28 33 29 28 33 29 28 33 29 28 33 29 28 35 31 30 35 31 30 35 31 30 35 31 30 35 31 30 35 31 30 35 31 30 35 31 30 35 29 29 35 29 29 35 29 29 35 29 29 35 29 29 35 29 29 35 29 29 35 29 29 38 32 32 38 32 32 38 32 32 38 32 32 38 32 32 38 32 32 38 32 32 38 32 32
5 3 16 5 3 14 5 3 16 5 3 14 4 2 15 4 2 13 4 2 15 4 2 13 4 2 15 4 2 13 4 2 15 4 2 13 5 5 17 3 6 15 5 5 17 3 6 15 5 5 17 3 6 15 5 5 17 3 6 15 4 4 16 2 5 14 4 4 16 2 5 14 4 4 16 2 5 14 4 4 16 2 5 14 3 6 13 3 6 13 3 6 13 3 6 13 3 6 13 3 6 13 3 6 13 3 6 13 5 8 15 5 8 15 5 8 15 5 8 15 5 8 15 5 8 15 5 8 15 5 8 15 4 7 16 3 7 16 4 7 16 3 7 16 4 7 16 3 7 16 4 7 16 3 7 16 7 10 19 6 10 19 7 10 19 6 10 19 7 10 19 6 10 19 7 10 19 6 10 19 10 17 23 10 17 23 10 17 23 10 17 23 10 17 23 10 17 23 10 17 23 10 17 23 46 53 59 48 55 61 50 57 63 53 60 66 57 64 70 60 67 73 62 69 75 64 71 77 68 76 79 67 75 78 67 75 78 65 73 76 64 72 75 63 71 74 62 70 73 61 69 72 69 77 80 69 77 80 69 77 80 69 77 80 69 77 80 69 77 80 69 77 80 69 77 80 64 72 75 63 71 74 61 69 72 57 65 68 54 62 65 51 59 62 48 56 59 47 55 58 21 29 32 19 27 30 17 25 28 14 22 25 10 18 21 7 15 18 5 13 16 3 11 14 9 17 20 9 17 20 9 17 20 9 17 20 9 17 20 9 17 20 9 17 20 9 17 20 22 30 33 22 30 33 22 30 33 22 30 33 22 30 33 22 30 33 22 30 33 22 30 32 30 36 36 31 35 34 31 35 36 31 35 34 31 35 36 31 35 34 31 35 36 31 35 34 31 35 36 31 35 34 31 35 36 31 35 34 31 35 36 31 35 34 31 35 36 33 35 34 31 30 28 33 29 28 34 28 28 33 29 28 34 28 28 33 29 28 34 28 28 33 29 28 36 30 30 35 31 30 36 30 30 35 31 30 36 30 30 35 31 30 36 30 30 36 30 30 35 29 29 35 29 29 35 29 29 35 29 29 35 29 29 35 29 29 35 29 29 35 29 29 38 32 32 38 32 32 38 32 32 38 32 32 38 32 32 38 32 32 38 32 32 38 32 32
3 1 12 3 2 10 3 1 12 3 2 10 4 2 13 4 3 11 4 2 13 4 3 11 4 2 13 4 3 11 4 2 13 4 3 11 3 1 12 2 2 10 3 1 12 2 2 10 3 1 12 2 2 10 3 1 12 2 2 10 4 2 13 3 3 11 4 2 13 3 3 11 4 2 13 3 3 11 4 2 13 3 3 11 4 7 14 4 7 12 4 7 12 4 7 12 4 7 12 4 7 12 4 7 12 4 7 12 5 8 13 5 8 13 5 8 13 5 8 13 5 8 13 5 8 13 5 8 13 5 8 13 1 6 12 0 6 12 1 6 12 0 6 12 1 6 12 0 6 12 1 6 12 0 6 12 0 1 7 0 1 7 0 3 9 0 6 12 5 10 16 6 13 19 10 15 21 10 17 23 23 30 36 26 33 39 32 39 45 39 46 52 47 54 60 55 62 68 61 68 74 64 71 77 66 73 79 66 73 79 66 73 79 66 73 79 66 73 79 66 73 79 66 73 79 66 73 79 69 74 78 69 74 77 69 74 77 69 74 77 69 74 77 69 74 77 69 74 77 69 74 77 80 85 88 80 85 88 80 85 88 80 85 88 80 85 88 80 85 88 80 85 88 78 86 89 67 75 78 64 73 78 62 71 76 59 68 73 55 64 69 52 61 66 50 59 64 48 57 62 21 30 35 19 28 33 17 26 31 14 23 28 10 19 24 7 16 21 5 14 19 3 12 17 12 22 24 12 22 24 12 22 24 12 22 24 12 22 24 12 22 24 12 22 24 12 22 24 24 34 36 24 34 36 24 34 36 24 34 36 24 34 36 24 34 36 24 34 36 25 33 36 23 28 31 23 29 29 23 28 31 23 29 29 23 28 31 23 29 29 23 28 31 23 29 29 21 26 29 21 27 27 21 26 29 21 27 27 21 26 29 21 27 27 21 26 29 24 25 27 33 29 28 34 29 26 36 28 26 34 29 26 36 28 26 34 29 26 36 28 26 34 29 26 37 29 27 35 30 27 37 29 27 35 30 27 37 29 27 35 30 27 37 29 27 37 29 27 38 30 28 38 30 28 38 30 28 38 30 28 38 30 28 38 30 28 38 30 28 38 30 28 38 30 28 38 30 28 38 30 28 38 30 28 38 30 28 38 30 28 38 30 28 38 30 28
3 2 10 3 2 10 3 2 10 3 2 10 4 3 11 4 3 11 4 3 11 4 3 11 4 3 11 4 3 11 4 3 11 4 3 11 3 2 10 3 2 10 3 2 10 3 2 10 3 2 10 3 2 10 3 2 10 3 2 10 4 3 11 4 3 11 4 3 11 4 3 11 4 3 11 4 3 11 4 3 11 3 3 11 6 7 12 4 7 12 4 7 12 4 7 12 4 7 12 4 7 12 4 7 12 4 7 12 5 8 13 5 8 13 5 8 13 5 8 13 5 8 13 5 8 13 5 8 13 4 9 13 3 8 14 1 8 14 1 8 14 1 8 14 1 8 14 1 8 14 1 8 14 1 8 14 0 3 9 0 5 11 0 7 13 3 10 16 7 14 20 10 17 23 12 19 25 14 21 27 26 33 39 29 36 42 34 41 47 41 48 54 48 55 61 55 62 68 61 68 74 64 71 77 66 73 79 66 73 79 66 73 79 66 73 79 66 73 79 66 73 79 66 73 79 66 74 77 71 76 80 71 76 79 71 76 79 71 76 79 71 76 79 71 76 79 71 76 79 71 76 79 80 85 88 80 85 88 80 85 88 80 85 88 80 85 88 80 85 88 80 85 88 78 86 88 67 74 80 64 73 78 62 71 76 59 68 73 55 64 69 52 61 66 50 59 64 48 57 62 21 30 35 19 28 33 17 26 31 14 23 28 10 19 24 7 16 21 5 14 19 3 12 17 12 22 24 12 22 24 12 22 24 12 22 24 12 22 24 12 22 24 12 22 24 12 22 24 22 32 34 22 32 34 22 32 34 22 32 34 22 32 34 22 32 34 22 32 34 22 32 34 23 28 31 23 28 31 23 28 31 23 28 31 23 28 31 23 28 31 23 28 31 23 28 31 21 26 29 21 26 29 21 26 29 21 26 29 21 26 29 21 26 29 21 26 29 24 25 27 33 29 28 36 28 26 36 28 26 36 28 26 36 28 26 36 28 26 36 28 26 36 28 26 37 29 27 37 29 27 37 29 27 37 29 27 37 29 27 37 29 27 37 29 27 37 29 27 38 30 28 38 30 28 38 30 28 38 30 28 38 30 28 38 30 28 38 30 28 38 30 28 38 30 28 38 30 28 38 30 28 38 30 28 38 30 28 38 30 28 38 30 28 38 30 28
3 2 10 3 2 10 3 2 10 3 2 10 4 3 11 4 3 11 4 3 11 4 3 11 4 3 11 4 3 11 4 3 11 4 3 11 3 2 10 3 2 10 3 2 10 3 2 10 3 2 10 3 2 10 3 2 10 3 2 10 4 3 11 4 3 11 4 3 11 4 3 11 4 3 11 4 3 11 4 3 11 3 3 11 6 7 12 4 7 12 4 7 12 4 7 12 4 7 12 4 7 12 4 7 12 4 7 12 5 8 13 5 8 13 5 8 13 5 8 13 5 8 13 5 8 13 5 8 13 4 9 13 5 10 16 3 10 16 3 10 16 3 10 16 3 10 16 3 10 16 3 10 16 3 10 16 4 11 17 5 12 18 7 14 20 11 18 24 14 21 27 17 24 30 20 27 33 21 28 34 32 39 45 34 41 47 38 45 51 44 51 57 50 57 63 56 63 69 60 67 73 63 70 76 66 73 79 66 73 79 66 73 79 66 73 79 66 73 79 66 73 79 66 73 79 66 74 77 73 78 82 73 78 81 73 78 81 73 78 81 73 78 81 73 78 81 73 78 81 73 78 81 80 85 88 80 85 88 80 85 88 80 85 88 80 85 88 80 85 88 80 85 88 78 86 88 67 74 80 64 73 78 62 71 76 59 68 73 55 64 69 52 61 66 50 59 64 48 57 62 21 30 35 19 28 33 17 26 31 14 23 28 10 19 24 7 16 21 5 14 19 3 12 17 12 22 24 12 22 24 12 22 24 12 22 24 12 22 24 12 22 24 12 22 24 12 22 24 20 30 32 20 30 32 20 30 32 20 30 32 20 30 32 20 30 32 20 30 32 20 30 32 23 28 31 23 28 31 23 28 31 23 28 31 23 28 31 23 28 31 23 28 31 23 28 31 21 26 29 21 26 29 21 26 29 21 26 29 21 26 29 21 26 29 21 26 29 24 25 27 33 29 28 36 28 26 36 28 26 36 28 26 36 28 26 36 28 26 36 28 26 36 28 26 37 29 27 37 29 27 37 29 27 37 29 27 37 29 27 37 29 27 37 29 27 37 29 27 38 30 28 38 30 28 38 30 28 38 30 28 38 30 28 38 30 28 38 30 28 38 30 28 38 30 28 38 30 28 38 30 28 38 30 28 38 30 28 38 30 28 38 30 28 38 30 28
