P3
172 37
255
72 60 74 72 60 74 72 60 74 72 60 74 74 62 76 75 63 77 78 66 80 81 69 83 84 72 86 88 76 90 90 78 92 91 79 93 99 85 98 102 88 101 107 93 106 113 99 112 120 106 119 127 113 126 131 117 130 134 120 133 126 112 125 128 114 127 130 116 129 133 119 132 137 123 136 140 126 139 142 128 141 144 130 143 138 122 133 138 122 133 138 122 133 138 122 133 138 122 133 138 122 133 138 122 133 138 122 133 128 112 123 126 110 121 124 108 119 121 105 116 117 101 112 114 98 109 112 96 107 110 94 105 90 74 87 89 73 86 87 71 84 83 67 80 80 64 77 77 61 74 74 58 71 73 57 70 76 60 73 76 60 73 76 60 73 76 60 73 76 60 73 76 60 73 76 60 73 76 59 75 81 62 81 81 62 82 81 62 82 81 62 82 81 62 82 81 62 82 81 62 82 81 62 82 69 50 70 69 50 70 69 50 70 69 50 70 69 50 70 69 50 70 69 50 70 68 51 69 53 41 55 51 41 52 48 38 49 45 35 46 42 32 43 38 28 39 36 26 37 35 25 36 32 22 33 31 21 32 28 18 29 25 15 26 22 12 23 18 8 19 16 6 17 13 5 16 17 11 21 15 12 21 15 12 21 15 12 21 15 12 21 15 12 21 15 12 21 15 12 21 23 20 29 21 18 27 19 16 25 16 13 22 12 9 18 9 6 15 7 4 13 4 3 9 6 7 12 4 8 11 4 8 11 4 8 11 4 8 11 4 8 11 4 8 11 4 8 11 7 11 14 9 13 16 11 15 18 14 18 21 18 22 25 21 25 28 23 27 30 25 29 30 38 39 41 40 42 41 45 47 46 52 54 53 58 60 59 65 67 66 70 72 71 72 74 73 78 80 79 81 83 82 86 88 87 92 94 93 99 101 100 105 107 106 110 112 111 113 115 114 112 114 113 101 103 102 84 86 85 65 67 66 51 53 52 44 46 45 43 45 44 43 45 44 41 43 42 41 43 42 41 43 42 41 43 42 41 43 42 41 43 42 41 43 42 41 43 42 39 37 40 39 37 40 39 37 40 39 37 40 39 37 40 39 37 40 39 37 40 39 37 40 43 41 44 43 41 44 43 41 44 43 41 44 43 41 44 43 41 44 43 41 44 43 41 44
80 66 83 80 66 83 80 66 83 80 66 83 78 64 81 79 65 82 81 67 84 85 71 88 88 74 91 91 77 94 94 80 97 95 81 96 102 88 103 105 91 104 112 95 111 116 102 115 125 108 124 129 115 128 136 119 135 137 123 136 128 111 127 128 114 127 132 115 131 133 119 132 139 122 138 140 126 139 144 127 143 146 130 143 138 122 135 138 122 133 139 121 135 138 122 133 139 121 135 138 122 133 139 121 135 138 122 133 129 111 125 126 110 121 125 107 121 121 105 116 118 100 114 114 98 109 113 95 109 110 94 107 87 73 88 86 72 87 83 69 84 80 66 81 77 63 78 73 59 74 71 57 72 70 56 71 74 60 75 74 60 75 74 60 75 74 60 75 74 60 75 74 60 75 74 60 75 74 60 75 78 64 81 78 63 82 78 63 82 78 63 82 78 63 82 78 63 82 78 63 82 78 63 82 64 49 68 64 49 68 64 49 68 64 49 68 64 49 68 64 49 68 64 49 68 63 50 67 47 39 52 45 39 49 44 36 47 39 33 43 37 29 40 33 27 37 31 23 34 29 23 33 27 19 30 25 19 29 24 16 27 19 13 23 17 9 20 13 7 17 11 3 14 9 3 13 13 10 19 12 11 19 12 11 19 12 11 19 12 11 19 12 11 19 12 11 19 12 11 19 22 21 29 20 19 27 18 17 25 15 14 22 11 10 18 8 7 15 6 5 13 3 4 9 6 7 11 4 8 11 4 8 11 4 8 11 4 8 11 4 8 11 4 8 11 4 8 11 7 11 14 9 13 16 11 15 18 14 18 21 18 22 25 21 25 28 23 27 30 25 29 30 36 40 41 38 42 41 45 47 46 50 54 53 58 60 59 63 67 66 70 72 71 70 74 73 77 79 78 78 82 81 85 87 86 89 93 92 98 100 99 102 106 105 109 111 110 112 114 113 112 114 113 101 103 102 84 86 85 65 67 66 51 53 52 44 46 45 43 45 44 43 45 44 41 43 42 41 43 42 41 43 42 41 43 42 41 43 42 41 43 42 41 43 42 42 42 42 39 37 40 39 37 40 39 37 40 39 37 40 39 37 40 39 37 40 39 37 40 39 37 40 43 41 44 43 41 44 43 41 44 43 41 44 43 41 44 43 41 44 43 41 44 43 41 44
89 72 91 93 76 95 95 78 97 96 79 98 109 92 111 109 92 111 109 92 111 109 92 111 109 92 111 109 92 111 109 92 111 109 92 111 131 114 132 131 114 130 132 113 132 131 114 130 132 113 132 131 114 130 132 113 132 131 114 130 141 122 141 140 123 139 141 122 141 140 123 139 141 122 141 140 123 139 141 122 141 141 123 139 141 123 139 139 121 135 139 118 135 134 116 130 132 111 128 127 109 123 127 106 123 123 105 119 126 105 122 123 105 119 123 102 119 117 99 113 116 95 112 111 93 107 110 89 106 106 89 105 85 72 89 83 72 89 81 70 87 77 66 83 74 63 80 71 60 77 68 57 74 67 56 73 70 59 76 70 59 76 70 59 76 70 59 76 70 59 76 70 59 76 70 59 76 68 59 76 74 66 81 71 65 79 69 63 77 66 60 74 62 56 70 59 53 67 57 51 65 55 49 63 51 45 59 50 44 58 47 41 55 44 38 52 41 35 49 37 31 45 35 29 43 32 28 42 15 13 24 14 14 22 15 14 22 14 14 22 15 14 22 14 14 22 15 14 22 14 14 22 14 13 21 13 13 21 14 13 21 13 13 21 14 13 21 13 13 21 14 13 21 13 13 21 13 16 21 13 16 21 13 16 21 13 16 21 13 16 21 13 16 21 13 16 21 13 16 21 30 33 38 28 31 36 23 26 31 16 19 24 10 13 18 3 6 11 0 1 6 0 0 5 0 4 7 0 4 7 0 4 7 0 4 7 0 4 7 0 4 7 0 4 7 0 4 7 6 10 13 8 12 15 10 14 17 13 17 20 17 21 24 20 24 27 22 26 29 24 28 29 40 44 45 41 47 45 44 48 47 46 52 50 51 55 54 53 59 57 56 60 59 57 63 61 78 82 81 78 84 82 82 86 85 84 90 88 88 92 91 91 97 95 94 98 97 95 99 98 89 91 88 86 86 84 79 79 77 69 69 67 59 59 57 49 49 47 42 42 40 38 38 36 40 40 38 40 40 38 40 40 38 40 40 38 40 40 38 40 40 38 40 40 38 40 40 38 39 37 38 41 37 38 41 37 38 41 37 38 41 37 38 41 37 38 41 37 38 41 37 38 40 36 37 40 36 37 40 36 37 40 36 37 40 36 37 40 36 37 40 36 37 40 36 37
93 74 96 96 77 99 99 80 102 100 81 103 112 93 115 112 93 115 112 93 115 112 93 115 112 93 115 112 93 115 112 93 115 112 93 113 132 113 133 132 113 132 132 113 132 132 113 132 132 113 132 132 113 132 132 113 132 132 113 132 141 122 141 141 122 141 141 122 141 141 122 141 141 122 141 141 122 141 141 122 141 141 122 141 143 122 139 141 120 137 139 118 135 136 115 132 132 111 128 129 108 125 127 106 123 125 104 121 125 104 121 124 103 120 121 100 117 118 97 114 115 94 111 111 90 107 109 88 105 105 88 106 84 71 89 80 71 90 77 68 87 74 65 84 71 62 81 67 58 77 65 56 75 64 55 74 66 57 76 66 57 76 66 57 76 66 57 76 66 57 76 66 57 76 66 57 76 65 58 74 67 63 78 64 62 75 62 60 73 59 57 70 55 53 66 52 50 63 50 48 61 48 46 59 45 43 56 44 42 55 42 40 53 38 36 49 35 33 46 32 30 43 29 27 40 27 27 37 14 14 24 12 15 22 12 15 22 12 15 22 12 15 22 12 15 22 12 15 22 12 15 22 11 14 21 11 14 21 11 14 21 11 14 21 11 14 21 11 14 21 11 14 21 11 14 21 12 17 21 12 17 21 12 17 21 12 17 21 12 17 21 12 17 21 12 17 21 12 17 21 29 34 38 27 32 36 22 27 31 15 20 24 9 14 18 2 7 11 0 2 6 0 1 5 0 4 7 0 4 7 0 4 7 0 4 7 0 4 7 0 4 7 0 4 7 0 4 7 6 10 13 8 12 15 10 14 17 13 17 20 17 21 24 20 24 27 22 26 29 24 28 29 39 45 45 41 47 45 43 49 47 46 52 50 50 56 54 53 59 57 55 61 59 57 63 61 76 82 80 77 83 81 79 85 83 83 89 87 86 92 90 89 95 93 92 98 96 94 98 97 89 91 88 86 86 84 79 79 77 69 69 67 59 59 57 49 49 47 42 42 40 38 38 36 40 40 38 40 40 38 40 40 38 40 40 38 40 40 38 40 40 38 40 40 38 40 40 38 41 37 38 41 37 38 41 37 38 41 37 38 41 37 38 41 37 38 41 37 38 41 37 38 40 36 37 40 36 37 40 36 37 40 36 37 40 36 37 40 36 37 40 36 37 40 36 37
98 79 101 101 82 104 104 85 107 105 86 108 114 95 117 114 95 117 114 95 117 114 95 117 114 95 117 114 95 117 114 95 117 114 95 115 132 113 133 132 113 132 132 113 132 132 113 132 132 113 132 132 113 132 132 113 132 132 113 132 141 122 141 141 122 141 141 122 141 141 122 141 141 122 141 141 122 141 141 122 141 141 122 141 143 122 139 141 120 137 139 118 135 136 115 132 132 111 128 129 108 125 127 106 123 125 104 121 123 102 119 121 100 117 119 98 115 116 95 112 112 91 108 109 88 105 107 86 103 102 85 103 82 69 87 77 68 87 75 66 85 72 63 82 68 59 78 65 56 75 63 54 73 61 52 71 61 52 71 61 52 71 61 52 71 61 52 71 61 52 71 61 52 71 61 52 71 60 53 69 59 55 70 57 55 68 55 53 66 51 49 62 48 46 59 45 43 56 42 40 53 41 39 52 40 38 51 39 37 50 37 35 48 34 32 45 30 28 41 27 25 38 24 22 35 22 22 32 14 14 24 12 15 22 12 15 22 12 15 22 12 15 22 12 15 22 12 15 22 12 15 22 11 14 21 11 14 21 11 14 21 11 14 21 11 14 21 11 14 21 11 14 21 11 14 21 12 17 21 12 17 21 12 17 21 12 17 21 12 17 21 12 17 21 12 17 21 12 17 21 29 34 38 27 32 36 22 27 31 15 20 24 9 14 18 2 7 11 0 2 6 0 1 5 0 4 7 0 4 7 0 4 7 0 4 7 0 4 7 0 4 7 0 4 7 0 4 7 6 10 13 8 12 15 10 14 17 13 17 20 17 21 24 20 24 27 22 26 29 24 28 29 39 45 45 41 47 45 43 49 47 46 52 50 50 56 54 53 59 57 55 61 59 57 63 61 73 79 77 75 81 79 77 83 81 80 86 84 84 90 88 87 93 91 89 95 93 92 96 95 89 91 88 86 86 84 79 79 77 69 69 67 59 59 57 49 49 47 42 42 40 38 38 36 40 40 38 40 40 38 40 40 38 40 40 38 40 40 38 40 40 38 40 40 38 40 40 38 41 37 38 41 37 38 41 37 38 41 37 38 41 37 38 41 37 38 41 37 38 41 37 38 40 36 37 40 36 37 40 36 37 40 36 37 40 36 37 40 36 37 40 36 37 40 36 37
104 85 107 107 88 110 110 91 113 111 92 114 117 98 120 117 98 120 117 98 120 117 98 120 117 98 120 117 98 120 117 98 120 117 98 118 132 113 133 132 113 132 132 113 132 132 113 132 132 113 132 132 113 132 132 113 132 132 113 132 141 122 141 141 122 141 141 122 141 141 122 141 141 122 141 141 122 141 141 122 141 141 122 141 143 122 139 141 120 137 139 118 135 136 115 132 132 111 128 129 108 125 127 106 123 125 104 121 119 98 115 118 97 114 116 95 112 112 91 108 109 88 105 106 85 102 103 82 99 99 82 100 78 65 83 74 65 84 72 63 82 68 59 78 65 56 75 62 53 72 59 50 69 58 49 68 54 45 64 54 45 64 54 45 64 54 45 64 54 45 64 54 45 64 54 45 64 53 46 62 50 46 61 48 46 59 45 43 56 42 40 53 38 36 49 35 33 46 33 31 44 32 30 43 34 32 45 33 31 44 30 28 41 27 25 38 24 22 35 21 19 32 18 16 29 16 16 26 14 14 24 12 15 22 12 15 22 12 15 22 12 15 22 12 15 22 12 15 22 12 15 22 11 14 21 11 14 21 11 14 21 11 14 21 11 14 21 11 14 21 11 14 21 11 14 21 12 17 21 12 17 21 12 17 21 12 17 21 12 17 21 12 17 21 12 17 21 12 17 21 29 34 38 27 32 36 22 27 31 15 20 24 9 14 18 2 7 11 0 2 6 0 1 5 0 4 7 0 4 7 0 4 7 0 4 7 0 4 7 0 4 7 0 4 7 0 4 7 6 10 13 8 12 15 10 14 17 13 17 20 17 21 24 20 24 27 22 26 29 24 28 29 39 45 45 41 47 45 43 49 47 46 52 50 50 56 54 53 59 57 55 61 59 57 63 61 70 76 74 71 77 75 74 80 78 77 83 81 80 86 84 84 90 88 86 92 90 88 92 91 89 91 88 86 86 84 79 79 77 69 69 67 59 59 57 49 49 47 42 42 40 38 38 36 40 40 38 40 40 38 40 40 38 40 40 38 40 40 38 40 40 38 40 40 38 40 40 38 41 37 38 41 37 38 41 37 38 41 37 38 41 37 38 41 37 38 41 37 38 41 37 38 40 36 37 40 36 37 40 36 37 40 36 37 40 36 37 40 36 37 40 36 37 40 36 37
111 92 114 114 95 117 117 98 120 118 99 121 121 102 124 121 102 124 121 102 124 121 102 124 121 102 124 121 102 124 121 102 124 121 102 122 132 113 133 132 113 132 132 113 132 132 113 132 132 113 132 132 113 132 132 113 132 132 113 132 141 122 141 141 122 141 141 122 141 141 122 141 141 122 141 141 122 141 141 122 141 141 122 141 143 122 139 141 120 137 139 118 135 136 115 132 132 111 128 129 108 125 127 106 123 125 104 121 116 95 112 115 94 111 112 91 108 109 88 105 106 85 102 102 81 98 100 79 96 96 79 97 75 62 80 71 62 81 68 59 78 65 56 75 62 53 72 58 49 68 56 47 66 55 46 65 48 39 58 48 39 58 48 39 58 48 39 58 48 39 58 48 39 58 48 39 58 47 40 56 39 35 50 37 35 48 35 33 46 32 30 43 28 26 39 25 23 36 22 20 33 21 19 32 27 25 38 26 24 37 23 21 34 20 18 31 17 15 28 14 12 25 11 9 22 9 9 19 14 14 24 12 15 22 12 15 22 12 15 22 12 15 22 12 15 22 12 15 22 12 15 22 11 14 21 11 14 21 11 14 21 11 14 21 11 14 21 11 14 21 11 14 21 11 14 21 12 17 21 12 17 21 12 17 21 12 17 21 12 17 21 12 17 21 12 17 21 12 17 21 29 34 38 27 32 36 22 27 31 15 20 24 9 14 18 2 7 11 0 2 6 0 1 5 0 4 7 0 4 7 0 4 7 0 4 7 0 4 7 0 4 7 0 4 7 0 4 7 6 10 13 8 12 15 10 14 17 13 17 20 17 21 24 20 24 27 22 26 29 24 28 29 39 45 45 41 47 45 43 49 47 46 52 50 50 56 54 53 59 57 55 61 59 57 63 61 67 73 71 68 74 72 70 76 74 74 80 78 77 83 81 80 86 84 83 89 87 85 89 88 89 91 88 86 86 84 79 79 77 69 69 67 59 59 57 49 49 47 42 42 40 38 38 36 40 40 38 40 40 38 40 40 38 40 40 38 40 40 38 40 40 38 40 40 38 40 40 38 41 37 38 41 37 38 41 37 38 41 37 38 41 37 38 41 37 38 41 37 38 41 37 38 40 36 37 40 36 37 40 36 37 40 36 37 40 36 37 40 36 37 40 36 37 40 36 37
118 99 121 121 102 124 123 104 126 124 105 127 124 105 127 124 105 127 124 105 127 124 105 127 124 105 127 124 105 127 124 105 127 124 105 125 132 113 133 132 113 132 132 113 132 132 113 132 132 113 132 132 113 132 132 113 132 132 113 132 141 122 141 141 122 141 141 122 141 141 122 141 141 122 141 141 122 141 141 122 141 141 122 141 143 122 139 141 120 137 139 118 135 136 115 132 132 111 128 129 108 125 127 106 123 125 104 121 113 92 109 111 90 107 109 88 105 106 85 102 102 81 98 99 78 95 97 76 93 92 75 93 72 59 77 67 58 77 65 56 75 62 53 72 58 49 68 55 46 65 53 44 63 51 42 61 41 32 51 41 32 51 41 32 51 41 32 51 41 32 51 41 32 51 41 32 51 40 33 49 30 26 41 28 26 39 25 23 36 22 20 33 19 17 30 15 13 26 13 11 24 12 10 23 21 19 32 20 18 31 17 15 28 14 12 25 10 8 21 7 5 18 5 3 16 3 3 13 14 14 24 12 15 22 12 15 22 12 15 22 12 15 22 12 15 22 12 15 22 12 15 22 11 14 21 11 14 21 11 14 21 11 14 21 11 14 21 11 14 21 11 14 21 11 14 21 12 17 21 12 17 21 12 17 21 12 17 21 12 17 21 12 17 21 12 17 21 12 17 21 29 34 38 27 32 36 22 27 31 15 20 24 9 14 18 2 7 11 0 2 6 0 1 5 0 4 7 0 4 7 0 4 7 0 4 7 0 4 7 0 4 7 0 4 7 0 4 7 6 10 13 8 12 15 10 14 17 13 17 20 17 21 24 20 24 27 22 26 29 24 28 29 39 45 45 41 47 45 43 49 47 46 52 50 50 56 54 53 59 57 55 61 59 57 63 61 63 69 67 65 71 69 67 73 71 70 76 74 74 80 78 77 83 81 79 85 83 82 86 85 89 91 88 86 86 84 79 79 77 69 69 67 59 59 57 49 49 47 42 42 40 38 38 36 40 40 38 40 40 38 40 40 38 40 40 38 40 40 38 40 40 38 40 40 38 40 40 38 41 37 38 41 37 38 41 37 38 41 37 38 41 37 38 41 37 38 41 37 38 41 37 38 40 36 37 40 36 37 40 36 37 40 36 37 40 36 37 40 36 37 40 36 37 40 36 37
122 103 125 126 107 129 128 109 131 129 110 132 126 107 129 126 107 129 126 107 129 126 107 129 126 107 129 126 107 129 126 107 129 126 107 127 132 113 133 132 113 132 132 113 132 132 113 132 132 113 132 132 113 132 132 113 132 132 113 132 141 122 141 141 122 141 141 122 141 141 122 141 141 122 141 141 122 141 141 122 141 141 122 141 143 122 139 141 120 137 139 118 135 136 115 132 132 111 128 129 108 125 127 106 123 125 104 121 110 89 106 109 88 105 107 86 103 103 82 99 100 79 96 97 76 93 94 73 90 90 73 91 69 56 74 65 56 75 63 54 73 59 50 69 56 47 66 53 44 63 50 41 60 49 40 59 36 27 46 36 27 46 36 27 46 36 27 46 36 27 46 36 27 46 36 27 46 35 28 44 23 19 34 20 18 31 18 16 29 15 13 26 11 9 22 8 6 19 6 4 17 4 2 15 16 14 27 15 13 26 12 10 23 9 7 20 6 4 17 2 0 13 0 0 11 0 0 9 14 14 24 12 15 22 12 15 22 12 15 22 12 15 22 12 15 22 12 15 22 12 15 22 11 14 21 11 14 21 11 14 21 11 14 21 11 14 21 11 14 21 11 14 21 11 14 21 12 17 21 12 17 21 12 17 21 12 17 21 12 17 21 12 17 21 12 17 21 12 17 21 29 34 38 27 32 36 22 27 31 15 20 24 9 14 18 2 7 11 0 2 6 0 1 5 0 4 7 0 4 7 0 4 7 0 4 7 0 4 7 0 4 7 0 4 7 0 4 7 6 10 13 8 12 15 10 14 17 13 17 20 17 21 24 20 24 27 22 26 29 24 28 29 39 45 45 41 47 45 43 49 47 46 52 50 50 56 54 53 59 57 55 61 59 57 63 61 61 67 65 62 68 66 65 71 69 68 74 72 71 77 75 75 81 79 77 83 81 79 83 82 89 91 88 86 86 84 79 79 77 69 69 67 59 59 57 49 49 47 42 42 40 38 38 36 40 40 38 40 40 38 40 40 38 40 40 38 40 40 38 40 40 38 40 40 38 40 40 38 41 37 38 41 37 38 41 37 38 41 37 38 41 37 38 41 37 38 41 37 38 41 37 38 40 36 37 40 36 37 40 36 37 40 36 37 40 36 37 40 36 37 40 36 37 40 36 37
125 106 128 128 109 131 131 112 134 132 113 135 128 109 131 128 109 131 128 109 131 128 109 131 128 109 131 128 109 131 128 109 131 128 109 129 132 113 133 132 113 132 132 113 132 132 113 132 132 113 132 132 113 132 132 113 132 132 113 132 141 122 141 141 122 141 141 122 141 141 122 141 141 122 141 141 122 141 141 122 141 141 122 141 143 122 139 141 120 137 139 118 135 136 115 132 132 111 128 129 108 125 127 106 123 125 104 121 109 88 105 108 87 104 105 84 101 102 81 98 99 78 95 95 74 91 93 72 89 89 72 90 68 55 73 64 55 74 61 52 71 58 49 68 55 46 65 51 42 61 49 40 59 48 39 58 34 25 44 34 25 44 34 25 44 34 25 44 34 25 44 34 25 44 34 25 44 33 26 42 19 15 30 16 14 27 14 12 25 11 9 22 7 5 18 4 2 15 2 0 13 0 0 11 13 11 24 12 10 23 10 8 21 6 4 17 3 1 14 0 0 11 0 0 11 0 0 9 14 14 24 12 15 22 12 15 22 12 15 22 12 15 22 12 15 22 12 15 22 12 15 22 11 14 21 11 14 21 11 14 21 11 14 21 11 14 21 11 14 21 11 14 21 11 14 21 12 17 21 12 17 21 12 17 21 12 17 21 12 17 21 12 17 21 12 17 21 12 17 21 29 34 38 27 32 36 22 27 31 15 20 24 9 14 18 2 7 11 0 2 6 0 1 5 0 4 7 0 4 7 0 4 7 0 4 7 0 4 7 0 4 7 0 4 7 0 4 7 6 10 13 8 12 15 10 14 17 13 17 20 17 21 24 20 24 27 22 26 29 24 28 29 39 45 45 41 47 45 43 49 47 46 52 50 50 56 54 53 59 57 55 61 59 57 63 61 60 66 64 61 67 65 63 69 67 67 73 71 70 76 74 73 79 77 76 82 80 78 82 81 89 91 88 86 86 84 79 79 77 69 69 67 59 59 57 49 49 47 42 42 40 38 38 36 40 40 38 40 40 38 40 40 38 40 40 38 40 40 38 40 40 38 40 40 38 40 40 38 41 37 38 41 37 38 41 37 38 41 37 38 41 37 38 41 37 38 41 37 38 41 37 38 40 36 37 40 36 37 40 36 37 40 36 37 40 36 37 40 36 37 40 36 37 40 36 37
124 105 127 124 105 127 124 105 127 124 105 127 126 107 129 126 107 129 126 107 129 126 107 129 126 107 129 126 107 129 126 107 129 126 107 127 128 109 129 128 109 128 128 109 128 128 109 128 128 109 128 128 109 128 128 109 128 128 109 128 135 116 135 135 116 135 135 116 135 135 116 135 135 116 135 135 116 135 135 116 135 135 116 135 128 107 124 127 106 123 125 104 121 121 100 117 118 97 114 115 94 111 112 91 108 111 90 107 117 96 113 113 92 109 106 85 102 96 75 92 86 65 82 76 55 72 69 48 65 62 45 63 50 37 55 46 37 56 43 34 53 40 31 50 37 28 47 33 24 43 31 22 41 30 21 40 12 3 22 12 3 22 12 3 22 12 3 22 12 3 22 12 3 22 12 3 22 11 4 20 8 4 19 7 5 18 7 5 18 7 5 18 7 5 18 7 5 18 7 5 18 7 5 18 8 6 19 8 6 19 8 6 19 8 6 19 8 6 19 8 6 19 8 6 19 7 7 17 10 10 20 8 11 18 8 11 18 8 11 18 8 11 18 8 11 18 8 11 18 8 11 18 4 7 14 5 8 15 7 10 17 11 14 21 14 17 24 17 20 27 20 23 30 21 24 31 23 28 32 23 28 32 23 28 32 23 28 32 23 28 32 23 28 32 23 28 32 23 28 32 21 26 30 19 24 28 17 22 26 14 19 23 10 15 19 7 12 16 5 10 14 3 8 12 0 4 7 0 4 7 0 4 7 0 4 7 0 4 7 0 4 7 0 4 7 0 4 7 4 8 11 6 10 13 8 12 15 11 15 18 15 19 22 18 22 25 20 24 27 22 26 27 33 39 39 35 41 39 37 43 41 40 46 44 44 50 48 47 53 51 49 55 53 51 57 55 69 75 73 69 75 73 69 75 73 69 75 73 69 75 73 69 75 73 69 75 73 70 74 73 72 74 71 71 71 69 66 66 64 59 59 57 53 53 51 46 46 44 41 41 39 39 39 37 34 34 32 34 34 32 34 34 32 34 34 32 34 34 32 34 34 32 34 34 32 34 34 32 36 32 33 36 32 33 36 32 33 36 32 33 36 32 33 36 32 33 36 32 33 36 32 33 40 36 37 40 36 37 40 36 37 40 36 37 40 36 37 40 36 37 40 36 37 40 36 37
124 105 127 124 105 127 124 105 127 124 105 127 126 107 129 126 107 129 126 107 129 126 107 129 126 107 129 126 107 129 126 107 129 126 107 127 128 109 129 128 109 128 128 109 128 128 109 128 128 109 128 128 109 128 128 109 128 128 109 128 133 114 133 133 114 133 133 114 133 133 114 133 133 114 133 133 114 133 133 114 133 133 114 133 127 106 123 126 105 122 123 102 119 120 99 116 117 96 113 113 92 109 111 90 107 110 89 106 113 92 109 109 88 105 102 81 98 92 71 88 82 61 78 72 51 68 65 44 61 58 41 59 47 34 52 43 34 53 41 32 51 37 28 47 34 25 44 31 22 41 28 19 38 27 18 37 12 3 22 12 3 22 12 3 22 12 3 22 12 3 22 12 3 22 12 3 22 11 4 20 8 4 19 7 5 18 7 5 18 7 5 18 7 5 18 7 5 18 7 5 18 7 5 18 8 6 19 8 6 19 8 6 19 8 6 19 8 6 19 8 6 19 8 6 19 7 7 17 10 10 20 8 11 18 8 11 18 8 11 18 8 11 18 8 11 18 8 11 18 8 11 18 5 8 15 6 9 16 9 12 19 12 15 22 15 18 25 19 22 29 21 24 31 22 25 32 25 30 34 25 30 34 25 30 34 25 30 34 25 30 34 25 30 34 25 30 34 25 30 34 21 26 30 19 24 28 17 22 26 14 19 23 10 15 19 7 12 16 5 10 14 3 8 12 0 4 7 0 4 7 0 4 7 0 4 7 0 4 7 0 4 7 0 4 7 0 4 7 4 8 11 6 10 13 8 12 15 11 15 18 15 19 22 18 22 25 20 24 27 22 26 27 33 39 39 35 41 39 37 43 41 40 46 44 44 50 48 47 53 51 49 55 53 51 57 55 67 73 71 67 73 71 67 73 71 67 73 71 67 73 71 67 73 71 67 73 71 68 72 71 72 74 71 71 71 69 66 66 64 59 59 57 53 53 51 46 46 44 41 41 39 39 39 37 34 34 32 34 34 32 34 34 32 34 34 32 34 34 32 34 34 32 34 34 32 34 34 32 36 32 33 36 32 33 36 32 33 36 32 33 36 32 33 36 32 33 36 32 33 36 32 33 40 36 37 40 36 37 40 36 37 40 36 37 40 36 37 40 36 37 40 36 37 40 36 37
124 105 127 124 105 127 124 105 127 124 105 127 126 107 129 126 107 129 126 107 129 126 107 129 126 107 129 126 107 129 126 107 129 126 107 127 128 109 129 128 109 128 128 109 128 128 109 128 128 109 128 128 109 128 128 109 128 128 109 128 131 112 131 131 112 131 131 112 131 131 112 131 131 112 131 131 112 131 131 112 131 131 112 131 125 104 121 123 102 119 121 100 117 118 97 114 114 93 110 111 90 107 109 88 105 107 86 103 106 85 102 102 81 98 94 73 90 85 64 81 75 54 71 65 44 61 58 37 54 51 34 52 42 29 47 38 29 48 36 27 46 33 24 43 29 20 39 26 17 36 23 14 33 22 13 32 12 3 22 12 3 22 12 3 22 12 3 22 12 3 22 12 3 22 12 3 22 11 4 20 8 4 19 7 5 18 7 5 18 7 5 18 7 5 18 7 5 18 7 5 18 7 5 18 8 6 19 8 6 19 8 6 19 8 6 19 8 6 19 8 6 19 8 6 19 7 7 17 10 10 20 8 11 18 8 11 18 8 11 18 8 11 18 8 11 18 8 11 18 8 11 18 7 10 17 9 12 19 11 14 21 14 17 24 18 21 28 21 24 31 23 26 33 25 28 35 27 32 36 27 32 36 27 32 36 27 32 36 27 32 36 27 32 36 27 32 36 27 32 36 21 26 30 19 24 28 17 22 26 14 19 23 10 15 19 7 12 16 5 10 14 3 8 12 0 4 7 0 4 7 0 4 7 0 4 7 0 4 7 0 4 7 0 4 7 0 4 7 4 8 11 6 10 13 8 12 15 11 15 18 15 19 22 18 22 25 20 24 27 22 26 27 33 39 39 35 41 39 37 43 41 40 46 44 44 50 48 47 53 51 49 55 53 51 57 55 65 71 69 65 71 69 65 71 69 65 71 69 65 71 69 65 71 69 65 71 69 66 70 69 72 74 71 71 71 69 66 66 64 59 59 57 53 53 51 46 46 44 41 41 39 39 39 37 34 34 32 34 34 32 34 34 32 34 34 32 34 34 32 34 34 32 34 34 32 34 34 32 36 32 33 36 32 33 36 32 33 36 32 33 36 32 33 36 32 33 36 32 33 36 32 33 40 36 37 40 36 37 40 36 37 40 36 37 40 36 37 40 36 37 40 36 37 40 36 37
124 105 127 124 105 127 124 105 127 124 105 127 126 107 129 126 107 129 126 107 129 126 107 129 126 107 129 126 107 129 126 107 129 126 107 127 128 109 129 128 109 128 128 109 128 128 109 128 128 109 128 128 109 128 128 109 128 128 109 128 128 109 128 128 109 128 128 109 128 128 109 128 128 109 128 128 109 128 128 109 128 128 109 128 121 100 117 120 99 116 118 97 114 114 93 110 111 90 107 108 87 104 105 84 101 104 83 100 96 75 92 92 71 88 85 64 81 75 54 71 65 44 61 55 34 51 48 27 44 41 24 42 36 23 41 32 23 42 29 20 39 26 17 36 23 14 33 20 11 30 17 8 27 16 7 26 12 3 22 12 3 22 12 3 22 12 3 22 12 3 22 12 3 22 12 3 22 11 4 20 8 4 19 7 5 18 7 5 18 7 5 18 7 5 18 7 5 18 7 5 18 7 5 18 8 6 19 8 6 19 8 6 19 8 6 19 8 6 19 8 6 19 8 6 19 7 7 17 10 10 20 8 11 18 8 11 18 8 11 18 8 11 18 8 11 18 8 11 18 8 11 18 11 14 21 12 15 22 14 17 24 18 21 28 21 24 31 24 27 34 27 30 37 28 31 38 30 35 39 30 35 39 30 35 39 30 35 39 30 35 39 30 35 39 30 35 39 30 35 39 21 26 30 19 24 28 17 22 26 14 19 23 10 15 19 7 12 16 5 10 14 3 8 12 0 4 7 0 4 7 0 4 7 0 4 7 0 4 7 0 4 7 0 4 7 0 4 7 4 8 11 6 10 13 8 12 15 11 15 18 15 19 22 18 22 25 20 24 27 22 26 27 33 39 39 35 41 39 37 43 41 40 46 44 44 50 48 47 53 51 49 55 53 51 57 55 62 68 66 62 68 66 62 68 66 62 68 66 62 68 66 62 68 66 62 68 66 63 67 66 72 74 71 71 71 69 66 66 64 59 59 57 53 53 51 46 46 44 41 41 39 39 39 37 34 34 32 34 34 32 34 34 32 34 34 32 34 34 32 34 34 32 34 34 32 34 34 32 36 32 33 36 32 33 36 32 33 36 32 33 36 32 33 36 32 33 36 32 33 36 32 33 40 36 37 40 36 37 40 36 37 40 36 37 40 36 37 40 36 37 40 36 37 40 36 37
124 105 127 124 105 127 124 105 127 124 105 127 126 107 129 126 107 129 126 107 129 126 107 129 126 107 129 126 107 129 126 107 129 126 107 127 128 109 129 128 109 128 128 109 128 128 109 128 128 109 128 128 109 128 128 109 128 128 109 128 124 105 124 124 105 124 124 105 124 124 105 124 124 105 124 124 105 124 124 105 124 124 105 124 118 97 114 117 96 113 114 93 110 111 90 107 108 87 104 104 83 100 102 81 98 101 80 97 86 65 82 82 61 78 75 54 71 65 44 61 55 34 51 45 24 41 38 17 34 31 14 32 29 16 34 25 16 35 22 13 32 19 10 29 16 7 26 13 4 23 10 1 20 9 0 19 12 3 22 12 3 22 12 3 22 12 3 22 12 3 22 12 3 22 12 3 22 11 4 20 8 4 19 7 5 18 7 5 18 7 5 18 7 5 18 7 5 18 7 5 18 7 5 18 8 6 19 8 6 19 8 6 19 8 6 19 8 6 19 8 6 19 8 6 19 7 7 17 10 10 20 8 11 18 8 11 18 8 11 18 8 11 18 8 11 18 8 11 18 8 11 18 14 17 24 15 18 25 18 21 28 21 24 31 24 27 34 28 31 38 30 33 40 31 34 41 34 39 43 34 39 43 34 39 43 34 39 43 34 39 43 34 39 43 34 39 43 34 39 43 21 26 30 19 24 28 17 22 26 14 19 23 10 15 19 7 12 16 5 10 14 3 8 12 0 4 7 0 4 7 0 4 7 0 4 7 0 4 7 0 4 7 0 4 7 0 4 7 4 8 11 6 10 13 8 12 15 11 15 18 15 19 22 18 22 25 20 24 27 22 26 27 33 39 39 35 41 39 37 43 41 40 46 44 44 50 48 47 53 51 49 55 53 51 57 55 58 64 62 58 64 62 58 64 62 58 64 62 58 64 62 58 64 62 58 64 62 59 63 62 72 74 71 71 71 69 66 66 64 59 59 57 53 53 51 46 46 44 41 41 39 39 39 37 34 34 32 34 34 32 34 34 32 34 34 32 34 34 32 34 34 32 34 34 32 34 34 32 36 32 33 36 32 33 36 32 33 36 32 33 36 32 33 36 32 33 36 32 33 36 32 33 40 36 37 40 36 37 40 36 37 40 36 37 40 36 37 40 36 37 40 36 37 40 36 37
124 105 127 124 105 127 124 105 127 124 105 127 126 107 129 126 107 129 126 107 129 126 107 129 126 107 129 126 107 129 126 107 129 126 107 127 128 109 129 128 109 128 128 109 128 128 109 128 128 109 128 128 109 128 128 109 128 128 109 128 121 102 121 121 102 121 121 102 121 121 102 121 121 102 121 121 102 121 121 102 121 121 102 121 115 94 111 113 92 109 111 90 107 108 87 104 104 83 100 101 80 97 99 78 95 97 76 93 76 55 72 72 51 68 65 44 61 55 34 51 45 24 41 36 15 32 28 7 24 21 4 22 23 10 28 19 10 29 16 7 26 13 4 23 9 0 19 6 0 16 4 0 14 4 0 14 12 3 22 12 3 22 12 3 22 12 3 22 12 3 22 12 3 22 12 3 22 11 4 20 8 4 19 7 5 18 7 5 18 7 5 18 7 5 18 7 5 18 7 5 18 7 5 18 8 6 19 8 6 19 8 6 19 8 6 19 8 6 19 8 6 19 8 6 19 7 7 17 10 10 20 8 11 18 8 11 18 8 11 18 8 11 18 8 11 18 8 11 18 8 11 18 17 20 27 19 22 29 21 24 31 24 27 34 28 31 38 31 34 41 33 36 43 35 38 45 37 42 46 37 42 46 37 42 46 37 42 46 37 42 46 37 42 46 37 42 46 37 42 46 21 26 30 19 24 28 17 22 26 14 19 23 10 15 19 7 12 16 5 10 14 3 8 12 0 4 7 0 4 7 0 4 7 0 4 7 0 4 7 0 4 7 0 4 7 0 4 7 4 8 11 6 10 13 8 12 15 11 15 18 15 19 22 18 22 25 20 24 27 22 26 27 33 39 39 35 41 39 37 43 41 40 46 44 44 50 48 47 53 51 49 55 53 51 57 55 55 61 59 55 61 59 55 61 59 55 61 59 55 61 59 55 61 59 55 61 59 56 60 59 72 74 71 71 71 69 66 66 64 59 59 57 53 53 51 46 46 44 41 41 39 39 39 37 34 34 32 34 34 32 34 34 32 34 34 32 34 34 32 34 34 32 34 34 32 34 34 32 36 32 33 36 32 33 36 32 33 36 32 33 36 32 33 36 32 33 36 32 33 36 32 33 40 36 37 40 36 37 40 36 37 40 36 37 40 36 37 40 36 37 40 36 37 40 36 37
124 105 127 124 105 127 124 105 127 124 105 127 126 107 129 126 107 129 126 107 129 126 107 129 126 107 129 126 107 129 126 107 129 126 107 127 128 109 129 128 109 128 128 109 128 128 109 128 128 109 128 128 109 128 128 109 128 128 109 128 119 100 119 119 100 119 119 100 119 119 100 119 119 100 119 119 100 119 119 100 119 119 100 119 112 91 108 111 90 107 109 88 105 105 84 101 102 81 98 99 78 95 96 75 92 95 74 91 69 48 65 65 44 61 58 37 54 48 27 44 38 17 34 28 7 24 21 0 17 14 0 15 18 5 23 14 5 24 11 2 21 8 0 18 5 0 15 4 0 14 4 0 14 4 0 14 12 3 22 12 3 22 12 3 22 12 3 22 12 3 22 12 3 22 12 3 22 11 4 20 8 4 19 7 5 18 7 5 18 7 5 18 7 5 18 7 5 18 7 5 18 7 5 18 8 6 19 8 6 19 8 6 19 8 6 19 8 6 19 8 6 19 8 6 19 7 7 17 10 10 20 8 11 18 8 11 18 8 11 18 8 11 18 8 11 18 8 11 18 8 11 18 20 23 30 21 24 31 23 26 33 27 30 37 30 33 40 33 36 43 36 39 46 37 40 47 39 44 48 39 44 48 39 44 48 39 44 48 39 44 48 39 44 48 39 44 48 39 44 48 21 26 30 19 24 28 17 22 26 14 19 23 10 15 19 7 12 16 5 10 14 3 8 12 0 4 7 0 4 7 0 4 7 0 4 7 0 4 7 0 4 7 0 4 7 0 4 7 4 8 11 6 10 13 8 12 15 11 15 18 15 19 22 18 22 25 20 24 27 22 26 27 33 39 39 35 41 39 37 43 41 40 46 44 44 50 48 47 53 51 49 55 53 51 57 55 53 59 57 53 59 57 53 59 57 53 59 57 53 59 57 53 59 57 53 59 57 54 58 57 72 74 71 71 71 69 66 66 64 59 59 57 53 53 51 46 46 44 41 41 39 39 39 37 34 34 32 34 34 32 34 34 32 34 34 32 34 34 32 34 34 32 34 34 32 34 34 32 36 32 33 36 32 33 36 32 33 36 32 33 36 32 33 36 32 33 36 32 33 36 32 33 40 36 37 40 36 37 40 36 37 40 36 37 40 36 37 40 36 37 40 36 37 40 36 37
124 105 127 124 105 127 124 105 127 124 105 127 126 107 129 126 107 129 126 107 129 126 107 129 126 107 129 126 107 129 126 107 129 126 107 127 128 109 129 128 109 128 128 109 128 128 109 128 128 109 128 128 109 128 128 109 128 128 109 128 117 98 117 117 98 117 117 98 117 117 98 117 117 98 117 117 98 117 117 98 117 117 98 117 109 90 109 107 90 106 104 87 105 101 84 100 98 81 99 94 77 93 92 75 93 91 74 90 62 45 63 58 41 57 51 34 52 41 24 40 31 14 32 21 4 20 14 0 15 8 0 11 12 3 20 10 3 21 8 1 19 4 0 15 3 0 14 3 0 14 3 0 14 3 0 14 11 4 22 11 4 22 11 4 22 11 4 22 11 4 22 11 4 22 11 4 22 9 5 20 7 5 18 6 6 18 6 6 18 6 6 18 6 6 18 6 6 18 6 6 18 6 6 18 7 7 19 7 7 19 7 7 19 7 7 19 7 7 19 7 7 19 7 7 19 7 7 17 8 11 20 7 12 18 8 11 18 7 12 18 8 11 18 7 12 18 8 11 18 7 12 18 21 24 31 21 26 32 25 28 35 27 32 38 31 34 41 34 39 45 37 40 47 37 42 48 41 46 50 41 46 50 41 46 50 41 46 50 41 46 50 41 46 50 41 46 50 41 46 50 21 26 30 19 24 28 17 22 26 14 19 23 10 15 19 7 12 16 5 10 14 3 8 12 0 4 7 0 4 7 0 4 7 0 4 7 0 4 7 0 4 7 0 4 7 0 4 7 4 8 11 5 10 13 8 12 15 10 15 18 15 19 22 17 22 25 20 24 27 21 27 27 33 39 39 35 41 39 37 43 43 40 46 44 44 50 50 47 53 51 49 55 55 51 57 55 51 57 57 51 57 55 51 57 57 51 57 55 51 57 57 51 57 55 51 57 57 52 56 55 72 74 71 71 71 69 66 66 64 59 59 57 53 53 51 46 46 44 41 41 39 39 39 37 34 34 32 34 34 32 34 34 32 34 34 32 34 34 32 34 34 32 34 34 32 35 34 32 36 32 31 36 32 31 36 32 33 36 32 31 36 32 33 36 32 31 36 32 33 36 32 31 40 36 37 40 36 35 40 36 37 40 36 35 40 36 37 40 36 35 40 36 37 40 36 37
129 107 128 129 107 128 129 107 128 129 107 128 133 111 132 133 111 132 133 111 132 133 111 132 133 111 132 133 111 132 133 111 132 133 111 132 132 110 131 132 110 131 132 110 131 132 110 131 132 110 131 132 110 131 132 110 131 132 110 131 132 110 131 131 109 130 129 107 128 125 103 124 122 100 121 119 97 118 116 94 115 112 95 114 107 94 112 102 91 107 95 84 101 85 74 90 75 64 81 65 54 70 58 47 64 54 43 59 14 3 20 14 3 19 14 3 20 14 3 19 14 3 20 14 3 19 14 3 20 12 3 20 6 2 17 5 3 17 5 3 17 5 3 17 5 3 17 5 3 17 5 3 17 5 3 17 6 4 18 6 4 18 6 4 18 6 4 18 6 4 18 6 4 18 6 4 18 5 4 18 6 8 20 6 8 20 6 8 20 6 8 20 6 8 20 6 8 20 6 8 20 6 8 20 8 10 22 8 10 22 8 10 22 8 10 22 8 10 22 8 10 22 8 10 22 7 11 20 14 18 27 11 18 24 12 17 23 9 16 22 10 15 21 6 13 19 8 13 19 5 12 18 41 46 52 39 46 52 41 46 52 39 46 52 41 46 52 39 46 52 41 46 52 39 46 52 39 46 52 39 46 52 39 46 52 39 46 52 39 46 52 39 46 52 39 46 52 39 46 52 29 36 42 27 34 40 22 29 35 15 22 28 9 16 22 2 9 15 0 4 10 0 3 6 1 9 11 1 10 9 3 9 9 1 10 9 3 9 9 1 10 9 3 9 9 1 10 9 6 12 12 6 15 14 10 16 16 11 20 19 17 23 23 18 27 26 22 28 28 24 30 30 25 31 31 27 33 33 29 34 37 32 38 38 36 41 44 39 45 45 41 46 49 43 49 49 53 58 61 53 59 59 53 58 61 53 59 59 53 58 61 53 59 59 53 58 61 54 58 59 53 53 53 52 51 49 50 49 47 47 46 44 43 42 40 40 39 37 38 37 35 36 35 33 34 33 31 34 33 31 34 33 31 34 33 31 34 33 31 34 33 31 34 33 31 34 33 31 36 32 31 37 32 29 37 31 31 37 32 29 37 31 31 37 32 29 37 31 31 37 32 29 38 32 32 38 33 30 38 32 32 38 33 30 38 32 32 38 33 30 38 32 32 38 32 32
129 107 128 129 107 128 129 107 128 129 107 128 133 111 132 133 111 132 133 111 132 133 111 132 133 111 132 133 111 132 133 111 132 133 111 132 132 110 131 132 110 131 132 110 131 132 110 131 132 110 131 132 110 131 132 110 131 132 110 131 131 109 130 130 108 129 127 105 126 124 102 123 121 99 120 117 95 116 115 93 114 111 94 113 102 91 108 95 88 104 88 81 97 78 71 87 68 61 77 58 51 67 51 44 60 47 40 56 11 4 20 11 4 20 11 4 20 11 4 20 11 4 20 11 4 20 11 4 20 9 5 20 5 3 17 4 3 17 4 3 17 4 3 17 4 3 17 4 3 17 4 3 17 4 3 17 5 4 18 5 4 18 5 4 18 5 4 18 5 4 18 5 4 18 5 4 18 3 5 18 6 8 20 5 9 20 5 9 20 5 9 20 5 9 20 5 9 20 5 9 20 5 9 20 7 11 22 7 11 22 7 11 22 7 11 22 7 11 22 7 11 22 7 11 22 7 11 20 11 18 26 11 18 24 11 18 24 10 17 23 9 16 22 9 16 22 8 15 21 8 15 21 41 48 54 41 48 54 41 48 54 41 48 54 41 48 54 41 48 54 41 48 54 41 48 54 39 46 52 39 46 52 39 46 52 39 46 52 39 46 52 39 46 52 39 46 52 39 46 52 29 36 42 27 34 40 22 29 35 15 22 28 9 16 22 2 9 15 0 4 10 0 3 6 1 9 11 1 10 9 1 10 9 1 10 9 1 10 9 1 10 9 1 10 9 1 10 9 4 13 12 6 15 14 8 17 16 11 20 19 15 24 23 18 27 26 20 29 28 22 31 30 25 30 33 27 32 35 29 34 37 32 37 40 36 41 44 39 44 47 41 46 49 43 48 51 51 56 59 51 56 59 51 56 59 51 56 59 51 56 59 51 56 59 51 56 59 52 56 57 53 53 53 52 51 49 50 49 47 47 46 44 43 42 40 40 39 37 38 37 35 36 35 33 34 33 31 34 33 31 34 33 31 34 33 31 34 33 31 34 33 31 34 33 31 34 33 31 37 32 29 37 32 29 37 32 29 37 32 29 37 32 29 37 32 29 37 32 29 37 32 29 38 33 30 38 33 30 38 33 30 38 33 30 38 33 30 38 33 30 38 33 30 38 33 30
129 107 128 129 107 128 129 107 128 129 107 128 133 111 132 133 111 132 133 111 132 133 111 132 133 111 132 133 111 132 133 111 132 133 111 132 132 110 131 132 110 131 132 110 131 132 110 131 132 110 131 132 110 131 132 110 131 132 110 131 129 107 128 127 105 126 125 103 124 122 100 121 118 96 117 115 93 114 113 91 112 108 91 110 95 84 101 88 81 97 80 73 89 71 64 80 61 54 70 51 44 60 44 37 53 40 33 49 11 4 20 11 4 20 11 4 20 11 4 20 11 4 20 11 4 20 11 4 20 9 5 20 5 3 17 4 3 17 4 3 17 4 3 17 4 3 17 4 3 17 4 3 17 4 3 17 5 4 18 5 4 18 5 4 18 5 4 18 5 4 18 5 4 18 5 4 18 3 5 18 6 8 20 5 9 20 5 9 20 5 9 20 5 9 20 5 9 20 5 9 20 5 9 20 7 11 22 7 11 22 7 11 22 7 11 22 7 11 22 7 11 22 7 11 22 7 11 20 10 17 25 11 18 24 11 18 24 12 19 25 12 19 25 13 20 26 14 21 27 14 21 27 43 50 56 43 50 56 43 50 56 43 50 56 43 50 56 43 50 56 43 50 56 43 50 56 39 46 52 39 46 52 39 46 52 39 46 52 39 46 52 39 46 52 39 46 52 39 46 52 29 36 42 27 34 40 22 29 35 15 22 28 9 16 22 2 9 15 0 4 10 0 3 6 1 9 11 1 10 9 1 10 9 1 10 9 1 10 9 1 10 9 1 10 9 1 10 9 4 13 12 6 15 14 8 17 16 11 20 19 15 24 23 18 27 26 20 29 28 22 31 30 25 30 33 27 32 35 29 34 37 32 37 40 36 41 44 39 44 47 41 46 49 43 48 51 49 54 57 49 54 57 49 54 57 49 54 57 49 54 57 49 54 57 49 54 57 50 54 55 53 53 53 52 51 49 50 49 47 47 46 44 43 42 40 40 39 37 38 37 35 36 35 33 34 33 31 34 33 31 34 33 31 34 33 31 34 33 31 34 33 31 34 33 31 34 33 31 37 32 29 37 32 29 37 32 29 37 32 29 37 32 29 37 32 29 37 32 29 37 32 29 38 33 30 38 33 30 38 33 30 38 33 30 38 33 30 38 33 30 38 33 30 38 33 30
129 107 128 129 107 128 129 107 128 129 107 128 133 111 132 133 111 132 133 111 132 133 111 132 133 111 132 133 111 132 133 111 132 133 111 132 132 110 131 132 110 131 132 110 131 132 110 131 132 110 131 132 110 131 132 110 131 132 110 131 125 103 124 124 102 123 122 100 121 118 96 117 115 93 114 112 90 111 109 87 108 105 88 107 85 74 91 78 71 87 71 64 80 61 54 70 51 44 60 41 34 50 34 27 43 30 23 39 11 4 20 11 4 20 11 4 20 11 4 20 11 4 20 11 4 20 11 4 20 9 5 20 5 3 17 4 3 17 4 3 17 4 3 17 4 3 17 4 3 17 4 3 17 4 3 17 5 4 18 5 4 18 5 4 18 5 4 18 5 4 18 5 4 18 5 4 18 3 5 18 6 8 20 5 9 20 5 9 20 5 9 20 5 9 20 5 9 20 5 9 20 5 9 20 7 11 22 7 11 22 7 11 22 7 11 22 7 11 22 7 11 22 7 11 22 7 11 20 9 16 24 10 17 23 12 19 25 14 21 27 17 24 30 19 26 32 21 28 34 22 29 35 46 53 59 46 53 59 46 53 59 46 53 59 46 53 59 46 53 59 46 53 59 46 53 59 39 46 52 39 46 52 39 46 52 39 46 52 39 46 52 39 46 52 39 46 52 39 46 52 29 36 42 27 34 40 22 29 35 15 22 28 9 16 22 2 9 15 0 4 10 0 3 6 1 9 11 1 10 9 1 10 9 1 10 9 1 10 9 1 10 9 1 10 9 1 10 9 4 13 12 6 15 14 8 17 16 11 20 19 15 24 23 18 27 26 20 29 28 22 31 30 25 30 33 27 32 35 29 34 37 32 37 40 36 41 44 39 44 47 41 46 49 43 48 51 46 51 54 46 51 54 46 51 54 46 51 54 46 51 54 46 51 54 46 51 54 47 51 52 53 53 53 52 51 49 50 49 47 47 46 44 43 42 40 40 39 37 38 37 35 36 35 33 34 33 31 34 33 31 34 33 31 34 33 31 34 33 31 34 33 31 34 33 31 34 33 31 37 32 29 37 32 29 37 32 29 37 32 29 37 32 29 37 32 29 37 32 29 37 32 29 38 33 30 38 33 30 38 33 30 38 33 30 38 33 30 38 33 30 38 33 30 38 33 30
129 107 128 129 107 128 129 107 128 129 107 128 133 111 132 133 111 132 133 111 132 133 111 132 133 111 132 133 111 132 133 111 132 133 111 132 132 110 131 132 110 131 132 110 131 132 110 131 132 110 131 132 110 131 132 110 131 132 110 131 122 100 121 121 99 120 118 96 117 115 93 114 112 90 111 108 86 107 106 84 105 102 85 104 75 64 81 68 61 77 61 54 70 51 44 60 41 34 50 31 24 40 24 17 33 20 13 29 11 4 20 11 4 20 11 4 20 11 4 20 11 4 20 11 4 20 11 4 20 9 5 20 5 3 17 4 3 17 4 3 17 4 3 17 4 3 17 4 3 17 4 3 17 4 3 17 5 4 18 5 4 18 5 4 18 5 4 18 5 4 18 5 4 18 5 4 18 3 5 18 6 8 20 5 9 20 5 9 20 5 9 20 5 9 20 5 9 20 5 9 20 5 9 20 7 11 22 7 11 22 7 11 22 7 11 22 7 11 22 7 11 22 7 11 22 7 11 20 8 15 23 9 16 22 12 19 25 17 24 30 21 28 34 25 32 38 28 35 41 30 37 43 50 57 63 50 57 63 50 57 63 50 57 63 50 57 63 50 57 63 50 57 63 50 57 63 39 46 52 39 46 52 39 46 52 39 46 52 39 46 52 39 46 52 39 46 52 39 46 52 29 36 42 27 34 40 22 29 35 15 22 28 9 16 22 2 9 15 0 4 10 0 3 6 1 9 11 1 10 9 1 10 9 1 10 9 1 10 9 1 10 9 1 10 9 1 10 9 4 13 12 6 15 14 8 17 16 11 20 19 15 24 23 18 27 26 20 29 28 22 31 30 25 30 33 27 32 35 29 34 37 32 37 40 36 41 44 39 44 47 41 46 49 43 48 51 42 47 50 42 47 50 42 47 50 42 47 50 42 47 50 42 47 50 42 47 50 43 47 48 53 53 53 52 51 49 50 49 47 47 46 44 43 42 40 40 39 37 38 37 35 36 35 33 34 33 31 34 33 31 34 33 31 34 33 31 34 33 31 34 33 31 34 33 31 34 33 31 37 32 29 37 32 29 37 32 29 37 32 29 37 32 29 37 32 29 37 32 29 37 32 29 38 33 30 38 33 30 38 33 30 38 33 30 38 33 30 38 33 30 38 33 30 38 33 30
129 107 128 129 107 128 129 107 128 129 107 128 133 111 132 133 111 132 133 111 132 133 111 132 133 111 132 133 111 132 133 111 132 133 111 132 132 110 131 132 110 131 132 110 131 132 110 131 132 110 131 132 110 131 132 110 131 132 110 131 119 97 118 117 95 116 115 93 114 112 90 111 108 86 107 105 83 104 103 81 102 98 81 100 65 54 71 58 51 67 51 44 60 41 34 50 31 24 40 22 15 31 14 7 23 10 3 19 11 4 20 11 4 20 11 4 20 11 4 20 11 4 20 11 4 20 11 4 20 9 5 20 5 3 17 4 3 17 4 3 17 4 3 17 4 3 17 4 3 17 4 3 17 4 3 17 5 4 18 5 4 18 5 4 18 5 4 18 5 4 18 5 4 18 5 4 18 3 5 18 6 8 20 5 9 20 5 9 20 5 9 20 5 9 20 5 9 20 5 9 20 5 9 20 7 11 22 7 11 22 7 11 22 7 11 22 7 11 22 7 11 22 7 11 22 7 11 20 6 13 21 9 16 22 13 20 26 19 26 32 25 32 38 31 38 44 35 42 48 37 44 50 53 60 66 53 60 66 53 60 66 53 60 66 53 60 66 53 60 66 53 60 66 53 60 66 39 46 52 39 46 52 39 46 52 39 46 52 39 46 52 39 46 52 39 46 52 39 46 52 29 36 42 27 34 40 22 29 35 15 22 28 9 16 22 2 9 15 0 4 10 0 3 6 1 9 11 1 10 9 1 10 9 1 10 9 1 10 9 1 10 9 1 10 9 1 10 9 4 13 12 6 15 14 8 17 16 11 20 19 15 24 23 18 27 26 20 29 28 22 31 30 25 30 33 27 32 35 29 34 37 32 37 40 36 41 44 39 44 47 41 46 49 43 48 51 39 44 47 39 44 47 39 44 47 39 44 47 39 44 47 39 44 47 39 44 47 40 44 45 53 53 53 52 51 49 50 49 47 47 46 44 43 42 40 40 39 37 38 37 35 36 35 33 34 33 31 34 33 31 34 33 31 34 33 31 34 33 31 34 33 31 34 33 31 34 33 31 37 32 29 37 32 29 37 32 29 37 32 29 37 32 29 37 32 29 37 32 29 37 32 29 38 33 30 38 33 30 38 33 30 38 33 30 38 33 30 38 33 30 38 33 30 38 33 30
129 107 128 129 107 128 129 107 128 129 107 128 133 111 132 133 111 132 133 111 132 133 111 132 133 111 132 133 111 132 133 111 132 133 111 132 132 110 131 132 110 131 132 110 131 132 110 131 132 110 131 132 110 131 132 110 131 132 110 131 116 94 115 115 93 114 113 91 112 109 87 108 106 84 105 103 81 102 100 78 99 96 79 98 58 47 64 51 44 60 44 37 53 34 27 43 24 17 33 14 7 23 7 0 16 3 0 12 11 4 20 11 4 20 11 4 20 11 4 20 11 4 20 11 4 20 11 4 20 9 5 20 5 3 17 4 3 17 4 3 17 4 3 17 4 3 17 4 3 17 4 3 17 4 3 17 5 4 18 5 4 18 5 4 18 5 4 18 5 4 18 5 4 18 5 4 18 3 5 18 6 8 20 5 9 20 5 9 20 5 9 20 5 9 20 5 9 20 5 9 20 5 9 20 7 11 22 7 11 22 7 11 22 7 11 22 7 11 22 7 11 22 7 11 22 7 11 20 5 12 20 8 15 21 14 21 27 21 28 34 28 35 41 35 42 48 40 47 53 43 50 56 55 62 68 55 62 68 55 62 68 55 62 68 55 62 68 55 62 68 55 62 68 55 62 68 39 46 52 39 46 52 39 46 52 39 46 52 39 46 52 39 46 52 39 46 52 39 46 52 29 36 42 27 34 40 22 29 35 15 22 28 9 16 22 2 9 15 0 4 10 0 3 6 1 9 11 1 10 9 1 10 9 1 10 9 1 10 9 1 10 9 1 10 9 1 10 9 4 13 12 6 15 14 8 17 16 11 20 19 15 24 23 18 27 26 20 29 28 22 31 30 25 30 33 27 32 35 29 34 37 32 37 40 36 41 44 39 44 47 41 46 49 43 48 51 37 42 45 37 42 45 37 42 45 37 42 45 37 42 45 37 42 45 37 42 45 38 42 43 53 53 53 52 51 49 50 49 47 47 46 44 43 42 40 40 39 37 38 37 35 36 35 33 34 33 31 34 33 31 34 33 31 34 33 31 34 33 31 34 33 31 34 33 31 34 33 31 37 32 29 37 32 29 37 32 29 37 32 29 37 32 29 37 32 29 37 32 29 37 32 29 38 33 30 38 33 30 38 33 30 38 33 30 38 33 30 38 33 30 38 33 30 38 33 30
129 107 128 129 107 128 129 107 128 129 107 128 133 111 132 133 111 132 133 111 132 133 111 132 133 111 132 133 111 132 133 111 132 133 111 132 132 110 131 132 110 131 132 110 131 132 110 131 132 110 131 132 110 131 132 110 131 132 110 131 115 93 114 114 92 113 111 89 110 108 86 107 105 83 104 101 79 100 99 77 98 95 78 97 54 43 60 47 40 56 40 33 49 30 23 39 20 13 29 10 3 19 3 0 12 3 0 12 11 4 20 11 4 20 11 4 20 11 4 20 11 4 20 11 4 20 11 4 20 9 5 20 5 3 17 4 3 17 4 3 17 4 3 17 4 3 17 4 3 17 4 3 17 4 3 17 5 4 18 5 4 18 5 4 18 5 4 18 5 4 18 5 4 18 5 4 18 3 5 18 6 8 20 5 9 20 5 9 20 5 9 20 5 9 20 5 9 20 5 9 20 5 9 20 7 11 22 7 11 22 7 11 22 7 11 22 7 11 22 7 11 22 7 11 22 7 11 20 5 12 20 8 15 21 14 21 27 22 29 35 30 37 43 37 44 50 43 50 56 46 53 59 57 64 70 57 64 70 57 64 70 57 64 70 57 64 70 57 64 70 57 64 70 57 64 70 39 46 52 39 46 52 39 46 52 39 46 52 39 46 52 39 46 52 39 46 52 39 46 52 29 36 42 27 34 40 22 29 35 15 22 28 9 16 22 2 9 15 0 4 10 0 3 6 1 9 11 1 10 9 1 10 9 1 10 9 1 10 9 1 10 9 1 10 9 1 10 9 4 13 12 6 15 14 8 17 16 11 20 19 15 24 23 18 27 26 20 29 28 22 31 30 25 30 33 27 32 35 29 34 37 32 37 40 36 41 44 39 44 47 41 46 49 43 48 51 35 40 43 35 40 43 35 40 43 35 40 43 35 40 43 35 40 43 35 40 43 36 40 41 53 53 53 52 51 49 50 49 47 47 46 44 43 42 40 40 39 37 38 37 35 36 35 33 34 33 31 34 33 31 34 33 31 34 33 31 34 33 31 34 33 31 34 33 31 34 33 31 37 32 29 37 32 29 37 32 29 37 32 29 37 32 29 37 32 29 37 32 29 37 32 29 38 33 30 38 33 30 38 33 30 38 33 30 38 33 30 38 33 30 38 33 30 38 33 30
143 121 142 143 121 142 143 121 142 143 121 142 130 108 129 131 109 130 131 109 130 133 111 132 134 112 133 135 113 134 136 114 135 137 115 136 135 113 134 134 112 133 132 110 131 128 106 127 125 103 124 122 100 121 119 97 118 118 96 117 126 104 125 122 100 121 113 91 112 103 81 102 91 69 90 80 58 79 72 50 71 64 47 66 46 35 52 40 33 49 34 27 43 27 20 36 19 12 28 11 4 20 5 0 14 3 0 12 11 4 20 11 4 20 11 4 20 11 4 20 11 4 20 11 4 20 11 4 20 9 5 20 6 4 18 5 4 18 5 4 18 5 4 18 5 4 18 5 4 18 5 4 18 5 4 18 4 3 17 4 3 17 4 3 17 4 3 17 4 3 17 4 3 17 4 3 17 2 4 17 4 6 18 3 7 18 3 7 18 3 7 18 3 7 18 3 7 18 3 7 18 3 7 18 5 9 20 4 8 19 4 8 19 2 6 17 1 5 16 0 4 15 0 3 14 0 2 11 22 29 37 25 32 38 31 38 44 38 45 51 46 53 59 54 61 67 60 67 73 63 70 76 57 64 70 57 64 70 57 64 70 57 64 70 57 64 70 57 64 70 57 64 70 57 64 70 52 59 65 50 57 63 48 55 61 45 52 58 41 48 54 38 45 51 36 43 49 34 41 47 23 30 36 21 28 34 19 26 32 16 23 29 12 19 25 9 16 22 7 14 20 5 13 16 3 11 13 3 12 11 3 12 11 3 12 11 3 12 11 3 12 11 3 12 11 3 12 11 5 14 13 7 16 15 9 18 17 12 21 20 16 25 24 19 28 27 21 30 29 23 32 31 28 33 36 28 33 36 28 33 36 28 33 36 28 33 36 28 33 36 28 33 36 28 33 36 32 37 40 32 37 40 32 37 40 32 37 40 32 37 40 32 37 40 32 37 40 33 37 38 33 33 33 34 33 31 34 33 31 34 33 31 34 33 31 34 33 31 34 33 31 34 33 31 32 31 29 32 31 29 32 31 29 32 31 29 32 31 29 32 31 29 32 31 29 32 31 29 36 31 28 36 31 28 36 31 28 36 31 28 36 31 28 36 31 28 36 31 28 36 31 28 37 32 29 37 32 29 37 32 29 37 32 29 37 32 29 37 32 29 37 32 29 37 32 29
141 119 140 141 119 140 141 119 140 141 119 140 134 112 133 134 112 133 134 112 133 135 113 134 135 113 134 136 114 135 136 114 135 137 115 136 130 108 129 129 107 128 126 104 125 123 101 122 120 98 119 116 94 115 114 92 113 113 91 112 119 97 118 115 93 114 107 85 106 97 75 96 86 64 85 76 54 75 68 46 67 61 44 63 43 32 49 37 30 46 32 25 41 25 18 34 18 11 27 11 4 20 5 0 14 3 0 12 11 4 20 11 4 20 11 4 20 11 4 20 11 4 20 11 4 20 11 4 20 9 5 20 6 4 18 5 4 18 5 4 18 5 4 18 5 4 18 5 4 18 5 4 18 5 4 18 4 3 17 4 3 17 4 3 17 4 3 17 4 3 17 4 3 17 4 3 17 2 4 17 4 6 18 3 7 18 3 7 18 3 7 18 3 7 18 3 7 18 3 7 18 3 7 18 6 10 21 6 10 21 5 9 20 5 9 20 4 8 19 3 7 18 3 7 18 3 7 16 25 32 40 28 35 41 33 40 46 40 47 53 47 54 60 54 61 67 60 67 73 63 70 76 57 64 70 57 64 70 57 64 70 57 64 70 57 64 70 57 64 70 57 64 70 57 64 70 52 59 65 50 57 63 48 55 61 45 52 58 41 48 54 38 45 51 36 43 49 34 41 47 23 30 36 21 28 34 19 26 32 16 23 29 12 19 25 9 16 22 7 14 20 5 13 16 3 11 13 3 12 11 3 12 11 3 12 11 3 12 11 3 12 11 3 12 11 3 12 11 5 14 13 7 16 15 9 18 17 12 21 20 16 25 24 19 28 27 21 30 29 23 32 31 28 33 36 28 33 36 28 33 36 28 33 36 28 33 36 28 33 36 28 33 36 28 33 36 32 37 40 32 37 40 32 37 40 32 37 40 32 37 40 32 37 40 32 37 40 33 37 38 33 33 33 34 33 31 34 33 31 34 33 31 34 33 31 34 33 31 34 33 31 34 33 31 32 31 29 32 31 29 32 31 29 32 31 29 32 31 29 32 31 29 32 31 29 32 31 29 36 31 28 36 31 28 36 31 28 36 31 28 36 31 28 36 31 28 36 31 28 36 31 28 37 32 29 37 32 29 37 32 29 37 32 29 37 32 29 37 32 29 37 32 29 37 32 29
139 117 138 139 117 138 139 117 138 139 117 138 138 116 137 137 115 136 137 115 136 136 114 135 135 113 134 135 113 134 134 112 133 134 112 133 120 98 119 119 97 118 117 95 116 113 91 112 110 88 109 107 85 106 104 82 103 103 81 102 106 84 105 102 80 101 95 73 94 86 64 85 77 55 76 68 46 67 61 39 60 55 38 57 37 26 43 32 25 41 28 21 37 22 15 31 16 9 25 10 3 19 6 0 15 3 0 12 11 4 20 11 4 20 11 4 20 11 4 20 11 4 20 11 4 20 11 4 20 9 5 20 6 4 18 5 4 18 5 4 18 5 4 18 5 4 18 5 4 18 5 4 18 5 4 18 4 3 17 4 3 17 4 3 17 4 3 17 4 3 17 4 3 17 4 3 17 2 4 17 4 6 18 3 7 18 3 7 18 3 7 18 3 7 18 3 7 18 3 7 18 3 7 18 7 11 22 8 12 23 8 12 23 9 13 24 10 14 25 10 14 25 11 15 26 11 15 24 31 38 46 33 40 46 37 44 50 43 50 56 49 56 62 55 62 68 59 66 72 62 69 75 57 64 70 57 64 70 57 64 70 57 64 70 57 64 70 57 64 70 57 64 70 57 64 70 52 59 65 50 57 63 48 55 61 45 52 58 41 48 54 38 45 51 36 43 49 34 41 47 23 30 36 21 28 34 19 26 32 16 23 29 12 19 25 9 16 22 7 14 20 5 13 16 3 11 13 3 12 11 3 12 11 3 12 11 3 12 11 3 12 11 3 12 11 3 12 11 5 14 13 7 16 15 9 18 17 12 21 20 16 25 24 19 28 27 21 30 29 23 32 31 28 33 36 28 33 36 28 33 36 28 33 36 28 33 36 28 33 36 28 33 36 28 33 36 32 37 40 32 37 40 32 37 40 32 37 40 32 37 40 32 37 40 32 37 40 33 37 38 33 33 33 34 33 31 34 33 31 34 33 31 34 33 31 34 33 31 34 33 31 34 33 31 32 31 29 32 31 29 32 31 29 32 31 29 32 31 29 32 31 29 32 31 29 32 31 29 36 31 28 36 31 28 36 31 28 36 31 28 36 31 28 36 31 28 36 31 28 36 31 28 37 32 29 37 32 29 37 32 29 37 32 29 37 32 29 37 32 29 37 32 29 37 32 29
136 114 135 136 114 135 136 114 135 136 114 135 138 116 137 137 115 136 135 113 134 133 111 132 131 109 130 128 106 127 126 104 125 126 104 125 108 86 107 106 84 105 104 82 103 101 79 100 97 75 96 94 72 93 92 70 91 90 68 89 89 67 88 86 64 85 80 58 79 73 51 72 65 43 64 58 36 57 52 30 51 46 29 48 30 19 36 25 18 34 22 15 31 18 11 27 14 7 23 9 2 18 6 0 15 5 0 14 11 4 20 11 4 20 11 4 20 11 4 20 11 4 20 11 4 20 11 4 20 9 5 20 6 4 18 5 4 18 5 4 18 5 4 18 5 4 18 5 4 18 5 4 18 5 4 18 4 3 17 4 3 17 4 3 17 4 3 17 4 3 17 4 3 17 4 3 17 2 4 17 4 6 18 3 7 18 3 7 18 3 7 18 3 7 18 3 7 18 3 7 18 3 7 18 9 13 24 10 14 25 12 16 27 14 18 29 17 21 32 19 23 34 21 25 36 22 26 35 38 45 53 40 47 53 43 50 56 47 54 60 51 58 64 56 63 69 59 66 72 60 67 73 57 64 70 57 64 70 57 64 70 57 64 70 57 64 70 57 64 70 57 64 70 57 64 70 52 59 65 50 57 63 48 55 61 45 52 58 41 48 54 38 45 51 36 43 49 34 41 47 23 30 36 21 28 34 19 26 32 16 23 29 12 19 25 9 16 22 7 14 20 5 13 16 3 11 13 3 12 11 3 12 11 3 12 11 3 12 11 3 12 11 3 12 11 3 12 11 5 14 13 7 16 15 9 18 17 12 21 20 16 25 24 19 28 27 21 30 29 23 32 31 28 33 36 28 33 36 28 33 36 28 33 36 28 33 36 28 33 36 28 33 36 28 33 36 32 37 40 32 37 40 32 37 40 32 37 40 32 37 40 32 37 40 32 37 40 33 37 38 33 33 33 34 33 31 34 33 31 34 33 31 34 33 31 34 33 31 34 33 31 34 33 31 32 31 29 32 31 29 32 31 29 32 31 29 32 31 29 32 31 29 32 31 29 32 31 29 36 31 28 36 31 28 36 31 28 36 31 28 36 31 28 36 31 28 36 31 28 36 31 28 37 32 29 37 32 29 37 32 29 37 32 29 37 32 29 37 32 29 37 32 29 37 32 29
132 110 131 132 110 131 132 110 131 132 110 131 133 111 132 131 109 130 128 106 127 124 102 123 119 97 118 115 93 114 112 90 111 110 88 109 94 72 93 92 70 91 90 68 89 87 65 86 83 61 82 80 58 79 78 56 77 76 54 75 70 48 69 68 46 67 64 42 63 58 36 57 52 30 51 47 25 46 42 20 41 37 20 39 22 11 28 18 11 27 16 9 25 14 7 23 11 4 20 9 2 18 7 0 16 6 0 15 11 4 20 11 4 20 11 4 20 11 4 20 11 4 20 11 4 20 11 4 20 9 5 20 6 4 18 5 4 18 5 4 18 5 4 18 5 4 18 5 4 18 5 4 18 5 4 18 4 3 17 4 3 17 4 3 17 4 3 17 4 3 17 4 3 17 4 3 17 2 4 17 4 6 18 3 7 18 3 7 18 3 7 18 3 7 18 3 7 18 3 7 18 3 7 18 11 15 26 13 17 28 16 20 31 20 24 35 25 29 40 29 33 44 32 36 47 33 37 46 46 53 61 47 54 60 49 56 62 51 58 64 54 61 67 56 63 69 58 65 71 59 66 72 57 64 70 57 64 70 57 64 70 57 64 70 57 64 70 57 64 70 57 64 70 57 64 70 52 59 65 50 57 63 48 55 61 45 52 58 41 48 54 38 45 51 36 43 49 34 41 47 23 30 36 21 28 34 19 26 32 16 23 29 12 19 25 9 16 22 7 14 20 5 13 16 3 11 13 3 12 11 3 12 11 3 12 11 3 12 11 3 12 11 3 12 11 3 12 11 5 14 13 7 16 15 9 18 17 12 21 20 16 25 24 19 28 27 21 30 29 23 32 31 28 33 36 28 33 36 28 33 36 28 33 36 28 33 36 28 33 36 28 33 36 28 33 36 32 37 40 32 37 40 32 37 40 32 37 40 32 37 40 32 37 40 32 37 40 33 37 38 33 33 33 34 33 31 34 33 31 34 33 31 34 33 31 34 33 31 34 33 31 34 33 31 32 31 29 32 31 29 32 31 29 32 31 29 32 31 29 32 31 29 32 31 29 32 31 29 36 31 28 36 31 28 36 31 28 36 31 28 36 31 28 36 31 28 36 31 28 36 31 28 37 32 29 37 32 29 37 32 29 37 32 29 37 32 29 37 32 29 37 32 29 37 32 29
129 107 128 129 107 128 129 107 128 129 107 128 122 100 121 119 97 118 115 93 114 109 87 108 103 81 102 97 75 96 93 71 92 91 69 90 81 59 80 80 58 79 77 55 76 74 52 73 71 49 70 67 45 66 65 43 64 64 42 63 53 31 52 51 29 50 48 26 47 44 22 43 40 18 39 36 14 35 33 11 32 29 12 31 14 3 20 11 4 20 10 3 19 9 2 18 9 2 18 8 1 17 8 1 17 7 0 16 11 4 20 11 4 20 11 4 20 11 4 20 11 4 20 11 4 20 11 4 20 9 5 20 6 4 18 5 4 18 5 4 18 5 4 18 5 4 18 5 4 18 5 4 18 5 4 18 4 3 17 4 3 17 4 3 17 4 3 17 4 3 17 4 3 17 4 3 17 2 4 17 4 6 18 3 7 18 3 7 18 3 7 18 3 7 18 3 7 18 3 7 18 3 7 18 13 17 28 16 20 31 20 24 35 26 30 41 32 36 47 38 42 53 42 46 57 44 48 57 54 61 69 54 61 67 55 62 68 56 63 69 56 63 69 57 64 70 57 64 70 58 65 71 57 64 70 57 64 70 57 64 70 57 64 70 57 64 70 57 64 70 57 64 70 57 64 70 52 59 65 50 57 63 48 55 61 45 52 58 41 48 54 38 45 51 36 43 49 34 41 47 23 30 36 21 28 34 19 26 32 16 23 29 12 19 25 9 16 22 7 14 20 5 13 16 3 11 13 3 12 11 3 12 11 3 12 11 3 12 11 3 12 11 3 12 11 3 12 11 5 14 13 7 16 15 9 18 17 12 21 20 16 25 24 19 28 27 21 30 29 23 32 31 28 33 36 28 33 36 28 33 36 28 33 36 28 33 36 28 33 36 28 33 36 28 33 36 32 37 40 32 37 40 32 37 40 32 37 40 32 37 40 32 37 40 32 37 40 33 37 38 33 33 33 34 33 31 34 33 31 34 33 31 34 33 31 34 33 31 34 33 31 34 33 31 32 31 29 32 31 29 32 31 29 32 31 29 32 31 29 32 31 29 32 31 29 32 31 29 36 31 28 36 31 28 36 31 28 36 31 28 36 31 28 36 31 28 36 31 28 36 31 28 37 32 29 37 32 29 37 32 29 37 32 29 37 32 29 37 32 29 37 32 29 37 32 29
127 105 126 127 105 126 127 105 126 127 105 126 110 88 109 107 85 106 102 80 101 95 73 94 87 65 86 80 58 79 75 53 74 72 50 71 71 49 70 70 48 69 68 46 67 64 42 63 61 39 60 58 36 57 55 33 54 54 32 53 40 18 39 39 17 38 37 15 36 34 12 33 31 9 30 29 7 28 27 5 26 22 5 24 8 0 14 5 0 14 6 0 15 6 0 15 7 0 16 8 1 17 8 1 17 8 1 17 11 4 20 11 4 20 11 4 20 11 4 20 11 4 20 11 4 20 11 4 20 9 5 20 6 4 18 5 4 18 5 4 18 5 4 18 5 4 18 5 4 18 5 4 18 5 4 18 4 3 17 4 3 17 4 3 17 4 3 17 4 3 17 4 3 17 4 3 17 2 4 17 4 6 18 3 7 18 3 7 18 3 7 18 3 7 18 3 7 18 3 7 18 3 7 18 15 19 30 18 22 33 23 27 38 30 34 45 37 41 52 44 48 59 50 54 65 53 57 66 60 67 75 60 67 73 59 66 72 59 66 72 58 65 71 57 64 70 57 64 70 57 64 70 57 64 70 57 64 70 57 64 70 57 64 70 57 64 70 57 64 70 57 64 70 57 64 70 52 59 65 50 57 63 48 55 61 45 52 58 41 48 54 38 45 51 36 43 49 34 41 47 23 30 36 21 28 34 19 26 32 16 23 29 12 19 25 9 16 22 7 14 20 5 13 16 3 11 13 3 12 11 3 12 11 3 12 11 3 12 11 3 12 11 3 12 11 3 12 11 5 14 13 7 16 15 9 18 17 12 21 20 16 25 24 19 28 27 21 30 29 23 32 31 28 33 36 28 33 36 28 33 36 28 33 36 28 33 36 28 33 36 28 33 36 28 33 36 32 37 40 32 37 40 32 37 40 32 37 40 32 37 40 32 37 40 32 37 40 33 37 38 33 33 33 34 33 31 34 33 31 34 33 31 34 33 31 34 33 31 34 33 31 34 33 31 32 31 29 32 31 29 32 31 29 32 31 29 32 31 29 32 31 29 32 31 29 32 31 29 36 31 28 36 31 28 36 31 28 36 31 28 36 31 28 36 31 28 36 31 28 36 31 28 37 32 29 37 32 29 37 32 29 37 32 29 37 32 29 37 32 29 37 32 29 37 32 29
122 105 124 122 105 124 122 105 124 122 105 124 99 82 101 96 79 98 90 73 92 82 65 84 74 57 76 67 50 69 61 44 63 58 41 60 63 46 65 62 45 64 59 42 61 56 39 58 53 36 55 49 32 51 47 30 49 46 29 48 30 13 32 29 12 31 27 10 29 25 8 27 23 6 25 21 4 23 20 3 22 16 3 21 4 0 12 1 0 12 3 0 12 3 0 14 6 0 15 5 1 16 8 1 17 7 3 18 11 4 20 9 5 20 11 4 20 9 5 20 11 4 20 9 5 20 11 4 20 9 5 20 5 5 17 3 5 17 5 5 17 3 5 17 5 5 17 3 5 17 5 5 17 3 5 17 4 4 16 2 4 16 4 4 16 2 4 16 4 4 16 2 4 16 4 4 16 2 4 16 3 7 18 3 7 18 3 7 18 3 7 18 3 7 18 3 7 18 3 7 18 3 7 18 16 20 31 19 23 34 25 29 40 32 36 47 40 44 55 48 52 63 54 58 69 57 61 70 63 70 78 62 69 75 62 69 75 60 67 73 59 66 72 58 65 71 57 64 70 56 63 69 57 64 70 57 64 70 57 64 70 57 64 70 57 64 70 57 64 70 57 64 70 57 64 70 52 59 65 50 57 63 48 55 61 45 52 58 41 48 54 38 45 51 36 43 49 34 41 47 23 30 36 21 28 34 19 26 32 16 23 29 12 19 25 9 16 22 7 14 20 5 13 16 3 11 13 3 12 11 3 11 13 3 12 11 3 11 13 3 12 11 3 11 13 3 12 11 5 13 15 7 16 15 9 17 19 12 21 20 16 24 26 19 28 27 21 29 31 23 31 33 28 33 36 28 33 36 28 33 36 28 33 36 28 33 36 28 33 36 28 33 36 28 33 36 32 37 40 32 37 40 32 37 40 32 37 40 32 37 40 32 37 40 32 37 40 33 37 38 33 33 33 34 33 31 34 33 31 34 33 31 34 33 31 34 33 31 34 33 31 34 33 31 32 31 29 32 31 29 32 31 29 32 31 29 32 31 29 32 31 29 32 31 29 34 30 29 36 31 28 36 31 28 36 31 28 36 31 28 36 31 28 36 31 28 36 31 28 36 31 28 37 32 29 37 32 29 37 32 29 37 32 29 37 32 29 37 32 29 37 32 29 37 32 29
89 77 97 86 74 94 83 71 91 82 70 90 79 67 87 76 64 84 70 58 78 62 50 70 54 42 62 46 34 54 40 28 48 35 26 43 12 3 20 11 5 19 11 5 19 11 5 19 11 5 19 11 5 19 11 5 19 11 5 19 8 2 16 8 2 16 8 2 16 8 2 16 8 2 16 8 2 16 8 2 16 8 2 16 5 1 15 4 2 15 5 1 15 4 2 15 5 1 15 4 2 15 5 1 15 4 2 15 6 2 16 5 3 16 6 2 16 5 3 16 6 2 16 5 3 16 6 2 16 5 3 16 3 6 15 2 6 15 3 6 15 2 6 15 3 6 15 2 6 15 3 6 15 2 6 15 3 6 15 2 6 15 3 6 15 2 6 15 3 6 15 2 6 15 3 6 15 2 6 15 7 11 22 5 12 22 6 13 23 6 13 23 7 14 24 8 15 25 8 15 25 9 16 26 51 58 68 51 58 68 51 58 68 51 58 68 51 58 68 51 58 68 51 58 68 51 58 66 59 66 74 59 66 72 59 66 72 59 66 72 59 66 72 59 66 72 59 66 72 59 66 72 60 67 73 60 67 73 60 67 73 60 67 73 60 67 73 60 67 73 60 67 73 60 67 73 43 51 54 43 51 54 43 51 54 43 51 54 43 51 54 43 51 54 43 51 54 43 51 54 22 30 33 21 29 32 18 26 29 15 23 26 12 20 23 8 16 19 6 14 17 5 13 16 2 10 13 2 10 12 2 10 13 2 10 12 2 10 13 2 10 12 2 10 13 2 10 12 12 20 23 12 20 22 12 20 23 12 20 22 12 20 23 12 20 22 12 20 23 12 20 23 30 38 41 30 38 41 30 38 41 30 38 41 30 38 41 30 38 41 30 38 41 30 38 41 20 28 31 20 28 31 20 28 31 20 28 31 20 28 31 20 28 31 20 28 31 23 27 30 27 27 27 30 26 25 30 26 25 30 26 25 30 26 25 30 26 25 30 26 25 30 26 25 34 30 29 34 30 29 34 30 29 34 30 29 34 30 29 34 30 29 34 30 29 34 30 29 35 30 27 37 29 27 37 29 27 37 29 27 37 29 27 37 29 27 37 29 27 37 29 27 39 31 29 39 31 29 39 31 29 39 31 29 39 31 29 39 31 29 39 31 29 39 31 29
81 74 92 77 70 88 75 68 86 74 67 85 70 63 81 67 60 78 62 55 73 55 48 66 47 40 58 40 33 51 35 28 46 30 26 41 9 5 20 8 6 19 8 6 19 8 6 19 8 6 19 8 6 19 8 6 19 8 6 19 5 3 16 5 3 16 5 3 16 5 3 16 5 3 16 5 3 16 5 3 16 5 3 16 4 2 15 4 2 15 4 2 15 4 2 15 4 2 15 4 2 15 4 2 15 4 2 15 5 3 16 5 3 16 5 3 16 5 3 16 5 3 16 5 3 16 5 3 16 4 4 14 3 6 15 2 7 13 2 7 13 2 7 13 2 7 13 2 7 13 2 7 13 2 7 13 2 7 13 2 7 13 2 7 13 2 7 13 2 7 13 2 7 13 2 7 13 2 7 13 0 5 15 0 7 17 3 10 20 7 14 24 11 18 28 16 23 33 19 26 36 20 27 37 51 58 68 51 58 68 51 58 68 51 58 68 51 58 68 51 58 68 51 58 68 51 58 66 59 66 74 59 66 72 59 66 72 59 66 72 59 66 72 59 66 72 59 66 72 59 66 72 60 67 73 60 67 73 60 67 73 60 67 73 60 67 73 60 67 73 60 67 73 60 67 73 45 53 56 45 53 56 45 53 56 45 53 56 45 53 56 45 53 56 45 53 56 45 53 56 23 31 34 22 30 33 20 28 31 16 24 27 13 21 24 10 18 21 7 15 18 6 14 17 4 12 15 4 12 15 4 12 15 4 12 15 4 12 15 4 12 15 4 12 15 4 12 15 12 20 23 12 20 23 12 20 23 12 20 23 12 20 23 12 20 23 12 20 23 12 20 23 28 36 39 28 36 39 28 36 39 28 36 39 28 36 39 28 36 39 28 36 39 28 36 39 20 28 31 20 28 31 20 28 31 20 28 31 20 28 31 20 28 31 20 28 31 22 27 30 28 26 27 30 26 25 30 26 25 30 26 25 30 26 25 30 26 25 30 26 25 30 26 25 34 30 29 34 30 29 34 30 29 34 30 29 34 30 29 34 30 29 34 30 29 34 30 29 37 29 27 37 29 27 37 29 27 37 29 27 37 29 27 37 29 27 37 29 27 37 29 27 39 31 29 39 31 29 39 31 29 39 31 29 39 31 29 39 31 29 39 31 29 39 31 29
71 64 82 68 61 79 65 58 76 64 57 75 59 52 70 57 50 68 52 45 63 47 40 58 41 34 52 35 28 46 31 24 42 26 22 37 9 5 20 8 6 19 8 6 19 8 6 19 8 6 19 8 6 19 8 6 19 8 6 19 5 3 16 5 3 16 5 3 16 5 3 16 5 3 16 5 3 16 5 3 16 5 3 16 4 2 15 4 2 15 4 2 15 4 2 15 4 2 15 4 2 15 4 2 15 4 2 15 5 3 16 5 3 16 5 3 16 5 3 16 5 3 16 5 3 16 5 3 16 4 4 14 3 6 15 2 7 13 2 7 13 2 7 13 2 7 13 2 7 13 2 7 13 2 7 13 2 7 13 2 7 13 2 7 13 2 7 13 2 7 13 2 7 13 2 7 13 2 7 13 0 1 11 0 1 11 1 8 18 9 16 26 19 26 36 28 35 45 34 41 51 38 45 55 51 58 68 51 58 68 51 58 68 51 58 68 51 58 68 51 58 68 51 58 68 51 58 66 59 66 74 59 66 72 59 66 72 59 66 72 59 66 72 59 66 72 59 66 72 59 66 72 60 67 73 60 67 73 60 67 73 60 67 73 60 67 73 60 67 73 60 67 73 60 67 73 47 55 58 47 55 58 47 55 58 47 55 58 47 55 58 47 55 58 47 55 58 47 55 58 26 34 37 24 32 35 22 30 33 19 27 30 15 23 26 12 20 23 10 18 21 8 16 19 6 14 17 6 14 17 6 14 17 6 14 17 6 14 17 6 14 17 6 14 17 6 14 17 12 20 23 12 20 23 12 20 23 12 20 23 12 20 23 12 20 23 12 20 23 12 20 23 26 34 37 26 34 37 26 34 37 26 34 37 26 34 37 26 34 37 26 34 37 26 34 37 20 28 31 20 28 31 20 28 31 20 28 31 20 28 31 20 28 31 20 28 31 22 27 30 28 26 27 30 26 25 30 26 25 30 26 25 30 26 25 30 26 25 30 26 25 30 26 25 34 30 29 34 30 29 34 30 29 34 30 29 34 30 29 34 30 29 34 30 29 34 30 29 37 29 27 37 29 27 37 29 27 37 29 27 37 29 27 37 29 27 37 29 27 37 29 27 39 31 29 39 31 29 39 31 29 39 31 29 39 31 29 39 31 29 39 31 29 39 31 29
