P3
172 37
255
8 2 16 7 1 15 7 1 15 7 1 15 9 3 17 9 3 17 9 3 17 9 3 17 9 3 17 9 3 17 9 3 17 9 3 17 20 14 26 19 13 25 17 11 23 13 7 19 10 4 16 7 1 13 4 0 10 3 0 9 5 0 11 5 0 11 6 0 12 6 0 12 7 1 13 8 2 14 8 2 14 8 2 14 4 1 12 4 1 12 4 1 12 4 1 12 4 1 12 4 1 12 4 1 12 4 1 12 4 1 12 4 1 12 4 1 12 4 1 12 4 1 12 4 1 12 4 1 12 4 1 12 7 6 14 7 6 14 7 6 14 7 6 14 7 6 14 7 6 14 7 6 14 7 6 14 6 5 13 6 5 13 6 5 13 6 5 13 6 5 13 6 5 13 6 5 13 5 5 13 9 9 17 7 10 17 7 10 17 7 10 17 7 10 17 7 10 17 7 10 17 7 10 17 3 6 13 3 6 13 3 6 13 3 6 13 3 6 13 3 6 13 3 6 13 3 6 13 7 10 15 7 10 15 7 10 15 7 10 15 7 10 15 7 10 15 7 10 15 7 10 15 7 10 15 7 10 15 7 10 15 7 10 15 7 10 15 7 10 15 7 10 15 7 11 14 8 9 13 8 9 11 8 9 11 8 9 11 8 9 11 8 9 11 8 9 11 8 9 11 2 3 5 2 3 5 2 3 5 2 3 5 2 3 5 2 3 5 2 3 5 2 3 5 4 8 7 4 8 7 4 8 7 4 8 7 4 8 7 4 8 7 4 8 7 4 8 7 21 25 24 23 27 26 25 29 28 28 32 31 32 36 35 35 39 38 37 41 40 39 43 42 60 62 61 62 64 63 67 69 68 74 76 75 80 82 81 87 89 88 92 94 93 94 96 95 107 109 108 107 109 108 107 109 108 107 109 108 107 109 108 107 109 108 107 109 108 107 109 108 81 79 80 73 71 72 60 58 59 48 46 47 41 39 40 40 38 39 43 41 42 46 44 45 41 39 40 41 39 40 41 39 40 41 39 40 41 39 40 41 39 40 41 39 40 41 39 40 37 37 39 37 37 39 37 37 39 37 37 39 37 37 39 37 37 39 37 37 39 37 37 39 40 40 42 40 40 42 40 40 42 40 40 42 40 40 42 40 40 42 40 40 42 40 40 42
11 5 19 9 3 17 8 2 16 8 2 16 9 3 17 9 3 17 9 3 17 9 3 17 9 3 17 9 3 17 9 3 17 9 3 17 21 15 27 17 14 25 17 11 23 12 9 20 10 4 16 5 2 13 5 0 11 1 0 9 3 0 9 1 0 9 3 0 9 3 0 11 6 0 12 5 2 13 8 2 14 7 4 15 4 1 12 4 1 12 4 1 12 4 1 12 4 1 12 4 1 12 4 1 12 4 1 12 4 1 12 4 1 12 4 1 12 4 1 12 4 1 12 4 1 12 4 1 12 3 1 12 7 5 16 7 6 14 7 5 16 7 6 14 7 5 16 7 6 14 7 5 16 7 6 14 6 4 15 6 5 13 6 4 15 6 5 13 6 4 15 6 5 13 6 4 15 5 5 13 7 10 17 7 10 17 7 10 17 7 10 17 7 10 17 7 10 17 7 10 17 7 10 17 3 6 13 3 6 13 3 6 13 3 6 13 3 6 13 3 6 13 3 6 13 3 6 13 7 10 15 6 11 15 7 10 15 6 11 15 7 10 15 6 11 15 7 10 15 6 11 15 7 10 15 6 11 15 7 10 15 6 11 15 7 10 15 6 11 15 7 10 15 7 10 15 6 10 13 6 10 11 6 10 13 6 10 11 6 10 13 6 10 11 6 10 13 6 10 11 0 4 7 0 4 5 0 4 7 0 4 5 0 4 7 0 4 5 0 4 7 0 4 5 4 8 9 4 8 7 4 8 9 4 8 7 4 8 9 4 8 7 4 8 9 4 8 7 21 25 26 23 27 26 25 29 30 28 32 31 32 36 37 35 39 38 37 41 42 39 43 42 58 62 61 60 65 61 67 69 68 72 77 73 80 82 81 85 90 86 92 94 93 92 97 93 105 107 106 103 108 104 105 107 106 103 108 104 105 107 106 103 108 104 105 107 106 105 107 104 80 80 80 73 72 70 60 58 59 48 47 45 41 39 40 40 39 37 43 41 42 46 45 43 41 39 40 41 40 38 41 39 40 41 40 38 41 39 40 41 40 38 41 39 40 41 39 40 37 37 39 37 37 39 37 37 39 37 37 39 37 37 39 37 37 39 37 37 39 37 37 39 40 40 42 40 40 42 40 40 42 40 40 42 40 40 42 40 40 42 40 40 42 40 40 42
4 0 14 4 0 14 4 0 14 4 0 14 4 0 14 4 0 14 4 0 14 4 0 14 4 0 14 4 0 14 4 0 14 4 0 14 3 0 11 2 1 9 3 0 9 2 1 9 3 0 9 2 1 9 3 0 9 2 1 9 3 0 9 2 1 9 3 0 9 2 1 9 3 0 9 2 1 9 3 0 9 2 0 11 3 1 12 3 1 14 3 1 14 3 1 14 3 1 14 3 1 14 3 1 14 3 1 14 3 1 14 3 1 14 3 1 14 3 1 14 3 1 14 3 1 14 3 1 14 3 1 14 7 5 18 6 6 16 6 6 18 6 6 16 6 6 18 6 6 16 6 6 18 6 6 16 7 7 19 7 7 17 7 7 19 7 7 17 7 7 19 7 7 17 7 7 19 7 7 17 8 11 18 7 12 18 7 12 18 7 12 18 7 12 18 7 12 18 7 12 18 7 12 18 5 10 16 5 10 16 5 10 16 5 10 16 5 10 16 5 10 16 5 10 16 5 10 16 7 12 16 5 13 16 7 12 16 5 13 16 7 12 16 5 13 16 7 12 16 5 13 16 6 11 15 4 12 15 6 11 15 4 12 15 6 11 15 4 12 15 6 11 15 6 11 15 0 4 8 1 6 9 3 8 12 6 11 14 10 15 19 13 18 21 15 20 24 17 22 25 12 17 21 10 15 18 8 13 17 5 10 13 1 6 10 0 3 6 0 1 5 0 1 4 1 6 9 1 7 7 1 6 9 1 7 7 1 6 9 1 7 7 1 6 9 1 7 7 19 24 27 21 27 27 23 28 31 26 32 32 30 35 38 33 39 39 35 40 43 37 43 43 56 62 58 58 65 58 61 66 62 63 70 63 68 73 69 70 77 70 73 78 74 74 81 74 89 94 90 89 96 89 93 98 94 95 102 95 99 104 100 102 109 102 105 110 106 106 111 105 78 78 76 71 70 66 58 57 55 46 45 41 39 38 36 38 37 33 41 40 38 44 43 39 40 39 37 40 39 35 40 39 37 40 39 35 40 39 37 40 39 35 40 39 37 40 39 37 39 37 38 39 37 40 39 37 40 39 37 40 39 37 40 39 37 40 39 37 40 39 37 40 36 34 37 36 34 37 36 34 37 36 34 37 36 34 37 36 34 37 36 34 37 36 34 37
4 0 14 4 0 14 4 0 14 4 0 14 4 0 14 4 0 14 4 0 14 4 0 14 4 0 14 4 0 14 4 0 14 4 1 12 2 0 11 2 1 9 2 1 9 2 1 9 2 1 9 2 1 9 2 1 9 2 1 9 2 1 9 2 1 9 2 1 9 2 1 9 2 1 9 2 1 9 2 1 9 2 1 9 3 1 14 3 1 14 3 1 14 3 1 14 3 1 14 3 1 14 3 1 14 3 1 14 3 1 14 3 1 14 3 1 14 3 1 14 3 1 14 3 1 14 3 1 14 3 1 14 6 6 18 6 6 18 6 6 18 6 6 18 6 6 18 6 6 18 6 6 18 6 6 18 7 7 19 7 7 19 7 7 19 7 7 19 7 7 19 7 7 19 7 7 19 5 8 17 8 11 20 7 12 18 7 12 18 7 12 18 7 12 18 7 12 18 7 12 18 7 12 18 5 10 16 5 10 16 5 10 16 5 10 16 5 10 16 5 10 16 5 10 16 5 10 16 5 13 16 5 13 16 5 13 16 5 13 16 5 13 16 5 13 16 5 13 16 5 13 16 4 12 15 4 12 15 4 12 15 4 12 15 4 12 15 4 12 15 4 12 15 4 12 15 0 5 8 0 7 10 1 9 12 4 12 15 8 16 19 11 19 22 13 21 24 15 23 26 10 18 21 8 16 19 6 14 17 3 11 14 0 7 10 0 4 7 0 2 5 0 2 5 1 6 9 1 6 9 1 6 9 1 6 9 1 6 9 1 6 9 1 6 9 1 6 9 19 24 27 21 26 29 23 28 31 26 31 34 30 35 38 33 38 41 35 40 43 37 43 43 56 62 58 58 65 58 60 67 60 63 70 63 67 74 67 70 77 70 72 79 72 74 81 74 87 94 87 88 95 88 90 97 90 94 101 94 97 104 97 100 107 100 103 110 103 105 110 104 78 79 74 71 70 66 58 57 53 46 45 41 39 38 34 38 37 33 41 40 36 44 43 39 40 39 35 40 39 35 40 39 35 40 39 35 40 39 35 40 39 35 40 39 35 40 39 37 39 37 38 39 37 40 39 37 40 39 37 40 39 37 40 39 37 40 39 37 40 39 37 40 36 34 37 36 34 37 36 34 37 36 34 37 36 34 37 36 34 37 36 34 37 36 34 37
4 0 14 4 0 14 4 0 14 4 0 14 4 0 14 4 0 14 4 0 14 4 0 14 4 0 14 4 0 14 4 0 14 4 1 12 2 0 11 2 1 9 2 1 9 2 1 9 2 1 9 2 1 9 2 1 9 2 1 9 2 1 9 2 1 9 2 1 9 2 1 9 2 1 9 2 1 9 2 1 9 2 1 9 3 1 14 3 1 14 3 1 14 3 1 14 3 1 14 3 1 14 3 1 14 3 1 14 3 1 14 3 1 14 3 1 14 3 1 14 3 1 14 3 1 14 3 1 14 3 1 14 6 6 18 6 6 18 6 6 18 6 6 18 6 6 18 6 6 18 6 6 18 6 6 18 7 7 19 7 7 19 7 7 19 7 7 19 7 7 19 7 7 19 7 7 19 5 8 17 8 11 20 7 12 18 7 12 18 7 12 18 7 12 18 7 12 18 7 12 18 7 12 18 5 10 16 5 10 16 5 10 16 5 10 16 5 10 16 5 10 16 5 10 16 5 10 16 5 13 16 5 13 16 5 13 16 5 13 16 5 13 16 5 13 16 5 13 16 5 13 16 4 12 15 4 12 15 4 12 15 4 12 15 4 12 15 4 12 15 4 12 15 4 12 15 0 5 8 0 7 10 1 9 12 4 12 15 8 16 19 11 19 22 13 21 24 15 23 26 10 18 21 8 16 19 6 14 17 3 11 14 0 7 10 0 4 7 0 2 5 0 2 5 1 6 9 1 6 9 1 6 9 1 6 9 1 6 9 1 6 9 1 6 9 1 6 9 19 24 27 21 26 29 23 28 31 26 31 34 30 35 38 33 38 41 35 40 43 37 43 43 56 62 58 58 65 58 60 67 60 63 70 63 67 74 67 70 77 70 72 79 72 74 81 74 84 91 84 86 93 86 88 95 88 91 98 91 95 102 95 98 105 98 100 107 100 103 108 102 78 79 74 71 70 66 58 57 53 46 45 41 39 38 34 38 37 33 41 40 36 44 43 39 40 39 35 40 39 35 40 39 35 40 39 35 40 39 35 40 39 35 40 39 35 40 39 37 39 37 38 39 37 40 39 37 40 39 37 40 39 37 40 39 37 40 39 37 40 39 37 40 36 34 37 36 34 37 36 34 37 36 34 37 36 34 37 36 34 37 36 34 37 36 34 37
4 0 14 4 0 14 4 0 14 4 0 14 4 0 14 4 0 14 4 0 14 4 0 14 4 0 14 4 0 14 4 0 14 4 1 12 2 0 11 2 1 9 2 1 9 2 1 9 2 1 9 2 1 9 2 1 9 2 1 9 2 1 9 2 1 9 2 1 9 2 1 9 2 1 9 2 1 9 2 1 9 2 1 9 3 1 14 3 1 14 3 1 14 3 1 14 3 1 14 3 1 14 3 1 14 3 1 14 3 1 14 3 1 14 3 1 14 3 1 14 3 1 14 3 1 14 3 1 14 3 1 14 6 6 18 6 6 18 6 6 18 6 6 18 6 6 18 6 6 18 6 6 18 6 6 18 7 7 19 7 7 19 7 7 19 7 7 19 7 7 19 7 7 19 7 7 19 5 8 17 8 11 20 7 12 18 7 12 18 7 12 18 7 12 18 7 12 18 7 12 18 7 12 18 5 10 16 5 10 16 5 10 16 5 10 16 5 10 16 5 10 16 5 10 16 5 10 16 5 13 16 5 13 16 5 13 16 5 13 16 5 13 16 5 13 16 5 13 16 5 13 16 4 12 15 4 12 15 4 12 15 4 12 15 4 12 15 4 12 15 4 12 15 4 12 15 0 5 8 0 7 10 1 9 12 4 12 15 8 16 19 11 19 22 13 21 24 15 23 26 10 18 21 8 16 19 6 14 17 3 11 14 0 7 10 0 4 7 0 2 5 0 2 5 1 6 9 1 6 9 1 6 9 1 6 9 1 6 9 1 6 9 1 6 9 1 6 9 19 24 27 21 26 29 23 28 31 26 31 34 30 35 38 33 38 41 35 40 43 37 43 43 56 62 58 58 65 58 60 67 60 63 70 63 67 74 67 70 77 70 72 79 72 74 81 74 81 88 81 82 89 82 85 92 85 88 95 88 91 98 91 95 102 95 97 104 97 99 104 98 78 79 74 71 70 66 58 57 53 46 45 41 39 38 34 38 37 33 41 40 36 44 43 39 40 39 35 40 39 35 40 39 35 40 39 35 40 39 35 40 39 35 40 39 35 40 39 37 39 37 38 39 37 40 39 37 40 39 37 40 39 37 40 39 37 40 39 37 40 39 37 40 36 34 37 36 34 37 36 34 37 36 34 37 36 34 37 36 34 37 36 34 37 36 34 37
4 0 14 4 0 14 4 0 14 4 0 14 4 0 14 4 0 14 4 0 14 4 0 14 4 0 14 4 0 14 4 0 14 4 1 12 2 0 11 2 1 9 2 1 9 2 1 9 2 1 9 2 1 9 2 1 9 2 1 9 2 1 9 2 1 9 2 1 9 2 1 9 2 1 9 2 1 9 2 1 9 2 1 9 3 1 14 3 1 14 3 1 14 3 1 14 3 1 14 3 1 14 3 1 14 3 1 14 3 1 14 3 1 14 3 1 14 3 1 14 3 1 14 3 1 14 3 1 14 3 1 14 6 6 18 6 6 18 6 6 18 6 6 18 6 6 18 6 6 18 6 6 18 6 6 18 7 7 19 7 7 19 7 7 19 7 7 19 7 7 19 7 7 19 7 7 19 5 8 17 8 11 20 7 12 18 7 12 18 7 12 18 7 12 18 7 12 18 7 12 18 7 12 18 5 10 16 5 10 16 5 10 16 5 10 16 5 10 16 5 10 16 5 10 16 5 10 16 5 13 16 5 13 16 5 13 16 5 13 16 5 13 16 5 13 16 5 13 16 5 13 16 4 12 15 4 12 15 4 12 15 4 12 15 4 12 15 4 12 15 4 12 15 4 12 15 0 5 8 0 7 10 1 9 12 4 12 15 8 16 19 11 19 22 13 21 24 15 23 26 10 18 21 8 16 19 6 14 17 3 11 14 0 7 10 0 4 7 0 2 5 0 2 5 1 6 9 1 6 9 1 6 9 1 6 9 1 6 9 1 6 9 1 6 9 1 6 9 19 24 27 21 26 29 23 28 31 26 31 34 30 35 38 33 38 41 35 40 43 37 43 43 56 62 58 58 65 58 60 67 60 63 70 63 67 74 67 70 77 70 72 79 72 74 81 74 78 85 78 79 86 79 81 88 81 85 92 85 88 95 88 91 98 91 94 101 94 96 101 95 78 79 74 71 70 66 58 57 53 46 45 41 39 38 34 38 37 33 41 40 36 44 43 39 40 39 35 40 39 35 40 39 35 40 39 35 40 39 35 40 39 35 40 39 35 40 39 37 39 37 38 39 37 40 39 37 40 39 37 40 39 37 40 39 37 40 39 37 40 39 37 40 36 34 37 36 34 37 36 34 37 36 34 37 36 34 37 36 34 37 36 34 37 36 34 37
4 0 14 4 0 14 4 0 14 4 0 14 4 0 14 4 0 14 4 0 14 4 0 14 4 0 14 4 0 14 4 0 14 4 1 12 2 0 11 2 1 9 2 1 9 2 1 9 2 1 9 2 1 9 2 1 9 2 1 9 2 1 9 2 1 9 2 1 9 2 1 9 2 1 9 2 1 9 2 1 9 2 1 9 3 1 14 3 1 14 3 1 14 3 1 14 3 1 14 3 1 14 3 1 14 3 1 14 3 1 14 3 1 14 3 1 14 3 1 14 3 1 14 3 1 14 3 1 14 3 1 14 6 6 18 6 6 18 6 6 18 6 6 18 6 6 18 6 6 18 6 6 18 6 6 18 7 7 19 7 7 19 7 7 19 7 7 19 7 7 19 7 7 19 7 7 19 5 8 17 8 11 20 7 12 18 7 12 18 7 12 18 7 12 18 7 12 18 7 12 18 7 12 18 5 10 16 5 10 16 5 10 16 5 10 16 5 10 16 5 10 16 5 10 16 5 10 16 5 13 16 5 13 16 5 13 16 5 13 16 5 13 16 5 13 16 5 13 16 5 13 16 4 12 15 4 12 15 4 12 15 4 12 15 4 12 15 4 12 15 4 12 15 4 12 15 0 5 8 0 7 10 1 9 12 4 12 15 8 16 19 11 19 22 13 21 24 15 23 26 10 18 21 8 16 19 6 14 17 3 11 14 0 7 10 0 4 7 0 2 5 0 2 5 1 6 9 1 6 9 1 6 9 1 6 9 1 6 9 1 6 9 1 6 9 1 6 9 19 24 27 21 26 29 23 28 31 26 31 34 30 35 38 33 38 41 35 40 43 37 43 43 56 62 58 58 65 58 60 67 60 63 70 63 67 74 67 70 77 70 72 79 72 74 81 74 74 81 74 76 83 76 78 85 78 81 88 81 85 92 85 88 95 88 90 97 90 93 98 92 78 79 74 71 70 66 58 57 53 46 45 41 39 38 34 38 37 33 41 40 36 44 43 39 40 39 35 40 39 35 40 39 35 40 39 35 40 39 35 40 39 35 40 39 35 40 39 37 39 37 38 39 37 40 39 37 40 39 37 40 39 37 40 39 37 40 39 37 40 39 37 40 36 34 37 36 34 37 36 34 37 36 34 37 36 34 37 36 34 37 36 34 37 36 34 37
4 0 14 4 0 14 4 0 14 4 0 14 4 0 14 4 0 14 4 0 14 4 0 14 4 0 14 4 0 14 4 0 14 4 1 12 2 0 11 2 1 9 2 1 9 2 1 9 2 1 9 2 1 9 2 1 9 2 1 9 2 1 9 2 1 9 2 1 9 2 1 9 2 1 9 2 1 9 2 1 9 2 1 9 3 1 14 3 1 14 3 1 14 3 1 14 3 1 14 3 1 14 3 1 14 3 1 14 3 1 14 3 1 14 3 1 14 3 1 14 3 1 14 3 1 14 3 1 14 3 1 14 6 6 18 6 6 18 6 6 18 6 6 18 6 6 18 6 6 18 6 6 18 6 6 18 7 7 19 7 7 19 7 7 19 7 7 19 7 7 19 7 7 19 7 7 19 5 8 17 8 11 20 7 12 18 7 12 18 7 12 18 7 12 18 7 12 18 7 12 18 7 12 18 5 10 16 5 10 16 5 10 16 5 10 16 5 10 16 5 10 16 5 10 16 5 10 16 5 13 16 5 13 16 5 13 16 5 13 16 5 13 16 5 13 16 5 13 16 5 13 16 4 12 15 4 12 15 4 12 15 4 12 15 4 12 15 4 12 15 4 12 15 4 12 15 0 5 8 0 7 10 1 9 12 4 12 15 8 16 19 11 19 22 13 21 24 15 23 26 10 18 21 8 16 19 6 14 17 3 11 14 0 7 10 0 4 7 0 2 5 0 2 5 1 6 9 1 6 9 1 6 9 1 6 9 1 6 9 1 6 9 1 6 9 1 6 9 19 24 27 21 26 29 23 28 31 26 31 34 30 35 38 33 38 41 35 40 43 37 43 43 56 62 58 58 65 58 60 67 60 63 70 63 67 74 67 70 77 70 72 79 72 74 81 74 72 79 72 73 80 73 76 83 76 79 86 79 82 89 82 86 93 86 88 95 88 90 95 89 78 79 74 71 70 66 58 57 53 46 45 41 39 38 34 38 37 33 41 40 36 44 43 39 40 39 35 40 39 35 40 39 35 40 39 35 40 39 35 40 39 35 40 39 35 40 39 37 39 37 38 39 37 40 39 37 40 39 37 40 39 37 40 39 37 40 39 37 40 39 37 40 36 34 37 36 34 37 36 34 37 36 34 37 36 34 37 36 34 37 36 34 37 36 34 37
4 0 14 4 0 14 4 0 14 4 0 14 4 0 14 4 0 14 4 0 14 4 0 14 4 0 14 4 0 14 4 0 14 4 1 12 2 0 11 2 1 9 2 1 9 2 1 9 2 1 9 2 1 9 2 1 9 2 1 9 2 1 9 2 1 9 2 1 9 2 1 9 2 1 9 2 1 9 2 1 9 2 1 9 3 1 14 3 1 14 3 1 14 3 1 14 3 1 14 3 1 14 3 1 14 3 1 14 3 1 14 3 1 14 3 1 14 3 1 14 3 1 14 3 1 14 3 1 14 3 1 14 6 6 18 6 6 18 6 6 18 6 6 18 6 6 18 6 6 18 6 6 18 6 6 18 7 7 19 7 7 19 7 7 19 7 7 19 7 7 19 7 7 19 7 7 19 5 8 17 8 11 20 7 12 18 7 12 18 7 12 18 7 12 18 7 12 18 7 12 18 7 12 18 5 10 16 5 10 16 5 10 16 5 10 16 5 10 16 5 10 16 5 10 16 5 10 16 5 13 16 5 13 16 5 13 16 5 13 16 5 13 16 5 13 16 5 13 16 5 13 16 4 12 15 4 12 15 4 12 15 4 12 15 4 12 15 4 12 15 4 12 15 4 12 15 0 5 8 0 7 10 1 9 12 4 12 15 8 16 19 11 19 22 13 21 24 15 23 26 10 18 21 8 16 19 6 14 17 3 11 14 0 7 10 0 4 7 0 2 5 0 2 5 1 6 9 1 6 9 1 6 9 1 6 9 1 6 9 1 6 9 1 6 9 1 6 9 19 24 27 21 26 29 23 28 31 26 31 34 30 35 38 33 38 41 35 40 43 37 43 43 56 62 58 58 65 58 60 67 60 63 70 63 67 74 67 70 77 70 72 79 72 74 81 74 71 78 71 72 79 72 74 81 74 78 85 78 81 88 81 84 91 84 87 94 87 89 94 88 78 79 74 71 70 66 58 57 53 46 45 41 39 38 34 38 37 33 41 40 36 44 43 39 40 39 35 40 39 35 40 39 35 40 39 35 40 39 35 40 39 35 40 39 35 40 39 37 39 37 38 39 37 40 39 37 40 39 37 40 39 37 40 39 37 40 39 37 40 39 37 40 36 34 37 36 34 37 36 34 37 36 34 37 36 34 37 36 34 37 36 34 37 36 34 37
6 2 16 6 2 16 6 2 16 6 2 16 4 0 14 4 0 14 4 0 14 4 0 14 4 0 14 4 0 14 4 0 14 4 1 12 3 1 12 3 2 10 3 2 10 3 2 10 3 2 10 3 2 10 3 2 10 3 2 10 3 2 10 3 2 10 3 2 10 3 2 10 3 2 10 3 2 10 3 2 10 3 2 10 4 2 15 4 2 15 4 2 15 4 2 15 4 2 15 4 2 15 4 2 15 4 2 15 4 2 15 4 2 15 4 2 15 4 2 15 4 2 15 4 2 15 4 2 15 4 2 15 4 4 16 4 4 16 4 4 16 4 4 16 4 4 16 4 4 16 4 4 16 4 4 16 6 6 18 6 6 18 6 6 18 6 6 18 6 6 18 6 6 18 6 6 18 4 7 16 6 9 18 5 10 16 5 10 16 5 10 16 5 10 16 5 10 16 5 10 16 5 10 16 6 11 17 6 11 17 6 11 17 6 11 17 6 11 17 6 11 17 6 11 17 6 11 17 5 13 16 5 13 16 5 13 16 5 13 16 5 13 16 5 13 16 5 13 16 5 13 16 7 15 18 7 15 18 7 15 18 7 15 18 7 15 18 7 15 18 7 15 18 7 15 18 5 13 16 5 13 16 5 13 16 5 13 16 5 13 16 5 13 16 5 13 16 5 13 16 10 18 21 8 16 19 6 14 17 3 11 14 0 7 10 0 4 7 0 2 5 0 2 5 1 6 9 1 6 9 1 6 9 1 6 9 1 6 9 1 6 9 1 6 9 1 6 9 17 22 25 19 24 27 21 26 29 24 29 32 28 33 36 31 36 39 33 38 41 35 41 41 42 48 44 44 51 44 46 53 46 49 56 49 53 60 53 56 63 56 58 65 58 60 67 60 74 81 74 74 81 74 74 81 74 74 81 74 74 81 74 74 81 74 74 81 74 75 80 74 62 63 58 61 60 56 56 55 51 49 48 44 43 42 38 36 35 31 31 30 26 29 28 24 33 32 28 33 32 28 33 32 28 33 32 28 33 32 28 33 32 28 33 32 28 33 32 30 33 31 32 33 31 34 33 31 34 33 31 34 33 31 34 33 31 34 33 31 34 33 31 34 36 34 37 36 34 37 36 34 37 36 34 37 36 34 37 36 34 37 36 34 37 36 34 37
6 2 16 6 2 16 6 2 16 6 2 16 4 0 14 4 0 14 4 0 14 4 0 14 4 0 14 4 0 14 4 0 14 4 1 12 3 1 12 3 2 10 3 2 10 3 2 10 3 2 10 3 2 10 3 2 10 3 2 10 3 2 10 3 2 10 3 2 10 3 2 10 3 2 10 3 2 10 3 2 10 3 2 10 4 2 15 4 2 15 4 2 15 4 2 15 4 2 15 4 2 15 4 2 15 4 2 15 4 2 15 4 2 15 4 2 15 4 2 15 4 2 15 4 2 15 4 2 15 4 2 15 4 4 16 4 4 16 4 4 16 4 4 16 4 4 16 4 4 16 4 4 16 4 4 16 6 6 18 6 6 18 6 6 18 6 6 18 6 6 18 6 6 18 6 6 18 4 7 16 6 9 18 5 10 16 5 10 16 5 10 16 5 10 16 5 10 16 5 10 16 5 10 16 6 11 17 6 11 17 6 11 17 6 11 17 6 11 17 6 11 17 6 11 17 6 11 17 5 13 16 5 13 16 5 13 16 5 13 16 5 13 16 5 13 16 5 13 16 5 13 16 7 15 18 7 15 18 7 15 18 7 15 18 7 15 18 7 15 18 7 15 18 7 15 18 7 15 18 7 15 18 7 15 18 7 15 18 7 15 18 7 15 18 7 15 18 7 15 18 10 18 21 8 16 19 6 14 17 3 11 14 0 7 10 0 4 7 0 2 5 0 2 5 1 6 9 1 6 9 1 6 9 1 6 9 1 6 9 1 6 9 1 6 9 1 6 9 17 22 25 19 24 27 21 26 29 24 29 32 28 33 36 31 36 39 33 38 41 35 41 41 42 48 44 44 51 44 46 53 46 49 56 49 53 60 53 56 63 56 58 65 58 60 67 60 72 79 72 72 79 72 72 79 72 72 79 72 72 79 72 72 79 72 72 79 72 73 78 72 62 63 58 61 60 56 56 55 51 49 48 44 43 42 38 36 35 31 31 30 26 29 28 24 33 32 28 33 32 28 33 32 28 33 32 28 33 32 28 33 32 28 33 32 28 33 32 30 33 31 32 33 31 34 33 31 34 33 31 34 33 31 34 33 31 34 33 31 34 33 31 34 36 34 37 36 34 37 36 34 37 36 34 37 36 34 37 36 34 37 36 34 37 36 34 37
6 2 16 6 2 16 6 2 16 6 2 16 4 0 14 4 0 14 4 0 14 4 0 14 4 0 14 4 0 14 4 0 14 4 1 12 3 1 12 3 2 10 3 2 10 3 2 10 3 2 10 3 2 10 3 2 10 3 2 10 3 2 10 3 2 10 3 2 10 3 2 10 3 2 10 3 2 10 3 2 10 3 2 10 4 2 15 4 2 15 4 2 15 4 2 15 4 2 15 4 2 15 4 2 15 4 2 15 4 2 15 4 2 15 4 2 15 4 2 15 4 2 15 4 2 15 4 2 15 4 2 15 4 4 16 4 4 16 4 4 16 4 4 16 4 4 16 4 4 16 4 4 16 4 4 16 6 6 18 6 6 18 6 6 18 6 6 18 6 6 18 6 6 18 6 6 18 4 7 16 6 9 18 5 10 16 5 10 16 5 10 16 5 10 16 5 10 16 5 10 16 5 10 16 6 11 17 6 11 17 6 11 17 6 11 17 6 11 17 6 11 17 6 11 17 6 11 17 5 13 16 5 13 16 5 13 16 5 13 16 5 13 16 5 13 16 5 13 16 5 13 16 7 15 18 7 15 18 7 15 18 7 15 18 7 15 18 7 15 18 7 15 18 7 15 18 9 17 20 9 17 20 9 17 20 9 17 20 9 17 20 9 17 20 9 17 20 9 17 20 10 18 21 8 16 19 6 14 17 3 11 14 0 7 10 0 4 7 0 2 5 0 2 5 1 6 9 1 6 9 1 6 9 1 6 9 1 6 9 1 6 9 1 6 9 1 6 9 17 22 25 19 24 27 21 26 29 24 29 32 28 33 36 31 36 39 33 38 41 35 41 41 42 48 44 44 51 44 46 53 46 49 56 49 53 60 53 56 63 56 58 65 58 60 67 60 70 77 70 70 77 70 70 77 70 70 77 70 70 77 70 70 77 70 70 77 70 71 76 70 62 63 58 61 60 56 56 55 51 49 48 44 43 42 38 36 35 31 31 30 26 29 28 24 33 32 28 33 32 28 33 32 28 33 32 28 33 32 28 33 32 28 33 32 28 33 32 30 33 31 32 33 31 34 33 31 34 33 31 34 33 31 34 33 31 34 33 31 34 33 31 34 36 34 37 36 34 37 36 34 37 36 34 37 36 34 37 36 34 37 36 34 37 36 34 37
6 2 16 6 2 16 6 2 16 6 2 16 4 0 14 4 0 14 4 0 14 4 0 14 4 0 14 4 0 14 4 0 14 4 1 12 3 1 12 3 2 10 3 2 10 3 2 10 3 2 10 3 2 10 3 2 10 3 2 10 3 2 10 3 2 10 3 2 10 3 2 10 3 2 10 3 2 10 3 2 10 3 2 10 4 2 15 4 2 15 4 2 15 4 2 15 4 2 15 4 2 15 4 2 15 4 2 15 4 2 15 4 2 15 4 2 15 4 2 15 4 2 15 4 2 15 4 2 15 4 2 15 4 4 16 4 4 16 4 4 16 4 4 16 4 4 16 4 4 16 4 4 16 4 4 16 6 6 18 6 6 18 6 6 18 6 6 18 6 6 18 6 6 18 6 6 18 4 7 16 6 9 18 5 10 16 5 10 16 5 10 16 5 10 16 5 10 16 5 10 16 5 10 16 6 11 17 6 11 17 6 11 17 6 11 17 6 11 17 6 11 17 6 11 17 6 11 17 5 13 16 5 13 16 5 13 16 5 13 16 5 13 16 5 13 16 5 13 16 5 13 16 7 15 18 7 15 18 7 15 18 7 15 18 7 15 18 7 15 18 7 15 18 7 15 18 12 20 23 12 20 23 12 20 23 12 20 23 12 20 23 12 20 23 12 20 23 12 20 23 10 18 21 8 16 19 6 14 17 3 11 14 0 7 10 0 4 7 0 2 5 0 2 5 1 6 9 1 6 9 1 6 9 1 6 9 1 6 9 1 6 9 1 6 9 1 6 9 17 22 25 19 24 27 21 26 29 24 29 32 28 33 36 31 36 39 33 38 41 35 41 41 42 48 44 44 51 44 46 53 46 49 56 49 53 60 53 56 63 56 58 65 58 60 67 60 67 74 67 67 74 67 67 74 67 67 74 67 67 74 67 67 74 67 67 74 67 68 73 67 62 63 58 61 60 56 56 55 51 49 48 44 43 42 38 36 35 31 31 30 26 29 28 24 33 32 28 33 32 28 33 32 28 33 32 28 33 32 28 33 32 28 33 32 28 33 32 30 33 31 32 33 31 34 33 31 34 33 31 34 33 31 34 33 31 34 33 31 34 33 31 34 36 34 37 36 34 37 36 34 37 36 34 37 36 34 37 36 34 37 36 34 37 36 34 37
6 2 16 6 2 16 6 2 16 6 2 16 4 0 14 4 0 14 4 0 14 4 0 14 4 0 14 4 0 14 4 0 14 4 1 12 3 1 12 3 2 10 3 2 10 3 2 10 3 2 10 3 2 10 3 2 10 3 2 10 3 2 10 3 2 10 3 2 10 3 2 10 3 2 10 3 2 10 3 2 10 3 2 10 4 2 15 4 2 15 4 2 15 4 2 15 4 2 15 4 2 15 4 2 15 4 2 15 4 2 15 4 2 15 4 2 15 4 2 15 4 2 15 4 2 15 4 2 15 4 2 15 4 4 16 4 4 16 4 4 16 4 4 16 4 4 16 4 4 16 4 4 16 4 4 16 6 6 18 6 6 18 6 6 18 6 6 18 6 6 18 6 6 18 6 6 18 4 7 16 6 9 18 5 10 16 5 10 16 5 10 16 5 10 16 5 10 16 5 10 16 5 10 16 6 11 17 6 11 17 6 11 17 6 11 17 6 11 17 6 11 17 6 11 17 6 11 17 5 13 16 5 13 16 5 13 16 5 13 16 5 13 16 5 13 16 5 13 16 5 13 16 7 15 18 7 15 18 7 15 18 7 15 18 7 15 18 7 15 18 7 15 18 7 15 18 16 24 27 16 24 27 16 24 27 16 24 27 16 24 27 16 24 27 16 24 27 16 24 27 10 18 21 8 16 19 6 14 17 3 11 14 0 7 10 0 4 7 0 2 5 0 2 5 1 6 9 1 6 9 1 6 9 1 6 9 1 6 9 1 6 9 1 6 9 1 6 9 17 22 25 19 24 27 21 26 29 24 29 32 28 33 36 31 36 39 33 38 41 35 41 41 42 48 44 44 51 44 46 53 46 49 56 49 53 60 53 56 63 56 58 65 58 60 67 60 63 70 63 63 70 63 63 70 63 63 70 63 63 70 63 63 70 63 63 70 63 64 69 63 62 63 58 61 60 56 56 55 51 49 48 44 43 42 38 36 35 31 31 30 26 29 28 24 33 32 28 33 32 28 33 32 28 33 32 28 33 32 28 33 32 28 33 32 28 33 32 30 33 31 32 33 31 34 33 31 34 33 31 34 33 31 34 33 31 34 33 31 34 33 31 34 36 34 37 36 34 37 36 34 37 36 34 37 36 34 37 36 34 37 36 34 37 36 34 37
6 2 16 6 2 16 6 2 16 6 2 16 4 0 14 4 0 14 4 0 14 4 0 14 4 0 14 4 0 14 4 0 14 4 1 12 3 1 12 3 2 10 3 2 10 3 2 10 3 2 10 3 2 10 3 2 10 3 2 10 3 2 10 3 2 10 3 2 10 3 2 10 3 2 10 3 2 10 3 2 10 3 2 10 4 2 15 4 2 15 4 2 15 4 2 15 4 2 15 4 2 15 4 2 15 4 2 15 4 2 15 4 2 15 4 2 15 4 2 15 4 2 15 4 2 15 4 2 15 4 2 15 4 4 16 4 4 16 4 4 16 4 4 16 4 4 16 4 4 16 4 4 16 4 4 16 6 6 18 6 6 18 6 6 18 6 6 18 6 6 18 6 6 18 6 6 18 4 7 16 6 9 18 5 10 16 5 10 16 5 10 16 5 10 16 5 10 16 5 10 16 5 10 16 6 11 17 6 11 17 6 11 17 6 11 17 6 11 17 6 11 17 6 11 17 6 11 17 5 13 16 5 13 16 5 13 16 5 13 16 5 13 16 5 13 16 5 13 16 5 13 16 7 15 18 7 15 18 7 15 18 7 15 18 7 15 18 7 15 18 7 15 18 7 15 18 19 27 30 19 27 30 19 27 30 19 27 30 19 27 30 19 27 30 19 27 30 19 27 30 10 18 21 8 16 19 6 14 17 3 11 14 0 7 10 0 4 7 0 2 5 0 2 5 1 6 9 1 6 9 1 6 9 1 6 9 1 6 9 1 6 9 1 6 9 1 6 9 17 22 25 19 24 27 21 26 29 24 29 32 28 33 36 31 36 39 33 38 41 35 41 41 42 48 44 44 51 44 46 53 46 49 56 49 53 60 53 56 63 56 58 65 58 60 67 60 60 67 60 60 67 60 60 67 60 60 67 60 60 67 60 60 67 60 60 67 60 61 66 60 62 63 58 61 60 56 56 55 51 49 48 44 43 42 38 36 35 31 31 30 26 29 28 24 33 32 28 33 32 28 33 32 28 33 32 28 33 32 28 33 32 28 33 32 28 33 32 30 33 31 32 33 31 34 33 31 34 33 31 34 33 31 34 33 31 34 33 31 34 33 31 34 36 34 37 36 34 37 36 34 37 36 34 37 36 34 37 36 34 37 36 34 37 36 34 37
6 2 16 6 2 16 6 2 16 6 2 16 4 0 14 4 0 14 4 0 14 4 0 14 4 0 14 4 0 14 4 0 14 4 1 12 3 1 12 3 2 10 3 2 10 3 2 10 3 2 10 3 2 10 3 2 10 3 2 10 3 2 10 3 2 10 3 2 10 3 2 10 3 2 10 3 2 10 3 2 10 3 2 10 4 2 15 4 2 15 4 2 15 4 2 15 4 2 15 4 2 15 4 2 15 4 2 15 4 2 15 4 2 15 4 2 15 4 2 15 4 2 15 4 2 15 4 2 15 4 2 15 4 4 16 4 4 16 4 4 16 4 4 16 4 4 16 4 4 16 4 4 16 4 4 16 6 6 18 6 6 18 6 6 18 6 6 18 6 6 18 6 6 18 6 6 18 4 7 16 6 9 18 5 10 16 5 10 16 5 10 16 5 10 16 5 10 16 5 10 16 5 10 16 6 11 17 6 11 17 6 11 17 6 11 17 6 11 17 6 11 17 6 11 17 6 11 17 5 13 16 5 13 16 5 13 16 5 13 16 5 13 16 5 13 16 5 13 16 5 13 16 7 15 18 7 15 18 7 15 18 7 15 18 7 15 18 7 15 18 7 15 18 7 15 18 21 29 32 21 29 32 21 29 32 21 29 32 21 29 32 21 29 32 21 29 32 21 29 32 10 18 21 8 16 19 6 14 17 3 11 14 0 7 10 0 4 7 0 2 5 0 2 5 1 6 9 1 6 9 1 6 9 1 6 9 1 6 9 1 6 9 1 6 9 1 6 9 17 22 25 19 24 27 21 26 29 24 29 32 28 33 36 31 36 39 33 38 41 35 41 41 42 48 44 44 51 44 46 53 46 49 56 49 53 60 53 56 63 56 58 65 58 60 67 60 58 65 58 58 65 58 58 65 58 58 65 58 58 65 58 58 65 58 58 65 58 59 64 58 62 63 58 61 60 56 56 55 51 49 48 44 43 42 38 36 35 31 31 30 26 29 28 24 33 32 28 33 32 28 33 32 28 33 32 28 33 32 28 33 32 28 33 32 28 33 32 30 33 31 32 33 31 34 33 31 34 33 31 34 33 31 34 33 31 34 33 31 34 33 31 34 36 34 37 36 34 37 36 34 37 36 34 37 36 34 37 36 34 37 36 34 37 36 34 37
6 2 16 6 3 14 6 2 16 6 3 14 4 0 14 4 1 12 4 0 14 4 1 12 4 0 14 4 1 12 4 0 14 4 1 12 3 1 12 3 2 10 3 2 10 3 2 10 3 2 10 3 2 10 3 2 10 3 2 10 3 2 10 3 2 10 3 2 10 3 2 10 3 2 10 3 2 10 3 2 10 3 1 12 4 2 15 4 2 15 4 2 15 4 2 15 4 2 15 4 2 15 4 2 15 4 2 15 4 2 15 4 2 15 4 2 15 4 2 15 4 2 15 4 2 15 4 2 15 4 2 15 4 4 16 4 4 16 4 4 16 4 4 16 4 4 16 4 4 16 4 4 16 4 4 16 6 6 18 6 6 18 6 6 18 6 6 18 6 6 18 6 6 18 6 6 18 6 6 16 6 9 18 5 10 16 5 10 16 5 10 16 5 10 16 5 10 16 5 10 16 5 10 16 6 11 17 6 11 17 6 11 17 6 11 17 6 11 17 6 11 17 6 11 17 6 11 17 5 13 16 5 13 16 5 13 16 5 13 16 5 13 16 5 13 16 5 13 16 5 13 16 7 15 18 7 15 18 7 15 18 7 15 18 7 15 18 7 15 18 7 15 18 7 15 18 23 31 34 23 31 34 23 31 34 23 31 34 23 31 34 23 31 34 23 31 34 23 31 34 10 18 21 8 16 19 6 14 17 3 11 14 0 7 10 0 4 7 0 2 5 0 2 5 1 6 9 1 6 9 1 6 9 1 6 9 1 6 9 1 6 9 1 6 9 1 6 9 17 22 25 19 24 27 21 26 29 24 29 32 28 33 36 31 36 39 33 38 41 35 41 41 42 48 46 44 50 46 46 52 48 49 55 51 53 59 55 56 62 58 58 64 60 60 66 62 56 62 58 56 62 58 56 62 58 56 62 58 56 62 58 56 62 58 56 62 58 57 62 58 62 62 60 61 60 56 56 55 53 49 48 44 43 42 40 36 35 31 31 30 28 29 28 24 33 32 30 33 32 28 33 32 30 33 32 28 33 32 30 33 32 28 33 32 30 33 32 30 33 31 32 33 31 34 35 30 34 33 31 34 35 30 34 33 31 34 35 30 34 33 31 34 38 33 37 36 34 37 38 33 37 36 34 37 38 33 37 36 34 37 38 33 37 36 34 35
2 0 11 2 1 9 2 0 11 2 1 9 2 0 11 2 1 9 2 0 11 2 1 9 2 0 11 2 1 9 2 0 11 2 0 11 3 1 12 3 1 12 3 1 12 3 1 12 3 1 12 3 1 12 3 1 12 3 1 12 3 1 12 3 1 12 3 1 12 3 1 12 3 1 12 3 1 12 3 1 12 3 1 12 4 2 15 4 2 15 4 2 15 4 2 15 4 2 15 4 2 15 4 2 15 4 2 15 4 2 15 4 2 15 4 2 15 4 2 15 4 2 15 4 2 15 4 2 15 4 2 15 3 1 14 3 1 14 3 1 14 3 1 14 3 1 14 3 1 14 3 1 14 3 1 14 5 3 16 5 3 16 5 3 16 5 3 16 5 3 16 5 3 16 5 3 16 4 4 14 4 7 16 3 8 14 3 8 14 3 8 14 3 8 14 3 8 14 3 8 14 3 8 14 0 1 7 0 1 7 0 3 9 2 7 13 5 10 16 8 13 19 11 16 22 12 17 23 9 17 20 10 18 20 13 21 23 16 24 26 19 27 29 23 31 33 25 33 35 26 34 36 37 45 47 37 45 47 37 45 47 37 45 47 37 45 47 37 45 47 37 45 47 37 45 47 46 54 57 44 52 55 42 50 53 39 47 50 35 43 46 32 40 43 30 38 41 28 36 39 16 24 27 14 22 25 12 20 23 9 17 20 5 13 16 2 10 13 0 8 11 0 6 9 1 9 11 1 9 11 1 9 11 1 9 11 1 9 11 1 9 11 1 9 11 1 9 11 12 20 22 14 22 24 16 24 26 19 27 29 23 31 33 26 34 36 28 36 38 32 37 40 38 44 44 39 43 42 39 43 42 39 43 42 39 43 42 39 43 42 39 43 42 39 43 42 54 58 57 54 58 57 54 58 57 54 58 57 54 58 57 54 58 57 54 58 57 56 58 57 45 43 44 45 41 40 43 39 40 40 36 35 36 32 33 33 29 28 31 27 28 29 25 24 33 29 30 33 29 28 33 29 30 33 29 28 33 29 30 33 29 28 33 29 30 33 29 30 35 31 32 35 31 32 36 30 32 35 31 32 36 30 32 35 31 32 36 30 32 35 31 32 38 32 34 37 33 34 38 32 34 37 33 34 38 32 34 37 33 34 38 32 34 37 33 34
2 1 9 2 1 9 2 1 9 2 1 9 2 1 9 2 1 9 2 1 9 2 1 9 2 1 9 2 1 9 2 1 9 2 1 9 3 1 12 3 1 12 3 1 12 3 1 12 3 1 12 3 1 12 3 1 12 3 1 12 3 1 12 3 1 12 3 1 12 3 1 12 3 1 12 3 1 12 3 1 12 3 1 12 4 2 15 4 2 15 4 2 15 4 2 15 4 2 15 4 2 15 4 2 15 4 2 15 4 2 15 4 2 15 4 2 15 4 2 15 4 2 15 4 2 15 4 2 15 4 2 15 3 1 14 3 1 14 3 1 14 3 1 14 3 1 14 3 1 14 3 1 14 3 1 14 5 3 16 5 3 16 5 3 16 5 3 16 5 3 16 5 3 16 5 3 16 4 4 14 4 7 16 3 8 14 3 8 14 3 8 14 3 8 14 3 8 14 3 8 14 3 8 14 0 1 7 0 2 8 0 5 11 3 8 14 6 11 17 10 15 21 12 17 23 13 18 22 12 20 23 13 21 23 15 23 25 19 27 29 22 30 32 25 33 35 28 36 38 29 37 39 39 47 49 39 47 49 39 47 49 39 47 49 39 47 49 39 47 49 39 47 49 39 47 49 46 54 57 44 52 55 42 50 53 39 47 50 35 43 46 32 40 43 30 38 41 28 36 39 16 24 27 14 22 25 12 20 23 9 17 20 5 13 16 2 10 13 0 8 11 0 6 9 1 9 11 1 9 11 1 9 11 1 9 11 1 9 11 1 9 11 1 9 11 1 9 11 12 20 22 14 22 24 16 24 26 19 27 29 23 31 33 26 34 36 28 36 38 30 38 40 39 43 44 39 43 44 39 43 44 39 43 44 39 43 44 39 43 44 39 43 44 39 43 44 52 56 57 52 56 57 52 56 57 52 56 57 52 56 57 52 56 57 52 56 57 54 55 57 45 43 44 45 41 42 43 39 40 40 36 37 36 32 33 33 29 30 31 27 28 29 25 26 33 29 30 33 29 30 33 29 30 33 29 30 33 29 30 33 29 30 33 29 30 33 29 30 36 30 32 36 30 32 36 30 32 36 30 32 36 30 32 36 30 32 36 30 32 36 30 32 38 32 34 38 32 34 38 32 34 38 32 34 38 32 34 38 32 34 38 32 34 38 32 34
2 1 9 2 1 9 2 1 9 2 1 9 2 1 9 2 1 9 2 1 9 2 1 9 2 1 9 2 1 9 2 1 9 2 1 9 3 1 12 3 1 12 3 1 12 3 1 12 3 1 12 3 1 12 3 1 12 3 1 12 3 1 12 3 1 12 3 1 12 3 1 12 3 1 12 3 1 12 3 1 12 3 1 12 4 2 15 4 2 15 4 2 15 4 2 15 4 2 15 4 2 15 4 2 15 4 2 15 4 2 15 4 2 15 4 2 15 4 2 15 4 2 15 4 2 15 4 2 15 4 2 15 3 1 14 3 1 14 3 1 14 3 1 14 3 1 14 3 1 14 3 1 14 3 1 14 5 3 16 5 3 16 5 3 16 5 3 16 5 3 16 5 3 16 5 3 16 4 4 14 4 7 16 3 8 14 3 8 14 3 8 14 3 8 14 3 8 14 3 8 14 3 8 14 0 3 9 0 5 11 2 7 13 5 10 16 9 14 20 12 17 23 14 19 25 16 21 25 17 25 28 18 26 28 20 28 30 23 31 33 27 35 37 30 38 40 33 41 43 34 42 44 41 49 51 41 49 51 41 49 51 41 49 51 41 49 51 41 49 51 41 49 51 41 49 51 46 54 57 44 52 55 42 50 53 39 47 50 35 43 46 32 40 43 30 38 41 28 36 39 16 24 27 14 22 25 12 20 23 9 17 20 5 13 16 2 10 13 0 8 11 0 6 9 1 9 11 1 9 11 1 9 11 1 9 11 1 9 11 1 9 11 1 9 11 1 9 11 12 20 22 14 22 24 16 24 26 19 27 29 23 31 33 26 34 36 28 36 38 30 38 40 39 43 44 39 43 44 39 43 44 39 43 44 39 43 44 39 43 44 39 43 44 39 43 44 50 54 55 50 54 55 50 54 55 50 54 55 50 54 55 50 54 55 50 54 55 52 53 55 45 43 44 45 41 42 43 39 40 40 36 37 36 32 33 33 29 30 31 27 28 29 25 26 33 29 30 33 29 30 33 29 30 33 29 30 33 29 30 33 29 30 33 29 30 33 29 30 36 30 32 36 30 32 36 30 32 36 30 32 36 30 32 36 30 32 36 30 32 36 30 32 38 32 34 38 32 34 38 32 34 38 32 34 38 32 34 38 32 34 38 32 34 38 32 34
2 1 9 2 1 9 2 1 9 2 1 9 2 1 9 2 1 9 2 1 9 2 1 9 2 1 9 2 1 9 2 1 9 2 1 9 3 1 12 3 1 12 3 1 12 3 1 12 3 1 12 3 1 12 3 1 12 3 1 12 3 1 12 3 1 12 3 1 12 3 1 12 3 1 12 3 1 12 3 1 12 3 1 12 4 2 15 4 2 15 4 2 15 4 2 15 4 2 15 4 2 15 4 2 15 4 2 15 4 2 15 4 2 15 4 2 15 4 2 15 4 2 15 4 2 15 4 2 15 4 2 15 3 1 14 3 1 14 3 1 14 3 1 14 3 1 14 3 1 14 3 1 14 3 1 14 5 3 16 5 3 16 5 3 16 5 3 16 5 3 16 5 3 16 5 3 16 4 4 14 4 7 16 3 8 14 3 8 14 3 8 14 3 8 14 3 8 14 3 8 14 3 8 14 2 7 13 3 8 14 5 10 16 9 14 20 12 17 23 15 20 26 18 23 29 19 24 28 23 31 34 24 32 34 27 35 37 30 38 40 33 41 43 36 44 46 39 47 49 40 48 50 44 52 54 44 52 54 44 52 54 44 52 54 44 52 54 44 52 54 44 52 54 44 52 54 46 54 57 44 52 55 42 50 53 39 47 50 35 43 46 32 40 43 30 38 41 28 36 39 16 24 27 14 22 25 12 20 23 9 17 20 5 13 16 2 10 13 0 8 11 0 6 9 1 9 11 1 9 11 1 9 11 1 9 11 1 9 11 1 9 11 1 9 11 1 9 11 12 20 22 14 22 24 16 24 26 19 27 29 23 31 33 26 34 36 28 36 38 30 38 40 39 43 44 39 43 44 39 43 44 39 43 44 39 43 44 39 43 44 39 43 44 39 43 44 47 51 52 47 51 52 47 51 52 47 51 52 47 51 52 47 51 52 47 51 52 49 50 52 45 43 44 45 41 42 43 39 40 40 36 37 36 32 33 33 29 30 31 27 28 29 25 26 33 29 30 33 29 30 33 29 30 33 29 30 33 29 30 33 29 30 33 29 30 33 29 30 36 30 32 36 30 32 36 30 32 36 30 32 36 30 32 36 30 32 36 30 32 36 30 32 38 32 34 38 32 34 38 32 34 38 32 34 38 32 34 38 32 34 38 32 34 38 32 34
2 1 9 2 1 9 2 1 9 2 1 9 2 1 9 2 1 9 2 1 9 2 1 9 2 1 9 2 1 9 2 1 9 2 1 9 3 1 12 3 1 12 3 1 12 3 1 12 3 1 12 3 1 12 3 1 12 3 1 12 3 1 12 3 1 12 3 1 12 3 1 12 3 1 12 3 1 12 3 1 12 3 1 12 4 2 15 4 2 15 4 2 15 4 2 15 4 2 15 4 2 15 4 2 15 4 2 15 4 2 15 4 2 15 4 2 15 4 2 15 4 2 15 4 2 15 4 2 15 4 2 15 3 1 14 3 1 14 3 1 14 3 1 14 3 1 14 3 1 14 3 1 14 3 1 14 5 3 16 5 3 16 5 3 16 5 3 16 5 3 16 5 3 16 5 3 16 4 4 14 4 7 16 3 8 14 3 8 14 3 8 14 3 8 14 3 8 14 3 8 14 3 8 14 5 10 16 6 11 17 9 14 20 12 17 23 15 20 26 19 24 30 21 26 32 22 27 31 30 38 41 31 39 41 34 42 44 37 45 47 40 48 50 43 51 53 46 54 56 47 55 57 48 56 58 48 56 58 48 56 58 48 56 58 48 56 58 48 56 58 48 56 58 48 56 58 46 54 57 44 52 55 42 50 53 39 47 50 35 43 46 32 40 43 30 38 41 28 36 39 16 24 27 14 22 25 12 20 23 9 17 20 5 13 16 2 10 13 0 8 11 0 6 9 1 9 11 1 9 11 1 9 11 1 9 11 1 9 11 1 9 11 1 9 11 1 9 11 12 20 22 14 22 24 16 24 26 19 27 29 23 31 33 26 34 36 28 36 38 30 38 40 39 43 44 39 43 44 39 43 44 39 43 44 39 43 44 39 43 44 39 43 44 39 43 44 43 47 48 43 47 48 43 47 48 43 47 48 43 47 48 43 47 48 43 47 48 45 46 48 45 43 44 45 41 42 43 39 40 40 36 37 36 32 33 33 29 30 31 27 28 29 25 26 33 29 30 33 29 30 33 29 30 33 29 30 33 29 30 33 29 30 33 29 30 33 29 30 36 30 32 36 30 32 36 30 32 36 30 32 36 30 32 36 30 32 36 30 32 36 30 32 38 32 34 38 32 34 38 32 34 38 32 34 38 32 34 38 32 34 38 32 34 38 32 34
2 1 9 2 1 9 2 1 9 2 1 9 2 1 9 2 1 9 2 1 9 2 1 9 2 1 9 2 1 9 2 1 9 2 1 9 3 1 12 3 1 12 3 1 12 3 1 12 3 1 12 3 1 12 3 1 12 3 1 12 3 1 12 3 1 12 3 1 12 3 1 12 3 1 12 3 1 12 3 1 12 3 1 12 4 2 15 4 2 15 4 2 15 4 2 15 4 2 15 4 2 15 4 2 15 4 2 15 4 2 15 4 2 15 4 2 15 4 2 15 4 2 15 4 2 15 4 2 15 4 2 15 3 1 14 3 1 14 3 1 14 3 1 14 3 1 14 3 1 14 3 1 14 3 1 14 5 3 16 5 3 16 5 3 16 5 3 16 5 3 16 5 3 16 5 3 16 4 4 14 4 7 16 3 8 14 3 8 14 3 8 14 3 8 14 3 8 14 3 8 14 3 8 14 8 13 19 10 15 21 12 17 23 15 20 26 19 24 30 22 27 33 24 29 35 26 31 35 36 44 47 37 45 47 40 48 50 43 51 53 47 55 57 50 58 60 52 60 62 53 61 63 51 59 61 51 59 61 51 59 61 51 59 61 51 59 61 51 59 61 51 59 61 51 59 61 46 54 57 44 52 55 42 50 53 39 47 50 35 43 46 32 40 43 30 38 41 28 36 39 16 24 27 14 22 25 12 20 23 9 17 20 5 13 16 2 10 13 0 8 11 0 6 9 1 9 11 1 9 11 1 9 11 1 9 11 1 9 11 1 9 11 1 9 11 1 9 11 12 20 22 14 22 24 16 24 26 19 27 29 23 31 33 26 34 36 28 36 38 30 38 40 39 43 44 39 43 44 39 43 44 39 43 44 39 43 44 39 43 44 39 43 44 39 43 44 40 44 45 40 44 45 40 44 45 40 44 45 40 44 45 40 44 45 40 44 45 42 43 45 45 43 44 45 41 42 43 39 40 40 36 37 36 32 33 33 29 30 31 27 28 29 25 26 33 29 30 33 29 30 33 29 30 33 29 30 33 29 30 33 29 30 33 29 30 33 29 30 36 30 32 36 30 32 36 30 32 36 30 32 36 30 32 36 30 32 36 30 32 36 30 32 38 32 34 38 32 34 38 32 34 38 32 34 38 32 34 38 32 34 38 32 34 38 32 34
2 1 9 2 1 9 2 1 9 2 1 9 2 1 9 2 1 9 2 1 9 2 1 9 2 1 9 2 1 9 2 1 9 2 1 9 3 1 12 3 1 12 3 1 12 3 1 12 3 1 12 3 1 12 3 1 12 3 1 12 3 1 12 3 1 12 3 1 12 3 1 12 3 1 12 3 1 12 3 1 12 3 1 12 4 2 15 4 2 15 4 2 15 4 2 15 4 2 15 4 2 15 4 2 15 4 2 15 4 2 15 4 2 15 4 2 15 4 2 15 4 2 15 4 2 15 4 2 15 4 2 15 3 1 14 3 1 14 3 1 14 3 1 14 3 1 14 3 1 14 3 1 14 3 1 14 5 3 16 5 3 16 5 3 16 5 3 16 5 3 16 5 3 16 5 3 16 4 4 14 4 7 16 3 8 14 3 8 14 3 8 14 3 8 14 3 8 14 3 8 14 3 8 14 11 16 22 12 17 23 14 19 25 18 23 29 21 26 32 24 29 35 27 32 38 28 33 37 41 49 52 42 50 52 45 53 55 48 56 58 51 59 61 55 63 65 57 65 67 58 66 68 53 61 63 53 61 63 53 61 63 53 61 63 53 61 63 53 61 63 53 61 63 53 61 63 46 54 57 44 52 55 42 50 53 39 47 50 35 43 46 32 40 43 30 38 41 28 36 39 16 24 27 14 22 25 12 20 23 9 17 20 5 13 16 2 10 13 0 8 11 0 6 9 1 9 11 1 9 11 1 9 11 1 9 11 1 9 11 1 9 11 1 9 11 1 9 11 12 20 22 14 22 24 16 24 26 19 27 29 23 31 33 26 34 36 28 36 38 30 38 40 39 43 44 39 43 44 39 43 44 39 43 44 39 43 44 39 43 44 39 43 44 39 43 44 38 42 43 38 42 43 38 42 43 38 42 43 38 42 43 38 42 43 38 42 43 40 41 43 45 43 44 45 41 42 43 39 40 40 36 37 36 32 33 33 29 30 31 27 28 29 25 26 33 29 30 33 29 30 33 29 30 33 29 30 33 29 30 33 29 30 33 29 30 33 29 30 36 30 32 36 30 32 36 30 32 36 30 32 36 30 32 36 30 32 36 30 32 36 30 32 38 32 34 38 32 34 38 32 34 38 32 34 38 32 34 38 32 34 38 32 34 38 32 34
2 1 9 2 1 9 2 1 9 2 1 9 2 1 9 2 1 9 2 1 9 2 1 9 2 1 9 2 1 9 2 1 9 2 1 9 3 1 12 3 1 12 3 1 12 3 1 12 3 1 12 3 1 12 3 1 12 3 1 12 3 1 12 3 1 12 3 1 12 3 1 12 3 1 12 3 1 12 3 1 12 3 1 12 4 2 15 4 2 15 4 2 15 4 2 15 4 2 15 4 2 15 4 2 15 4 2 15 4 2 15 4 2 15 4 2 15 4 2 15 4 2 15 4 2 15 4 2 15 4 2 15 3 1 14 3 1 14 3 1 14 3 1 14 3 1 14 3 1 14 3 1 14 3 1 14 5 3 16 5 3 16 5 3 16 5 3 16 5 3 16 5 3 16 5 3 16 4 4 14 4 7 16 3 8 14 3 8 14 3 8 14 3 8 14 3 8 14 3 8 14 3 8 14 12 17 23 13 18 24 16 21 27 19 24 30 22 27 33 26 31 37 28 33 39 29 34 38 44 52 55 45 53 55 47 55 57 51 59 61 54 62 64 57 65 67 60 68 70 61 69 71 55 63 65 55 63 65 55 63 65 55 63 65 55 63 65 55 63 65 55 63 65 55 63 65 46 54 57 44 52 55 42 50 53 39 47 50 35 43 46 32 40 43 30 38 41 28 36 39 16 24 27 14 22 25 12 20 23 9 17 20 5 13 16 2 10 13 0 8 11 0 6 9 1 9 11 1 9 11 1 9 11 1 9 11 1 9 11 1 9 11 1 9 11 1 9 11 12 20 22 14 22 24 16 24 26 19 27 29 23 31 33 26 34 36 28 36 38 30 38 40 39 43 44 39 43 44 39 43 44 39 43 44 39 43 44 39 43 44 39 43 44 39 43 44 36 40 41 36 40 41 36 40 41 36 40 41 36 40 41 36 40 41 36 40 41 38 39 41 45 43 44 45 41 42 43 39 40 40 36 37 36 32 33 33 29 30 31 27 28 29 25 26 33 29 30 33 29 30 33 29 30 33 29 30 33 29 30 33 29 30 33 29 30 33 29 30 36 30 32 36 30 32 36 30 32 36 30 32 36 30 32 36 30 32 36 30 32 36 30 32 38 32 34 38 32 34 38 32 34 38 32 34 38 32 34 38 32 34 38 32 34 38 32 34
3 2 10 3 2 10 3 2 10 3 2 10 1 0 8 1 0 8 1 0 8 1 0 8 1 0 8 1 0 8 1 0 8 1 0 8 2 0 11 2 0 11 2 0 11 2 0 11 2 0 11 2 0 11 2 0 11 2 0 11 3 1 12 3 1 12 3 1 12 3 1 12 3 1 12 3 1 12 3 1 12 3 1 12 4 2 15 4 2 15 4 2 15 4 2 15 4 2 15 4 2 15 4 2 15 4 2 15 3 1 14 3 1 14 3 1 14 3 1 14 3 1 14 3 1 14 3 1 14 3 1 14 3 1 14 3 1 14 3 1 14 3 1 14 3 1 14 3 1 14 3 1 14 3 1 14 8 6 19 8 6 19 8 6 19 8 6 19 8 6 19 8 6 19 8 6 19 7 7 17 5 8 17 3 8 14 3 8 14 1 6 12 0 5 11 0 4 10 0 3 9 0 2 8 20 25 31 23 28 34 29 34 40 36 41 47 44 49 55 52 57 63 58 63 69 61 66 70 54 62 65 54 62 64 54 62 64 54 62 64 54 62 64 54 62 64 54 62 64 54 62 64 60 68 70 60 68 70 60 68 70 60 68 70 60 68 70 60 68 70 60 68 70 60 68 70 58 66 69 56 64 67 54 62 65 51 59 62 47 55 58 44 52 55 42 50 53 40 48 51 16 24 27 14 22 25 12 20 23 9 17 20 5 13 16 2 10 13 0 8 11 0 6 9 7 15 17 7 15 17 7 15 17 7 15 17 7 15 17 7 15 17 7 15 17 7 15 17 20 28 30 20 28 30 20 28 30 20 28 30 20 28 30 20 28 30 20 28 30 20 28 30 29 33 34 29 33 34 29 33 34 29 33 34 29 33 34 29 33 34 29 33 34 29 33 34 30 34 35 30 34 35 30 34 35 30 34 35 30 34 35 30 34 35 30 34 35 32 33 35 30 28 29 32 28 29 32 28 29 32 28 29 32 28 29 32 28 29 32 28 29 32 28 29 32 28 29 32 28 29 32 28 29 32 28 29 32 28 29 32 28 29 32 28 29 32 28 29 34 28 30 34 28 30 34 28 30 34 28 30 34 28 30 34 28 30 34 28 30 34 28 30 36 30 32 36 30 32 36 30 32 36 30 32 36 30 32 36 30 32 36 30 32 36 30 32
3 2 10 3 2 10 3 2 10 3 2 10 1 0 8 1 0 8 1 0 8 1 0 8 1 0 8 1 0 8 1 0 8 1 0 8 2 0 11 2 0 11 2 0 11 2 0 11 2 0 11 2 0 11 2 0 11 2 0 11 3 1 12 3 1 12 3 1 12 3 1 12 3 1 12 3 1 12 3 1 12 3 1 12 4 2 15 4 2 15 4 2 15 4 2 15 4 2 15 4 2 15 4 2 15 4 2 15 3 1 14 3 1 14 3 1 14 3 1 14 3 1 14 3 1 14 3 1 14 3 1 14 3 1 14 3 1 14 3 1 14 3 1 14 3 1 14 3 1 14 3 1 14 3 1 14 8 6 19 8 6 19 8 6 19 8 6 19 8 6 19 8 6 19 8 6 19 7 7 17 6 9 18 5 10 16 4 9 15 4 9 15 3 8 14 2 7 13 2 7 13 2 7 13 23 28 34 26 31 37 31 36 42 38 43 49 45 50 56 52 57 63 58 63 69 61 66 70 56 64 67 56 64 66 56 64 66 56 64 66 56 64 66 56 64 66 56 64 66 56 64 66 62 70 72 62 70 72 62 70 72 62 70 72 62 70 72 62 70 72 62 70 72 62 70 72 58 66 69 56 64 67 54 62 65 51 59 62 47 55 58 44 52 55 42 50 53 40 48 51 16 24 27 14 22 25 12 20 23 9 17 20 5 13 16 2 10 13 0 8 11 0 6 9 7 15 17 7 15 17 7 15 17 7 15 17 7 15 17 7 15 17 7 15 17 7 15 17 20 28 30 20 28 30 20 28 30 20 28 30 20 28 30 20 28 30 20 28 30 20 28 30 29 33 34 29 33 34 29 33 34 29 33 34 29 33 34 29 33 34 29 33 34 29 33 34 30 34 35 30 34 35 30 34 35 30 34 35 30 34 35 30 34 35 30 34 35 32 33 35 30 28 29 32 28 29 32 28 29 32 28 29 32 28 29 32 28 29 32 28 29 32 28 29 32 28 29 32 28 29 32 28 29 32 28 29 32 28 29 32 28 29 32 28 29 32 28 29 34 28 30 34 28 30 34 28 30 34 28 30 34 28 30 34 28 30 34 28 30 34 28 30 36 30 32 36 30 32 36 30 32 36 30 32 36 30 32 36 30 32 36 30 32 36 30 32
3 2 10 3 2 10 3 2 10 3 2 10 1 0 8 1 0 8 1 0 8 1 0 8 1 0 8 1 0 8 1 0 8 1 0 8 2 0 11 2 0 11 2 0 11 2 0 11 2 0 11 2 0 11 2 0 11 2 0 11 3 1 12 3 1 12 3 1 12 3 1 12 3 1 12 3 1 12 3 1 12 3 1 12 4 2 15 4 2 15 4 2 15 4 2 15 4 2 15 4 2 15 4 2 15 4 2 15 3 1 14 3 1 14 3 1 14 3 1 14 3 1 14 3 1 14 3 1 14 3 1 14 3 1 14 3 1 14 3 1 14 3 1 14 3 1 14 3 1 14 3 1 14 3 1 14 8 6 19 8 6 19 8 6 19 8 6 19 8 6 19 8 6 19 8 6 19 7 7 17 7 10 19 7 12 18 7 12 18 8 13 19 9 14 20 9 14 20 10 15 21 10 15 21 29 34 40 31 36 42 35 40 46 41 46 52 47 52 58 53 58 64 57 62 68 60 65 69 58 66 69 58 66 68 58 66 68 58 66 68 58 66 68 58 66 68 58 66 68 58 66 68 64 72 74 64 72 74 64 72 74 64 72 74 64 72 74 64 72 74 64 72 74 64 72 74 58 66 69 56 64 67 54 62 65 51 59 62 47 55 58 44 52 55 42 50 53 40 48 51 16 24 27 14 22 25 12 20 23 9 17 20 5 13 16 2 10 13 0 8 11 0 6 9 7 15 17 7 15 17 7 15 17 7 15 17 7 15 17 7 15 17 7 15 17 7 15 17 20 28 30 20 28 30 20 28 30 20 28 30 20 28 30 20 28 30 20 28 30 20 28 30 29 33 34 29 33 34 29 33 34 29 33 34 29 33 34 29 33 34 29 33 34 29 33 34 30 34 35 30 34 35 30 34 35 30 34 35 30 34 35 30 34 35 30 34 35 32 33 35 30 28 29 32 28 29 32 28 29 32 28 29 32 28 29 32 28 29 32 28 29 32 28 29 32 28 29 32 28 29 32 28 29 32 28 29 32 28 29 32 28 29 32 28 29 32 28 29 34 28 30 34 28 30 34 28 30 34 28 30 34 28 30 34 28 30 34 28 30 34 28 30 36 30 32 36 30 32 36 30 32 36 30 32 36 30 32 36 30 32 36 30 32 36 30 32
3 2 10 3 2 10 3 2 10 3 2 10 1 0 8 1 0 8 1 0 8 1 0 8 1 0 8 1 0 8 1 0 8 1 0 8 2 0 11 2 0 11 2 0 11 2 0 11 2 0 11 2 0 11 2 0 11 2 0 11 3 1 12 3 1 12 3 1 12 3 1 12 3 1 12 3 1 12 3 1 12 3 1 12 4 2 15 4 2 15 4 2 15 4 2 15 4 2 15 4 2 15 4 2 15 4 2 15 3 1 14 3 1 14 3 1 14 3 1 14 3 1 14 3 1 14 3 1 14 3 1 14 3 1 14 3 1 14 3 1 14 3 1 14 3 1 14 3 1 14 3 1 14 3 1 14 8 6 19 8 6 19 8 6 19 8 6 19 8 6 19 8 6 19 8 6 19 7 7 17 9 12 21 9 14 20 11 16 22 13 18 24 16 21 27 18 23 29 20 25 31 21 26 32 36 41 47 38 43 49 41 46 52 45 50 56 49 54 60 54 59 65 57 62 68 58 63 67 61 69 72 61 69 71 61 69 71 61 69 71 61 69 71 61 69 71 61 69 71 61 69 71 67 75 77 67 75 77 67 75 77 67 75 77 67 75 77 67 75 77 67 75 77 67 75 77 58 66 69 56 64 67 54 62 65 51 59 62 47 55 58 44 52 55 42 50 53 40 48 51 16 24 27 14 22 25 12 20 23 9 17 20 5 13 16 2 10 13 0 8 11 0 6 9 7 15 17 7 15 17 7 15 17 7 15 17 7 15 17 7 15 17 7 15 17 7 15 17 20 28 30 20 28 30 20 28 30 20 28 30 20 28 30 20 28 30 20 28 30 20 28 30 29 33 34 29 33 34 29 33 34 29 33 34 29 33 34 29 33 34 29 33 34 29 33 34 30 34 35 30 34 35 30 34 35 30 34 35 30 34 35 30 34 35 30 34 35 32 33 35 30 28 29 32 28 29 32 28 29 32 28 29 32 28 29 32 28 29 32 28 29 32 28 29 32 28 29 32 28 29 32 28 29 32 28 29 32 28 29 32 28 29 32 28 29 32 28 29 34 28 30 34 28 30 34 28 30 34 28 30 34 28 30 34 28 30 34 28 30 34 28 30 36 30 32 36 30 32 36 30 32 36 30 32 36 30 32 36 30 32 36 30 32 36 30 32
3 2 10 3 2 10 3 2 10 3 2 10 1 0 8 1 0 8 1 0 8 1 0 8 1 0 8 1 0 8 1 0 8 1 0 8 2 0 11 2 0 11 2 0 11 2 0 11 2 0 11 2 0 11 2 0 11 2 0 11 3 1 12 3 1 12 3 1 12 3 1 12 3 1 12 3 1 12 3 1 12 3 1 12 4 2 15 4 2 15 4 2 15 4 2 15 4 2 15 4 2 15 4 2 15 4 2 15 3 1 14 3 1 14 3 1 14 3 1 14 3 1 14 3 1 14 3 1 14 3 1 14 3 1 14 3 1 14 3 1 14 3 1 14 3 1 14 3 1 14 3 1 14 3 1 14 8 6 19 8 6 19 8 6 19 8 6 19 8 6 19 8 6 19 8 6 19 7 7 17 11 14 23 12 17 23 15 20 26 19 24 30 24 29 35 28 33 39 31 36 42 32 37 43 44 49 55 45 50 56 47 52 58 49 54 60 52 57 63 54 59 65 56 61 67 57 62 66 65 73 76 65 73 75 65 73 75 65 73 75 65 73 75 65 73 75 65 73 75 65 73 75 71 79 81 71 79 81 71 79 81 71 79 81 71 79 81 71 79 81 71 79 81 71 79 81 58 66 69 56 64 67 54 62 65 51 59 62 47 55 58 44 52 55 42 50 53 40 48 51 16 24 27 14 22 25 12 20 23 9 17 20 5 13 16 2 10 13 0 8 11 0 6 9 7 15 17 7 15 17 7 15 17 7 15 17 7 15 17 7 15 17 7 15 17 7 15 17 20 28 30 20 28 30 20 28 30 20 28 30 20 28 30 20 28 30 20 28 30 20 28 30 29 33 34 29 33 34 29 33 34 29 33 34 29 33 34 29 33 34 29 33 34 29 33 34 30 34 35 30 34 35 30 34 35 30 34 35 30 34 35 30 34 35 30 34 35 32 33 35 30 28 29 32 28 29 32 28 29 32 28 29 32 28 29 32 28 29 32 28 29 32 28 29 32 28 29 32 28 29 32 28 29 32 28 29 32 28 29 32 28 29 32 28 29 32 28 29 34 28 30 34 28 30 34 28 30 34 28 30 34 28 30 34 28 30 34 28 30 34 28 30 36 30 32 36 30 32 36 30 32 36 30 32 36 30 32 36 30 32 36 30 32 36 30 32
3 2 10 3 2 10 3 2 10 3 2 10 1 0 8 1 0 8 1 0 8 1 0 8 1 0 8 1 0 8 1 0 8 1 0 8 2 0 11 2 0 11 2 0 11 2 0 11 2 0 11 2 0 11 2 0 11 2 0 11 3 1 12 3 1 12 3 1 12 3 1 12 3 1 12 3 1 12 3 1 12 3 1 12 4 2 15 4 2 15 4 2 15 4 2 15 4 2 15 4 2 15 4 2 15 4 2 15 3 1 14 3 1 14 3 1 14 3 1 14 3 1 14 3 1 14 3 1 14 3 1 14 3 1 14 3 1 14 3 1 14 3 1 14 3 1 14 3 1 14 3 1 14 3 1 14 8 6 19 8 6 19 8 6 19 8 6 19 8 6 19 8 6 19 8 6 19 7 7 17 13 16 25 15 20 26 19 24 30 25 30 36 31 36 42 37 42 48 41 46 52 43 48 54 52 57 63 52 57 63 53 58 64 54 59 65 54 59 65 55 60 66 55 60 66 56 61 65 68 76 79 68 76 78 68 76 78 68 76 78 68 76 78 68 76 78 68 76 78 68 76 78 74 82 84 74 82 84 74 82 84 74 82 84 74 82 84 74 82 84 74 82 84 74 82 84 58 66 69 56 64 67 54 62 65 51 59 62 47 55 58 44 52 55 42 50 53 40 48 51 16 24 27 14 22 25 12 20 23 9 17 20 5 13 16 2 10 13 0 8 11 0 6 9 7 15 17 7 15 17 7 15 17 7 15 17 7 15 17 7 15 17 7 15 17 7 15 17 20 28 30 20 28 30 20 28 30 20 28 30 20 28 30 20 28 30 20 28 30 20 28 30 29 33 34 29 33 34 29 33 34 29 33 34 29 33 34 29 33 34 29 33 34 29 33 34 30 34 35 30 34 35 30 34 35 30 34 35 30 34 35 30 34 35 30 34 35 32 33 35 30 28 29 32 28 29 32 28 29 32 28 29 32 28 29 32 28 29 32 28 29 32 28 29 32 28 29 32 28 29 32 28 29 32 28 29 32 28 29 32 28 29 32 28 29 32 28 29 34 28 30 34 28 30 34 28 30 34 28 30 34 28 30 34 28 30 34 28 30 34 28 30 36 30 32 36 30 32 36 30 32 36 30 32 36 30 32 36 30 32 36 30 32 36 30 32
3 2 10 3 2 10 3 2 10 3 2 10 1 0 8 1 0 8 1 0 8 1 0 8 1 0 8 1 0 8 1 0 8 1 0 8 2 0 11 2 0 11 2 0 11 2 0 11 2 0 11 2 0 11 2 0 11 2 0 11 3 1 12 3 1 12 3 1 12 3 1 12 3 1 12 3 1 12 3 1 12 3 1 12 4 2 15 4 2 15 4 2 15 4 2 15 4 2 15 4 2 15 4 2 15 4 2 15 3 1 14 3 1 14 3 1 14 3 1 14 3 1 14 3 1 14 3 1 14 3 1 14 3 1 14 3 1 14 3 1 14 3 1 14 3 1 14 3 1 14 3 1 14 3 1 14 8 6 19 8 6 19 8 6 19 8 6 19 8 6 19 8 6 19 8 6 19 7 7 17 15 18 27 17 22 28 22 27 33 29 34 40 36 41 47 43 48 54 49 54 60 52 57 63 58 63 69 58 63 69 57 62 68 57 62 68 56 61 67 55 60 66 55 60 66 55 60 64 70 78 81 70 78 80 70 78 80 70 78 80 70 78 80 70 78 80 70 78 80 70 78 80 76 84 86 76 84 86 76 84 86 76 84 86 76 84 86 76 84 86 76 84 86 76 84 86 58 66 69 56 64 67 54 62 65 51 59 62 47 55 58 44 52 55 42 50 53 40 48 51 16 24 27 14 22 25 12 20 23 9 17 20 5 13 16 2 10 13 0 8 11 0 6 9 7 15 17 7 15 17 7 15 17 7 15 17 7 15 17 7 15 17 7 15 17 7 15 17 20 28 30 20 28 30 20 28 30 20 28 30 20 28 30 20 28 30 20 28 30 20 28 30 29 33 34 29 33 34 29 33 34 29 33 34 29 33 34 29 33 34 29 33 34 29 33 34 30 34 35 30 34 35 30 34 35 30 34 35 30 34 35 30 34 35 30 34 35 32 33 35 30 28 29 32 28 29 32 28 29 32 28 29 32 28 29 32 28 29 32 28 29 32 28 29 32 28 29 32 28 29 32 28 29 32 28 29 32 28 29 32 28 29 32 28 29 32 28 29 34 28 30 34 28 30 34 28 30 34 28 30 34 28 30 34 28 30 34 28 30 34 28 30 36 30 32 36 30 32 36 30 32 36 30 32 36 30 32 36 30 32 36 30 32 36 30 32
3 2 10 3 2 10 3 2 10 3 2 10 1 0 8 1 0 8 1 0 8 1 0 8 1 0 8 1 0 8 1 0 8 1 0 8 2 1 9 2 1 9 2 1 9 2 1 9 2 1 9 2 1 9 2 1 9 2 1 9 3 2 10 3 2 10 3 2 10 3 2 10 3 2 10 3 2 10 3 2 10 3 2 10 4 2 13 3 3 13 4 2 13 3 3 13 4 2 13 3 3 13 4 2 13 3 3 13 3 1 12 2 2 12 3 1 12 2 2 12 3 1 12 2 2 12 3 1 12 2 2 12 2 2 12 2 2 12 2 2 14 2 2 12 2 2 14 2 2 12 2 2 14 2 2 12 7 7 19 7 7 17 7 7 19 7 7 17 7 7 19 7 7 17 7 7 19 5 8 17 15 20 26 18 23 29 24 29 35 31 36 42 39 44 50 47 52 58 53 58 64 56 61 67 61 66 72 60 65 71 60 65 71 58 63 69 57 62 68 56 61 67 55 60 66 54 59 63 72 80 83 72 80 82 72 80 82 72 80 82 72 80 82 72 80 82 72 80 82 72 80 82 78 86 88 78 86 88 78 86 88 78 86 88 78 86 88 78 86 88 78 86 88 78 86 88 58 66 69 56 64 67 54 62 65 51 59 62 47 55 58 44 52 55 42 50 53 40 48 51 16 24 27 14 22 25 12 20 23 9 17 20 5 13 16 2 10 13 0 8 11 0 6 9 7 15 17 7 15 17 7 15 17 7 15 17 7 15 17 7 15 17 7 15 17 7 15 17 20 28 30 20 28 30 20 28 30 20 28 30 20 28 30 20 28 30 20 28 30 20 28 30 28 34 34 28 34 34 29 33 34 28 34 34 29 33 34 28 34 34 29 33 34 28 34 34 30 34 35 29 35 35 30 34 35 29 35 35 30 34 35 29 35 35 30 34 35 32 33 35 30 28 29 32 28 27 32 28 29 32 28 27 32 28 29 32 28 27 32 28 29 32 28 27 32 28 29 32 28 27 32 28 29 32 28 27 32 28 29 32 28 27 32 28 29 32 28 27 34 28 28 34 28 28 34 28 28 34 28 28 34 28 28 34 28 28 34 28 28 34 28 28 36 30 30 36 30 30 36 30 30 36 30 30 36 30 30 36 30 30 36 30 30 36 30 30
2 1 7 2 1 7 2 1 7 2 1 7 2 1 7 2 1 7 2 1 7 2 1 7 2 1 7 2 1 7 2 1 7 2 1 7 1 0 5 1 0 5 1 0 5 1 0 5 1 0 5 1 0 5 1 0 5 1 0 5 1 0 5 1 0 5 1 0 5 1 0 5 1 0 5 1 0 5 1 0 5 1 0 5 1 2 7 0 2 9 1 1 9 0 2 9 1 1 9 0 2 9 1 1 9 0 2 9 2 2 10 0 3 10 2 2 10 0 3 10 2 2 10 0 3 10 2 2 10 0 3 10 6 11 17 6 11 17 6 10 19 6 11 17 6 10 19 6 11 17 6 10 19 6 11 17 0 4 13 1 6 12 4 8 17 7 12 18 10 14 23 14 19 25 16 20 29 17 22 28 38 45 51 39 46 52 41 48 54 45 52 58 48 55 61 51 58 64 54 61 67 55 62 68 61 68 74 61 68 74 61 68 74 61 68 74 61 68 74 61 68 74 61 68 74 61 69 72 82 87 91 82 87 90 82 87 90 82 87 90 82 87 90 82 87 90 82 87 90 82 87 90 83 88 91 83 88 91 83 88 91 83 88 91 83 88 91 83 88 91 83 88 91 83 88 91 71 76 80 69 74 78 64 69 73 57 62 66 51 56 60 44 49 53 39 44 48 37 42 46 28 33 37 21 26 30 11 16 20 2 7 11 0 4 8 1 6 10 7 12 16 9 17 20 12 20 23 11 21 23 11 21 23 11 21 23 11 21 23 11 21 23 11 21 23 11 21 23 21 31 33 21 31 33 21 31 33 21 31 33 21 31 33 21 31 33 21 31 33 22 30 32 27 36 35 27 36 35 29 35 35 27 36 35 29 35 35 27 36 35 29 35 35 27 36 35 18 24 24 16 25 24 18 24 24 16 25 24 18 24 24 16 25 24 18 24 24 19 23 22 29 28 26 32 27 24 32 26 26 32 27 24 32 26 26 32 27 24 32 26 26 32 27 24 34 28 28 34 29 26 34 28 28 34 29 26 34 28 28 34 29 26 34 28 28 34 29 26 38 30 28 38 30 28 38 30 28 38 30 28 38 30 28 38 30 28 38 30 28 38 30 28 37 29 27 37 29 27 37 29 27 37 29 27 37 29 27 37 29 27 37 29 27 37 29 27
2 1 7 2 1 7 2 1 7 2 1 7 2 1 7 2 1 7 2 1 7 2 1 7 2 1 7 2 1 7 2 1 7 2 1 6 1 0 5 1 1 3 1 1 3 1 1 3 1 1 3 1 1 3 1 1 3 1 1 3 1 1 3 1 1 3 1 1 3 1 1 3 1 1 3 1 1 3 1 1 3 0 1 3 1 2 7 0 2 7 0 2 7 0 2 7 0 2 7 0 2 7 0 2 7 0 2 7 0 3 8 0 3 8 0 3 8 0 3 8 0 3 8 0 3 8 0 3 8 0 4 8 6 11 17 4 11 17 4 11 17 4 11 17 4 11 17 4 11 17 4 11 17 4 11 17 1 8 14 2 9 15 4 11 17 8 15 21 11 18 24 14 21 27 17 24 30 18 25 31 39 46 52 40 47 53 43 50 56 46 53 59 49 56 62 53 60 66 55 62 68 56 63 69 63 70 76 63 70 76 63 70 76 63 70 76 63 70 76 63 70 76 63 70 76 63 71 74 82 87 91 82 87 90 82 87 90 82 87 90 82 87 90 82 87 90 82 87 90 82 87 90 83 88 91 83 88 91 83 88 91 83 88 91 83 88 91 83 88 91 83 88 91 83 88 91 71 76 80 69 74 78 64 69 73 57 62 66 51 56 60 44 49 53 39 44 48 37 42 46 28 33 37 21 26 30 11 16 20 2 7 11 0 4 8 1 6 10 7 12 16 9 17 20 12 20 23 11 21 23 11 21 23 11 21 23 11 21 23 11 21 23 11 21 23 11 21 23 19 29 31 19 29 31 19 29 31 19 29 31 19 29 31 19 29 31 19 29 31 19 29 30 25 33 35 25 34 33 25 34 33 25 34 33 25 34 33 25 34 33 25 34 33 25 34 33 16 25 24 16 25 24 16 25 24 16 25 24 16 25 24 16 25 24 16 25 24 19 23 22 29 28 26 32 27 24 32 27 24 32 27 24 32 27 24 32 27 24 32 27 24 32 27 24 34 29 26 34 29 26 34 29 26 34 29 26 34 29 26 34 29 26 34 29 26 34 29 26 38 30 27 38 30 27 38 30 27 38 30 27 38 30 27 38 30 27 38 30 27 38 30 27 37 29 26 37 29 26 37 29 26 37 29 26 37 29 26 37 29 26 37 29 26 37 29 26
2 1 7 2 1 7 2 1 7 2 1 7 2 1 7 2 1 7 2 1 7 2 1 7 2 1 7 2 1 7 2 1 7 2 1 6 1 0 5 1 1 3 1 1 3 1 1 3 1 1 3 1 1 3 1 1 3 1 1 3 1 1 3 1 1 3 1 1 3 1 1 3 1 1 3 1 1 3 1 1 3 0 1 3 1 2 7 0 2 7 0 2 7 0 2 7 0 2 7 0 2 7 0 2 7 0 2 7 0 3 8 0 3 8 0 3 8 0 3 8 0 3 8 0 3 8 0 3 8 0 4 8 6 11 17 4 11 17 4 11 17 4 11 17 4 11 17 4 11 17 4 11 17 4 11 17 6 13 19 7 14 20 9 16 22 12 19 25 16 23 29 19 26 32 22 29 35 23 30 36 41 48 54 43 50 56 45 52 58 48 55 61 52 59 65 55 62 68 57 64 70 59 66 72 65 72 78 65 72 78 65 72 78 65 72 78 65 72 78 65 72 78 65 72 78 65 73 76 82 87 91 82 87 90 82 87 90 82 87 90 82 87 90 82 87 90 82 87 90 82 87 90 83 88 91 83 88 91 83 88 91 83 88 91 83 88 91 83 88 91 83 88 91 83 88 91 71 76 80 69 74 78 64 69 73 57 62 66 51 56 60 44 49 53 39 44 48 37 42 46 28 33 37 21 26 30 11 16 20 2 7 11 0 4 8 1 6 10 7 12 16 9 17 20 12 20 23 11 21 23 11 21 23 11 21 23 11 21 23 11 21 23 11 21 23 11 21 23 17 27 29 17 27 29 17 27 29 17 27 29 17 27 29 17 27 29 17 27 29 17 27 28 23 31 33 23 32 31 23 32 31 23 32 31 23 32 31 23 32 31 23 32 31 23 32 31 16 25 24 16 25 24 16 25 24 16 25 24 16 25 24 16 25 24 16 25 24 19 23 22 29 28 26 32 27 24 32 27 24 32 27 24 32 27 24 32 27 24 32 27 24 32 27 24 34 29 26 34 29 26 34 29 26 34 29 26 34 29 26 34 29 26 34 29 26 34 29 26 38 30 27 38 30 27 38 30 27 38 30 27 38 30 27 38 30 27 38 30 27 38 30 27 37 29 26 37 29 26 37 29 26 37 29 26 37 29 26 37 29 26 37 29 26 37 29 26
