P3
172 37
255
2 1 6 2 1 6 2 1 6 2 1 6 1 0 5 1 0 5 1 0 5 1 0 5 1 0 5 1 0 5 1 0 5 1 0 5 0 0 2 0 0 2 0 0 2 0 0 2 0 0 2 0 0 2 0 0 2 0 0 2 1 1 3 1 1 3 1 1 3 1 1 3 1 1 3 1 1 3 1 1 3 1 1 3 3 2 8 3 2 8 3 2 8 3 2 8 3 2 8 3 2 8 3 2 8 3 2 8 3 2 8 3 2 8 3 2 8 3 2 8 3 2 8 3 2 8 3 2 8 3 2 8 2 1 6 2 1 6 2 1 6 2 1 6 2 1 6 2 1 6 2 1 6 2 1 6 2 1 6 2 1 6 2 1 6 2 1 6 2 1 6 2 1 6 2 1 6 2 1 6 3 2 8 3 2 8 3 2 8 3 2 8 3 2 8 3 2 8 3 2 8 3 2 8 6 5 11 6 5 11 6 5 11 6 5 11 6 5 11 6 5 11 6 5 11 7 5 10 40 33 40 45 36 41 50 41 46 56 47 52 63 54 59 69 60 65 74 65 70 77 68 73 77 68 73 79 70 75 81 72 77 84 75 80 88 79 84 91 82 87 93 84 89 96 85 91 97 84 91 101 86 93 103 88 95 106 91 98 110 95 102 113 98 105 115 100 107 117 102 109 116 101 108 118 103 110 120 105 112 123 108 115 127 112 119 130 115 122 132 117 124 134 119 124 137 122 127 137 122 125 137 122 125 137 122 125 137 122 125 137 122 125 137 122 125 137 122 125 138 123 126 136 121 124 134 119 122 131 116 119 127 112 115 124 109 112 122 107 110 120 105 108 112 98 98 111 97 97 109 95 95 105 91 91 102 88 88 99 85 85 96 82 82 95 81 81 70 56 56 66 52 52 61 47 47 59 45 45 63 49 49 72 58 58 83 69 69 88 76 76 94 88 90 96 92 93 99 95 96 98 94 95 92 88 89 80 76 77 67 63 64 58 54 55 44 40 41 44 40 41 44 40 41 44 40 41 44 40 41 44 40 41 44 40 41 44 40 41 42 38 37 42 38 37 42 38 37 42 38 37 42 38 37 42 38 37 42 38 37 42 38 37 44 40 39 44 40 39 44 40 39 44 40 39 44 40 39 44 40 39 44 40 39 44 40 39
2 1 6 2 1 6 2 1 6 2 1 6 1 0 5 1 0 5 1 0 5 1 0 5 1 0 5 1 0 5 1 0 5 1 0 5 0 0 2 0 0 2 0 0 2 0 0 2 0 0 2 0 0 2 0 0 2 0 0 2 1 1 3 1 1 3 1 1 3 1 1 3 1 1 3 1 1 3 1 1 3 1 1 3 3 2 7 3 2 7 3 2 8 3 2 7 3 2 8 3 2 7 3 2 8 3 2 7 3 2 8 3 2 7 3 2 8 3 2 7 3 2 8 3 2 7 3 2 8 3 2 7 2 1 6 2 1 6 2 1 6 2 1 6 2 1 6 2 1 6 2 1 6 2 1 6 2 1 6 2 1 6 2 1 6 2 1 6 2 1 6 2 1 6 2 1 6 2 1 6 3 2 7 3 2 7 4 2 7 3 2 7 4 2 7 3 2 7 4 2 7 3 2 7 7 5 10 6 5 10 7 5 10 6 5 10 7 5 10 6 5 10 7 5 10 9 4 10 43 34 39 47 36 40 53 41 45 58 47 51 66 54 58 71 60 64 77 65 69 79 68 72 79 67 71 80 69 73 83 71 75 85 74 78 90 78 82 92 81 85 95 83 87 97 85 89 99 84 89 102 85 91 104 87 95 107 90 96 111 94 102 114 97 103 116 99 107 118 101 107 117 100 108 119 102 108 121 104 112 124 107 113 128 111 119 131 114 120 133 116 124 135 118 124 138 122 125 137 122 125 138 122 125 137 122 125 138 122 125 137 122 125 138 122 125 137 122 125 139 123 126 136 121 124 135 119 122 131 116 119 128 112 115 124 109 112 123 107 110 120 105 108 111 96 99 108 96 96 105 93 95 102 90 90 99 87 89 95 83 83 93 81 83 92 80 80 65 53 55 61 49 49 57 45 47 55 43 43 60 48 50 70 58 58 82 70 72 88 78 79 95 89 89 97 93 92 100 96 97 100 96 95 93 89 90 81 77 76 68 64 65 60 56 55 44 40 41 44 40 39 44 40 41 44 40 39 44 40 41 44 40 39 44 40 41 44 40 39 42 38 37 42 38 37 42 38 37 42 38 37 42 38 37 42 38 37 42 38 37 42 38 37 44 40 39 44 40 39 44 40 39 44 40 39 44 40 39 44 40 39 44 40 39 44 40 39
0 0 2 0 0 2 0 0 2 0 0 2 1 1 3 1 1 3 1 1 3 1 1 3 1 1 3 1 1 3 1 1 3 1 1 3 1 1 3 1 1 3 1 1 3 1 1 3 1 1 3 1 1 3 1 1 3 1 1 3 0 0 2 0 0 2 0 0 2 0 0 2 0 0 2 0 0 2 0 0 2 0 0 2 1 1 3 1 1 3 1 0 5 1 1 3 1 0 5 1 1 3 1 0 5 1 1 3 1 0 5 1 1 3 1 0 5 1 1 3 1 0 5 1 1 3 1 0 5 1 0 5 1 0 5 1 0 5 1 0 5 1 0 5 1 0 5 1 0 5 1 0 5 1 0 5 1 0 5 1 0 5 1 0 5 1 0 5 1 0 5 1 0 5 1 0 5 1 0 5 1 0 2 1 0 2 3 0 2 1 0 2 3 0 2 1 0 2 3 0 2 1 0 2 3 0 2 1 0 2 5 0 4 9 7 10 18 13 17 22 20 23 29 24 28 33 27 29 62 47 50 64 48 49 68 49 51 70 54 55 75 56 58 76 60 61 81 62 64 80 64 65 93 74 76 93 77 78 97 78 80 98 82 83 104 85 87 105 89 90 109 90 92 111 92 94 114 95 99 114 95 99 114 95 101 114 95 99 114 95 101 114 95 99 114 95 101 114 95 99 119 100 106 121 102 106 123 104 110 126 107 111 130 111 117 133 114 118 135 116 122 137 118 122 137 118 122 135 119 122 137 118 122 135 119 122 137 118 122 135 119 122 137 118 122 135 119 122 131 112 116 127 111 114 127 108 112 122 106 109 120 101 105 115 99 102 115 96 100 111 95 98 112 100 102 108 98 99 103 92 96 97 87 88 90 79 83 84 74 75 79 68 72 76 66 67 51 40 44 53 43 44 58 47 51 65 55 56 71 60 64 78 68 69 83 72 76 84 75 76 84 78 78 86 82 79 89 85 84 88 84 81 81 77 76 69 65 62 56 52 51 48 44 41 43 39 38 43 39 36 43 39 38 43 39 36 43 39 38 43 39 36 43 39 38 43 39 38 41 37 36 41 37 38 41 37 38 41 37 38 41 37 38 41 37 38 41 37 38 41 37 38 40 36 37 40 36 37 40 36 37 40 36 37 40 36 37 40 36 37 40 36 37 40 36 37
0 0 2 0 0 2 0 0 2 0 0 2 1 1 3 1 1 3 1 1 3 1 1 3 1 1 3 1 1 3 1 1 3 1 1 3 1 1 3 1 1 3 1 1 3 1 1 3 1 1 3 1 1 3 1 1 3 1 1 3 0 0 2 0 0 2 0 0 2 0 0 2 0 0 2 0 0 2 0 0 2 0 0 2 1 1 3 1 1 3 1 1 3 1 1 3 1 1 3 1 1 3 1 1 3 1 1 3 1 1 3 1 1 3 1 1 3 1 1 3 1 1 3 1 1 3 1 1 3 1 1 3 1 0 5 1 0 5 1 0 5 1 0 5 1 0 5 1 0 5 1 0 5 1 0 5 1 0 5 1 0 5 1 0 5 1 0 5 1 0 5 1 0 5 1 0 5 1 1 3 3 0 2 3 0 0 3 0 0 3 0 0 3 0 0 3 0 0 3 0 0 3 0 0 3 0 0 3 0 0 6 2 3 12 8 9 19 15 16 25 21 22 30 26 27 36 27 28 64 48 49 68 48 49 71 51 52 74 54 55 77 57 58 81 61 62 83 63 64 84 64 65 94 74 75 96 76 77 98 78 79 101 81 82 105 85 86 108 88 89 110 90 91 112 92 93 115 94 99 115 94 99 115 94 99 115 94 99 115 94 99 115 94 99 115 94 99 115 94 99 120 99 104 122 101 106 124 103 108 127 106 111 131 110 115 134 113 118 136 115 120 138 117 122 137 118 122 137 118 122 137 118 122 137 118 122 137 118 122 137 118 122 137 118 122 137 118 122 131 112 116 129 110 114 127 108 112 124 105 109 120 101 105 117 98 102 115 96 100 111 95 98 108 97 101 104 95 98 100 91 94 93 84 87 86 77 80 80 71 74 75 66 69 72 63 66 50 41 44 52 43 46 57 48 51 64 55 58 70 61 64 77 68 71 82 73 76 82 76 76 84 78 78 86 82 79 89 85 82 88 84 81 81 77 74 69 65 62 56 52 49 48 44 41 43 39 36 43 39 36 43 39 36 43 39 36 43 39 36 43 39 36 43 39 36 43 39 36 41 37 38 41 37 38 41 37 38 41 37 38 41 37 38 41 37 38 41 37 38 41 37 38 40 36 37 40 36 37 40 36 37 40 36 37 40 36 37 40 36 37 40 36 37 40 36 37
0 0 2 0 0 2 0 0 2 0 0 2 1 1 3 1 1 3 1 1 3 1 1 3 1 1 3 1 1 3 1 1 3 1 1 3 1 1 3 1 1 3 1 1 3 1 1 3 1 1 3 1 1 3 1 1 3 1 1 3 0 0 2 0 0 2 0 0 2 0 0 2 0 0 2 0 0 2 0 0 2 0 0 2 1 1 3 1 1 3 1 1 3 1 1 3 1 1 3 1 1 3 1 1 3 1 1 3 1 1 3 1 1 3 1 1 3 1 1 3 1 1 3 1 1 3 1 1 3 1 1 3 1 0 5 1 0 5 1 0 5 1 0 5 1 0 5 1 0 5 1 0 5 1 0 5 1 0 5 1 0 5 1 0 5 1 0 5 1 0 5 1 0 5 1 0 5 1 1 3 3 0 2 3 0 0 3 0 0 3 0 0 3 0 0 3 0 0 3 0 0 3 0 0 3 0 0 3 0 0 8 4 5 15 11 12 22 18 19 28 24 25 33 29 30 38 29 30 66 50 51 71 51 52 73 53 54 76 56 57 80 60 61 83 63 64 85 65 66 87 67 68 94 74 75 96 76 77 98 78 79 101 81 82 105 85 86 108 88 89 110 90 91 112 92 93 115 94 99 115 94 99 115 94 99 115 94 99 115 94 99 115 94 99 115 94 99 115 94 99 120 99 104 122 101 106 124 103 108 127 106 111 131 110 115 134 113 118 136 115 120 138 117 122 137 118 122 137 118 122 137 118 122 137 118 122 137 118 122 137 118 122 137 118 122 137 118 122 131 112 116 129 110 114 127 108 112 124 105 109 120 101 105 117 98 102 115 96 100 111 95 98 103 92 96 100 91 94 95 86 89 88 79 82 81 72 75 75 66 69 70 61 64 67 58 61 50 41 44 52 43 46 57 48 51 64 55 58 70 61 64 77 68 71 82 73 76 82 76 76 84 78 78 86 82 79 89 85 82 88 84 81 81 77 74 69 65 62 56 52 49 48 44 41 43 39 36 43 39 36 43 39 36 43 39 36 43 39 36 43 39 36 43 39 36 43 39 36 41 37 38 41 37 38 41 37 38 41 37 38 41 37 38 41 37 38 41 37 38 41 37 38 40 36 37 40 36 37 40 36 37 40 36 37 40 36 37 40 36 37 40 36 37 40 36 37
0 0 2 0 0 2 0 0 2 0 0 2 1 1 3 1 1 3 1 1 3 1 1 3 1 1 3 1 1 3 1 1 3 1 1 3 1 1 3 1 1 3 1 1 3 1 1 3 1 1 3 1 1 3 1 1 3 1 1 3 0 0 2 0 0 2 0 0 2 0 0 2 0 0 2 0 0 2 0 0 2 0 0 2 1 1 3 1 1 3 1 1 3 1 1 3 1 1 3 1 1 3 1 1 3 1 1 3 1 1 3 1 1 3 1 1 3 1 1 3 1 1 3 1 1 3 1 1 3 1 1 3 1 0 5 1 0 5 1 0 5 1 0 5 1 0 5 1 0 5 1 0 5 1 0 5 1 0 5 1 0 5 1 0 5 1 0 5 1 0 5 1 0 5 1 0 5 1 1 3 3 0 2 3 0 0 3 0 0 3 0 0 3 0 0 3 0 0 3 0 0 3 0 0 4 0 1 7 3 4 11 7 8 18 14 15 25 21 22 31 27 28 36 32 33 42 33 34 70 54 55 74 54 55 76 56 57 80 60 61 83 63 64 86 66 67 89 69 70 90 70 71 94 74 75 96 76 77 98 78 79 101 81 82 105 85 86 108 88 89 110 90 91 112 92 93 115 94 99 115 94 99 115 94 99 115 94 99 115 94 99 115 94 99 115 94 99 115 94 99 120 99 104 122 101 106 124 103 108 127 106 111 131 110 115 134 113 118 136 115 120 138 117 122 137 118 122 137 118 122 137 118 122 137 118 122 137 118 122 137 118 122 137 118 122 137 118 122 131 112 116 129 110 114 127 108 112 124 105 109 120 101 105 117 98 102 115 96 100 111 95 98 97 86 90 93 84 87 88 79 82 82 73 76 75 66 69 69 60 63 64 55 58 61 52 55 50 41 44 52 43 46 57 48 51 64 55 58 70 61 64 77 68 71 82 73 76 82 76 76 84 78 78 86 82 79 89 85 82 88 84 81 81 77 74 69 65 62 56 52 49 48 44 41 43 39 36 43 39 36 43 39 36 43 39 36 43 39 36 43 39 36 43 39 36 43 39 36 41 37 38 41 37 38 41 37 38 41 37 38 41 37 38 41 37 38 41 37 38 41 37 38 40 36 37 40 36 37 40 36 37 40 36 37 40 36 37 40 36 37 40 36 37 40 36 37
0 0 2 0 0 2 0 0 2 0 0 2 1 1 3 1 1 3 1 1 3 1 1 3 1 1 3 1 1 3 1 1 3 1 1 3 1 1 3 1 1 3 1 1 3 1 1 3 1 1 3 1 1 3 1 1 3 1 1 3 0 0 2 0 0 2 0 0 2 0 0 2 0 0 2 0 0 2 0 0 2 0 0 2 1 1 3 1 1 3 1 1 3 1 1 3 1 1 3 1 1 3 1 1 3 1 1 3 1 1 3 1 1 3 1 1 3 1 1 3 1 1 3 1 1 3 1 1 3 1 1 3 1 0 5 1 0 5 1 0 5 1 0 5 1 0 5 1 0 5 1 0 5 1 0 5 1 0 5 1 0 5 1 0 5 1 0 5 1 0 5 1 0 5 1 0 5 1 1 3 3 0 2 3 0 0 3 0 0 3 0 0 3 0 0 3 0 0 3 0 0 3 0 0 7 3 4 10 6 7 15 11 12 21 17 18 28 24 25 35 31 32 39 35 36 45 36 37 73 57 58 77 57 58 80 60 61 83 63 64 86 66 67 90 70 71 92 72 73 93 73 74 94 74 75 96 76 77 98 78 79 101 81 82 105 85 86 108 88 89 110 90 91 112 92 93 115 94 99 115 94 99 115 94 99 115 94 99 115 94 99 115 94 99 115 94 99 115 94 99 120 99 104 122 101 106 124 103 108 127 106 111 131 110 115 134 113 118 136 115 120 138 117 122 137 118 122 137 118 122 137 118 122 137 118 122 137 118 122 137 118 122 137 118 122 137 118 122 131 112 116 129 110 114 127 108 112 124 105 109 120 101 105 117 98 102 115 96 100 111 95 98 90 79 83 86 77 80 81 72 75 75 66 69 68 59 62 62 53 56 57 48 51 54 45 48 50 41 44 52 43 46 57 48 51 64 55 58 70 61 64 77 68 71 82 73 76 82 76 76 84 78 78 86 82 79 89 85 82 88 84 81 81 77 74 69 65 62 56 52 49 48 44 41 43 39 36 43 39 36 43 39 36 43 39 36 43 39 36 43 39 36 43 39 36 43 39 36 41 37 38 41 37 38 41 37 38 41 37 38 41 37 38 41 37 38 41 37 38 41 37 38 40 36 37 40 36 37 40 36 37 40 36 37 40 36 37 40 36 37 40 36 37 40 36 37
0 0 2 0 0 2 0 0 2 0 0 2 1 1 3 1 1 3 1 1 3 1 1 3 1 1 3 1 1 3 1 1 3 1 1 3 1 1 3 1 1 3 1 1 3 1 1 3 1 1 3 1 1 3 1 1 3 1 1 3 0 0 2 0 0 2 0 0 2 0 0 2 0 0 2 0 0 2 0 0 2 0 0 2 1 1 3 1 1 3 1 1 3 1 1 3 1 1 3 1 1 3 1 1 3 1 1 3 1 1 3 1 1 3 1 1 3 1 1 3 1 1 3 1 1 3 1 1 3 1 1 3 1 0 5 1 0 5 1 0 5 1 0 5 1 0 5 1 0 5 1 0 5 1 0 5 1 0 5 1 0 5 1 0 5 1 0 5 1 0 5 1 0 5 1 0 5 1 1 3 3 0 2 3 0 0 3 0 0 3 0 0 3 0 0 3 0 0 3 0 0 3 0 0 11 7 8 13 9 10 18 14 15 24 20 21 31 27 28 38 34 35 43 39 40 48 39 40 76 60 61 81 61 62 83 63 64 86 66 67 90 70 71 93 73 74 95 75 76 97 77 78 94 74 75 96 76 77 98 78 79 101 81 82 105 85 86 108 88 89 110 90 91 112 92 93 115 94 99 115 94 99 115 94 99 115 94 99 115 94 99 115 94 99 115 94 99 115 94 99 120 99 104 122 101 106 124 103 108 127 106 111 131 110 115 134 113 118 136 115 120 138 117 122 137 118 122 137 118 122 137 118 122 137 118 122 137 118 122 137 118 122 137 118 122 137 118 122 131 112 116 129 110 114 127 108 112 124 105 109 120 101 105 117 98 102 115 96 100 111 95 98 84 73 77 80 71 74 75 66 69 69 60 63 62 53 56 55 46 49 50 41 44 48 39 42 50 41 44 52 43 46 57 48 51 64 55 58 70 61 64 77 68 71 82 73 76 82 76 76 84 78 78 86 82 79 89 85 82 88 84 81 81 77 74 69 65 62 56 52 49 48 44 41 43 39 36 43 39 36 43 39 36 43 39 36 43 39 36 43 39 36 43 39 36 43 39 36 41 37 38 41 37 38 41 37 38 41 37 38 41 37 38 41 37 38 41 37 38 41 37 38 40 36 37 40 36 37 40 36 37 40 36 37 40 36 37 40 36 37 40 36 37 40 36 37
0 0 2 0 0 2 0 0 2 0 0 2 1 1 3 1 1 3 1 1 3 1 1 3 1 1 3 1 1 3 1 1 3 1 1 3 1 1 3 1 1 3 1 1 3 1 1 3 1 1 3 1 1 3 1 1 3 1 1 3 0 0 2 0 0 2 0 0 2 0 0 2 0 0 2 0 0 2 0 0 2 0 0 2 1 1 3 1 1 3 1 1 3 1 1 3 1 1 3 1 1 3 1 1 3 1 1 3 1 1 3 1 1 3 1 1 3 1 1 3 1 1 3 1 1 3 1 1 3 1 1 3 1 0 5 1 0 5 1 0 5 1 0 5 1 0 5 1 0 5 1 0 5 1 0 5 1 0 5 1 0 5 1 0 5 1 0 5 1 0 5 1 0 5 1 0 5 1 1 3 3 0 2 3 0 0 3 0 0 3 0 0 3 0 0 3 0 0 3 0 0 3 0 0 13 9 10 16 12 13 21 17 18 27 23 24 34 30 31 40 36 37 45 41 42 51 42 43 79 63 64 83 63 64 85 65 66 89 69 70 92 72 73 95 75 76 98 78 79 99 79 80 94 74 75 96 76 77 98 78 79 101 81 82 105 85 86 108 88 89 110 90 91 112 92 93 115 94 99 115 94 99 115 94 99 115 94 99 115 94 99 115 94 99 115 94 99 115 94 99 120 99 104 122 101 106 124 103 108 127 106 111 131 110 115 134 113 118 136 115 120 138 117 122 137 118 122 137 118 122 137 118 122 137 118 122 137 118 122 137 118 122 137 118 122 137 118 122 131 112 116 129 110 114 127 108 112 124 105 109 120 101 105 117 98 102 115 96 100 111 95 98 79 68 72 75 66 69 70 61 64 64 55 58 57 48 51 50 41 44 46 37 40 43 34 37 50 41 44 52 43 46 57 48 51 64 55 58 70 61 64 77 68 71 82 73 76 82 76 76 84 78 78 86 82 79 89 85 82 88 84 81 81 77 74 69 65 62 56 52 49 48 44 41 43 39 36 43 39 36 43 39 36 43 39 36 43 39 36 43 39 36 43 39 36 43 39 36 41 37 38 41 37 38 41 37 38 41 37 38 41 37 38 41 37 38 41 37 38 41 37 38 40 36 37 40 36 37 40 36 37 40 36 37 40 36 37 40 36 37 40 36 37 40 36 37
0 0 2 0 0 2 0 0 2 0 0 2 1 1 3 1 1 3 1 1 3 1 1 3 1 1 3 1 1 3 1 1 3 1 1 3 1 1 3 1 1 3 1 1 3 1 1 3 1 1 3 1 1 3 1 1 3 1 1 3 0 0 2 0 0 2 0 0 2 0 0 2 0 0 2 0 0 2 0 0 2 0 0 2 1 1 3 1 1 3 1 1 3 1 1 3 1 1 3 1 1 3 1 1 3 1 1 3 1 1 3 1 1 3 1 1 3 1 1 3 1 1 3 1 1 3 1 1 3 1 1 3 1 0 5 1 0 5 1 0 5 1 0 5 1 0 5 1 0 5 1 0 5 1 0 5 1 0 5 1 0 5 1 0 5 1 0 5 1 0 5 1 0 5 1 0 5 1 1 3 3 0 2 3 0 0 3 0 0 3 0 0 3 0 0 3 0 0 3 0 0 3 0 0 14 10 11 17 13 14 22 18 19 28 24 25 35 31 32 41 37 38 46 42 43 52 43 44 80 64 65 84 64 65 87 67 68 90 70 71 93 73 74 97 77 78 99 79 80 100 80 81 94 74 75 96 76 77 98 78 79 101 81 82 105 85 86 108 88 89 110 90 91 112 92 93 115 94 99 115 94 99 115 94 99 115 94 99 115 94 99 115 94 99 115 94 99 115 94 99 120 99 104 122 101 106 124 103 108 127 106 111 131 110 115 134 113 118 136 115 120 138 117 122 137 118 122 137 118 122 137 118 122 137 118 122 137 118 122 137 118 122 137 118 122 137 118 122 131 112 116 129 110 114 127 108 112 124 105 109 120 101 105 117 98 102 115 96 100 111 95 98 76 65 69 72 63 66 67 58 61 61 52 55 54 45 48 48 39 42 43 34 37 40 31 34 50 41 44 52 43 46 57 48 51 64 55 58 70 61 64 77 68 71 82 73 76 82 76 76 84 78 78 86 82 79 89 85 82 88 84 81 81 77 74 69 65 62 56 52 49 48 44 41 43 39 36 43 39 36 43 39 36 43 39 36 43 39 36 43 39 36 43 39 36 43 39 36 41 37 38 41 37 38 41 37 38 41 37 38 41 37 38 41 37 38 41 37 38 41 37 38 40 36 37 40 36 37 40 36 37 40 36 37 40 36 37 40 36 37 40 36 37 40 36 37
1 1 3 1 1 3 1 1 3 1 1 3 0 0 2 0 0 2 0 0 2 0 0 2 0 0 2 0 0 2 0 0 2 0 0 2 0 0 2 0 0 2 0 0 2 0 0 2 0 0 2 0 0 2 0 0 2 0 0 2 1 1 3 1 1 3 1 1 3 1 1 3 1 1 3 1 1 3 1 1 3 1 1 3 1 1 3 1 1 3 1 1 3 1 1 3 1 1 3 1 1 3 1 1 3 1 1 3 1 1 3 1 1 3 1 1 3 1 1 3 1 1 3 1 1 3 1 1 3 1 1 3 1 0 5 1 0 5 1 0 5 1 0 5 1 0 5 1 0 5 1 0 5 1 0 5 1 0 5 1 0 5 1 0 5 1 0 5 1 0 5 1 0 5 1 0 5 1 1 3 3 0 2 3 0 0 3 0 0 5 1 2 9 5 6 12 8 9 14 10 11 16 12 13 24 20 21 27 23 24 32 28 29 38 34 35 45 41 42 51 47 48 56 52 53 62 53 54 83 67 68 87 67 68 89 69 70 93 73 74 96 76 77 99 79 80 102 82 83 103 83 84 102 82 83 103 83 84 105 85 86 109 89 90 112 92 93 115 95 96 118 98 99 119 99 100 120 99 104 120 99 104 120 99 104 120 99 104 120 99 104 120 99 104 120 99 104 120 99 104 128 107 112 128 107 112 128 107 112 128 107 112 128 107 112 128 107 112 128 107 112 128 107 112 123 104 108 123 104 108 123 104 108 123 104 108 123 104 108 123 104 108 123 104 108 123 104 108 129 110 114 127 108 112 123 104 108 118 99 103 113 94 98 107 88 92 103 84 88 99 83 86 68 57 61 65 56 59 61 52 55 57 48 51 52 43 46 48 39 42 44 35 38 43 34 37 52 43 46 54 45 48 56 47 50 59 50 53 63 54 57 66 57 60 68 59 62 68 62 62 72 66 66 69 65 62 67 63 60 64 60 57 60 56 53 57 53 50 55 51 48 53 49 46 38 34 31 38 34 31 38 34 31 38 34 31 38 34 31 38 34 31 38 34 31 38 34 31 36 32 33 36 32 33 36 32 33 36 32 33 36 32 33 36 32 33 36 32 33 36 32 33 38 34 35 38 34 35 38 34 35 38 34 35 38 34 35 38 34 35 38 34 35 38 34 35
1 1 3 1 1 3 1 1 3 1 1 3 0 0 2 0 0 2 0 0 2 0 0 2 0 0 2 0 0 2 0 0 2 0 0 2 0 0 2 0 0 2 0 0 2 0 0 2 0 0 2 0 0 2 0 0 2 0 0 2 1 1 3 1 1 3 1 1 3 1 1 3 1 1 3 1 1 3 1 1 3 1 1 3 1 1 3 1 1 3 1 1 3 1 1 3 1 1 3 1 1 3 1 1 3 1 1 3 1 1 3 1 1 3 1 1 3 1 1 3 1 1 3 1 1 3 1 1 3 1 1 3 1 0 5 1 0 5 1 0 5 1 0 5 1 0 5 1 0 5 1 0 5 1 0 5 1 0 5 1 0 5 1 0 5 1 0 5 1 0 5 1 0 5 1 0 5 1 1 3 3 0 2 3 0 0 3 0 0 5 1 2 9 5 6 12 8 9 14 10 11 16 12 13 27 23 24 30 26 27 34 30 31 41 37 38 48 44 45 54 50 51 59 55 56 65 56 57 84 68 69 88 68 69 91 71 72 94 74 75 97 77 78 101 81 82 103 83 84 104 84 85 103 83 84 104 84 85 107 87 88 110 90 91 113 93 94 117 97 98 119 99 100 120 100 101 122 101 106 122 101 106 122 101 106 122 101 106 122 101 106 122 101 106 122 101 106 122 101 106 128 107 112 128 107 112 128 107 112 128 107 112 128 107 112 128 107 112 128 107 112 128 107 112 123 104 108 123 104 108 123 104 108 123 104 108 123 104 108 123 104 108 123 104 108 123 104 108 129 110 114 126 107 111 122 103 107 116 97 101 110 91 95 104 85 89 99 80 84 95 79 82 65 54 58 62 53 56 59 50 53 55 46 49 51 42 45 48 39 42 45 36 39 43 34 37 52 43 46 54 45 48 56 47 50 59 50 53 63 54 57 66 57 60 68 59 62 68 62 62 72 66 66 69 65 62 67 63 60 64 60 57 60 56 53 57 53 50 55 51 48 53 49 46 38 34 31 38 34 31 38 34 31 38 34 31 38 34 31 38 34 31 38 34 31 38 34 31 36 32 33 36 32 33 36 32 33 36 32 33 36 32 33 36 32 33 36 32 33 36 32 33 38 34 35 38 34 35 38 34 35 38 34 35 38 34 35 38 34 35 38 34 35 38 34 35
1 1 3 1 1 3 1 1 3 1 1 3 0 0 2 0 0 2 0 0 2 0 0 2 0 0 2 0 0 2 0 0 2 0 0 2 0 0 2 0 0 2 0 0 2 0 0 2 0 0 2 0 0 2 0 0 2 0 0 2 1 1 3 1 1 3 1 1 3 1 1 3 1 1 3 1 1 3 1 1 3 1 1 3 1 1 3 1 1 3 1 1 3 1 1 3 1 1 3 1 1 3 1 1 3 1 1 3 1 1 3 1 1 3 1 1 3 1 1 3 1 1 3 1 1 3 1 1 3 1 1 3 1 0 5 1 0 5 1 0 5 1 0 5 1 0 5 1 0 5 1 0 5 1 0 5 1 0 5 1 0 5 1 0 5 1 0 5 1 0 5 1 0 5 1 0 5 1 1 3 3 0 2 3 0 0 3 0 0 5 1 2 9 5 6 12 8 9 14 10 11 16 12 13 32 28 29 34 30 31 39 35 36 46 42 43 53 49 50 59 55 56 64 60 61 70 61 62 86 70 71 91 71 72 93 73 74 96 76 77 100 80 81 103 83 84 105 85 86 107 87 88 105 85 86 107 87 88 109 89 90 112 92 93 116 96 97 119 99 100 121 101 102 123 103 104 124 103 108 124 103 108 124 103 108 124 103 108 124 103 108 124 103 108 124 103 108 124 103 108 128 107 112 128 107 112 128 107 112 128 107 112 128 107 112 128 107 112 128 107 112 128 107 112 123 104 108 123 104 108 123 104 108 123 104 108 123 104 108 123 104 108 123 104 108 123 104 108 127 108 112 124 105 109 119 100 104 112 93 97 104 85 89 97 78 82 92 73 77 87 71 74 59 48 52 57 48 51 55 46 49 52 43 46 50 41 44 47 38 41 45 36 39 44 35 38 52 43 46 54 45 48 56 47 50 59 50 53 63 54 57 66 57 60 68 59 62 68 62 62 72 66 66 69 65 62 67 63 60 64 60 57 60 56 53 57 53 50 55 51 48 53 49 46 38 34 31 38 34 31 38 34 31 38 34 31 38 34 31 38 34 31 38 34 31 38 34 31 36 32 33 36 32 33 36 32 33 36 32 33 36 32 33 36 32 33 36 32 33 36 32 33 38 34 35 38 34 35 38 34 35 38 34 35 38 34 35 38 34 35 38 34 35 38 34 35
1 1 3 1 1 3 1 1 3 1 1 3 0 0 2 0 0 2 0 0 2 0 0 2 0 0 2 0 0 2 0 0 2 0 0 2 0 0 2 0 0 2 0 0 2 0 0 2 0 0 2 0 0 2 0 0 2 0 0 2 1 1 3 1 1 3 1 1 3 1 1 3 1 1 3 1 1 3 1 1 3 1 1 3 1 1 3 1 1 3 1 1 3 1 1 3 1 1 3 1 1 3 1 1 3 1 1 3 1 1 3 1 1 3 1 1 3 1 1 3 1 1 3 1 1 3 1 1 3 1 1 3 1 0 5 1 0 5 1 0 5 1 0 5 1 0 5 1 0 5 1 0 5 1 0 5 1 0 5 1 0 5 1 0 5 1 0 5 1 0 5 1 0 5 1 0 5 1 1 3 3 0 2 3 0 0 3 0 0 5 1 2 9 5 6 12 8 9 14 10 11 16 12 13 38 34 35 41 37 38 46 42 43 52 48 49 59 55 56 65 61 62 70 66 67 76 67 68 90 74 75 94 74 75 96 76 77 100 80 81 103 83 84 106 86 87 109 89 90 110 90 91 109 89 90 110 90 91 112 92 93 116 96 97 119 99 100 122 102 103 125 105 106 126 106 107 127 106 111 127 106 111 127 106 111 127 106 111 127 106 111 127 106 111 127 106 111 127 106 111 128 107 112 128 107 112 128 107 112 128 107 112 128 107 112 128 107 112 128 107 112 128 107 112 123 104 108 123 104 108 123 104 108 123 104 108 123 104 108 123 104 108 123 104 108 123 104 108 125 106 110 121 102 106 115 96 100 106 87 91 97 78 82 88 69 73 81 62 66 76 60 63 51 40 44 50 41 44 49 40 43 48 39 42 47 38 41 46 37 40 46 37 40 45 36 39 52 43 46 54 45 48 56 47 50 59 50 53 63 54 57 66 57 60 68 59 62 68 62 62 72 66 66 69 65 62 67 63 60 64 60 57 60 56 53 57 53 50 55 51 48 53 49 46 38 34 31 38 34 31 38 34 31 38 34 31 38 34 31 38 34 31 38 34 31 38 34 31 36 32 33 36 32 33 36 32 33 36 32 33 36 32 33 36 32 33 36 32 33 36 32 33 38 34 35 38 34 35 38 34 35 38 34 35 38 34 35 38 34 35 38 34 35 38 34 35
1 1 3 1 1 3 1 1 3 1 1 3 0 0 2 0 0 2 0 0 2 0 0 2 0 0 2 0 0 2 0 0 2 0 0 2 0 0 2 0 0 2 0 0 2 0 0 2 0 0 2 0 0 2 0 0 2 0 0 2 1 1 3 1 1 3 1 1 3 1 1 3 1 1 3 1 1 3 1 1 3 1 1 3 1 1 3 1 1 3 1 1 3 1 1 3 1 1 3 1 1 3 1 1 3 1 1 3 1 1 3 1 1 3 1 1 3 1 1 3 1 1 3 1 1 3 1 1 3 1 1 3 1 0 5 1 0 5 1 0 5 1 0 5 1 0 5 1 0 5 1 0 5 1 0 5 1 0 5 1 0 5 1 0 5 1 0 5 1 0 5 1 0 5 1 0 5 1 1 3 3 0 2 3 0 0 3 0 0 5 1 2 9 5 6 12 8 9 14 10 11 16 12 13 45 41 42 48 44 45 53 49 50 59 55 56 66 62 63 72 68 69 77 73 74 83 74 75 93 77 78 97 77 78 100 80 81 103 83 84 106 86 87 110 90 91 112 92 93 113 93 94 112 92 93 113 93 94 116 96 97 119 99 100 122 102 103 126 106 107 128 108 109 129 109 110 131 110 115 131 110 115 131 110 115 131 110 115 131 110 115 131 110 115 131 110 115 131 110 115 128 107 112 128 107 112 128 107 112 128 107 112 128 107 112 128 107 112 128 107 112 128 107 112 123 104 108 123 104 108 123 104 108 123 104 108 123 104 108 123 104 108 123 104 108 123 104 108 123 104 108 119 100 104 111 92 96 100 81 85 89 70 74 78 59 63 70 51 55 64 48 51 43 32 36 42 33 36 43 34 37 44 35 38 45 36 39 46 37 40 46 37 40 47 38 41 52 43 46 54 45 48 56 47 50 59 50 53 63 54 57 66 57 60 68 59 62 68 62 62 72 66 66 69 65 62 67 63 60 64 60 57 60 56 53 57 53 50 55 51 48 53 49 46 38 34 31 38 34 31 38 34 31 38 34 31 38 34 31 38 34 31 38 34 31 38 34 31 36 32 33 36 32 33 36 32 33 36 32 33 36 32 33 36 32 33 36 32 33 36 32 33 38 34 35 38 34 35 38 34 35 38 34 35 38 34 35 38 34 35 38 34 35 38 34 35
1 1 3 1 1 3 1 1 3 1 1 3 0 0 2 0 0 2 0 0 2 0 0 2 0 0 2 0 0 2 0 0 2 0 0 2 0 0 2 0 0 2 0 0 2 0 0 2 0 0 2 0 0 2 0 0 2 0 0 2 1 1 3 1 1 3 1 1 3 1 1 3 1 1 3 1 1 3 1 1 3 1 1 3 1 1 3 1 1 3 1 1 3 1 1 3 1 1 3 1 1 3 1 1 3 1 1 3 1 1 3 1 1 3 1 1 3 1 1 3 1 1 3 1 1 3 1 1 3 1 1 3 1 0 5 1 0 5 1 0 5 1 0 5 1 0 5 1 0 5 1 0 5 1 0 5 1 0 5 1 0 5 1 0 5 1 0 5 1 0 5 1 0 5 1 0 5 1 1 3 3 0 2 3 0 0 3 0 0 5 1 2 9 5 6 12 8 9 14 10 11 16 12 13 51 47 48 54 50 51 59 55 56 65 61 62 72 68 69 79 75 76 84 80 81 89 80 81 96 80 81 101 81 82 103 83 84 106 86 87 110 90 91 113 93 94 115 95 96 117 97 98 115 95 96 117 97 98 119 99 100 122 102 103 126 106 107 129 109 110 131 111 112 133 113 114 134 113 118 134 113 118 134 113 118 134 113 118 134 113 118 134 113 118 134 113 118 134 113 118 128 107 112 128 107 112 128 107 112 128 107 112 128 107 112 128 107 112 128 107 112 128 107 112 123 104 108 123 104 108 123 104 108 123 104 108 123 104 108 123 104 108 123 104 108 123 104 108 121 102 106 116 97 101 107 88 92 95 76 80 82 63 67 70 51 55 60 41 45 53 37 40 35 24 28 35 26 29 37 28 31 40 31 34 42 33 36 45 36 39 47 38 41 48 39 42 52 43 46 54 45 48 56 47 50 59 50 53 63 54 57 66 57 60 68 59 62 68 62 62 72 66 66 69 65 62 67 63 60 64 60 57 60 56 53 57 53 50 55 51 48 53 49 46 38 34 31 38 34 31 38 34 31 38 34 31 38 34 31 38 34 31 38 34 31 38 34 31 36 32 33 36 32 33 36 32 33 36 32 33 36 32 33 36 32 33 36 32 33 36 32 33 38 34 35 38 34 35 38 34 35 38 34 35 38 34 35 38 34 35 38 34 35 38 34 35
1 1 3 1 1 3 1 1 3 1 1 3 0 0 2 0 0 2 0 0 2 0 0 2 0 0 2 0 0 2 0 0 2 0 0 2 0 0 2 0 0 2 0 0 2 0 0 2 0 0 2 0 0 2 0 0 2 0 0 2 1 1 3 1 1 3 1 1 3 1 1 3 1 1 3 1 1 3 1 1 3 1 1 3 1 1 3 1 1 3 1 1 3 1 1 3 1 1 3 1 1 3 1 1 3 1 1 3 1 1 3 1 1 3 1 1 3 1 1 3 1 1 3 1 1 3 1 1 3 1 1 3 1 0 5 1 0 5 1 0 5 1 0 5 1 0 5 1 0 5 1 0 5 1 0 5 1 0 5 1 0 5 1 0 5 1 0 5 1 0 5 1 0 5 1 0 5 1 1 3 3 0 2 3 0 0 3 0 0 5 1 2 9 5 6 12 8 9 14 10 11 16 12 13 56 52 53 59 55 56 64 60 61 70 66 67 77 73 74 84 80 81 88 84 85 94 85 86 99 83 84 103 83 84 105 85 86 109 89 90 112 92 93 115 95 96 118 98 99 119 99 100 118 98 99 119 99 100 121 101 102 125 105 106 128 108 109 131 111 112 134 114 115 135 115 116 136 115 120 136 115 120 136 115 120 136 115 120 136 115 120 136 115 120 136 115 120 136 115 120 128 107 112 128 107 112 128 107 112 128 107 112 128 107 112 128 107 112 128 107 112 128 107 112 123 104 108 123 104 108 123 104 108 123 104 108 123 104 108 123 104 108 123 104 108 123 104 108 120 101 105 114 95 99 104 85 89 91 72 76 76 57 61 63 44 48 53 34 38 45 29 32 29 18 22 30 21 24 33 24 27 37 28 31 41 32 35 44 35 38 47 38 41 49 40 43 52 43 46 54 45 48 56 47 50 59 50 53 63 54 57 66 57 60 68 59 62 68 62 62 72 66 66 69 65 62 67 63 60 64 60 57 60 56 53 57 53 50 55 51 48 53 49 46 38 34 31 38 34 31 38 34 31 38 34 31 38 34 31 38 34 31 38 34 31 38 34 31 36 32 33 36 32 33 36 32 33 36 32 33 36 32 33 36 32 33 36 32 33 36 32 33 38 34 35 38 34 35 38 34 35 38 34 35 38 34 35 38 34 35 38 34 35 38 34 35
1 1 3 1 1 3 1 1 3 1 1 3 0 0 2 0 0 2 0 0 2 0 0 2 0 0 2 0 0 2 0 0 2 0 0 2 0 0 2 0 0 2 0 0 2 0 0 2 0 0 2 0 0 2 0 0 2 0 0 2 1 1 3 1 1 3 1 1 3 1 1 3 1 1 3 1 1 3 1 1 3 1 1 3 1 1 3 1 1 3 1 1 3 1 1 3 1 1 3 1 1 3 1 1 3 1 1 3 1 1 3 1 1 3 1 1 3 1 1 3 1 1 3 1 1 3 1 1 3 1 1 3 1 1 3 1 1 3 1 0 5 1 1 3 1 0 5 1 1 3 1 0 5 1 1 3 1 0 5 1 1 3 1 0 5 1 1 3 1 0 5 1 1 3 1 0 5 2 0 3 4 0 0 4 0 0 6 0 0 6 0 0 12 3 4 13 7 7 17 8 9 17 11 11 62 53 54 63 57 57 70 61 62 74 68 68 83 74 75 87 81 81 94 85 86 98 88 89 100 84 84 104 84 83 107 87 88 110 90 89 113 93 94 117 97 96 119 99 100 120 100 99 119 99 100 120 100 99 123 103 104 126 106 105 129 109 110 133 113 112 135 115 116 136 116 117 137 118 120 137 118 120 137 118 120 137 118 120 137 118 120 137 118 120 137 118 120 137 118 120 127 108 110 127 108 110 127 108 110 127 108 110 127 108 110 127 108 110 127 108 110 127 108 110 123 104 108 121 105 108 121 105 108 121 105 108 121 105 108 121 105 108 121 105 108 121 105 108 117 101 104 111 95 98 100 84 87 86 70 73 71 55 58 57 41 44 46 30 33 40 25 28 25 16 19 25 19 21 29 23 25 33 27 29 38 32 34 42 36 38 46 40 42 47 41 43 50 44 46 52 46 48 54 48 50 57 51 53 61 55 57 64 58 60 66 60 62 67 63 62 71 67 66 67 66 62 67 63 60 62 61 57 60 56 53 55 54 50 55 51 48 51 50 46 38 34 31 36 35 31 38 34 31 36 35 31 38 34 31 36 35 31 38 34 31 38 34 31 36 32 31 36 32 31 37 31 33 36 32 31 37 31 33 36 32 31 37 31 33 36 32 31 39 33 35 38 34 33 39 33 35 38 34 33 39 33 35 38 34 33 39 33 35 38 34 33
1 1 3 1 1 3 1 1 3 1 1 3 0 0 2 0 0 2 0 0 2 0 0 2 0 0 2 0 0 2 0 0 2 0 0 2 0 0 2 0 0 2 0 0 2 0 0 2 0 0 2 0 0 2 0 0 2 0 0 2 0 0 2 0 0 2 0 0 2 0 0 2 0 0 2 0 0 2 0 0 2 0 0 2 1 1 3 1 1 3 1 1 3 1 1 3 1 1 3 1 1 3 1 1 3 1 1 3 1 1 3 1 1 3 1 1 3 1 1 3 1 1 3 1 1 3 1 1 3 1 1 3 1 0 2 1 0 0 1 0 2 1 0 0 1 0 2 1 0 0 1 0 2 1 0 0 2 0 3 2 0 1 2 0 3 2 0 1 2 0 3 2 0 1 2 0 3 4 0 1 7 0 0 8 0 0 10 0 0 17 5 5 29 15 15 37 25 25 46 32 32 48 36 36 71 57 57 72 60 60 79 65 65 83 71 71 92 78 78 96 84 84 103 89 89 106 92 91 108 90 88 109 91 87 112 94 92 115 97 93 118 100 98 122 104 100 124 106 104 125 107 103 141 123 121 141 123 119 141 123 121 141 123 119 141 123 121 141 123 119 141 123 121 141 123 121 145 130 127 145 130 127 145 130 127 145 130 127 145 130 127 145 130 127 145 130 127 145 130 127 146 131 128 145 130 127 142 127 124 139 124 121 136 121 118 132 117 114 130 115 112 128 114 113 115 101 101 115 101 101 115 101 101 115 101 101 115 101 101 115 101 101 115 101 101 115 101 101 114 100 100 103 89 89 85 71 71 67 53 53 53 39 39 46 32 32 44 30 30 42 32 33 27 23 24 26 26 26 28 28 28 31 31 31 35 35 35 38 38 38 40 40 40 42 42 42 46 46 46 46 46 46 46 46 46 46 46 46 46 46 46 46 46 46 46 46 46 46 46 44 55 55 53 55 56 51 56 55 51 55 56 51 56 55 51 55 56 51 56 55 51 55 56 51 35 34 30 34 35 30 35 34 30 34 35 30 35 34 30 34 35 30 35 34 30 35 34 30 37 32 29 37 32 29 39 30 31 37 32 29 39 30 31 37 32 29 39 30 31 37 32 29 40 31 32 38 33 30 40 31 32 38 33 30 40 31 32 38 33 30 40 31 32 38 33 30
1 1 3 1 1 3 1 1 3 1 1 3 0 0 2 0 0 2 0 0 2 0 0 2 0 0 2 0 0 2 0 0 2 0 0 2 0 0 2 0 0 2 0 0 2 0 0 2 0 0 2 0 0 2 0 0 2 0 0 2 0 0 2 0 0 2 0 0 2 0 0 2 0 0 2 0 0 2 0 0 2 0 0 2 1 1 3 1 1 3 1 1 3 1 1 3 1 1 3 1 1 3 1 1 3 1 1 3 1 1 3 1 1 3 1 1 3 1 1 3 1 1 3 1 1 3 1 1 3 1 1 3 1 0 0 1 0 0 1 0 0 1 0 0 1 0 0 1 0 0 1 0 0 1 0 0 2 0 1 2 0 1 2 0 1 2 0 1 2 0 1 2 0 1 2 0 1 5 0 0 8 0 0 11 0 0 14 0 0 24 8 8 34 18 18 44 28 28 51 35 35 55 39 39 75 59 59 78 62 62 82 66 66 89 73 73 96 80 80 102 86 86 107 91 91 110 95 92 111 93 91 112 94 90 114 96 92 118 100 96 121 103 99 124 106 102 127 109 105 128 110 106 143 125 121 143 125 121 143 125 121 143 125 121 143 125 121 143 125 121 143 125 121 141 126 121 147 132 127 146 133 127 146 133 127 146 133 127 146 133 127 146 133 127 146 133 127 146 133 127 146 133 127 145 132 126 143 130 124 139 126 120 136 123 117 133 120 114 130 117 111 129 115 112 115 104 102 115 103 103 115 103 103 115 103 103 115 103 103 115 103 103 115 103 103 115 103 103 111 99 99 100 88 88 82 70 70 64 52 52 50 38 38 43 31 31 41 29 29 39 31 29 25 23 24 25 27 26 27 29 28 30 32 31 34 36 35 37 39 38 39 41 40 41 43 42 45 47 46 45 47 46 45 47 46 45 47 46 45 47 46 45 47 46 45 47 46 45 47 44 53 53 51 53 54 49 53 54 49 53 54 49 53 54 49 53 54 49 53 54 49 53 54 49 34 35 30 34 35 30 34 35 30 34 35 30 34 35 30 34 35 30 34 35 30 35 34 30 37 32 29 39 31 29 39 31 29 39 31 29 39 31 29 39 31 29 39 31 29 39 31 29 40 32 30 40 32 30 40 32 30 40 32 30 40 32 30 40 32 30 40 32 30 38 33 30
1 1 3 1 1 3 1 1 3 1 1 3 0 0 2 0 0 2 0 0 2 0 0 2 0 0 2 0 0 2 0 0 2 0 0 2 0 0 2 0 0 2 0 0 2 0 0 2 0 0 2 0 0 2 0 0 2 0 0 2 0 0 2 0 0 2 0 0 2 0 0 2 0 0 2 0 0 2 0 0 2 0 0 2 1 1 3 1 1 3 1 1 3 1 1 3 1 1 3 1 1 3 1 1 3 1 1 3 1 1 3 1 1 3 1 1 3 1 1 3 1 1 3 1 1 3 1 1 3 1 1 3 1 0 0 1 0 0 1 0 0 1 0 0 1 0 0 1 0 0 1 0 0 1 0 0 2 0 1 2 0 1 2 0 1 2 0 1 2 0 1 2 0 1 2 0 1 5 0 0 8 0 0 14 0 0 22 6 6 31 15 15 41 25 25 51 35 35 58 42 42 62 46 46 80 64 64 82 66 66 87 71 71 94 78 78 101 85 85 107 91 91 112 96 96 115 100 97 116 98 96 117 99 95 119 101 97 122 104 100 126 108 104 129 111 107 132 114 110 133 115 111 145 127 123 145 127 123 145 127 123 145 127 123 145 127 123 145 127 123 145 127 123 143 128 123 149 134 129 148 135 129 148 135 129 148 135 129 148 135 129 148 135 129 148 135 129 148 135 129 149 136 130 147 134 128 145 132 126 142 129 123 138 125 119 135 122 116 133 120 114 131 117 114 117 106 104 117 105 105 117 105 105 117 105 105 117 105 105 117 105 105 117 105 105 117 105 105 108 96 96 97 85 85 80 68 68 61 49 49 47 35 35 40 28 28 38 26 26 37 29 27 25 23 24 25 27 26 27 29 28 30 32 31 34 36 35 37 39 38 39 41 40 41 43 42 45 47 46 45 47 46 45 47 46 45 47 46 45 47 46 45 47 46 45 47 46 45 47 44 51 51 49 51 52 47 51 52 47 51 52 47 51 52 47 51 52 47 51 52 47 51 52 47 34 35 30 34 35 30 34 35 30 34 35 30 34 35 30 34 35 30 34 35 30 35 34 30 37 32 29 39 31 29 39 31 29 39 31 29 39 31 29 39 31 29 39 31 29 39 31 29 40 32 30 40 32 30 40 32 30 40 32 30 40 32 30 40 32 30 40 32 30 38 33 30
1 1 3 1 1 3 1 1 3 1 1 3 0 0 2 0 0 2 0 0 2 0 0 2 0 0 2 0 0 2 0 0 2 0 0 2 0 0 2 0 0 2 0 0 2 0 0 2 0 0 2 0 0 2 0 0 2 0 0 2 0 0 2 0 0 2 0 0 2 0 0 2 0 0 2 0 0 2 0 0 2 0 0 2 1 1 3 1 1 3 1 1 3 1 1 3 1 1 3 1 1 3 1 1 3 1 1 3 1 1 3 1 1 3 1 1 3 1 1 3 1 1 3 1 1 3 1 1 3 1 1 3 1 0 0 1 0 0 1 0 0 1 0 0 1 0 0 1 0 0 1 0 0 1 0 0 2 0 1 2 0 1 2 0 1 2 0 1 2 0 1 2 0 1 2 0 1 5 0 0 17 5 5 24 8 8 31 15 15 41 25 25 51 35 35 61 45 45 68 52 52 72 56 56 86 70 70 89 73 73 94 78 78 100 84 84 107 91 91 113 97 97 118 102 102 121 106 103 122 104 102 123 105 101 126 108 104 129 111 107 132 114 110 135 117 113 138 120 116 139 121 117 148 130 126 148 130 126 148 130 126 148 130 126 148 130 126 148 130 126 148 130 126 146 131 126 152 137 132 151 138 132 151 138 132 151 138 132 151 138 132 151 138 132 151 138 132 151 138 132 152 139 133 151 138 132 148 135 129 145 132 126 142 129 123 138 125 119 136 123 117 135 121 118 120 109 107 120 108 108 120 108 108 120 108 108 120 108 108 120 108 108 120 108 108 120 108 108 105 93 93 94 82 82 76 64 64 58 46 46 44 32 32 37 25 25 35 23 23 34 26 24 25 23 24 25 27 26 27 29 28 30 32 31 34 36 35 37 39 38 39 41 40 41 43 42 45 47 46 45 47 46 45 47 46 45 47 46 45 47 46 45 47 46 45 47 46 45 47 44 48 48 46 48 49 44 48 49 44 48 49 44 48 49 44 48 49 44 48 49 44 48 49 44 34 35 30 34 35 30 34 35 30 34 35 30 34 35 30 34 35 30 34 35 30 35 34 30 37 32 29 39 31 29 39 31 29 39 31 29 39 31 29 39 31 29 39 31 29 39 31 29 40 32 30 40 32 30 40 32 30 40 32 30 40 32 30 40 32 30 40 32 30 38 33 30
1 1 3 1 1 3 1 1 3 1 1 3 0 0 2 0 0 2 0 0 2 0 0 2 0 0 2 0 0 2 0 0 2 0 0 2 0 0 2 0 0 2 0 0 2 0 0 2 0 0 2 0 0 2 0 0 2 0 0 2 0 0 2 0 0 2 0 0 2 0 0 2 0 0 2 0 0 2 0 0 2 0 0 2 1 1 3 1 1 3 1 1 3 1 1 3 1 1 3 1 1 3 1 1 3 1 1 3 1 1 3 1 1 3 1 1 3 1 1 3 1 1 3 1 1 3 1 1 3 1 1 3 1 0 0 1 0 0 1 0 0 1 0 0 1 0 0 1 0 0 1 0 0 1 0 0 2 0 1 2 0 1 2 0 1 2 0 1 2 0 1 2 0 1 2 0 1 5 0 0 27 15 15 34 18 18 41 25 25 51 35 35 61 45 45 71 55 55 78 62 62 82 66 66 93 77 77 96 80 80 101 85 85 107 91 91 114 98 98 120 104 104 125 109 109 128 113 110 129 111 109 130 112 108 133 115 111 136 118 114 139 121 117 142 124 120 145 127 123 146 128 124 152 134 130 152 134 130 152 134 130 152 134 130 152 134 130 152 134 130 152 134 130 150 135 130 156 141 136 155 142 136 155 142 136 155 142 136 155 142 136 155 142 136 155 142 136 155 142 136 155 142 136 154 141 135 152 139 133 148 135 129 145 132 126 142 129 123 139 126 120 138 124 121 124 113 111 124 112 112 124 112 112 124 112 112 124 112 112 124 112 112 124 112 112 124 112 112 102 90 90 91 79 79 73 61 61 55 43 43 41 29 29 34 22 22 32 20 20 30 22 20 25 23 24 25 27 26 27 29 28 30 32 31 34 36 35 37 39 38 39 41 40 41 43 42 45 47 46 45 47 46 45 47 46 45 47 46 45 47 46 45 47 46 45 47 46 45 47 44 44 44 42 44 45 40 44 45 40 44 45 40 44 45 40 44 45 40 44 45 40 44 45 40 34 35 30 34 35 30 34 35 30 34 35 30 34 35 30 34 35 30 34 35 30 35 34 30 37 32 29 39 31 29 39 31 29 39 31 29 39 31 29 39 31 29 39 31 29 39 31 29 40 32 30 40 32 30 40 32 30 40 32 30 40 32 30 40 32 30 40 32 30 38 33 30
1 1 3 1 1 3 1 1 3 1 1 3 0 0 2 0 0 2 0 0 2 0 0 2 0 0 2 0 0 2 0 0 2 0 0 2 0 0 2 0 0 2 0 0 2 0 0 2 0 0 2 0 0 2 0 0 2 0 0 2 0 0 2 0 0 2 0 0 2 0 0 2 0 0 2 0 0 2 0 0 2 0 0 2 1 1 3 1 1 3 1 1 3 1 1 3 1 1 3 1 1 3 1 1 3 1 1 3 1 1 3 1 1 3 1 1 3 1 1 3 1 1 3 1 1 3 1 1 3 1 1 3 1 0 0 1 0 0 1 0 0 1 0 0 1 0 0 1 0 0 1 0 0 1 0 0 2 0 1 2 0 1 2 0 1 2 0 1 2 0 1 2 0 1 2 0 1 5 0 0 37 25 25 44 28 28 51 35 35 61 45 45 71 55 55 80 64 64 88 72 72 92 76 76 99 83 83 102 86 86 107 91 91 113 97 97 120 104 104 127 111 111 132 116 116 134 119 116 135 117 115 136 118 114 139 121 117 142 124 120 146 128 124 149 131 127 151 133 129 152 134 130 155 137 133 155 137 133 155 137 133 155 137 133 155 137 133 155 137 133 155 137 133 153 138 133 159 144 139 158 145 139 158 145 139 158 145 139 158 145 139 158 145 139 158 145 139 158 145 139 159 146 140 157 144 138 155 142 136 152 139 133 148 135 129 145 132 126 143 130 124 141 127 124 127 116 114 127 115 115 127 115 115 127 115 115 127 115 115 127 115 115 127 115 115 127 115 115 98 86 86 87 75 75 70 58 58 51 39 39 38 26 26 30 18 18 29 17 17 27 19 17 25 23 24 25 27 26 27 29 28 30 32 31 34 36 35 37 39 38 39 41 40 41 43 42 45 47 46 45 47 46 45 47 46 45 47 46 45 47 46 45 47 46 45 47 46 45 47 44 41 41 39 41 42 37 41 42 37 41 42 37 41 42 37 41 42 37 41 42 37 41 42 37 34 35 30 34 35 30 34 35 30 34 35 30 34 35 30 34 35 30 34 35 30 35 34 30 37 32 29 39 31 29 39 31 29 39 31 29 39 31 29 39 31 29 39 31 29 39 31 29 40 32 30 40 32 30 40 32 30 40 32 30 40 32 30 40 32 30 40 32 30 38 33 30
1 1 3 1 1 3 1 1 3 1 1 3 0 0 2 0 0 2 0 0 2 0 0 2 0 0 2 0 0 2 0 0 2 0 0 2 0 0 2 0 0 2 0 0 2 0 0 2 0 0 2 0 0 2 0 0 2 0 0 2 0 0 2 0 0 2 0 0 2 0 0 2 0 0 2 0 0 2 0 0 2 0 0 2 1 1 3 1 1 3 1 1 3 1 1 3 1 1 3 1 1 3 1 1 3 1 1 3 1 1 3 1 1 3 1 1 3 1 1 3 1 1 3 1 1 3 1 1 3 1 1 3 1 0 0 1 0 0 1 0 0 1 0 0 1 0 0 1 0 0 1 0 0 1 0 0 2 0 1 2 0 1 2 0 1 2 0 1 2 0 1 2 0 1 2 0 1 5 0 0 44 32 32 51 35 35 58 42 42 68 52 52 78 62 62 88 72 72 95 79 79 99 83 83 104 88 88 107 91 91 112 96 96 118 102 102 125 109 109 132 116 116 136 120 120 139 124 121 140 122 120 141 123 119 144 126 122 147 129 125 150 132 128 154 136 132 156 138 134 157 139 135 157 139 135 157 139 135 157 139 135 157 139 135 157 139 135 157 139 135 157 139 135 155 140 135 161 146 141 160 147 141 160 147 141 160 147 141 160 147 141 160 147 141 160 147 141 160 147 141 161 148 142 160 147 141 157 144 138 154 141 135 151 138 132 147 134 128 145 132 126 144 130 127 129 118 116 129 117 117 129 117 117 129 117 117 129 117 117 129 117 117 129 117 117 129 117 117 96 84 84 85 73 73 67 55 55 49 37 37 35 23 23 28 16 16 26 14 14 25 17 15 25 23 24 25 27 26 27 29 28 30 32 31 34 36 35 37 39 38 39 41 40 41 43 42 45 47 46 45 47 46 45 47 46 45 47 46 45 47 46 45 47 46 45 47 46 45 47 44 39 39 37 39 40 35 39 40 35 39 40 35 39 40 35 39 40 35 39 40 35 39 40 35 34 35 30 34 35 30 34 35 30 34 35 30 34 35 30 34 35 30 34 35 30 35 34 30 37 32 29 39 31 29 39 31 29 39 31 29 39 31 29 39 31 29 39 31 29 39 31 29 40 32 30 40 32 30 40 32 30 40 32 30 40 32 30 40 32 30 40 32 30 38 33 30
1 1 3 1 1 3 1 1 3 1 1 3 0 0 2 0 0 2 0 0 2 0 0 2 0 0 2 0 0 2 0 0 2 0 0 2 0 0 2 0 0 2 0 0 2 0 0 2 0 0 2 0 0 2 0 0 2 0 0 2 0 0 2 0 0 2 0 0 2 0 0 2 0 0 2 0 0 2 0 0 2 0 0 2 1 1 3 1 1 3 1 1 3 1 1 3 1 1 3 1 1 3 1 1 3 1 1 3 1 1 3 1 1 3 1 1 3 1 1 3 1 1 3 1 1 3 1 1 3 1 1 3 1 0 0 1 0 0 1 0 0 1 0 0 1 0 0 1 0 0 1 0 0 1 0 0 2 0 1 2 0 1 2 0 1 2 0 1 2 0 1 2 0 1 2 0 1 5 0 0 48 36 36 55 39 39 62 46 46 72 56 56 82 66 66 92 76 76 99 83 83 103 87 87 107 91 91 110 94 94 115 99 99 121 105 105 128 112 112 134 118 118 139 123 123 142 127 124 143 125 123 144 126 122 146 128 124 150 132 128 153 135 131 156 138 134 159 141 137 160 142 138 159 141 137 159 141 137 159 141 137 159 141 137 159 141 137 159 141 137 159 141 137 157 142 137 163 148 143 162 149 143 162 149 143 162 149 143 162 149 143 162 149 143 162 149 143 162 149 143 162 149 143 161 148 142 159 146 140 155 142 136 152 139 133 149 136 130 146 133 127 145 131 128 131 120 118 131 119 119 131 119 119 131 119 119 131 119 119 131 119 119 131 119 119 131 119 119 95 83 83 84 72 72 66 54 54 48 36 36 34 22 22 27 15 15 25 13 13 23 15 13 25 23 24 25 27 26 27 29 28 30 32 31 34 36 35 37 39 38 39 41 40 41 43 42 45 47 46 45 47 46 45 47 46 45 47 46 45 47 46 45 47 46 45 47 46 45 47 44 37 37 35 37 38 33 37 38 33 37 38 33 37 38 33 37 38 33 37 38 33 37 38 33 34 35 30 34 35 30 34 35 30 34 35 30 34 35 30 34 35 30 34 35 30 35 34 30 37 32 29 39 31 29 39 31 29 39 31 29 39 31 29 39 31 29 39 31 29 39 31 29 40 32 30 40 32 30 40 32 30 40 32 30 40 32 30 40 32 30 40 32 30 38 33 30
2 2 4 2 2 4 2 2 4 2 2 4 0 0 2 0 0 2 0 0 2 0 0 2 0 0 2 0 0 2 0 0 2 0 0 2 0 0 2 0 0 2 0 0 2 0 0 2 0 0 2 0 0 2 0 0 2 0 0 2 0 0 2 0 0 2 0 0 2 0 0 2 0 0 2 0 0 2 0 0 2 0 0 2 0 0 2 0 0 2 0 0 2 0 0 2 0 0 2 0 0 2 0 0 2 0 0 2 0 0 2 0 0 2 0 0 2 0 0 2 0 0 2 0 0 2 0 0 2 0 0 2 2 0 1 2 0 1 2 0 1 2 0 1 2 0 1 2 0 1 2 0 1 2 0 1 1 0 0 1 0 0 1 0 0 2 0 1 8 6 7 13 11 12 17 15 16 22 16 16 69 57 57 75 59 59 80 64 64 86 70 70 93 77 77 99 83 83 104 88 88 107 91 91 125 109 109 126 110 110 128 112 112 132 116 116 135 119 119 138 122 122 141 125 125 142 127 124 160 142 140 160 142 138 160 142 138 160 142 138 160 142 138 160 142 138 160 142 138 160 142 138 171 153 149 171 153 149 171 153 149 171 153 149 171 153 149 171 153 149 171 153 149 169 154 149 170 155 150 169 156 150 169 156 150 169 156 150 169 156 150 169 156 150 169 156 150 169 156 150 154 141 135 154 141 135 154 141 135 154 141 135 154 141 135 154 141 135 154 141 135 154 140 137 152 141 139 154 142 142 155 143 143 153 141 141 144 132 132 130 118 118 115 103 103 106 94 94 64 52 52 56 44 44 42 30 30 28 16 16 20 8 8 18 6 6 20 8 8 21 13 11 31 29 30 29 31 30 29 31 30 29 31 30 29 31 30 29 31 30 29 31 30 29 31 30 35 37 36 35 37 36 35 37 36 35 37 36 35 37 36 35 37 36 35 37 36 35 37 34 35 35 33 35 36 31 35 36 31 35 36 31 35 36 31 35 36 31 35 36 31 35 36 31 32 33 28 32 33 28 32 33 28 32 33 28 32 33 28 32 33 28 32 33 28 33 32 28 37 32 29 39 31 29 39 31 29 39 31 29 39 31 29 39 31 29 39 31 29 39 31 29 39 31 29 39 31 29 39 31 29 39 31 29 39 31 29 39 31 29 39 31 29 37 32 29
2 2 4 2 2 4 2 2 4 2 2 4 0 0 2 0 0 2 0 0 2 0 0 2 0 0 2 0 0 2 0 0 2 0 0 2 0 0 2 0 0 2 0 0 2 0 0 2 0 0 2 0 0 2 0 0 2 0 0 2 0 0 2 0 0 2 0 0 2 0 0 2 0 0 2 0 0 2 0 0 2 0 0 2 0 0 2 0 0 2 0 0 2 0 0 2 0 0 2 0 0 2 0 0 2 0 0 2 0 0 2 0 0 2 0 0 2 0 0 2 0 0 2 0 0 2 0 0 2 0 0 2 2 0 1 2 0 1 2 0 1 2 0 1 2 0 1 2 0 1 2 0 1 2 0 1 1 0 0 1 0 0 1 0 0 6 4 5 12 10 11 18 16 17 22 20 21 28 22 22 72 60 60 78 62 62 82 66 66 89 73 73 96 80 80 102 86 86 107 91 91 110 94 94 126 110 110 127 111 111 130 114 114 133 117 117 136 120 120 140 124 124 142 126 126 143 128 125 160 142 140 160 142 138 160 142 138 160 142 138 160 142 138 160 142 138 160 142 138 160 142 138 171 153 149 171 153 149 171 153 149 171 153 149 171 153 149 171 153 149 171 153 149 169 154 149 170 155 150 169 156 150 169 156 150 169 156 150 169 156 150 169 156 150 169 156 150 169 156 150 156 143 137 156 143 137 156 143 137 156 143 137 156 143 137 156 143 137 156 143 137 156 142 139 152 141 139 154 142 142 155 143 143 152 140 140 142 130 130 127 115 115 113 101 101 103 91 91 62 50 50 54 42 42 41 29 29 28 16 16 21 9 9 19 7 7 22 10 10 23 15 13 31 29 30 29 31 30 29 31 30 29 31 30 29 31 30 29 31 30 29 31 30 29 31 30 35 37 36 35 37 36 35 37 36 35 37 36 35 37 36 35 37 36 35 37 36 35 37 34 35 35 33 35 36 31 35 36 31 35 36 31 35 36 31 35 36 31 35 36 31 35 36 31 32 33 28 32 33 28 32 33 28 32 33 28 32 33 28 32 33 28 32 33 28 33 32 28 37 32 29 39 31 29 39 31 29 39 31 29 39 31 29 39 31 29 39 31 29 39 31 29 39 31 29 39 31 29 39 31 29 39 31 29 39 31 29 39 31 29 39 31 29 37 32 29
2 2 4 2 2 4 2 2 4 2 2 4 0 0 2 0 0 2 0 0 2 0 0 2 0 0 2 0 0 2 0 0 2 0 0 2 0 0 2 0 0 2 0 0 2 0 0 2 0 0 2 0 0 2 0 0 2 0 0 2 0 0 2 0 0 2 0 0 2 0 0 2 0 0 2 0 0 2 0 0 2 0 0 2 0 0 2 0 0 2 0 0 2 0 0 2 0 0 2 0 0 2 0 0 2 0 0 2 0 0 2 0 0 2 0 0 2 0 0 2 0 0 2 0 0 2 0 0 2 0 0 2 2 0 1 2 0 1 2 0 1 2 0 1 2 0 1 2 0 1 2 0 1 2 0 1 1 0 0 1 0 0 5 3 4 12 10 11 20 18 19 27 25 26 33 31 32 38 32 32 77 65 65 82 66 66 87 71 71 94 78 78 101 85 85 107 91 91 112 96 96 115 99 99 128 112 112 130 114 114 132 116 116 135 119 119 139 123 123 142 126 126 144 128 128 146 131 128 160 142 140 160 142 138 160 142 138 160 142 138 160 142 138 160 142 138 160 142 138 160 142 138 171 153 149 171 153 149 171 153 149 171 153 149 171 153 149 171 153 149 171 153 149 169 154 149 170 155 150 169 156 150 169 156 150 169 156 150 169 156 150 169 156 150 169 156 150 169 156 150 158 145 139 158 145 139 158 145 139 158 145 139 158 145 139 158 145 139 158 145 139 158 144 141 153 142 140 155 143 143 155 143 143 150 138 138 139 127 127 123 111 111 107 95 95 97 85 85 59 47 47 51 39 39 39 27 27 27 15 15 21 9 9 21 9 9 25 13 13 26 18 16 31 29 30 29 31 30 29 31 30 29 31 30 29 31 30 29 31 30 29 31 30 29 31 30 35 37 36 35 37 36 35 37 36 35 37 36 35 37 36 35 37 36 35 37 36 35 37 34 35 35 33 35 36 31 35 36 31 35 36 31 35 36 31 35 36 31 35 36 31 35 36 31 32 33 28 32 33 28 32 33 28 32 33 28 32 33 28 32 33 28 32 33 28 33 32 28 37 32 29 39 31 29 39 31 29 39 31 29 39 31 29 39 31 29 39 31 29 39 31 29 39 31 29 39 31 29 39 31 29 39 31 29 39 31 29 39 31 29 39 31 29 37 32 29
2 2 4 2 2 4 2 2 4 2 2 4 0 0 2 0 0 2 0 0 2 0 0 2 0 0 2 0 0 2 0 0 2 0 0 2 0 0 2 0 0 2 0 0 2 0 0 2 0 0 2 0 0 2 0 0 2 0 0 2 0 0 2 0 0 2 0 0 2 0 0 2 0 0 2 0 0 2 0 0 2 0 0 2 0 0 2 0 0 2 0 0 2 0 0 2 0 0 2 0 0 2 0 0 2 0 0 2 0 0 2 0 0 2 0 0 2 0 0 2 0 0 2 0 0 2 0 0 2 0 0 2 2 0 1 2 0 1 2 0 1 2 0 1 2 0 1 2 0 1 2 0 1 2 0 1 2 0 1 6 4 5 12 10 11 21 19 20 31 29 30 39 37 38 46 44 45 52 46 46 83 71 71 89 73 73 94 78 78 100 84 84 107 91 91 113 97 97 118 102 102 121 105 105 132 116 116 133 117 117 135 119 119 139 123 123 142 126 126 145 129 129 148 132 132 149 134 131 160 142 140 160 142 138 160 142 138 160 142 138 160 142 138 160 142 138 160 142 138 160 142 138 171 153 149 171 153 149 171 153 149 171 153 149 171 153 149 171 153 149 171 153 149 169 154 149 170 155 150 169 156 150 169 156 150 169 156 150 169 156 150 169 156 150 169 156 150 169 156 150 161 148 142 161 148 142 161 148 142 161 148 142 161 148 142 161 148 142 161 148 142 161 147 144 154 143 141 155 143 143 154 142 142 148 136 136 135 123 123 117 105 105 100 88 88 90 78 78 55 43 43 47 35 35 36 24 24 27 15 15 22 10 10 24 12 12 29 17 17 31 23 21 31 29 30 29 31 30 29 31 30 29 31 30 29 31 30 29 31 30 29 31 30 29 31 30 35 37 36 35 37 36 35 37 36 35 37 36 35 37 36 35 37 36 35 37 36 35 37 34 35 35 33 35 36 31 35 36 31 35 36 31 35 36 31 35 36 31 35 36 31 35 36 31 32 33 28 32 33 28 32 33 28 32 33 28 32 33 28 32 33 28 32 33 28 33 32 28 37 32 29 39 31 29 39 31 29 39 31 29 39 31 29 39 31 29 39 31 29 39 31 29 39 31 29 39 31 29 39 31 29 39 31 29 39 31 29 39 31 29 39 31 29 37 32 29
2 2 4 2 2 4 2 2 4 2 2 4 0 0 2 0 0 2 0 0 2 0 0 2 0 0 2 0 0 2 0 0 2 0 0 2 0 0 2 0 0 2 0 0 2 0 0 2 0 0 2 0 0 2 0 0 2 0 0 2 0 0 2 0 0 2 0 0 2 0 0 2 0 0 2 0 0 2 0 0 2 0 0 2 0 0 2 0 0 2 0 0 2 0 0 2 0 0 2 0 0 2 0 0 2 0 0 2 0 0 2 0 0 2 0 0 2 0 0 2 0 0 2 0 0 2 0 0 2 0 0 2 2 0 1 2 0 1 2 0 1 2 0 1 2 0 1 2 0 1 2 0 1 2 0 1 8 6 7 12 10 11 20 18 19 31 29 30 42 40 41 52 50 51 60 58 59 68 62 62 90 78 78 96 80 80 101 85 85 107 91 91 114 98 98 120 104 104 125 109 109 128 112 112 135 119 119 136 120 120 139 123 123 142 126 126 145 129 129 149 133 133 151 135 135 152 137 134 160 142 140 160 142 138 160 142 138 160 142 138 160 142 138 160 142 138 160 142 138 160 142 138 171 153 149 171 153 149 171 153 149 171 153 149 171 153 149 171 153 149 171 153 149 169 154 149 170 155 150 169 156 150 169 156 150 169 156 150 169 156 150 169 156 150 169 156 150 169 156 150 165 152 146 165 152 146 165 152 146 165 152 146 165 152 146 165 152 146 165 152 146 165 151 148 156 145 143 156 144 144 153 141 141 145 133 133 131 119 119 111 99 99 93 81 81 82 70 70 50 38 38 43 31 31 34 22 22 26 14 14 23 11 11 26 14 14 33 21 21 35 27 25 31 29 30 29 31 30 29 31 30 29 31 30 29 31 30 29 31 30 29 31 30 29 31 30 35 37 36 35 37 36 35 37 36 35 37 36 35 37 36 35 37 36 35 37 36 35 37 34 35 35 33 35 36 31 35 36 31 35 36 31 35 36 31 35 36 31 35 36 31 35 36 31 32 33 28 32 33 28 32 33 28 32 33 28 32 33 28 32 33 28 32 33 28 33 32 28 37 32 29 39 31 29 39 31 29 39 31 29 39 31 29 39 31 29 39 31 29 39 31 29 39 31 29 39 31 29 39 31 29 39 31 29 39 31 29 39 31 29 39 31 29 37 32 29
2 2 4 2 2 4 2 2 4 2 2 4 0 0 2 0 0 2 0 0 2 0 0 2 0 0 2 0 0 2 0 0 2 0 0 2 0 0 2 0 0 2 0 0 2 0 0 2 0 0 2 0 0 2 0 0 2 0 0 2 0 0 2 0 0 2 0 0 2 0 0 2 0 0 2 0 0 2 0 0 2 0 0 2 0 0 2 0 0 2 0 0 2 0 0 2 0 0 2 0 0 2 0 0 2 0 0 2 0 0 2 0 0 2 0 0 2 0 0 2 0 0 2 0 0 2 0 0 2 0 0 2 2 0 1 2 0 1 2 0 1 2 0 1 2 0 1 2 0 1 2 0 1 2 0 1 13 11 12 18 16 17 27 25 26 39 37 38 52 50 51 64 62 63 74 72 73 82 76 76 96 84 84 102 86 86 107 91 91 113 97 97 120 104 104 127 111 111 132 116 116 134 118 118 138 122 122 140 124 124 142 126 126 145 129 129 149 133 133 152 136 136 154 138 138 156 141 138 160 142 140 160 142 138 160 142 138 160 142 138 160 142 138 160 142 138 160 142 138 160 142 138 171 153 149 171 153 149 171 153 149 171 153 149 171 153 149 171 153 149 171 153 149 169 154 149 170 155 150 169 156 150 169 156 150 169 156 150 169 156 150 169 156 150 169 156 150 169 156 150 168 155 149 168 155 149 168 155 149 168 155 149 168 155 149 168 155 149 168 155 149 168 154 151 157 146 144 156 144 144 153 141 141 143 131 131 126 114 114 106 94 94 86 74 74 74 62 62 45 33 33 40 28 28 31 19 19 25 13 13 24 12 12 29 17 17 36 24 24 40 32 30 31 29 30 29 31 30 29 31 30 29 31 30 29 31 30 29 31 30 29 31 30 29 31 30 35 37 36 35 37 36 35 37 36 35 37 36 35 37 36 35 37 36 35 37 36 35 37 34 35 35 33 35 36 31 35 36 31 35 36 31 35 36 31 35 36 31 35 36 31 35 36 31 32 33 28 32 33 28 32 33 28 32 33 28 32 33 28 32 33 28 32 33 28 33 32 28 37 32 29 39 31 29 39 31 29 39 31 29 39 31 29 39 31 29 39 31 29 39 31 29 39 31 29 39 31 29 39 31 29 39 31 29 39 31 29 39 31 29 39 31 29 37 32 29
2 2 4 2 2 4 2 2 4 2 2 4 0 0 2 0 0 2 0 0 2 0 0 2 0 0 2 0 0 2 0 0 2 0 0 2 0 0 2 0 0 2 0 0 2 0 0 2 0 0 2 0 0 2 0 0 2 0 0 2 0 0 2 0 0 2 0 0 2 0 0 2 0 0 2 0 0 2 0 0 2 0 0 2 0 0 2 0 0 2 0 0 2 0 0 2 0 0 2 0 0 2 0 0 2 0 0 2 0 0 2 0 0 2 0 0 2 0 0 2 0 0 2 0 0 2 0 0 2 0 0 2 2 0 1 2 0 1 2 0 1 2 0 1 2 0 1 2 0 1 2 0 1 2 0 1 17 15 16 22 20 21 33 31 32 46 44 45 60 58 59 74 72 73 84 82 83 92 86 86 101 89 89 107 91 91 112 96 96 118 102 102 125 109 109 132 116 116 136 120 120 139 123 123 141 125 125 142 126 126 144 128 128 148 132 132 151 135 135 154 138 138 157 141 141 158 143 140 160 142 140 160 142 138 160 142 138 160 142 138 160 142 138 160 142 138 160 142 138 160 142 138 171 153 149 171 153 149 171 153 149 171 153 149 171 153 149 171 153 149 171 153 149 169 154 149 170 155 150 169 156 150 169 156 150 169 156 150 169 156 150 169 156 150 169 156 150 169 156 150 170 157 151 170 157 151 170 157 151 170 157 151 170 157 151 170 157 151 170 157 151 170 156 153 158 147 145 157 145 145 152 140 140 141 129 129 123 111 111 101 89 89 81 69 69 68 56 56 42 30 30 37 25 25 29 17 17 24 12 12 25 13 13 31 19 19 39 27 27 43 35 33 31 29 30 29 31 30 29 31 30 29 31 30 29 31 30 29 31 30 29 31 30 29 31 30 35 37 36 35 37 36 35 37 36 35 37 36 35 37 36 35 37 36 35 37 36 35 37 34 35 35 33 35 36 31 35 36 31 35 36 31 35 36 31 35 36 31 35 36 31 35 36 31 32 33 28 32 33 28 32 33 28 32 33 28 32 33 28 32 33 28 32 33 28 33 32 28 37 32 29 39 31 29 39 31 29 39 31 29 39 31 29 39 31 29 39 31 29 39 31 29 39 31 29 39 31 29 39 31 29 39 31 29 39 31 29 39 31 29 39 31 29 37 32 29
2 2 4 2 2 4 2 2 4 2 2 4 0 0 2 0 0 2 0 0 2 0 0 2 0 0 2 0 0 2 0 0 2 0 0 2 0 0 2 0 0 2 0 0 2 0 0 2 0 0 2 0 0 2 0 0 2 0 0 2 0 0 2 0 0 2 0 0 2 0 0 2 0 0 2 0 0 2 0 0 2 0 0 2 0 0 2 0 0 2 0 0 2 0 0 2 0 0 2 0 0 2 0 0 2 0 0 2 0 0 2 0 0 2 0 0 2 0 0 2 0 0 2 0 0 2 0 0 2 1 0 0 4 0 1 5 0 0 5 0 1 5 0 0 5 0 1 5 0 0 5 0 1 5 0 0 22 16 18 28 22 22 38 32 34 52 46 46 68 62 64 82 76 76 92 86 88 100 91 92 106 92 91 112 94 92 117 99 99 123 105 103 130 112 112 136 118 116 141 123 123 144 126 124 144 126 126 145 127 125 148 130 130 151 133 131 154 136 136 158 140 138 160 142 142 161 143 141 160 142 138 160 142 138 160 142 138 160 142 138 160 142 138 160 142 138 160 142 138 160 142 138 171 153 149 171 153 149 171 153 149 171 153 149 171 153 149 171 153 149 171 153 149 169 154 149 169 156 150 169 156 150 169 156 150 169 156 150 169 156 150 169 156 150 169 156 150 169 156 150 172 159 153 172 159 153 172 159 153 172 159 153 172 159 153 172 159 153 172 159 153 170 159 155 158 147 145 156 146 145 152 140 140 139 129 128 122 110 110 98 88 87 78 66 66 64 54 53 40 28 28 34 24 23 28 16 16 23 13 12 25 13 13 31 21 20 41 29 29 45 36 37 30 30 30 27 31 30 29 30 32 27 31 30 29 30 32 27 31 30 29 30 32 27 31 30 35 36 38 33 37 36 35 36 38 33 37 36 35 36 38 33 37 36 35 36 38 35 37 36 35 35 33 36 35 31 36 35 31 36 35 31 36 35 31 36 35 31 36 35 31 36 35 31 33 32 28 33 32 28 33 32 28 33 32 28 33 32 28 33 32 28 33 32 28 35 31 28 37 32 29 39 31 29 39 31 29 39 31 29 39 31 29 39 31 29 39 31 29 39 31 29 39 31 29 39 31 29 39 31 29 39 31 29 39 31 29 39 31 29 39 31 29 39 31 29
1 1 3 1 1 3 1 1 3 1 1 3 0 0 2 0 0 2 0 0 2 0 0 2 0 0 2 0 0 2 0 0 2 0 0 2 0 0 0 0 0 0 0 0 0 0 0 0 0 0 0 0 0 0 0 0 0 0 0 0 0 0 0 0 0 0 0 0 0 0 0 0 0 0 0 0 0 0 0 0 0 0 0 0 0 0 0 0 0 0 0 0 0 0 0 0 0 0 0 0 0 0 0 0 0 0 0 0 0 0 0 0 0 0 0 0 0 0 0 0 0 0 0 0 0 0 0 0 0 3 0 0 7 0 0 8 0 0 8 0 0 12 0 0 17 5 7 23 11 11 27 15 17 29 17 17 67 55 57 70 58 58 75 63 65 81 69 69 88 76 78 94 82 82 99 87 89 104 90 90 122 104 102 124 105 101 126 106 105 130 111 107 133 113 112 136 117 113 139 119 118 140 121 117 147 127 126 149 130 126 151 131 130 154 135 131 158 138 137 161 142 138 163 143 142 165 146 142 168 150 146 166 151 146 166 151 146 166 151 146 166 151 146 166 151 146 166 151 146 166 151 146 175 160 155 175 160 155 175 160 155 175 160 155 175 160 155 175 160 155 175 160 155 175 160 155 172 159 153 170 159 153 170 159 153 170 159 153 170 159 153 170 159 153 170 159 153 170 159 153 169 158 152 169 158 152 169 158 152 169 158 152 169 158 152 169 158 152 169 158 152 169 158 154 159 149 147 156 148 146 150 140 139 136 128 126 116 106 105 91 83 81 69 59 58 54 46 44 29 19 18 28 20 18 29 19 18 28 20 18 29 19 18 28 20 18 29 19 18 26 20 20 34 35 37 31 37 37 32 36 39 31 37 37 32 36 39 31 37 37 32 36 39 31 37 37 24 28 31 23 29 29 24 28 31 23 29 29 24 28 31 23 29 29 24 28 31 26 27 29 27 26 24 29 25 24 29 25 24 29 25 24 29 25 24 29 25 24 29 25 24 29 25 24 33 29 28 33 29 28 33 29 28 33 29 28 33 29 28 33 29 28 33 29 28 34 29 26 39 31 29 40 30 28 40 30 28 40 30 28 40 30 28 40 30 28 40 30 28 40 30 28 40 30 28 40 30 28 40 30 28 40 30 28 40 30 28 40 30 28 40 30 28 39 31 28
1 1 3 1 1 3 1 1 3 1 1 3 0 0 2 0 0 2 0 0 2 0 0 2 0 0 2 0 0 2 0 0 2 0 0 2 0 0 0 0 0 0 0 0 0 0 0 0 0 0 0 0 0 0 0 0 0 0 0 0 0 0 0 0 0 0 0 0 0 0 0 0 0 0 0 0 0 0 0 0 0 0 0 0 0 0 0 0 0 0 0 0 0 0 0 0 0 0 0 0 0 0 0 0 0 0 0 0 0 0 0 0 0 0 0 0 0 0 0 0 0 0 0 0 0 0 0 0 0 3 0 0 8 0 0 11 0 0 11 0 0 17 1 2 23 7 8 29 13 14 34 18 19 36 20 21 71 55 56 74 58 59 79 63 64 85 69 70 92 76 77 98 82 83 103 87 88 108 90 90 124 104 103 126 105 102 129 108 105 132 111 108 135 114 111 139 118 115 141 120 117 142 121 118 148 127 124 150 129 126 152 131 128 155 134 131 159 138 135 162 141 138 164 143 140 165 146 142 168 150 146 166 151 146 166 151 146 166 151 146 166 151 146 166 151 146 166 151 146 166 151 146 175 160 155 175 160 155 175 160 155 175 160 155 175 160 155 175 160 155 175 160 155 174 161 155 172 159 153 170 159 153 170 159 153 170 159 153 170 159 153 170 159 153 170 159 153 170 159 153 169 158 152 169 158 152 169 158 152 169 158 152 169 158 152 169 158 152 169 158 152 168 159 154 159 149 147 156 148 146 149 141 139 136 128 126 115 107 105 91 83 81 68 60 58 54 46 44 28 20 18 28 20 18 28 20 18 28 20 18 28 20 18 28 20 18 28 20 18 25 21 20 32 33 35 29 34 37 29 34 37 29 34 37 29 34 37 29 34 37 29 34 37 29 34 37 23 28 31 23 28 31 23 28 31 23 28 31 23 28 31 23 28 31 23 28 31 24 28 29 29 25 26 30 24 24 30 24 24 30 24 24 30 24 24 30 24 24 30 24 24 30 24 24 34 28 28 34 28 28 34 28 28 34 28 28 34 28 28 34 28 28 34 28 28 34 29 26 40 30 29 40 30 28 40 30 28 40 30 28 40 30 28 40 30 28 40 30 28 40 30 28 40 30 28 40 30 28 40 30 28 40 30 28 40 30 28 40 30 28 40 30 28 40 30 28
1 1 3 1 1 3 1 1 3 1 1 3 0 0 2 0 0 2 0 0 2 0 0 2 0 0 2 0 0 2 0 0 2 0 0 2 0 0 0 0 0 0 0 0 0 0 0 0 0 0 0 0 0 0 0 0 0 0 0 0 0 0 0 0 0 0 0 0 0 0 0 0 0 0 0 0 0 0 0 0 0 0 0 0 0 0 0 0 0 0 0 0 0 0 0 0 0 0 0 0 0 0 0 0 0 0 0 0 0 0 0 0 0 0 0 0 0 0 0 0 0 0 0 0 0 0 0 0 0 3 0 0 8 0 0 11 0 0 14 0 0 21 5 6 29 13 14 36 20 21 41 25 26 44 28 29 74 58 59 76 60 61 81 65 66 88 72 73 95 79 80 101 85 86 106 90 91 110 92 92 126 106 105 129 108 105 131 110 107 134 113 110 138 117 114 141 120 117 143 122 119 145 124 121 148 127 124 150 129 126 152 131 128 155 134 131 159 138 135 162 141 138 164 143 140 165 146 142 168 150 146 166 151 146 166 151 146 166 151 146 166 151 146 166 151 146 166 151 146 166 151 146 175 160 155 175 160 155 175 160 155 175 160 155 175 160 155 175 160 155 175 160 155 174 161 155 172 159 153 170 159 153 170 159 153 170 159 153 170 159 153 170 159 153 170 159 153 170 159 153 169 158 152 169 158 152 169 158 152 169 158 152 169 158 152 169 158 152 169 158 152 168 159 154 159 149 147 156 148 146 149 141 139 136 128 126 115 107 105 91 83 81 68 60 58 54 46 44 28 20 18 28 20 18 28 20 18 28 20 18 28 20 18 28 20 18 28 20 18 25 21 20 30 31 33 27 32 35 27 32 35 27 32 35 27 32 35 27 32 35 27 32 35 27 32 35 23 28 31 23 28 31 23 28 31 23 28 31 23 28 31 23 28 31 23 28 31 24 28 29 29 25 26 30 24 24 30 24 24 30 24 24 30 24 24 30 24 24 30 24 24 30 24 24 34 28 28 34 28 28 34 28 28 34 28 28 34 28 28 34 28 28 34 28 28 34 29 26 40 30 29 40 30 28 40 30 28 40 30 28 40 30 28 40 30 28 40 30 28 40 30 28 40 30 28 40 30 28 40 30 28 40 30 28 40 30 28 40 30 28 40 30 28 40 30 28
