P3
172 37
255
18 9 12 21 12 15 24 15 18 25 16 19 47 38 41 49 40 43 54 45 48 61 52 55 67 58 61 74 65 68 79 70 73 85 70 75 98 70 82 104 70 84 108 72 86 109 75 89 115 79 93 116 82 96 120 84 98 120 86 100 129 93 107 127 93 107 129 93 107 127 93 107 129 93 107 127 93 107 129 93 107 125 95 107 116 94 106 113 96 106 113 96 106 113 96 106 113 96 106 113 96 106 113 96 106 113 96 106 125 108 118 125 108 118 125 108 118 125 108 118 125 108 118 125 108 118 125 108 118 125 108 118 132 115 123 132 115 123 132 115 123 132 115 123 132 115 123 132 115 123 132 115 123 132 115 123 133 116 124 133 116 124 133 116 124 133 116 124 133 116 124 133 116 124 133 116 124 133 116 124 127 110 118 127 110 118 127 110 118 127 110 118 127 110 118 127 110 118 127 110 118 127 110 118 127 110 118 125 108 116 123 106 114 120 103 111 116 99 107 113 96 104 111 94 102 109 92 100 98 83 90 97 82 89 95 80 87 91 76 83 88 73 80 85 70 77 82 67 74 81 66 73 65 50 57 64 49 56 61 46 53 58 43 50 55 40 47 51 36 43 49 34 41 46 33 40 39 30 35 36 30 34 33 27 31 30 24 28 27 21 25 23 17 21 21 15 19 20 14 18 21 15 19 20 14 18 18 12 16 14 8 12 11 5 9 8 2 6 5 0 3 3 0 2 9 9 9 8 10 9 8 10 9 8 10 9 8 10 9 8 10 9 8 10 9 8 10 9 7 9 8 9 11 10 11 13 12 14 16 15 18 20 19 21 23 22 23 25 24 25 27 26 29 34 30 31 36 32 36 41 37 43 48 44 49 54 50 56 61 57 61 66 62 63 68 64 79 84 80 80 85 81 83 88 84 86 91 87 89 94 90 93 98 94 95 100 96 98 100 97 94 95 90 85 84 80 70 69 65 55 54 50 44 43 39 40 39 35 41 40 36 43 42 38 42 41 37 42 41 37 42 41 37 42 41 37 42 41 37 42 41 37 42 41 37 42 41 37 39 38 34 39 38 34 39 38 34 39 38 34 39 38 34 39 38 34 39 38 34 39 38 34 42 41 37 42 41 37 42 41 37 42 41 37 42 41 37 42 41 37 42 41 37 42 41 37
15 6 9 19 10 13 21 12 15 22 13 16 47 38 41 49 40 43 54 45 48 61 52 55 67 58 61 74 65 68 79 70 73 85 70 75 97 71 82 103 71 84 105 73 86 108 76 89 112 80 93 115 83 96 117 85 98 119 87 100 126 94 107 126 94 107 126 94 107 126 94 107 126 94 107 126 94 107 126 94 107 125 95 107 114 92 104 111 94 104 113 93 104 111 94 104 113 93 104 111 94 104 113 93 104 111 94 104 127 107 118 125 108 118 127 107 118 125 108 118 127 107 118 125 108 118 127 107 118 125 108 118 134 114 123 132 115 123 134 114 123 132 115 123 134 114 123 132 115 123 134 114 123 132 115 123 135 115 124 133 116 124 135 115 124 133 116 124 135 115 124 133 116 124 135 115 124 133 116 124 127 110 118 127 110 118 127 110 118 127 110 118 127 110 118 127 110 118 127 110 118 127 110 118 127 110 118 125 108 116 123 106 114 120 103 111 116 99 107 113 96 104 111 94 102 109 92 100 95 82 89 94 81 88 91 78 85 88 75 82 85 72 79 81 68 75 79 66 73 78 65 72 60 47 54 59 46 53 57 44 51 53 40 47 50 37 44 47 34 41 44 31 38 42 31 37 34 28 32 32 27 31 30 25 29 26 21 25 23 18 22 20 15 19 17 12 16 16 11 15 19 14 18 18 13 17 15 10 14 12 7 11 9 4 8 5 0 4 3 0 2 1 0 0 9 9 9 8 10 7 8 10 9 8 10 7 8 10 9 8 10 7 8 10 9 8 10 7 7 9 8 9 11 8 11 13 12 14 16 13 18 20 19 21 23 20 23 25 24 25 27 24 29 34 30 31 36 32 36 41 37 43 48 44 49 54 50 56 61 57 61 66 62 63 68 64 78 83 79 79 84 80 81 86 82 85 90 86 88 93 89 91 96 92 94 99 95 97 99 94 95 94 90 85 84 79 70 69 65 55 54 49 44 43 39 40 39 34 41 40 36 43 42 37 42 41 37 42 41 36 42 41 37 42 41 36 42 41 37 42 41 36 42 41 37 42 41 36 39 38 34 39 38 33 39 38 34 39 38 33 39 38 34 39 38 33 39 38 34 39 38 33 42 41 37 42 41 36 42 41 37 42 41 36 42 41 37 42 41 36 42 41 37 42 41 37
17 11 13 20 14 16 22 16 18 24 18 20 34 28 30 36 30 32 41 35 37 48 42 44 54 48 50 61 55 57 66 60 62 71 60 64 93 72 79 97 71 80 100 74 83 103 77 86 106 80 89 110 84 93 112 86 95 113 87 96 110 84 93 110 84 93 110 84 93 110 84 93 110 84 93 110 84 93 110 84 93 108 85 93 115 94 103 114 94 103 115 94 103 114 94 103 115 94 103 114 94 103 115 94 103 114 94 103 125 104 113 124 104 113 125 104 113 124 104 113 125 104 113 124 104 113 125 104 113 124 104 113 132 111 120 131 111 120 132 111 120 131 111 120 132 111 120 131 111 120 132 111 120 131 111 120 134 113 122 133 113 122 134 113 122 133 113 122 134 113 122 133 113 122 134 113 122 133 113 122 140 121 127 139 120 126 137 118 124 133 114 120 130 111 117 127 108 114 124 105 111 123 104 110 117 98 104 116 97 103 114 95 101 110 91 97 107 88 94 104 85 91 101 82 88 97 82 87 95 84 88 89 83 85 84 78 80 78 72 74 71 65 67 65 59 61 60 54 56 57 51 53 45 39 41 44 38 40 42 36 38 38 32 34 35 29 31 32 26 28 29 23 25 27 23 24 16 16 16 15 17 16 15 17 16 15 17 16 15 17 16 15 17 16 15 17 16 15 17 16 16 18 17 14 16 15 12 14 13 9 11 10 5 7 6 2 4 3 0 2 1 0 1 0 2 4 1 0 5 0 0 5 1 0 5 0 0 5 1 0 5 0 0 5 1 0 5 0 5 10 6 7 12 6 9 14 10 12 17 11 16 21 17 19 24 18 21 26 22 23 28 22 39 41 36 41 43 38 43 45 40 46 48 43 50 52 47 53 55 50 55 57 52 57 59 54 76 78 73 77 79 74 80 82 77 83 85 80 86 88 83 90 92 87 92 94 89 93 95 90 83 82 77 77 74 67 64 61 56 52 49 42 45 42 37 44 41 34 47 44 39 50 47 40 43 40 35 43 40 33 43 40 35 43 40 33 43 40 35 43 40 33 43 40 35 43 40 33 41 38 33 41 38 31 41 38 33 41 38 31 41 38 33 41 38 31 41 38 33 41 38 31 40 37 32 40 37 30 40 37 32 40 37 30 40 37 32 40 37 30 40 37 32 40 37 32
17 11 13 20 14 16 22 16 18 24 18 20 34 28 30 36 30 32 41 35 37 48 42 44 54 48 50 61 55 57 66 60 62 71 60 64 89 72 78 93 72 79 95 74 81 99 78 85 102 81 88 105 84 91 108 87 94 109 88 95 107 86 93 107 86 93 107 86 93 107 86 93 107 86 93 107 86 93 107 86 93 107 86 93 115 94 103 115 94 103 115 94 103 115 94 103 115 94 103 115 94 103 115 94 103 115 94 103 125 104 113 125 104 113 125 104 113 125 104 113 125 104 113 125 104 113 125 104 113 125 104 113 132 111 120 132 111 120 132 111 120 132 111 120 132 111 120 132 111 120 132 111 120 132 111 120 134 113 122 134 113 122 134 113 122 134 113 122 134 113 122 134 113 122 134 113 122 134 113 122 139 120 126 138 119 125 135 116 122 132 113 119 129 110 116 125 106 112 123 104 110 122 103 109 116 97 103 115 96 102 112 93 99 109 90 96 106 87 93 102 83 89 100 81 87 96 81 86 91 82 85 85 81 82 81 77 78 74 70 71 67 63 64 61 57 58 56 52 53 53 49 50 43 39 40 42 38 39 39 35 36 36 32 33 33 29 30 29 25 26 27 23 24 24 22 23 15 17 16 13 17 16 13 17 16 13 17 16 13 17 16 13 17 16 13 17 16 13 17 16 14 18 17 12 16 15 10 14 13 7 11 10 3 7 6 0 4 3 0 2 1 0 2 0 0 5 1 0 5 0 0 5 0 0 5 0 0 5 0 0 5 0 0 5 0 0 5 0 5 10 4 7 12 6 9 14 8 12 17 11 16 21 15 19 24 18 21 26 20 23 28 22 39 41 36 41 43 38 43 45 40 46 48 43 50 52 47 53 55 50 55 57 52 57 59 54 75 77 72 76 78 73 78 80 75 82 84 79 85 87 82 88 90 85 91 93 88 93 94 88 83 82 77 77 74 67 64 61 54 52 49 42 45 42 35 44 41 34 47 44 37 50 47 40 43 40 33 43 40 33 43 40 33 43 40 33 43 40 33 43 40 33 43 40 33 43 40 33 41 38 31 41 38 31 41 38 31 41 38 31 41 38 31 41 38 31 41 38 31 41 38 31 40 37 30 40 37 30 40 37 30 40 37 30 40 37 30 40 37 30 40 37 30 40 37 30
17 11 13 20 14 16 22 16 18 24 18 20 34 28 30 36 30 32 41 35 37 48 42 44 54 48 50 61 55 57 66 60 62 71 60 64 86 69 75 91 70 77 93 72 79 96 75 82 100 79 86 103 82 89 105 84 91 107 86 93 107 86 93 107 86 93 107 86 93 107 86 93 107 86 93 107 86 93 107 86 93 107 86 93 115 94 103 115 94 103 115 94 103 115 94 103 115 94 103 115 94 103 115 94 103 115 94 103 125 104 113 125 104 113 125 104 113 125 104 113 125 104 113 125 104 113 125 104 113 125 104 113 132 111 120 132 111 120 132 111 120 132 111 120 132 111 120 132 111 120 132 111 120 132 111 120 134 113 122 134 113 122 134 113 122 134 113 122 134 113 122 134 113 122 134 113 122 134 113 122 137 118 124 135 116 122 133 114 120 130 111 117 126 107 113 123 104 110 121 102 108 119 100 106 114 95 101 112 93 99 110 91 97 107 88 94 103 84 90 100 81 87 98 79 85 93 78 83 86 77 80 81 77 78 76 72 73 69 65 66 62 58 59 56 52 53 51 47 48 48 44 45 41 37 38 39 35 36 37 33 34 34 30 31 30 26 27 27 23 24 25 21 22 21 19 20 15 17 16 13 17 16 13 17 16 13 17 16 13 17 16 13 17 16 13 17 16 13 17 16 14 18 17 12 16 15 10 14 13 7 11 10 3 7 6 0 4 3 0 2 1 0 2 0 0 5 1 0 5 0 0 5 0 0 5 0 0 5 0 0 5 0 0 5 0 0 5 0 5 10 4 7 12 6 9 14 8 12 17 11 16 21 15 19 24 18 21 26 20 23 28 22 39 41 36 41 43 38 43 45 40 46 48 43 50 52 47 53 55 50 55 57 52 57 59 54 72 74 69 74 76 71 76 78 73 79 81 76 83 85 80 86 88 83 88 90 85 91 92 86 83 82 77 77 74 67 64 61 54 52 49 42 45 42 35 44 41 34 47 44 37 50 47 40 43 40 33 43 40 33 43 40 33 43 40 33 43 40 33 43 40 33 43 40 33 43 40 33 41 38 31 41 38 31 41 38 31 41 38 31 41 38 31 41 38 31 41 38 31 41 38 31 40 37 30 40 37 30 40 37 30 40 37 30 40 37 30 40 37 30 40 37 30 40 37 30
17 11 13 20 14 16 22 16 18 24 18 20 34 28 30 36 30 32 41 35 37 48 42 44 54 48 50 61 55 57 66 60 62 71 60 64 83 66 72 87 66 73 90 69 76 93 72 79 96 75 82 100 79 86 102 81 88 103 82 89 107 86 93 107 86 93 107 86 93 107 86 93 107 86 93 107 86 93 107 86 93 107 86 93 115 94 103 115 94 103 115 94 103 115 94 103 115 94 103 115 94 103 115 94 103 115 94 103 125 104 113 125 104 113 125 104 113 125 104 113 125 104 113 125 104 113 125 104 113 125 104 113 132 111 120 132 111 120 132 111 120 132 111 120 132 111 120 132 111 120 132 111 120 132 111 120 134 113 122 134 113 122 134 113 122 134 113 122 134 113 122 134 113 122 134 113 122 134 113 122 133 114 120 132 113 119 130 111 117 126 107 113 123 104 110 120 101 107 117 98 104 116 97 103 110 91 97 109 90 96 107 88 94 103 84 90 100 81 87 97 78 84 94 75 81 90 75 80 80 71 74 74 70 71 69 65 66 63 59 60 56 52 53 50 46 47 45 41 42 42 38 39 37 33 34 36 32 33 34 30 31 30 26 27 27 23 24 24 20 21 21 17 18 18 16 17 15 17 16 13 17 16 13 17 16 13 17 16 13 17 16 13 17 16 13 17 16 13 17 16 14 18 17 12 16 15 10 14 13 7 11 10 3 7 6 0 4 3 0 2 1 0 2 0 0 5 1 0 5 0 0 5 0 0 5 0 0 5 0 0 5 0 0 5 0 0 5 0 5 10 4 7 12 6 9 14 8 12 17 11 16 21 15 19 24 18 21 26 20 23 28 22 39 41 36 41 43 38 43 45 40 46 48 43 50 52 47 53 55 50 55 57 52 57 59 54 69 71 66 70 72 67 73 75 70 76 78 73 79 81 76 83 85 80 85 87 82 87 88 82 83 82 77 77 74 67 64 61 54 52 49 42 45 42 35 44 41 34 47 44 37 50 47 40 43 40 33 43 40 33 43 40 33 43 40 33 43 40 33 43 40 33 43 40 33 43 40 33 41 38 31 41 38 31 41 38 31 41 38 31 41 38 31 41 38 31 41 38 31 41 38 31 40 37 30 40 37 30 40 37 30 40 37 30 40 37 30 40 37 30 40 37 30 40 37 30
17 11 13 20 14 16 22 16 18 24 18 20 34 28 30 36 30 32 41 35 37 48 42 44 54 48 50 61 55 57 66 60 62 71 60 64 80 63 69 84 63 70 86 65 72 90 69 76 93 72 79 96 75 82 99 78 85 100 79 86 107 86 93 107 86 93 107 86 93 107 86 93 107 86 93 107 86 93 107 86 93 107 86 93 115 94 103 115 94 103 115 94 103 115 94 103 115 94 103 115 94 103 115 94 103 115 94 103 125 104 113 125 104 113 125 104 113 125 104 113 125 104 113 125 104 113 125 104 113 125 104 113 132 111 120 132 111 120 132 111 120 132 111 120 132 111 120 132 111 120 132 111 120 132 111 120 134 113 122 134 113 122 134 113 122 134 113 122 134 113 122 134 113 122 134 113 122 134 113 122 130 111 117 129 110 116 126 107 113 123 104 110 120 101 107 116 97 103 114 95 101 113 94 100 107 88 94 106 87 93 103 84 90 100 81 87 97 78 84 93 74 80 91 72 78 87 72 77 73 64 67 67 63 64 62 58 59 56 52 53 49 45 46 43 39 40 38 34 35 35 31 32 34 30 31 33 29 30 30 26 27 27 23 24 24 20 21 20 16 17 18 14 15 15 13 14 15 17 16 13 17 16 13 17 16 13 17 16 13 17 16 13 17 16 13 17 16 13 17 16 14 18 17 12 16 15 10 14 13 7 11 10 3 7 6 0 4 3 0 2 1 0 2 0 0 5 1 0 5 0 0 5 0 0 5 0 0 5 0 0 5 0 0 5 0 0 5 0 5 10 4 7 12 6 9 14 8 12 17 11 16 21 15 19 24 18 21 26 20 23 28 22 39 41 36 41 43 38 43 45 40 46 48 43 50 52 47 53 55 50 55 57 52 57 59 54 66 68 63 67 69 64 69 71 66 73 75 70 76 78 73 79 81 76 82 84 79 84 85 79 83 82 77 77 74 67 64 61 54 52 49 42 45 42 35 44 41 34 47 44 37 50 47 40 43 40 33 43 40 33 43 40 33 43 40 33 43 40 33 43 40 33 43 40 33 43 40 33 41 38 31 41 38 31 41 38 31 41 38 31 41 38 31 41 38 31 41 38 31 41 38 31 40 37 30 40 37 30 40 37 30 40 37 30 40 37 30 40 37 30 40 37 30 40 37 30
17 11 13 20 14 16 22 16 18 24 18 20 34 28 30 36 30 32 41 35 37 48 42 44 54 48 50 61 55 57 66 60 62 71 60 64 76 59 65 81 60 67 83 62 69 86 65 72 90 69 76 93 72 79 95 74 81 97 76 83 107 86 93 107 86 93 107 86 93 107 86 93 107 86 93 107 86 93 107 86 93 107 86 93 115 94 103 115 94 103 115 94 103 115 94 103 115 94 103 115 94 103 115 94 103 115 94 103 125 104 113 125 104 113 125 104 113 125 104 113 125 104 113 125 104 113 125 104 113 125 104 113 132 111 120 132 111 120 132 111 120 132 111 120 132 111 120 132 111 120 132 111 120 132 111 120 134 113 122 134 113 122 134 113 122 134 113 122 134 113 122 134 113 122 134 113 122 134 113 122 127 108 114 125 106 112 123 104 110 120 101 107 116 97 103 113 94 100 111 92 98 109 90 96 104 85 91 102 83 89 100 81 87 97 78 84 93 74 80 90 71 77 88 69 75 83 68 73 67 58 61 61 57 58 56 52 53 50 46 47 43 39 40 36 32 33 31 27 28 29 25 26 31 27 28 29 25 26 27 23 24 24 20 21 20 16 17 17 13 14 15 11 12 11 9 10 15 17 16 13 17 16 13 17 16 13 17 16 13 17 16 13 17 16 13 17 16 13 17 16 14 18 17 12 16 15 10 14 13 7 11 10 3 7 6 0 4 3 0 2 1 0 2 0 0 5 1 0 5 0 0 5 0 0 5 0 0 5 0 0 5 0 0 5 0 0 5 0 5 10 4 7 12 6 9 14 8 12 17 11 16 21 15 19 24 18 21 26 20 23 28 22 39 41 36 41 43 38 43 45 40 46 48 43 50 52 47 53 55 50 55 57 52 57 59 54 62 64 59 64 66 61 66 68 63 69 71 66 73 75 70 76 78 73 78 80 75 81 82 76 83 82 77 77 74 67 64 61 54 52 49 42 45 42 35 44 41 34 47 44 37 50 47 40 43 40 33 43 40 33 43 40 33 43 40 33 43 40 33 43 40 33 43 40 33 43 40 33 41 38 31 41 38 31 41 38 31 41 38 31 41 38 31 41 38 31 41 38 31 41 38 31 40 37 30 40 37 30 40 37 30 40 37 30 40 37 30 40 37 30 40 37 30 40 37 30
17 11 13 20 14 16 22 16 18 24 18 20 34 28 30 36 30 32 41 35 37 48 42 44 54 48 50 61 55 57 66 60 62 71 60 64 74 57 63 78 57 64 81 60 67 84 63 70 87 66 73 91 70 77 93 72 79 94 73 80 107 86 93 107 86 93 107 86 93 107 86 93 107 86 93 107 86 93 107 86 93 107 86 93 115 94 103 115 94 103 115 94 103 115 94 103 115 94 103 115 94 103 115 94 103 115 94 103 125 104 113 125 104 113 125 104 113 125 104 113 125 104 113 125 104 113 125 104 113 125 104 113 132 111 120 132 111 120 132 111 120 132 111 120 132 111 120 132 111 120 132 111 120 132 111 120 134 113 122 134 113 122 134 113 122 134 113 122 134 113 122 134 113 122 134 113 122 134 113 122 124 105 111 123 104 110 121 102 108 117 98 104 114 95 101 111 92 98 108 89 95 107 88 94 101 82 88 100 81 87 98 79 85 94 75 81 91 72 78 88 69 75 85 66 72 81 66 71 62 53 56 56 52 53 51 47 48 45 41 42 38 34 35 31 27 28 27 23 24 24 20 21 28 24 25 27 23 24 25 21 22 21 17 18 18 14 15 15 11 12 12 8 9 9 7 8 15 17 16 13 17 16 13 17 16 13 17 16 13 17 16 13 17 16 13 17 16 13 17 16 14 18 17 12 16 15 10 14 13 7 11 10 3 7 6 0 4 3 0 2 1 0 2 0 0 5 1 0 5 0 0 5 0 0 5 0 0 5 0 0 5 0 0 5 0 0 5 0 5 10 4 7 12 6 9 14 8 12 17 11 16 21 15 19 24 18 21 26 20 23 28 22 39 41 36 41 43 38 43 45 40 46 48 43 50 52 47 53 55 50 55 57 52 57 59 54 60 62 57 61 63 58 64 66 61 67 69 64 70 72 67 74 76 71 76 78 73 78 79 73 83 82 77 77 74 67 64 61 54 52 49 42 45 42 35 44 41 34 47 44 37 50 47 40 43 40 33 43 40 33 43 40 33 43 40 33 43 40 33 43 40 33 43 40 33 43 40 33 41 38 31 41 38 31 41 38 31 41 38 31 41 38 31 41 38 31 41 38 31 41 38 31 40 37 30 40 37 30 40 37 30 40 37 30 40 37 30 40 37 30 40 37 30 40 37 30
17 11 13 20 14 16 22 16 18 24 18 20 34 28 30 36 30 32 41 35 37 48 42 44 54 48 50 61 55 57 66 60 62 71 60 64 73 56 62 77 56 63 79 58 65 83 62 69 86 65 72 89 68 75 92 71 78 93 72 79 107 86 93 107 86 93 107 86 93 107 86 93 107 86 93 107 86 93 107 86 93 107 86 93 115 94 103 115 94 103 115 94 103 115 94 103 115 94 103 115 94 103 115 94 103 115 94 103 125 104 113 125 104 113 125 104 113 125 104 113 125 104 113 125 104 113 125 104 113 125 104 113 132 111 120 132 111 120 132 111 120 132 111 120 132 111 120 132 111 120 132 111 120 132 111 120 134 113 122 134 113 122 134 113 122 134 113 122 134 113 122 134 113 122 134 113 122 134 113 122 123 104 110 122 103 109 119 100 106 116 97 103 113 94 100 109 90 96 107 88 94 106 87 93 100 81 87 99 80 86 96 77 83 93 74 80 90 71 77 86 67 73 84 65 71 80 65 70 59 50 53 53 49 50 48 44 45 42 38 39 35 31 32 29 25 26 24 20 21 21 17 18 27 23 24 26 22 23 23 19 20 20 16 17 17 13 14 13 9 10 11 7 8 8 6 7 15 17 16 13 17 16 13 17 16 13 17 16 13 17 16 13 17 16 13 17 16 13 17 16 14 18 17 12 16 15 10 14 13 7 11 10 3 7 6 0 4 3 0 2 1 0 2 0 0 5 1 0 5 0 0 5 0 0 5 0 0 5 0 0 5 0 0 5 0 0 5 0 5 10 4 7 12 6 9 14 8 12 17 11 16 21 15 19 24 18 21 26 20 23 28 22 39 41 36 41 43 38 43 45 40 46 48 43 50 52 47 53 55 50 55 57 52 57 59 54 59 61 56 60 62 57 62 64 59 66 68 63 69 71 66 72 74 69 75 77 72 77 78 72 83 82 77 77 74 67 64 61 54 52 49 42 45 42 35 44 41 34 47 44 37 50 47 40 43 40 33 43 40 33 43 40 33 43 40 33 43 40 33 43 40 33 43 40 33 43 40 33 41 38 31 41 38 31 41 38 31 41 38 31 41 38 31 41 38 31 41 38 31 41 38 31 40 37 30 40 37 30 40 37 30 40 37 30 40 37 30 40 37 30 40 37 30 40 37 30
25 19 21 28 22 24 31 25 27 32 26 28 50 44 46 52 46 48 54 48 50 57 51 53 61 55 57 64 58 60 66 60 62 71 60 64 78 61 67 83 62 69 85 64 71 88 67 74 92 71 78 95 74 81 97 76 83 99 78 85 97 76 83 99 78 85 101 80 87 104 83 90 108 87 94 111 90 97 113 92 99 115 94 101 118 97 106 118 97 106 118 97 106 118 97 106 118 97 106 118 97 106 118 97 106 118 97 106 127 106 115 127 106 115 127 106 115 127 106 115 127 106 115 127 106 115 127 106 115 127 106 115 132 111 120 132 111 120 132 111 120 132 111 120 132 111 120 132 111 120 132 111 120 132 111 120 140 119 128 139 118 127 137 116 125 133 112 121 130 109 118 127 106 115 124 103 112 123 102 111 118 99 105 117 98 104 115 96 102 111 92 98 108 89 95 105 86 92 102 83 89 101 82 88 88 69 75 87 68 74 85 66 72 81 62 68 78 59 65 75 56 62 72 53 59 68 53 58 50 41 44 46 42 43 44 40 41 40 36 37 37 33 34 34 30 31 31 27 28 30 26 27 19 15 16 19 15 16 19 15 16 19 15 16 19 15 16 19 15 16 19 15 16 17 15 16 17 19 18 15 19 18 15 19 18 15 19 18 15 19 18 15 19 18 15 19 18 15 19 18 12 16 15 10 14 13 8 12 11 5 9 8 1 5 4 0 2 1 0 1 0 0 2 0 0 5 1 0 5 0 0 5 0 0 5 0 0 5 0 0 5 0 0 5 0 0 5 0 5 10 4 7 12 6 9 14 8 12 17 11 16 21 15 19 24 18 21 26 20 23 28 22 35 37 32 37 39 34 39 41 36 42 44 39 46 48 43 49 51 46 51 53 48 53 55 50 68 70 65 68 70 65 68 70 65 68 70 65 68 70 65 68 70 65 68 70 65 69 70 64 66 65 60 66 63 56 61 58 51 54 51 44 48 45 38 41 38 31 36 33 26 34 31 24 37 34 27 37 34 27 37 34 27 37 34 27 37 34 27 37 34 27 37 34 27 37 34 27 37 34 27 37 34 27 37 34 27 37 34 27 37 34 27 37 34 27 37 34 27 37 34 27 40 37 30 40 37 30 40 37 30 40 37 30 40 37 30 40 37 30 40 37 30 40 37 30
26 20 22 30 24 26 32 26 28 33 27 29 50 44 46 52 46 48 54 48 50 57 51 53 61 55 57 64 58 60 66 60 62 71 60 64 78 61 67 83 62 69 85 64 71 88 67 74 92 71 78 95 74 81 97 76 83 99 78 85 97 76 83 99 78 85 101 80 87 104 83 90 108 87 94 111 90 97 113 92 99 115 94 101 118 97 106 118 97 106 118 97 106 118 97 106 118 97 106 118 97 106 118 97 106 118 97 106 127 106 115 127 106 115 127 106 115 127 106 115 127 106 115 127 106 115 127 106 115 127 106 115 132 111 120 132 111 120 132 111 120 132 111 120 132 111 120 132 111 120 132 111 120 132 111 120 139 118 127 138 117 126 135 114 123 132 111 120 129 108 117 125 104 113 123 102 111 122 101 110 117 98 104 116 97 103 113 94 100 110 91 97 107 88 94 103 84 90 101 82 88 100 81 87 87 68 74 86 67 73 83 64 70 80 61 67 77 58 64 73 54 60 71 52 58 67 52 57 49 40 43 45 41 42 42 38 39 39 35 36 36 32 33 32 28 29 30 26 27 29 25 26 19 15 16 19 15 16 19 15 16 19 15 16 19 15 16 19 15 16 19 15 16 17 15 16 19 21 20 17 21 20 17 21 20 17 21 20 17 21 20 17 21 20 17 21 20 17 21 20 12 16 15 10 14 13 8 12 11 5 9 8 1 5 4 0 2 1 0 1 0 0 2 0 0 5 1 0 5 0 0 5 0 0 5 0 0 5 0 0 5 0 0 5 0 0 5 0 5 10 4 7 12 6 9 14 8 12 17 11 16 21 15 19 24 18 21 26 20 23 28 22 35 37 32 37 39 34 39 41 36 42 44 39 46 48 43 49 51 46 51 53 48 53 55 50 66 68 63 66 68 63 66 68 63 66 68 63 66 68 63 66 68 63 66 68 63 67 68 62 66 65 60 66 63 56 61 58 51 54 51 44 48 45 38 41 38 31 36 33 26 34 31 24 37 34 27 37 34 27 37 34 27 37 34 27 37 34 27 37 34 27 37 34 27 37 34 27 37 34 27 37 34 27 37 34 27 37 34 27 37 34 27 37 34 27 37 34 27 37 34 27 40 37 30 40 37 30 40 37 30 40 37 30 40 37 30 40 37 30 40 37 30 40 37 30
29 23 25 32 26 28 34 28 30 36 30 32 50 44 46 52 46 48 54 48 50 57 51 53 61 55 57 64 58 60 66 60 62 71 60 64 78 61 67 83 62 69 85 64 71 88 67 74 92 71 78 95 74 81 97 76 83 99 78 85 97 76 83 99 78 85 101 80 87 104 83 90 108 87 94 111 90 97 113 92 99 115 94 101 118 97 106 118 97 106 118 97 106 118 97 106 118 97 106 118 97 106 118 97 106 118 97 106 127 106 115 127 106 115 127 106 115 127 106 115 127 106 115 127 106 115 127 106 115 127 106 115 132 111 120 132 111 120 132 111 120 132 111 120 132 111 120 132 111 120 132 111 120 132 111 120 137 116 125 135 114 123 133 112 121 130 109 118 126 105 114 123 102 111 121 100 109 119 98 107 115 96 102 113 94 100 111 92 98 108 89 95 104 85 91 101 82 88 99 80 86 97 78 84 85 66 72 83 64 70 81 62 68 78 59 65 74 55 61 71 52 58 69 50 56 64 49 54 47 38 41 42 38 39 40 36 37 37 33 34 33 29 30 30 26 27 28 24 25 26 22 23 19 15 16 19 15 16 19 15 16 19 15 16 19 15 16 19 15 16 19 15 16 17 15 16 21 23 22 19 23 22 19 23 22 19 23 22 19 23 22 19 23 22 19 23 22 19 23 22 12 16 15 10 14 13 8 12 11 5 9 8 1 5 4 0 2 1 0 1 0 0 2 0 0 5 1 0 5 0 0 5 0 0 5 0 0 5 0 0 5 0 0 5 0 0 5 0 5 10 4 7 12 6 9 14 8 12 17 11 16 21 15 19 24 18 21 26 20 23 28 22 35 37 32 37 39 34 39 41 36 42 44 39 46 48 43 49 51 46 51 53 48 53 55 50 64 66 61 64 66 61 64 66 61 64 66 61 64 66 61 64 66 61 64 66 61 65 66 60 66 65 60 66 63 56 61 58 51 54 51 44 48 45 38 41 38 31 36 33 26 34 31 24 37 34 27 37 34 27 37 34 27 37 34 27 37 34 27 37 34 27 37 34 27 37 34 27 37 34 27 37 34 27 37 34 27 37 34 27 37 34 27 37 34 27 37 34 27 37 34 27 40 37 30 40 37 30 40 37 30 40 37 30 40 37 30 40 37 30 40 37 30 40 37 30
32 26 28 35 29 31 38 32 34 39 33 35 50 44 46 52 46 48 54 48 50 57 51 53 61 55 57 64 58 60 66 60 62 71 60 64 78 61 67 83 62 69 85 64 71 88 67 74 92 71 78 95 74 81 97 76 83 99 78 85 97 76 83 99 78 85 101 80 87 104 83 90 108 87 94 111 90 97 113 92 99 115 94 101 118 97 106 118 97 106 118 97 106 118 97 106 118 97 106 118 97 106 118 97 106 118 97 106 127 106 115 127 106 115 127 106 115 127 106 115 127 106 115 127 106 115 127 106 115 127 106 115 132 111 120 132 111 120 132 111 120 132 111 120 132 111 120 132 111 120 132 111 120 132 111 120 133 112 121 132 111 120 130 109 118 126 105 114 123 102 111 120 99 108 117 96 105 116 95 104 111 92 98 110 91 97 108 89 95 104 85 91 101 82 88 98 79 85 95 76 82 94 75 81 81 62 68 80 61 67 78 59 65 74 55 61 71 52 58 68 49 55 65 46 52 61 46 51 43 34 37 39 35 36 37 33 34 33 29 30 30 26 27 27 23 24 24 20 21 23 19 20 19 15 16 19 15 16 19 15 16 19 15 16 19 15 16 19 15 16 19 15 16 17 15 16 24 26 25 22 26 25 22 26 25 22 26 25 22 26 25 22 26 25 22 26 25 22 26 25 12 16 15 10 14 13 8 12 11 5 9 8 1 5 4 0 2 1 0 1 0 0 2 0 0 5 1 0 5 0 0 5 0 0 5 0 0 5 0 0 5 0 0 5 0 0 5 0 5 10 4 7 12 6 9 14 8 12 17 11 16 21 15 19 24 18 21 26 20 23 28 22 35 37 32 37 39 34 39 41 36 42 44 39 46 48 43 49 51 46 51 53 48 53 55 50 61 63 58 61 63 58 61 63 58 61 63 58 61 63 58 61 63 58 61 63 58 62 63 57 66 65 60 66 63 56 61 58 51 54 51 44 48 45 38 41 38 31 36 33 26 34 31 24 37 34 27 37 34 27 37 34 27 37 34 27 37 34 27 37 34 27 37 34 27 37 34 27 37 34 27 37 34 27 37 34 27 37 34 27 37 34 27 37 34 27 37 34 27 37 34 27 40 37 30 40 37 30 40 37 30 40 37 30 40 37 30 40 37 30 40 37 30 40 37 30
35 29 31 39 33 35 41 35 37 42 36 38 50 44 46 52 46 48 54 48 50 57 51 53 61 55 57 64 58 60 66 60 62 71 60 64 78 61 67 83 62 69 85 64 71 88 67 74 92 71 78 95 74 81 97 76 83 99 78 85 97 76 83 99 78 85 101 80 87 104 83 90 108 87 94 111 90 97 113 92 99 115 94 101 118 97 106 118 97 106 118 97 106 118 97 106 118 97 106 118 97 106 118 97 106 118 97 106 127 106 115 127 106 115 127 106 115 127 106 115 127 106 115 127 106 115 127 106 115 127 106 115 132 111 120 132 111 120 132 111 120 132 111 120 132 111 120 132 111 120 132 111 120 132 111 120 130 109 118 129 108 117 126 105 114 123 102 111 120 99 108 116 95 104 114 93 102 113 92 101 108 89 95 107 88 94 104 85 91 101 82 88 98 79 85 94 75 81 92 73 79 91 72 78 78 59 65 77 58 64 74 55 61 71 52 58 68 49 55 64 45 51 62 43 49 58 43 48 40 31 34 36 32 33 33 29 30 30 26 27 27 23 24 23 19 20 21 17 18 20 16 17 19 15 16 19 15 16 19 15 16 19 15 16 19 15 16 19 15 16 19 15 16 17 15 16 28 30 29 26 30 29 26 30 29 26 30 29 26 30 29 26 30 29 26 30 29 26 30 29 12 16 15 10 14 13 8 12 11 5 9 8 1 5 4 0 2 1 0 1 0 0 2 0 0 5 1 0 5 0 0 5 0 0 5 0 0 5 0 0 5 0 0 5 0 0 5 0 5 10 4 7 12 6 9 14 8 12 17 11 16 21 15 19 24 18 21 26 20 23 28 22 35 37 32 37 39 34 39 41 36 42 44 39 46 48 43 49 51 46 51 53 48 53 55 50 57 59 54 57 59 54 57 59 54 57 59 54 57 59 54 57 59 54 57 59 54 58 59 53 66 65 60 66 63 56 61 58 51 54 51 44 48 45 38 41 38 31 36 33 26 34 31 24 37 34 27 37 34 27 37 34 27 37 34 27 37 34 27 37 34 27 37 34 27 37 34 27 37 34 27 37 34 27 37 34 27 37 34 27 37 34 27 37 34 27 37 34 27 37 34 27 40 37 30 40 37 30 40 37 30 40 37 30 40 37 30 40 37 30 40 37 30 40 37 30
39 33 35 42 36 38 44 38 40 46 40 42 50 44 46 52 46 48 54 48 50 57 51 53 61 55 57 64 58 60 66 60 62 71 60 64 78 61 67 83 62 69 85 64 71 88 67 74 92 71 78 95 74 81 97 76 83 99 78 85 97 76 83 99 78 85 101 80 87 104 83 90 108 87 94 111 90 97 113 92 99 115 94 101 118 97 106 118 97 106 118 97 106 118 97 106 118 97 106 118 97 106 118 97 106 118 97 106 127 106 115 127 106 115 127 106 115 127 106 115 127 106 115 127 106 115 127 106 115 127 106 115 132 111 120 132 111 120 132 111 120 132 111 120 132 111 120 132 111 120 132 111 120 132 111 120 127 106 115 125 104 113 123 102 111 120 99 108 116 95 104 113 92 101 111 90 99 109 88 97 105 86 92 103 84 90 101 82 88 98 79 85 94 75 81 91 72 78 89 70 76 87 68 74 75 56 62 73 54 60 71 52 58 68 49 55 64 45 51 61 42 48 59 40 46 54 39 44 37 28 31 32 28 29 30 26 27 27 23 24 23 19 20 20 16 17 18 14 15 16 12 13 19 15 16 19 15 16 19 15 16 19 15 16 19 15 16 19 15 16 19 15 16 17 15 16 31 33 32 29 33 32 29 33 32 29 33 32 29 33 32 29 33 32 29 33 32 29 33 32 12 16 15 10 14 13 8 12 11 5 9 8 1 5 4 0 2 1 0 1 0 0 2 0 0 5 1 0 5 0 0 5 0 0 5 0 0 5 0 0 5 0 0 5 0 0 5 0 5 10 4 7 12 6 9 14 8 12 17 11 16 21 15 19 24 18 21 26 20 23 28 22 35 37 32 37 39 34 39 41 36 42 44 39 46 48 43 49 51 46 51 53 48 53 55 50 54 56 51 54 56 51 54 56 51 54 56 51 54 56 51 54 56 51 54 56 51 55 56 50 66 65 60 66 63 56 61 58 51 54 51 44 48 45 38 41 38 31 36 33 26 34 31 24 37 34 27 37 34 27 37 34 27 37 34 27 37 34 27 37 34 27 37 34 27 37 34 27 37 34 27 37 34 27 37 34 27 37 34 27 37 34 27 37 34 27 37 34 27 37 34 27 40 37 30 40 37 30 40 37 30 40 37 30 40 37 30 40 37 30 40 37 30 40 37 30
41 35 37 44 38 40 47 41 43 48 42 44 50 44 46 52 46 48 54 48 50 57 51 53 61 55 57 64 58 60 66 60 62 71 60 64 78 61 67 83 62 69 85 64 71 88 67 74 92 71 78 95 74 81 97 76 83 99 78 85 97 76 83 99 78 85 101 80 87 104 83 90 108 87 94 111 90 97 113 92 99 115 94 101 118 97 106 118 97 106 118 97 106 118 97 106 118 97 106 118 97 106 118 97 106 118 97 106 127 106 115 127 106 115 127 106 115 127 106 115 127 106 115 127 106 115 127 106 115 127 106 115 132 111 120 132 111 120 132 111 120 132 111 120 132 111 120 132 111 120 132 111 120 132 111 120 124 103 112 123 102 111 121 100 109 117 96 105 114 93 102 111 90 99 108 87 96 107 86 95 102 83 89 101 82 88 99 80 86 95 76 82 92 73 79 89 70 76 86 67 73 85 66 72 72 53 59 71 52 58 69 50 56 65 46 52 62 43 49 59 40 46 56 37 43 52 37 42 34 25 28 30 26 27 28 24 25 24 20 21 21 17 18 18 14 15 15 11 12 14 10 11 19 15 16 19 15 16 19 15 16 19 15 16 19 15 16 19 15 16 19 15 16 17 15 16 33 35 34 31 35 34 31 35 34 31 35 34 31 35 34 31 35 34 31 35 34 31 35 34 12 16 15 10 14 13 8 12 11 5 9 8 1 5 4 0 2 1 0 1 0 0 2 0 0 5 1 0 5 0 0 5 0 0 5 0 0 5 0 0 5 0 0 5 0 0 5 0 5 10 4 7 12 6 9 14 8 12 17 11 16 21 15 19 24 18 21 26 20 23 28 22 35 37 32 37 39 34 39 41 36 42 44 39 46 48 43 49 51 46 51 53 48 53 55 50 52 54 49 52 54 49 52 54 49 52 54 49 52 54 49 52 54 49 52 54 49 53 54 48 66 65 60 66 63 56 61 58 51 54 51 44 48 45 38 41 38 31 36 33 26 34 31 24 37 34 27 37 34 27 37 34 27 37 34 27 37 34 27 37 34 27 37 34 27 37 34 27 37 34 27 37 34 27 37 34 27 37 34 27 37 34 27 37 34 27 37 34 27 37 34 27 40 37 30 40 37 30 40 37 30 40 37 30 40 37 30 40 37 30 40 37 30 40 37 30
44 35 38 48 39 42 50 41 44 51 42 45 52 43 46 54 45 48 56 47 50 59 50 53 63 54 57 66 57 60 68 59 62 71 60 64 78 61 67 83 62 67 85 64 71 88 67 72 92 71 78 95 74 79 97 76 83 99 78 83 97 76 83 99 78 83 101 80 87 104 83 88 108 87 94 111 90 95 113 92 99 115 94 101 118 97 104 118 97 106 118 97 106 118 97 106 118 97 106 118 97 106 118 97 106 118 97 106 127 106 115 127 106 115 127 106 115 127 106 115 127 106 115 127 106 115 127 106 115 127 106 115 132 111 120 132 111 120 132 111 120 132 111 120 132 111 120 132 111 120 132 111 120 132 111 120 123 102 111 122 101 110 119 98 107 116 95 104 113 92 101 109 88 97 107 86 95 105 85 94 99 82 88 98 81 87 95 78 84 92 75 81 89 72 78 85 68 74 83 66 72 82 65 71 69 52 58 68 51 57 65 48 54 62 45 51 59 42 48 55 38 44 53 36 42 49 37 41 31 25 27 27 25 26 24 22 23 21 19 20 18 16 17 14 12 13 12 10 11 11 9 10 17 15 16 17 15 16 17 15 16 17 15 16 17 15 16 17 15 16 17 15 16 16 16 16 35 37 36 33 37 36 33 37 36 33 37 36 33 37 36 33 37 36 33 37 36 33 37 36 12 16 15 10 14 13 8 12 11 5 9 8 1 5 4 0 2 1 0 1 0 0 2 0 0 5 1 0 5 0 0 5 0 0 5 0 0 5 0 0 5 0 0 5 0 0 5 0 5 10 4 7 12 6 9 14 8 12 17 11 16 21 15 19 24 18 21 26 20 23 28 22 35 37 32 37 39 34 39 41 36 42 44 39 46 48 43 49 51 46 51 53 48 53 55 50 50 52 47 50 52 47 50 52 47 50 52 47 50 52 47 50 52 47 50 52 47 51 52 47 66 65 60 66 63 56 61 58 51 54 51 44 48 45 38 41 38 31 36 33 26 34 31 24 37 34 27 37 34 27 37 34 27 37 34 27 37 34 27 37 34 27 37 34 27 37 34 27 37 34 27 37 34 27 37 34 27 37 34 27 37 34 27 37 34 27 37 34 27 37 34 27 40 37 30 40 37 30 40 37 30 40 37 30 40 37 30 40 37 30 40 37 30 40 37 30
48 37 41 51 40 44 53 42 46 55 44 48 60 49 53 62 51 55 64 53 57 67 56 60 71 60 64 74 63 67 76 65 69 79 67 71 83 64 68 86 66 68 88 67 72 91 71 73 95 74 79 98 78 80 100 79 84 102 82 84 106 85 90 106 86 88 106 85 90 106 86 88 106 85 90 106 86 88 106 85 90 106 85 90 117 96 103 117 96 103 117 96 103 117 96 103 117 96 103 117 96 103 117 96 103 117 96 103 123 102 109 123 102 109 123 102 109 123 102 109 123 102 109 123 102 109 123 102 109 123 102 109 135 114 121 134 113 120 132 111 118 128 107 114 125 104 111 122 101 108 119 98 105 118 97 104 115 94 101 114 93 100 112 91 98 108 87 94 105 84 91 102 81 88 99 78 85 97 78 84 86 74 78 84 73 77 82 71 75 78 67 71 75 64 68 72 61 65 69 58 62 68 57 61 63 52 56 62 51 55 60 49 53 56 45 49 53 42 46 50 39 43 47 36 40 45 36 39 15 13 14 14 14 14 14 14 14 14 14 14 14 14 14 14 14 14 14 14 14 14 14 14 17 17 17 18 18 18 20 20 20 24 24 24 27 27 27 30 30 30 33 33 33 33 35 34 33 37 36 32 38 36 32 38 36 32 38 36 32 38 36 32 38 36 32 38 36 32 38 36 18 24 22 16 22 20 14 20 18 11 17 15 7 13 11 4 10 8 2 8 6 0 6 2 2 8 4 2 9 2 2 9 2 2 9 2 2 9 2 2 9 2 2 9 2 2 9 2 6 13 6 8 15 8 10 17 10 13 20 13 17 24 17 20 27 20 22 29 22 24 31 24 25 30 26 27 32 28 29 34 30 32 37 33 36 41 37 39 44 40 41 46 42 43 48 44 41 46 42 41 46 42 41 46 42 41 46 42 41 46 42 41 46 42 41 46 42 43 45 40 47 46 41 47 44 39 45 42 37 42 39 34 38 35 30 35 32 27 33 30 25 31 28 23 35 32 27 35 32 27 35 32 27 35 32 27 35 32 27 35 32 27 35 32 27 35 32 27 38 33 27 38 33 27 38 33 27 38 33 27 38 33 27 38 33 27 38 33 27 38 33 27 39 34 28 39 34 28 39 34 28 39 34 28 39 34 28 39 34 28 39 34 28 39 34 28
49 37 41 52 40 44 54 42 46 56 44 48 61 49 53 63 51 55 65 53 57 68 56 60 72 60 64 75 63 67 77 65 69 81 66 69 83 64 68 86 66 68 88 68 70 91 71 73 95 75 77 98 78 80 100 80 82 102 82 84 106 86 88 106 86 88 106 86 88 106 86 88 106 86 88 106 86 88 106 86 88 106 86 88 117 96 103 117 96 103 117 96 103 117 96 103 117 96 103 117 96 103 117 96 103 117 96 103 123 102 109 123 102 109 123 102 109 123 102 109 123 102 109 123 102 109 123 102 109 123 102 109 134 113 120 133 112 119 130 109 116 127 106 113 124 103 110 120 99 106 118 97 104 117 96 103 114 93 100 113 92 99 110 89 96 107 86 93 104 83 90 100 79 86 98 77 84 94 77 83 85 73 77 82 73 76 79 70 73 76 67 70 73 64 67 69 60 63 67 58 61 66 57 60 61 52 55 60 51 54 57 48 51 54 45 48 51 42 45 47 38 41 45 36 39 42 36 38 14 14 14 13 15 14 13 15 14 13 15 14 13 15 14 13 15 14 13 15 14 13 15 14 17 19 18 18 20 19 21 23 22 24 26 25 27 29 28 31 33 32 33 35 34 32 36 35 33 37 36 32 38 36 32 38 36 32 38 36 32 38 36 32 38 36 32 38 36 32 38 36 18 24 22 16 22 20 14 20 18 11 17 15 7 13 11 4 10 8 2 8 6 0 6 2 2 8 4 2 9 2 2 9 2 2 9 2 2 9 2 2 9 2 2 9 2 2 9 2 6 13 6 8 15 8 10 17 10 13 20 13 17 24 17 20 27 20 22 29 22 24 31 24 25 30 26 27 32 28 29 34 30 32 37 33 36 41 37 39 44 40 41 46 42 43 48 44 41 46 42 41 46 42 41 46 42 41 46 42 41 46 42 41 46 42 41 46 42 43 45 40 47 46 42 47 44 39 45 42 37 42 39 34 38 35 30 35 32 27 33 30 25 31 28 23 35 32 27 35 32 27 35 32 27 35 32 27 35 32 27 35 32 27 35 32 27 35 32 27 38 33 27 38 33 27 38 33 27 38 33 27 38 33 27 38 33 27 38 33 27 38 33 27 39 34 28 39 34 28 39 34 28 39 34 28 39 34 28 39 34 28 39 34 28 39 34 28
49 37 41 52 40 44 54 42 46 56 44 48 61 49 53 63 51 55 65 53 57 68 56 60 72 60 64 75 63 67 77 65 69 81 66 69 83 64 68 86 66 68 88 68 70 91 71 73 95 75 77 98 78 80 100 80 82 102 82 84 106 86 88 106 86 88 106 86 88 106 86 88 106 86 88 106 86 88 106 86 88 106 86 88 117 96 103 117 96 103 117 96 103 117 96 103 117 96 103 117 96 103 117 96 103 117 96 103 123 102 109 123 102 109 123 102 109 123 102 109 123 102 109 123 102 109 123 102 109 123 102 109 132 111 118 130 109 116 128 107 114 125 104 111 121 100 107 118 97 104 116 95 102 114 93 100 112 91 98 110 89 96 108 87 94 105 84 91 101 80 87 98 77 84 96 75 82 91 74 80 83 71 75 79 70 73 77 68 71 74 65 68 70 61 64 67 58 61 65 56 59 63 54 57 59 50 53 57 48 51 55 46 49 52 43 46 48 39 42 45 36 39 43 34 37 39 33 35 14 14 14 13 15 14 13 15 14 13 15 14 13 15 14 13 15 14 13 15 14 13 15 14 19 21 20 21 23 22 23 25 24 26 28 27 30 32 31 33 35 34 35 37 36 35 39 38 33 37 36 32 38 36 32 38 36 32 38 36 32 38 36 32 38 36 32 38 36 32 38 36 18 24 22 16 22 20 14 20 18 11 17 15 7 13 11 4 10 8 2 8 6 0 6 2 2 8 4 2 9 2 2 9 2 2 9 2 2 9 2 2 9 2 2 9 2 2 9 2 6 13 6 8 15 8 10 17 10 13 20 13 17 24 17 20 27 20 22 29 22 24 31 24 25 30 26 27 32 28 29 34 30 32 37 33 36 41 37 39 44 40 41 46 42 43 48 44 41 46 42 41 46 42 41 46 42 41 46 42 41 46 42 41 46 42 41 46 42 43 45 40 47 46 42 47 44 39 45 42 37 42 39 34 38 35 30 35 32 27 33 30 25 31 28 23 35 32 27 35 32 27 35 32 27 35 32 27 35 32 27 35 32 27 35 32 27 35 32 27 38 33 27 38 33 27 38 33 27 38 33 27 38 33 27 38 33 27 38 33 27 38 33 27 39 34 28 39 34 28 39 34 28 39 34 28 39 34 28 39 34 28 39 34 28 39 34 28
49 37 41 52 40 44 54 42 46 56 44 48 61 49 53 63 51 55 65 53 57 68 56 60 72 60 64 75 63 67 77 65 69 81 66 69 83 64 68 86 66 68 88 68 70 91 71 73 95 75 77 98 78 80 100 80 82 102 82 84 106 86 88 106 86 88 106 86 88 106 86 88 106 86 88 106 86 88 106 86 88 106 86 88 117 96 103 117 96 103 117 96 103 117 96 103 117 96 103 117 96 103 117 96 103 117 96 103 123 102 109 123 102 109 123 102 109 123 102 109 123 102 109 123 102 109 123 102 109 123 102 109 128 107 114 127 106 113 125 104 111 121 100 107 118 97 104 115 94 101 112 91 98 111 90 97 108 87 94 107 86 93 105 84 91 101 80 87 98 77 84 95 74 81 92 71 78 88 71 77 79 67 71 76 67 70 74 65 68 70 61 64 67 58 61 64 55 58 61 52 55 60 51 54 55 46 49 54 45 48 52 43 46 48 39 42 45 36 39 42 33 36 39 30 33 36 30 32 14 14 14 13 15 14 13 15 14 13 15 14 13 15 14 13 15 14 13 15 14 13 15 14 23 25 24 24 26 25 26 28 27 30 32 31 33 35 34 36 38 37 39 41 40 38 42 41 33 37 36 32 38 36 32 38 36 32 38 36 32 38 36 32 38 36 32 38 36 32 38 36 18 24 22 16 22 20 14 20 18 11 17 15 7 13 11 4 10 8 2 8 6 0 6 2 2 8 4 2 9 2 2 9 2 2 9 2 2 9 2 2 9 2 2 9 2 2 9 2 6 13 6 8 15 8 10 17 10 13 20 13 17 24 17 20 27 20 22 29 22 24 31 24 25 30 26 27 32 28 29 34 30 32 37 33 36 41 37 39 44 40 41 46 42 43 48 44 41 46 42 41 46 42 41 46 42 41 46 42 41 46 42 41 46 42 41 46 42 43 45 40 47 46 42 47 44 39 45 42 37 42 39 34 38 35 30 35 32 27 33 30 25 31 28 23 35 32 27 35 32 27 35 32 27 35 32 27 35 32 27 35 32 27 35 32 27 35 32 27 38 33 27 38 33 27 38 33 27 38 33 27 38 33 27 38 33 27 38 33 27 38 33 27 39 34 28 39 34 28 39 34 28 39 34 28 39 34 28 39 34 28 39 34 28 39 34 28
49 37 41 52 40 44 54 42 46 56 44 48 61 49 53 63 51 55 65 53 57 68 56 60 72 60 64 75 63 67 77 65 69 81 66 69 83 64 68 86 66 68 88 68 70 91 71 73 95 75 77 98 78 80 100 80 82 102 82 84 106 86 88 106 86 88 106 86 88 106 86 88 106 86 88 106 86 88 106 86 88 106 86 88 117 96 103 117 96 103 117 96 103 117 96 103 117 96 103 117 96 103 117 96 103 117 96 103 123 102 109 123 102 109 123 102 109 123 102 109 123 102 109 123 102 109 123 102 109 123 102 109 125 104 111 124 103 110 121 100 107 118 97 104 115 94 101 111 90 97 109 88 95 108 87 94 105 84 91 104 83 90 101 80 87 98 77 84 95 74 81 91 70 77 89 68 75 85 68 74 76 64 68 73 64 67 70 61 64 67 58 61 64 55 58 60 51 54 58 49 52 57 48 51 52 43 46 51 42 45 48 39 42 45 36 39 42 33 36 38 29 32 36 27 30 33 27 29 14 14 14 13 15 14 13 15 14 13 15 14 13 15 14 13 15 14 13 15 14 13 15 14 26 28 27 27 29 28 30 32 31 33 35 34 36 38 37 40 42 41 42 44 43 41 45 44 33 37 36 32 38 36 32 38 36 32 38 36 32 38 36 32 38 36 32 38 36 32 38 36 18 24 22 16 22 20 14 20 18 11 17 15 7 13 11 4 10 8 2 8 6 0 6 2 2 8 4 2 9 2 2 9 2 2 9 2 2 9 2 2 9 2 2 9 2 2 9 2 6 13 6 8 15 8 10 17 10 13 20 13 17 24 17 20 27 20 22 29 22 24 31 24 25 30 26 27 32 28 29 34 30 32 37 33 36 41 37 39 44 40 41 46 42 43 48 44 41 46 42 41 46 42 41 46 42 41 46 42 41 46 42 41 46 42 41 46 42 43 45 40 47 46 42 47 44 39 45 42 37 42 39 34 38 35 30 35 32 27 33 30 25 31 28 23 35 32 27 35 32 27 35 32 27 35 32 27 35 32 27 35 32 27 35 32 27 35 32 27 38 33 27 38 33 27 38 33 27 38 33 27 38 33 27 38 33 27 38 33 27 38 33 27 39 34 28 39 34 28 39 34 28 39 34 28 39 34 28 39 34 28 39 34 28 39 34 28
49 37 41 52 40 44 54 42 46 56 44 48 61 49 53 63 51 55 65 53 57 68 56 60 72 60 64 75 63 67 77 65 69 81 66 69 83 64 68 86 66 68 88 68 70 91 71 73 95 75 77 98 78 80 100 80 82 102 82 84 106 86 88 106 86 88 106 86 88 106 86 88 106 86 88 106 86 88 106 86 88 106 86 88 117 96 103 117 96 103 117 96 103 117 96 103 117 96 103 117 96 103 117 96 103 117 96 103 123 102 109 123 102 109 123 102 109 123 102 109 123 102 109 123 102 109 123 102 109 123 102 109 122 101 108 120 99 106 118 97 104 115 94 101 111 90 97 108 87 94 106 85 92 104 83 90 102 81 88 100 79 86 98 77 84 95 74 81 91 70 77 88 67 74 86 65 72 81 64 70 73 61 65 69 60 63 67 58 61 64 55 58 60 51 54 57 48 51 55 46 49 53 44 47 49 40 43 47 38 41 45 36 39 42 33 36 38 29 32 35 26 29 33 24 27 29 23 25 14 14 14 13 15 14 13 15 14 13 15 14 13 15 14 13 15 14 13 15 14 13 15 14 29 31 30 31 33 32 33 35 34 36 38 37 40 42 41 43 45 44 45 47 46 45 49 48 33 37 36 32 38 36 32 38 36 32 38 36 32 38 36 32 38 36 32 38 36 32 38 36 18 24 22 16 22 20 14 20 18 11 17 15 7 13 11 4 10 8 2 8 6 0 6 2 2 8 4 2 9 2 2 9 2 2 9 2 2 9 2 2 9 2 2 9 2 2 9 2 6 13 6 8 15 8 10 17 10 13 20 13 17 24 17 20 27 20 22 29 22 24 31 24 25 30 26 27 32 28 29 34 30 32 37 33 36 41 37 39 44 40 41 46 42 43 48 44 41 46 42 41 46 42 41 46 42 41 46 42 41 46 42 41 46 42 41 46 42 43 45 40 47 46 42 47 44 39 45 42 37 42 39 34 38 35 30 35 32 27 33 30 25 31 28 23 35 32 27 35 32 27 35 32 27 35 32 27 35 32 27 35 32 27 35 32 27 35 32 27 38 33 27 38 33 27 38 33 27 38 33 27 38 33 27 38 33 27 38 33 27 38 33 27 39 34 28 39 34 28 39 34 28 39 34 28 39 34 28 39 34 28 39 34 28 39 34 28
49 37 41 52 40 44 54 42 46 56 44 48 61 49 53 63 51 55 65 53 57 68 56 60 72 60 64 75 63 67 77 65 69 81 66 69 83 64 68 86 66 68 88 68 70 91 71 73 95 75 77 98 78 80 100 80 82 102 82 84 106 86 88 106 86 88 106 86 88 106 86 88 106 86 88 106 86 88 106 86 88 106 86 88 117 96 103 117 96 103 117 96 103 117 96 103 117 96 103 117 96 103 117 96 103 117 96 103 123 102 109 123 102 109 123 102 109 123 102 109 123 102 109 123 102 109 123 102 109 123 102 109 119 98 105 118 97 104 116 95 102 112 91 98 109 88 95 106 85 92 103 82 89 102 81 88 99 78 85 98 77 84 96 75 82 92 71 78 89 68 75 86 65 72 83 62 69 79 62 68 70 58 62 67 58 61 65 56 59 61 52 55 58 49 52 55 46 49 52 43 46 51 42 45 46 37 40 45 36 39 43 34 37 39 30 33 36 27 30 33 24 27 30 21 24 27 21 23 14 14 14 13 15 14 13 15 14 13 15 14 13 15 14 13 15 14 13 15 14 13 15 14 32 34 33 33 35 34 35 37 36 39 41 40 42 44 43 45 47 46 48 50 49 47 51 50 33 37 36 32 38 36 32 38 36 32 38 36 32 38 36 32 38 36 32 38 36 32 38 36 18 24 22 16 22 20 14 20 18 11 17 15 7 13 11 4 10 8 2 8 6 0 6 2 2 8 4 2 9 2 2 9 2 2 9 2 2 9 2 2 9 2 2 9 2 2 9 2 6 13 6 8 15 8 10 17 10 13 20 13 17 24 17 20 27 20 22 29 22 24 31 24 25 30 26 27 32 28 29 34 30 32 37 33 36 41 37 39 44 40 41 46 42 43 48 44 41 46 42 41 46 42 41 46 42 41 46 42 41 46 42 41 46 42 41 46 42 43 45 40 47 46 42 47 44 39 45 42 37 42 39 34 38 35 30 35 32 27 33 30 25 31 28 23 35 32 27 35 32 27 35 32 27 35 32 27 35 32 27 35 32 27 35 32 27 35 32 27 38 33 27 38 33 27 38 33 27 38 33 27 38 33 27 38 33 27 38 33 27 38 33 27 39 34 28 39 34 28 39 34 28 39 34 28 39 34 28 39 34 28 39 34 28 39 34 28
49 37 41 52 40 44 54 42 46 56 44 48 61 49 53 63 51 55 65 53 57 68 56 60 72 60 64 75 63 67 77 65 69 81 66 69 83 64 68 86 66 68 88 68 70 91 71 73 95 75 77 98 78 80 100 80 82 102 82 84 106 86 88 106 86 88 106 86 88 106 86 88 106 86 88 106 86 88 106 86 88 106 86 88 117 96 103 117 96 103 117 96 103 117 96 103 117 96 103 117 96 103 117 96 103 117 96 103 123 102 109 123 102 109 123 102 109 123 102 109 123 102 109 123 102 109 123 102 109 123 102 109 118 97 104 117 96 103 114 93 100 111 90 97 108 87 94 104 83 90 102 81 88 101 80 87 98 77 84 97 76 83 94 73 80 91 70 77 88 67 74 84 63 70 82 61 68 78 61 67 69 57 61 66 57 60 63 54 57 60 51 54 57 48 51 53 44 47 51 42 45 50 41 44 45 36 39 44 35 38 41 32 35 38 29 32 35 26 29 31 22 25 29 20 23 26 20 22 14 14 14 13 15 14 13 15 14 13 15 14 13 15 14 13 15 14 13 15 14 13 15 14 33 35 34 34 36 35 37 39 38 40 42 41 43 45 44 47 49 48 49 51 50 48 52 51 33 37 36 32 38 36 32 38 36 32 38 36 32 38 36 32 38 36 32 38 36 32 38 36 18 24 22 16 22 20 14 20 18 11 17 15 7 13 11 4 10 8 2 8 6 0 6 2 2 8 4 2 9 2 2 9 2 2 9 2 2 9 2 2 9 2 2 9 2 2 9 2 6 13 6 8 15 8 10 17 10 13 20 13 17 24 17 20 27 20 22 29 22 24 31 24 25 30 26 27 32 28 29 34 30 32 37 33 36 41 37 39 44 40 41 46 42 43 48 44 41 46 42 41 46 42 41 46 42 41 46 42 41 46 42 41 46 42 41 46 42 43 45 40 47 46 42 47 44 39 45 42 37 42 39 34 38 35 30 35 32 27 33 30 25 31 28 23 35 32 27 35 32 27 35 32 27 35 32 27 35 32 27 35 32 27 35 32 27 35 32 27 38 33 27 38 33 27 38 33 27 38 33 27 38 33 27 38 33 27 38 33 27 38 33 27 39 34 28 39 34 28 39 34 28 39 34 28 39 34 28 39 34 28 39 34 28 39 34 28
60 48 52 63 51 55 65 53 57 67 55 59 68 56 60 70 58 62 72 60 64 75 63 67 79 67 71 82 70 74 84 72 76 88 73 76 88 69 73 91 71 73 93 73 75 96 76 78 100 80 82 103 83 85 105 85 87 107 87 89 112 92 94 112 92 94 112 92 94 112 92 94 112 92 94 112 92 94 112 92 94 112 92 94 119 98 105 119 98 105 119 98 105 119 98 105 119 98 105 119 98 105 119 98 105 119 98 105 124 103 110 124 103 110 124 103 110 124 103 110 124 103 110 124 103 110 124 103 110 124 103 110 114 93 100 113 92 99 111 90 97 107 86 93 104 83 90 101 80 87 98 77 84 97 76 83 95 74 81 94 73 80 92 71 78 88 67 74 85 64 71 82 61 68 79 58 65 75 58 64 63 51 55 59 50 53 57 48 51 54 45 48 50 41 44 47 38 41 45 36 39 43 34 37 48 39 42 46 37 40 43 34 37 38 29 32 34 25 28 29 20 23 26 17 20 22 16 18 13 13 13 15 17 16 21 23 22 28 30 29 36 38 37 44 46 45 50 52 51 53 55 54 49 51 50 49 51 50 49 51 50 49 51 50 49 51 50 49 51 50 49 51 50 47 51 50 34 38 37 33 39 37 33 39 37 33 39 37 33 39 37 33 39 37 33 39 37 33 39 37 8 14 12 8 14 12 8 14 12 8 14 12 8 14 12 8 14 12 8 14 12 8 14 10 7 13 9 7 14 7 7 14 7 7 14 7 7 14 7 7 14 7 7 14 7 7 14 7 9 16 9 11 18 11 13 20 13 16 23 16 20 27 20 23 30 23 25 32 25 27 34 27 28 33 29 28 33 29 28 33 29 28 33 29 28 33 29 28 33 29 28 33 29 28 33 29 30 35 31 30 35 31 30 35 31 30 35 31 30 35 31 30 35 31 30 35 31 32 34 29 31 30 26 33 30 25 33 30 25 33 30 25 33 30 25 33 30 25 33 30 25 33 30 25 35 32 27 35 32 27 35 32 27 35 32 27 35 32 27 35 32 27 35 32 27 35 32 27 38 33 27 38 33 27 38 33 27 38 33 27 38 33 27 38 33 27 38 33 27 38 33 27 39 34 28 39 34 28 39 34 28 39 34 28 39 34 28 39 34 28 39 34 28 39 34 28
60 48 52 63 51 55 65 53 57 67 55 59 68 56 60 70 58 62 72 60 64 75 63 67 79 67 71 82 70 74 84 72 76 88 73 76 88 69 73 91 71 73 93 73 75 96 76 78 100 80 82 103 83 85 105 85 87 107 87 89 112 92 94 112 92 94 112 92 94 112 92 94 112 92 94 112 92 94 112 92 94 112 92 94 119 98 105 119 98 105 119 98 105 119 98 105 119 98 105 119 98 105 119 98 105 119 98 105 122 101 108 122 101 108 122 101 108 122 101 108 122 101 108 122 101 108 122 101 108 122 101 108 113 92 99 112 91 98 109 88 95 106 85 92 103 82 89 99 78 85 97 76 83 96 75 82 94 73 80 93 72 79 90 69 76 87 66 73 84 63 70 80 59 66 78 57 64 74 57 63 63 51 55 59 50 53 57 48 51 54 45 48 50 41 44 47 38 41 45 36 39 43 34 37 46 37 40 45 36 39 42 33 36 38 29 32 34 25 28 30 21 24 27 18 21 24 18 20 16 16 16 18 20 19 23 25 24 30 32 31 37 39 38 44 46 45 50 52 51 53 55 54 49 51 50 49 51 50 49 51 50 49 51 50 49 51 50 49 51 50 49 51 50 47 51 50 36 40 39 35 41 39 35 41 39 35 41 39 35 41 39 35 41 39 35 41 39 35 41 39 10 16 14 10 16 14 10 16 14 10 16 14 10 16 14 10 16 14 10 16 14 10 16 12 7 13 9 7 14 7 7 14 7 7 14 7 7 14 7 7 14 7 7 14 7 7 14 7 9 16 9 11 18 11 13 20 13 16 23 16 20 27 20 23 30 23 25 32 25 27 34 27 28 33 29 28 33 29 28 33 29 28 33 29 28 33 29 28 33 29 28 33 29 28 33 29 30 35 31 30 35 31 30 35 31 30 35 31 30 35 31 30 35 31 30 35 31 32 34 29 31 30 26 33 30 25 33 30 25 33 30 25 33 30 25 33 30 25 33 30 25 33 30 25 35 32 27 35 32 27 35 32 27 35 32 27 35 32 27 35 32 27 35 32 27 35 32 27 38 33 27 38 33 27 38 33 27 38 33 27 38 33 27 38 33 27 38 33 27 38 33 27 39 34 28 39 34 28 39 34 28 39 34 28 39 34 28 39 34 28 39 34 28 39 34 28
60 48 52 63 51 55 65 53 57 67 55 59 68 56 60 70 58 62 72 60 64 75 63 67 79 67 71 82 70 74 84 72 76 88 73 76 88 69 73 91 71 73 93 73 75 96 76 78 100 80 82 103 83 85 105 85 87 107 87 89 112 92 94 112 92 94 112 92 94 112 92 94 112 92 94 112 92 94 112 92 94 112 92 94 119 98 105 119 98 105 119 98 105 119 98 105 119 98 105 119 98 105 119 98 105 119 98 105 120 99 106 120 99 106 120 99 106 120 99 106 120 99 106 120 99 106 120 99 106 120 99 106 111 90 97 109 88 95 107 86 93 104 83 90 100 79 86 97 76 83 95 74 81 93 72 79 92 71 78 90 69 76 88 67 74 85 64 71 81 60 67 78 57 64 76 55 62 71 54 60 63 51 55 59 50 53 57 48 51 54 45 48 50 41 44 47 38 41 45 36 39 43 34 37 43 34 37 42 33 36 40 31 34 37 28 31 35 26 29 32 23 26 30 21 24 27 21 23 22 22 22 23 25 24 27 29 28 33 35 34 39 41 40 45 47 46 49 51 50 52 54 53 49 51 50 49 51 50 49 51 50 49 51 50 49 51 50 49 51 50 49 51 50 47 51 50 38 42 41 37 43 41 37 43 41 37 43 41 37 43 41 37 43 41 37 43 41 37 43 41 12 18 16 12 18 16 12 18 16 12 18 16 12 18 16 12 18 16 12 18 16 12 18 14 7 13 9 7 14 7 7 14 7 7 14 7 7 14 7 7 14 7 7 14 7 7 14 7 9 16 9 11 18 11 13 20 13 16 23 16 20 27 20 23 30 23 25 32 25 27 34 27 28 33 29 28 33 29 28 33 29 28 33 29 28 33 29 28 33 29 28 33 29 28 33 29 30 35 31 30 35 31 30 35 31 30 35 31 30 35 31 30 35 31 30 35 31 32 34 29 31 30 26 33 30 25 33 30 25 33 30 25 33 30 25 33 30 25 33 30 25 33 30 25 35 32 27 35 32 27 35 32 27 35 32 27 35 32 27 35 32 27 35 32 27 35 32 27 38 33 27 38 33 27 38 33 27 38 33 27 38 33 27 38 33 27 38 33 27 38 33 27 39 34 28 39 34 28 39 34 28 39 34 28 39 34 28 39 34 28 39 34 28 39 34 28
60 48 52 63 51 55 65 53 57 67 55 59 68 56 60 70 58 62 72 60 64 75 63 67 79 67 71 82 70 74 84 72 76 88 73 76 88 69 73 91 71 73 93 73 75 96 76 78 100 80 82 103 83 85 105 85 87 107 87 89 112 92 94 112 92 94 112 92 94 112 92 94 112 92 94 112 92 94 112 92 94 112 92 94 119 98 105 119 98 105 119 98 105 119 98 105 119 98 105 119 98 105 119 98 105 119 98 105 117 96 103 117 96 103 117 96 103 117 96 103 117 96 103 117 96 103 117 96 103 117 96 103 107 86 93 106 85 92 104 83 90 100 79 86 97 76 83 94 73 80 91 70 77 90 69 76 88 67 74 87 66 73 85 64 71 81 60 67 78 57 64 75 54 61 72 51 58 68 51 57 63 51 55 59 50 53 57 48 51 54 45 48 50 41 44 47 38 41 45 36 39 43 34 37 38 29 32 38 29 32 37 28 31 36 27 30 36 27 30 35 26 29 34 25 28 32 26 28 29 29 29 30 32 31 33 35 34 37 39 38 41 43 42 46 48 47 49 51 50 50 52 51 49 51 50 49 51 50 49 51 50 49 51 50 49 51 50 49 51 50 49 51 50 47 51 50 41 45 44 40 46 44 40 46 44 40 46 44 40 46 44 40 46 44 40 46 44 40 46 44 15 21 19 15 21 19 15 21 19 15 21 19 15 21 19 15 21 19 15 21 19 15 21 17 7 13 9 7 14 7 7 14 7 7 14 7 7 14 7 7 14 7 7 14 7 7 14 7 9 16 9 11 18 11 13 20 13 16 23 16 20 27 20 23 30 23 25 32 25 27 34 27 28 33 29 28 33 29 28 33 29 28 33 29 28 33 29 28 33 29 28 33 29 28 33 29 30 35 31 30 35 31 30 35 31 30 35 31 30 35 31 30 35 31 30 35 31 32 34 29 31 30 26 33 30 25 33 30 25 33 30 25 33 30 25 33 30 25 33 30 25 33 30 25 35 32 27 35 32 27 35 32 27 35 32 27 35 32 27 35 32 27 35 32 27 35 32 27 38 33 27 38 33 27 38 33 27 38 33 27 38 33 27 38 33 27 38 33 27 38 33 27 39 34 28 39 34 28 39 34 28 39 34 28 39 34 28 39 34 28 39 34 28 39 34 28
60 48 52 63 51 55 65 53 57 67 55 59 68 56 60 70 58 62 72 60 64 75 63 67 79 67 71 82 70 74 84 72 76 88 73 76 88 69 73 91 71 73 93 73 75 96 76 78 100 80 82 103 83 85 105 85 87 107 87 89 112 92 94 112 92 94 112 92 94 112 92 94 112 92 94 112 92 94 112 92 94 112 92 94 119 98 105 119 98 105 119 98 105 119 98 105 119 98 105 119 98 105 119 98 105 119 98 105 113 92 99 113 92 99 113 92 99 113 92 99 113 92 99 113 92 99 113 92 99 113 92 99 104 83 90 103 82 89 100 79 86 97 76 83 94 73 80 90 69 76 88 67 74 87 66 73 85 64 71 84 63 70 81 60 67 78 57 64 75 54 61 71 50 57 69 48 55 65 48 54 63 51 55 59 50 53 57 48 51 54 45 48 50 41 44 47 38 41 45 36 39 43 34 37 34 25 28 34 25 28 35 26 29 36 27 30 36 27 30 37 28 31 38 29 32 36 30 32 37 37 37 37 39 38 39 41 40 41 43 42 44 46 45 46 48 47 48 50 49 49 51 50 49 51 50 49 51 50 49 51 50 49 51 50 49 51 50 49 51 50 49 51 50 47 51 50 45 49 48 44 50 48 44 50 48 44 50 48 44 50 48 44 50 48 44 50 48 44 50 48 19 25 23 19 25 23 19 25 23 19 25 23 19 25 23 19 25 23 19 25 23 19 25 21 7 13 9 7 14 7 7 14 7 7 14 7 7 14 7 7 14 7 7 14 7 7 14 7 9 16 9 11 18 11 13 20 13 16 23 16 20 27 20 23 30 23 25 32 25 27 34 27 28 33 29 28 33 29 28 33 29 28 33 29 28 33 29 28 33 29 28 33 29 28 33 29 30 35 31 30 35 31 30 35 31 30 35 31 30 35 31 30 35 31 30 35 31 32 34 29 31 30 26 33 30 25 33 30 25 33 30 25 33 30 25 33 30 25 33 30 25 33 30 25 35 32 27 35 32 27 35 32 27 35 32 27 35 32 27 35 32 27 35 32 27 35 32 27 38 33 27 38 33 27 38 33 27 38 33 27 38 33 27 38 33 27 38 33 27 38 33 27 39 34 28 39 34 28 39 34 28 39 34 28 39 34 28 39 34 28 39 34 28 39 34 28
60 48 52 63 51 55 65 53 57 67 55 59 68 56 60 70 58 62 72 60 64 75 63 67 79 67 71 82 70 74 84 72 76 88 73 76 88 69 73 91 71 73 93 73 75 96 76 78 100 80 82 103 83 85 105 85 87 107 87 89 112 92 94 112 92 94 112 92 94 112 92 94 112 92 94 112 92 94 112 92 94 112 92 94 119 98 105 119 98 105 119 98 105 119 98 105 119 98 105 119 98 105 119 98 105 119 98 105 110 89 96 110 89 96 110 89 96 110 89 96 110 89 96 110 89 96 110 89 96 110 89 96 101 80 87 99 78 85 97 76 83 94 73 80 90 69 76 87 66 73 85 64 71 83 62 69 82 61 68 80 59 66 78 57 64 75 54 61 71 50 57 68 47 54 66 45 52 61 44 50 63 51 55 59 50 53 57 48 51 54 45 48 50 41 44 47 38 41 45 36 39 43 34 37 29 20 23 30 21 24 32 23 26 35 26 29 37 28 31 40 31 34 42 33 36 41 35 37 45 45 45 44 46 45 45 47 46 46 48 47 46 48 47 47 49 48 47 49 48 48 50 49 49 51 50 49 51 50 49 51 50 49 51 50 49 51 50 49 51 50 49 51 50 47 51 50 48 52 51 47 53 51 47 53 51 47 53 51 47 53 51 47 53 51 47 53 51 47 53 51 22 28 26 22 28 26 22 28 26 22 28 26 22 28 26 22 28 26 22 28 26 22 28 24 7 13 9 7 14 7 7 14 7 7 14 7 7 14 7 7 14 7 7 14 7 7 14 7 9 16 9 11 18 11 13 20 13 16 23 16 20 27 20 23 30 23 25 32 25 27 34 27 28 33 29 28 33 29 28 33 29 28 33 29 28 33 29 28 33 29 28 33 29 28 33 29 30 35 31 30 35 31 30 35 31 30 35 31 30 35 31 30 35 31 30 35 31 32 34 29 31 30 26 33 30 25 33 30 25 33 30 25 33 30 25 33 30 25 33 30 25 33 30 25 35 32 27 35 32 27 35 32 27 35 32 27 35 32 27 35 32 27 35 32 27 35 32 27 38 33 27 38 33 27 38 33 27 38 33 27 38 33 27 38 33 27 38 33 27 38 33 27 39 34 28 39 34 28 39 34 28 39 34 28 39 34 28 39 34 28 39 34 28 39 34 28
60 48 52 63 51 55 65 53 57 67 55 59 68 56 60 70 58 62 72 60 64 75 63 67 79 67 71 82 70 74 84 72 76 88 73 76 88 69 73 91 71 73 93 73 75 96 76 78 100 80 82 103 83 85 105 85 87 107 87 89 112 92 94 112 92 94 112 92 94 112 92 94 112 92 94 112 92 94 112 92 94 112 92 94 119 98 105 119 98 105 119 98 105 119 98 105 119 98 105 119 98 105 119 98 105 119 98 105 108 87 94 108 87 94 108 87 94 108 87 94 108 87 94 108 87 94 108 87 94 108 87 94 98 77 84 97 76 83 95 74 81 91 70 77 88 67 74 85 64 71 82 61 68 81 60 67 79 58 65 78 57 64 76 55 62 72 51 58 69 48 55 66 45 52 63 42 49 59 42 48 63 51 55 59 50 53 57 48 51 54 45 48 50 41 44 47 38 41 45 36 39 43 34 37 26 17 20 27 18 21 30 21 24 34 25 28 38 29 32 42 33 36 45 36 39 44 38 40 51 51 51 50 52 51 49 51 50 49 51 50 48 50 49 47 49 48 47 49 48 47 49 48 49 51 50 49 51 50 49 51 50 49 51 50 49 51 50 49 51 50 49 51 50 47 51 50 50 54 53 49 55 53 49 55 53 49 55 53 49 55 53 49 55 53 49 55 53 49 55 53 24 30 28 24 30 28 24 30 28 24 30 28 24 30 28 24 30 28 24 30 28 24 30 26 7 13 9 7 14 7 7 14 7 7 14 7 7 14 7 7 14 7 7 14 7 7 14 7 9 16 9 11 18 11 13 20 13 16 23 16 20 27 20 23 30 23 25 32 25 27 34 27 28 33 29 28 33 29 28 33 29 28 33 29 28 33 29 28 33 29 28 33 29 28 33 29 30 35 31 30 35 31 30 35 31 30 35 31 30 35 31 30 35 31 30 35 31 32 34 29 31 30 26 33 30 25 33 30 25 33 30 25 33 30 25 33 30 25 33 30 25 33 30 25 35 32 27 35 32 27 35 32 27 35 32 27 35 32 27 35 32 27 35 32 27 35 32 27 38 33 27 38 33 27 38 33 27 38 33 27 38 33 27 38 33 27 38 33 27 38 33 27 39 34 28 39 34 28 39 34 28 39 34 28 39 34 28 39 34 28 39 34 28 39 34 28
62 47 52 65 50 55 67 52 57 69 54 59 70 55 60 72 57 62 74 59 64 77 62 67 81 66 71 84 69 74 86 71 76 89 72 78 88 69 73 91 71 73 93 73 75 96 76 78 100 80 82 103 83 85 105 85 87 107 87 89 112 92 94 112 92 94 112 92 94 112 92 94 112 92 94 112 92 94 112 92 94 112 91 96 119 98 103 119 98 103 119 98 105 119 98 103 119 98 105 119 98 103 119 98 105 119 98 103 106 85 92 106 85 90 106 85 92 106 85 90 106 85 92 106 85 90 106 85 92 105 86 92 96 77 83 95 76 82 92 73 79 89 70 76 86 67 73 82 63 69 80 61 67 79 60 66 77 58 64 76 57 63 73 54 60 70 51 57 67 48 54 63 44 50 61 42 48 57 42 47 61 52 55 57 51 53 55 49 51 52 46 48 48 42 44 45 39 41 43 37 39 41 35 37 22 16 18 24 18 20 27 21 23 32 26 28 36 30 32 41 35 37 44 38 40 45 41 42 54 54 54 50 54 53 52 54 53 48 52 51 49 51 50 46 50 49 47 49 48 44 48 47 49 51 50 47 51 50 49 51 50 47 51 50 49 51 50 47 51 50 49 51 50 47 51 50 52 56 55 51 57 55 51 57 57 51 57 55 51 57 57 51 57 55 51 57 57 51 57 55 26 32 32 26 32 30 26 32 32 26 32 30 26 32 32 26 32 30 26 32 32 26 32 30 7 13 9 7 14 7 7 13 9 7 14 7 7 13 9 7 14 7 7 13 9 7 14 7 9 15 11 11 18 11 13 19 15 16 23 16 20 26 22 23 30 23 25 31 27 27 33 29 28 33 29 28 33 29 28 33 29 28 33 29 28 33 29 28 33 29 28 33 29 28 33 29 30 35 31 30 35 31 30 35 31 30 35 31 30 35 31 30 35 31 30 35 31 32 34 31 31 30 25 33 30 25 34 29 25 33 30 25 34 29 25 33 30 25 34 29 25 33 30 25 36 31 27 35 32 27 36 31 27 35 32 27 36 31 27 35 32 27 36 31 27 36 31 25 38 33 27 38 33 27 38 33 27 38 33 27 38 33 27 38 33 27 38 33 27 38 33 27 39 34 28 39 34 28 39 34 28 39 34 28 39 34 28 39 34 28 39 34 28 39 34 28
72 53 59 75 56 62 77 58 64 79 60 66 80 61 67 82 63 69 84 65 71 87 68 74 91 72 78 94 75 81 96 77 83 98 79 85 90 69 74 91 70 75 93 72 77 97 76 81 100 79 84 103 82 87 106 85 90 107 86 91 108 87 92 108 87 92 108 87 92 108 87 92 108 87 92 108 87 92 108 87 92 108 87 92 115 96 100 115 96 98 115 96 100 115 96 98 115 96 100 115 96 98 115 96 100 115 96 98 116 97 101 115 96 98 113 94 98 109 90 92 106 87 91 103 84 86 100 81 85 97 81 84 94 79 84 91 79 83 89 77 81 85 73 77 82 70 74 79 67 71 76 64 68 75 63 67 60 48 52 60 48 52 60 48 52 60 48 52 60 48 52 60 48 52 60 48 52 59 48 52 39 34 38 36 36 38 36 36 38 36 36 38 36 36 38 36 36 38 36 36 38 36 36 38 50 50 52 50 50 52 50 50 52 50 50 52 50 50 52 50 50 52 50 50 52 50 50 52 54 58 59 53 59 59 54 58 59 53 59 59 54 58 59 53 59 59 54 58 59 53 59 59 54 58 59 53 59 59 54 58 59 53 59 59 54 58 59 53 59 59 54 58 59 54 58 59 58 62 63 58 62 63 58 62 65 58 62 63 58 62 65 58 62 63 58 62 65 58 62 63 19 23 26 20 24 25 20 24 27 22 26 27 23 27 30 24 28 29 25 29 32 26 30 31 28 34 32 26 32 28 24 30 28 21 27 23 17 23 21 14 20 16 12 18 16 10 16 12 14 20 18 14 20 16 14 20 18 14 20 16 14 20 18 14 20 16 14 20 18 14 20 18 28 34 32 28 34 32 28 34 32 28 34 32 28 34 32 28 34 32 28 34 32 28 34 32 19 25 23 19 25 23 19 25 23 19 25 23 19 25 23 19 25 23 19 25 23 22 24 21 32 29 24 33 28 22 35 28 22 33 28 22 35 28 22 33 28 22 35 28 22 33 28 22 39 32 26 37 32 26 39 32 26 37 32 26 39 32 26 37 32 26 39 32 26 39 32 26 39 32 26 39 32 24 39 32 24 39 32 24 39 32 24 39 32 24 39 32 24 39 32 24 40 33 25 40 33 25 40 33 25 40 33 25 40 33 25 40 33 25 40 33 25 40 33 25
73 52 59 76 55 62 78 57 64 80 59 66 81 60 67 83 62 69 85 64 71 88 67 74 92 71 78 95 74 81 97 76 83 99 78 85 91 70 75 92 71 76 95 74 79 98 77 82 101 80 85 105 84 89 107 86 91 108 87 92 110 89 94 110 89 94 110 89 94 110 89 94 110 89 94 110 89 94 110 89 94 110 89 94 115 96 98 115 96 98 115 96 98 115 96 98 115 96 98 115 96 98 115 96 98 115 96 98 115 96 98 114 95 97 111 92 94 108 89 91 105 86 88 101 82 84 99 80 82 96 80 81 91 79 83 89 78 82 86 75 79 83 72 76 80 69 73 76 65 69 74 63 67 73 62 66 59 48 52 59 48 52 59 48 52 59 48 52 59 48 52 59 48 52 59 48 52 56 50 52 39 37 40 37 38 40 37 38 40 37 38 40 37 38 40 37 38 40 37 38 40 37 38 40 49 50 52 49 50 52 49 50 52 49 50 52 49 50 52 49 50 52 49 50 52 47 51 52 54 58 59 53 59 59 53 59 59 53 59 59 53 59 59 53 59 59 53 59 59 53 59 59 55 61 61 55 61 61 55 61 61 55 61 61 55 61 61 55 61 61 55 61 61 55 61 61 58 62 65 58 62 65 58 62 65 58 62 65 58 62 65 58 62 65 58 62 65 58 62 65 22 26 29 22 26 29 23 27 30 23 27 30 24 28 31 25 29 32 25 29 32 25 29 30 28 34 34 26 32 30 24 30 28 21 27 25 17 23 21 14 20 18 12 18 16 10 16 14 14 20 18 14 20 18 14 20 18 14 20 18 14 20 18 14 20 18 14 20 18 14 20 18 26 32 30 26 32 30 26 32 30 26 32 30 26 32 30 26 32 30 26 32 30 26 32 30 19 25 23 19 25 23 19 25 23 19 25 23 19 25 23 19 25 23 19 25 23 22 24 21 32 29 24 35 28 22 35 28 22 35 28 22 35 28 22 35 28 22 35 28 22 35 28 22 39 32 26 39 32 26 39 32 26 39 32 26 39 32 26 39 32 26 39 32 26 39 32 26 39 32 24 39 32 24 39 32 24 39 32 24 39 32 24 39 32 24 39 32 24 39 32 24 40 33 25 40 33 25 40 33 25 40 33 25 40 33 25 40 33 25 40 33 25 40 33 25
73 52 59 76 55 62 78 57 64 80 59 66 81 60 67 83 62 69 85 64 71 88 67 74 92 71 78 95 74 81 97 76 83 99 78 85 93 72 77 95 74 79 97 76 81 100 79 84 104 83 88 107 86 91 109 88 93 111 90 95 112 91 96 112 91 96 112 91 96 112 91 96 112 91 96 112 91 96 112 91 96 112 91 96 115 96 98 115 96 98 115 96 98 115 96 98 115 96 98 115 96 98 115 96 98 115 96 98 113 94 96 111 92 94 109 90 92 106 87 89 102 83 85 99 80 82 97 78 80 93 77 78 89 77 81 86 75 79 84 73 77 81 70 74 77 66 70 74 63 67 72 61 65 70 59 63 59 48 52 59 48 52 59 48 52 59 48 52 59 48 52 59 48 52 59 48 52 56 50 52 41 39 42 39 40 42 39 40 42 39 40 42 39 40 42 39 40 42 39 40 42 39 40 42 49 50 52 49 50 52 49 50 52 49 50 52 49 50 52 49 50 52 49 50 52 47 51 52 54 58 59 53 59 59 53 59 59 53 59 59 53 59 59 53 59 59 53 59 59 53 59 59 57 63 63 57 63 63 57 63 63 57 63 63 57 63 63 57 63 63 57 63 63 57 63 63 58 62 65 58 62 65 58 62 65 58 62 65 58 62 65 58 62 65 58 62 65 58 62 65 28 32 35 28 32 35 27 31 34 26 30 33 26 30 33 25 29 32 25 29 32 24 28 29 28 34 34 26 32 30 24 30 28 21 27 25 17 23 21 14 20 18 12 18 16 10 16 14 14 20 18 14 20 18 14 20 18 14 20 18 14 20 18 14 20 18 14 20 18 14 20 18 24 30 28 24 30 28 24 30 28 24 30 28 24 30 28 24 30 28 24 30 28 24 30 28 19 25 23 19 25 23 19 25 23 19 25 23 19 25 23 19 25 23 19 25 23 22 24 21 32 29 24 35 28 22 35 28 22 35 28 22 35 28 22 35 28 22 35 28 22 35 28 22 39 32 26 39 32 26 39 32 26 39 32 26 39 32 26 39 32 26 39 32 26 39 32 26 39 32 24 39 32 24 39 32 24 39 32 24 39 32 24 39 32 24 39 32 24 39 32 24 40 33 25 40 33 25 40 33 25 40 33 25 40 33 25 40 33 25 40 33 25 40 33 25
