P3
207 145
255
83 69 68 80 66 65 76 62 61 74 60 59 74 58 58 63 40 46 65 40 46 65 40 46 65 40 46 65 40 46 65 40 46 65 40 46 65 40 46 79 54 60 79 54 60 79 54 60 79 54 60 79 54 60 79 54 60 79 54 60 77 54 60 68 51 57 65 50 55 63 48 53 60 45 50 56 41 46 53 38 43 51 36 41 49 34 39 56 41 46 56 41 46 56 41 46 56 41 46 56 41 46 56 41 46 56 41 46 53 42 46 64 57 64 63 61 66 65 63 68 68 66 71 72 70 75 75 73 78 77 75 80 79 77 82 57 55 60 54 52 57 49 47 52 43 41 46 36 34 39 30 28 33 25 23 28 22 20 25 35 32 41 35 32 41 35 32 41 35 32 41 35 32 41 35 32 41 35 32 41 35 32 41 43 40 49 43 40 49 43 40 49 43 40 49 43 40 49 43 40 49 43 40 49 46 39 47 72 55 63 75 54 61 75 54 61 75 54 61 75 54 61 75 54 61 75 54 61 75 54 61 59 38 45 61 40 47 63 42 49 66 45 52 70 49 56 73 52 59 75 54 61 74 57 63 86 73 82 84 74 82 84 74 82 84 74 82 84 74 82 84 74 82 84 74 82 84 74 82 80 70 78 78 68 76 73 63 71 66 56 64 60 50 58 53 43 51 48 38 46 44 37 44 52 50 55 51 50 55 54 49 55 54 49 55 57 47 55 58 47 55 59 46 55 62 45 55 70 48 60 73 47 60 74 46 60 76 45 60 78 44 60 78 44 60 81 42 60 77 45 58 63 40 46 61 45 46 64 48 49 69 53 54 73 57 58 78 62 63 81 65 66 83 67 68 103 87 88 104 88 89 106 90 91 110 94 95 113 97 98 116 100 101 119 103 104 116 106 107 98 98 98 94 100 100 94 100 100 94 100 100 94 100 100 94 100 100 94 100 100 94 100 100 101 107 107 101 107 107 101 107 107 101 107 107 101 107 107 101 107 107 101 107 107 104 106 105 109 105 102 112 104 101 112 104 101 112 104 101 112 104 101 112 104 101 112 104 101 112 104 101 97 89 86 98 90 87 102 94 91 106 98 95 111 103 100 115 107 104 119 111 108 123 112 110 121 103 101 123 102 101 123 102 101 123 102 101 123 102 101 123 102 101 123 102 101 123 102 101 102 81 80 102 81 80 102 81 80 102 81 80 102 81 80 102 81 80 102 81 80 104 80 80 102 72 72 103 71 72 103 71 72 103 71 72 103 71 72 103 71 72 103 71 72 103 71 72 114 82 83 114 82 83 114 82 83 114 82 83 114 82 83 114 82 83 114 82 83 117 81 85 103 53 64 104 52 65 104 52 65 101 53 65 101 53 65 98 55 65 97 55 65 94 57 65 85 52 59 76 47 52
73 59 58 69 55 54 66 52 51 64 50 49 63 47 47 66 43 49 68 43 49 68 43 49 68 43 49 68 43 49 68 43 49 68 43 49 68 43 49 75 50 56 75 50 56 75 50 56 75 50 56 75 50 56 75 50 56 75 50 56 73 50 56 53 36 42 52 37 42 52 37 42 52 37 42 52 37 42 52 37 42 52 37 42 52 37 42 48 33 38 48 33 38 48 33 38 48 33 38 48 33 38 48 33 38 48 33 38 45 34 38 41 34 41 38 36 41 38 36 41 38 36 41 38 36 41 38 36 41 38 36 41 38 36 41 34 32 37 34 32 37 34 32 37 34 32 37 34 32 37 34 32 37 34 32 37 34 32 37 30 27 36 30 27 36 30 27 36 30 27 36 30 27 36 30 27 36 30 27 36 30 27 36 43 40 49 43 40 49 43 40 49 43 40 49 43 40 49 43 40 49 43 40 49 46 39 47 71 54 62 74 53 60 73 52 59 72 51 58 70 49 56 69 48 55 68 47 54 68 47 54 65 44 51 67 46 53 70 49 56 75 54 61 79 58 65 84 63 70 87 66 73 86 69 75 88 75 84 86 76 84 86 76 84 86 76 84 86 76 84 86 76 84 86 76 84 86 76 84 52 42 50 52 42 50 52 42 50 52 42 50 52 42 50 52 42 50 52 42 50 50 43 50 47 45 50 46 45 50 49 44 50 49 44 50 52 42 50 53 42 50 54 41 50 57 40 50 68 46 58 70 44 57 70 42 56 71 40 55 72 38 54 70 36 52 73 34 52 68 36 49 76 57 61 74 62 62 80 68 68 87 75 75 95 83 83 103 91 91 109 97 97 112 100 100 104 92 92 104 92 92 104 92 92 104 92 92 104 92 92 104 92 92 104 92 92 102 93 94 95 97 96 92 98 98 92 98 98 92 98 98 92 98 98 92 98 98 92 98 98 92 98 98 99 105 105 99 105 105 99 105 105 99 105 105 99 105 105 99 105 105 99 105 105 102 104 103 108 104 101 111 103 100 111 103 100 111 103 100 111 103 100 111 103 100 111 103 100 111 103 100 96 88 85 96 88 85 96 88 85 96 88 85 96 88 85 96 88 85 96 88 85 98 87 85 127 109 107 127 106 105 123 102 101 119 98 97 114 93 92 110 89 88 106 85 84 105 84 83 104 83 82 103 82 81 100 79 78 97 76 75 94 73 72 90 69 68 88 67 66 89 65 65 94 64 64 97 65 66 99 67 68 102 70 71 106 74 75 109 77 78 111 79 80 113 81 82 121 89 90 119 87 88 117 85 86 114 82 83 110 78 79 107 75 76 105 73 74 106 70 74 113 63 74 112 60 73 110 58 71 104 56 68 100 52 64 94 51 61 91 49 59 86 49 57 63 30 37 61 32 37
73 59 58 69 55 54 66 52 51 64 50 49 63 47 47 66 43 49 68 43 49 68 43 49 68 43 49 68 43 49 68 43 49 68 43 49 68 43 49 75 50 56 75 50 56 75 50 56 75 50 56 75 50 56 75 50 56 75 50 56 73 50 56 53 36 42 52 37 42 52 37 42 52 37 42 52 37 42 52 37 42 52 37 42 52 37 42 48 33 38 48 33 38 48 33 38 48 33 38 48 33 38 48 33 38 48 33 38 45 34 38 41 34 41 38 36 41 38 36 41 38 36 41 38 36 41 38 36 41 38 36 41 38 36 41 34 32 37 34 32 37 34 32 37 34 32 37 34 32 37 34 32 37 34 32 37 34 32 37 32 29 38 32 29 38 32 29 38 32 29 38 32 29 38 32 29 38 32 29 38 32 29 38 43 40 49 43 40 49 43 40 49 43 40 49 43 40 49 43 40 49 43 40 49 46 39 47 70 53 61 72 51 58 72 51 58 71 50 57 71 50 57 70 49 56 70 49 56 69 48 55 67 46 53 68 47 54 71 50 57 75 54 61 79 58 65 83 62 69 86 65 72 84 67 73 80 67 76 78 68 76 78 68 76 78 68 76 78 68 76 78 68 76 78 68 76 78 68 76 52 42 50 52 42 50 52 42 50 52 42 50 52 42 50 52 42 50 52 42 50 50 43 50 47 45 50 46 45 50 49 44 50 49 44 50 52 42 50 53 42 50 54 41 50 57 40 50 67 45 57 70 44 57 71 43 57 72 41 56 73 39 55 73 39 55 75 36 54 71 39 52 77 61 64 75 67 65 80 72 70 87 79 77 94 86 84 101 93 91 107 99 97 110 102 100 102 94 92 102 94 92 102 94 92 102 94 92 102 94 92 102 94 92 102 94 92 99 95 94 95 97 96 92 98 98 92 98 98 92 98 98 92 98 98 92 98 98 92 98 98 92 98 98 99 105 105 99 105 105 99 105 105 99 105 105 99 105 105 99 105 105 99 105 105 102 104 103 108 104 101 111 103 100 111 103 100 111 103 100 111 103 100 111 103 100 111 103 100 111 103 100 94 86 83 94 86 83 94 86 83 94 86 83 94 86 83 94 86 83 94 86 83 96 85 83 124 106 104 124 103 102 121 100 99 117 96 95 113 92 91 110 89 88 107 86 85 105 84 83 105 84 83 104 83 82 102 81 80 98 77 76 95 74 73 92 71 70 89 68 67 90 66 66 94 64 64 97 65 66 99 67 68 102 70 71 106 74 75 109 77 78 111 79 80 113 81 82 121 89 90 119 87 88 117 85 86 114 82 83 110 78 79 107 75 76 105 73 74 106 70 74 113 63 74 112 60 73 110 58 71 104 56 68 100 52 64 94 51 61 91 49 59 86 49 57 63 30 37 61 32 37
73 59 58 69 55 54 66 52 51 64 50 49 63 47 47 66 43 49 68 43 49 68 43 49 68 43 49 68 43 49 68 43 49 68 43 49 68 43 49 75 50 56 75 50 56 75 50 56 75 50 56 75 50 56 75 50 56 75 50 56 73 50 56 53 36 42 52 37 42 52 37 42 52 37 42 52 37 42 52 37 42 52 37 42 52 37 42 48 33 38 48 33 38 48 33 38 48 33 38 48 33 38 48 33 38 48 33 38 45 34 38 41 34 41 38 36 41 38 36 41 38 36 41 38 36 41 38 36 41 38 36 41 38 36 41 34 32 37 34 32 37 34 32 37 34 32 37 34 32 37 34 32 37 34 32 37 34 32 37 34 31 40 34 31 40 34 31 40 34 31 40 34 31 40 34 31 40 34 31 40 34 31 40 43 40 49 43 40 49 43 40 49 43 40 49 43 40 49 43 40 49 43 40 49 46 39 47 66 49 57 69 48 55 70 49 56 71 50 57 71 50 57 72 51 58 73 52 59 73 52 59 70 49 56 71 50 57 73 52 59 76 55 62 78 57 64 81 60 67 83 62 69 81 64 70 67 54 63 65 55 63 65 55 63 65 55 63 65 55 63 65 55 63 65 55 63 65 55 63 52 42 50 52 42 50 52 42 50 52 42 50 52 42 50 52 42 50 52 42 50 50 43 50 47 45 50 46 45 50 49 44 50 49 44 50 52 42 50 53 42 50 54 41 50 57 40 50 66 44 56 70 44 57 71 43 57 74 43 58 76 42 58 77 43 59 81 42 60 76 46 58 82 67 70 78 73 70 82 77 74 88 83 80 94 89 86 100 95 92 104 99 96 107 102 99 100 95 92 100 95 92 100 95 92 100 95 92 100 95 92 100 95 92 100 95 92 97 96 94 93 97 96 92 98 98 92 98 98 92 98 98 92 98 98 92 98 98 92 98 98 92 98 98 99 105 105 99 105 105 99 105 105 99 105 105 99 105 105 99 105 105 99 105 105 102 104 103 108 104 101 111 103 100 111 103 100 111 103 100 111 103 100 111 103 100 111 103 100 111 103 100 92 84 81 92 84 81 92 84 81 92 84 81 92 84 81 92 84 81 92 84 81 94 83 81 118 100 98 119 98 97 117 96 95 114 93 92 112 91 90 109 88 87 107 86 85 106 85 84 108 87 86 106 85 84 104 83 82 101 80 79 97 76 75 94 73 72 92 71 70 92 68 68 94 64 64 97 65 66 99 67 68 102 70 71 106 74 75 109 77 78 111 79 80 113 81 82 121 89 90 119 87 88 117 85 86 114 82 83 110 78 79 107 75 76 105 73 74 106 70 74 113 63 74 112 60 73 110 58 71 104 56 68 100 52 64 94 51 61 91 49 59 86 49 57 63 30 37 61 32 37
73 59 58 69 55 54 66 52 51 64 50 49 63 47 47 66 43 49 68 43 49 68 43 49 68 43 49 68 43 49 68 43 49 68 43 49 68 43 49 75 50 56 75 50 56 75 50 56 75 50 56 75 50 56 75 50 56 75 50 56 73 50 56 53 36 42 52 37 42 52 37 42 52 37 42 52 37 42 52 37 42 52 37 42 52 37 42 48 33 38 48 33 38 48 33 38 48 33 38 48 33 38 48 33 38 48 33 38 45 34 38 41 34 41 38 36 41 38 36 41 38 36 41 38 36 41 38 36 41 38 36 41 38 36 41 34 32 37 34 32 37 34 32 37 34 32 37 34 32 37 34 32 37 34 32 37 34 32 37 37 34 43 37 34 43 37 34 43 37 34 43 37 34 43 37 34 43 37 34 43 37 34 43 43 40 49 43 40 49 43 40 49 43 40 49 43 40 49 43 40 49 43 40 49 46 39 47 62 45 53 66 45 52 67 46 53 70 49 56 72 51 58 75 54 61 76 55 62 77 56 63 75 54 61 75 54 61 76 55 62 77 56 63 77 56 63 78 57 64 79 58 65 76 59 65 55 42 51 53 43 51 53 43 51 53 43 51 53 43 51 53 43 51 53 43 51 53 43 51 52 42 50 52 42 50 52 42 50 52 42 50 52 42 50 52 42 50 52 42 50 50 43 50 47 45 50 46 45 50 49 44 50 49 44 50 52 42 50 53 42 50 54 41 50 57 40 50 65 43 55 69 43 56 72 44 58 76 45 60 81 47 63 83 49 65 88 49 67 84 54 66 87 75 77 82 81 77 87 83 80 89 88 84 95 91 88 98 97 93 103 99 96 102 101 97 99 95 92 97 96 92 99 95 92 97 96 92 99 95 92 97 96 92 99 95 92 96 96 94 93 97 96 92 98 98 92 98 98 92 98 98 92 98 98 92 98 98 92 98 98 92 98 98 99 105 105 99 105 105 99 105 105 99 105 105 99 105 105 99 105 105 99 105 105 102 104 103 108 104 101 111 103 100 111 103 100 111 103 100 111 103 100 111 103 100 111 103 100 111 103 100 89 81 78 89 81 78 89 81 78 89 81 78 89 81 78 89 81 78 89 81 78 91 80 78 110 92 90 112 91 90 111 90 89 110 89 88 109 88 87 108 87 86 108 87 86 107 86 85 111 90 89 110 89 88 107 86 85 104 83 82 101 80 79 97 76 75 95 74 73 96 72 72 94 64 64 97 65 66 99 67 68 102 70 71 106 74 75 109 77 78 111 79 80 113 81 82 121 89 90 119 87 88 117 85 86 114 82 83 110 78 79 107 75 76 105 73 74 106 70 74 113 63 74 112 60 73 110 58 71 104 56 68 100 52 64 94 51 61 91 49 59 86 49 57 63 30 37 61 32 37
73 59 58 69 55 54 66 52 51 64 50 49 63 47 47 66 43 49 68 43 49 68 43 49 68 43 49 68 43 49 68 43 49 68 43 49 68 43 49 75 50 56 75 50 56 75 50 56 75 50 56 75 50 56 75 50 56 75 50 56 73 50 56 53 36 42 52 37 42 52 37 42 52 37 42 52 37 42 52 37 42 52 37 42 52 37 42 48 33 38 48 33 38 48 33 38 48 33 38 48 33 38 48 33 38 48 33 38 45 34 38 41 34 41 38 36 41 38 36 41 38 36 41 38 36 41 38 36 41 38 36 41 38 36 41 34 32 37 34 32 37 34 32 37 34 32 37 34 32 37 34 32 37 34 32 37 34 32 37 41 38 47 41 38 47 41 38 47 41 38 47 41 38 47 41 38 47 41 38 47 41 38 47 43 40 49 43 40 49 43 40 49 43 40 49 43 40 49 43 40 49 43 40 49 46 39 47 57 40 48 62 41 48 65 44 51 69 48 55 73 52 59 77 56 63 80 59 66 82 61 68 79 58 65 79 58 65 78 57 64 77 56 63 77 56 63 76 55 62 75 54 61 72 55 61 48 35 44 46 36 44 46 36 44 46 36 44 46 36 44 46 36 44 46 36 44 46 36 44 52 42 50 52 42 50 52 42 50 52 42 50 52 42 50 52 42 50 52 42 50 50 43 50 47 45 50 46 45 50 49 44 50 49 44 50 52 42 50 53 42 50 54 41 50 57 40 50 64 42 54 68 42 55 72 44 58 79 48 63 85 51 67 89 55 71 95 56 74 92 62 74 94 84 85 88 89 84 91 90 86 92 93 88 96 95 91 97 98 93 100 99 95 100 101 96 97 96 92 96 97 92 97 96 92 96 97 92 97 96 92 96 97 92 97 96 92 96 96 94 93 97 96 92 98 98 92 98 98 92 98 98 92 98 98 92 98 98 92 98 98 92 98 98 99 105 105 99 105 105 99 105 105 99 105 105 99 105 105 99 105 105 99 105 105 102 104 103 108 104 101 111 103 100 111 103 100 111 103 100 111 103 100 111 103 100 111 103 100 111 103 100 85 77 74 85 77 74 85 77 74 85 77 74 85 77 74 85 77 74 85 77 74 87 76 74 102 84 82 104 83 82 105 84 83 106 85 84 107 86 85 108 87 86 108 87 86 109 88 87 114 93 92 113 92 91 111 90 89 107 86 85 104 83 82 101 80 79 98 77 76 99 75 75 94 64 64 97 65 66 99 67 68 102 70 71 106 74 75 109 77 78 111 79 80 113 81 82 121 89 90 119 87 88 117 85 86 114 82 83 110 78 79 107 75 76 105 73 74 106 70 74 113 63 74 112 60 73 110 58 71 104 56 68 100 52 64 94 51 61 91 49 59 86 49 57 63 30 37 61 32 37
73 59 58 69 55 54 66 52 51 64 50 49 63 47 47 66 43 49 68 43 49 68 43 49 68 43 49 68 43 49 68 43 49 68 43 49 68 43 49 75 50 56 75 50 56 75 50 56 75 50 56 75 50 56 75 50 56 75 50 56 73 50 56 53 36 42 52 37 42 52 37 42 52 37 42 52 37 42 52 37 42 52 37 42 52 37 42 48 33 38 48 33 38 48 33 38 48 33 38 48 33 38 48 33 38 48 33 38 45 34 38 41 34 41 38 36 41 38 36 41 38 36 41 38 36 41 38 36 41 38 36 41 38 36 41 34 32 37 34 32 37 34 32 37 34 32 37 34 32 37 34 32 37 34 32 37 34 32 37 44 41 50 44 41 50 44 41 50 44 41 50 44 41 50 44 41 50 44 41 50 44 41 50 43 40 49 43 40 49 43 40 49 43 40 49 43 40 49 43 40 49 43 40 49 46 39 47 53 36 44 58 37 44 62 41 48 68 47 54 74 53 60 80 59 66 84 63 70 86 65 72 84 63 70 83 62 69 81 60 67 78 57 64 76 55 62 73 52 59 71 50 57 67 50 56 47 34 43 45 35 43 45 35 43 45 35 43 45 35 43 45 35 43 45 35 43 45 35 43 52 42 50 52 42 50 52 42 50 52 42 50 52 42 50 52 42 50 52 42 50 50 43 50 47 45 50 46 45 50 49 44 50 49 44 50 52 42 50 53 42 50 54 41 50 57 40 50 62 40 52 68 42 55 73 45 59 81 50 65 89 55 71 95 61 77 102 63 81 97 69 81 101 92 93 94 96 91 96 97 92 96 98 93 97 98 93 97 99 94 98 99 94 98 100 95 96 97 92 95 97 92 96 97 92 95 97 92 96 97 92 95 97 92 96 97 92 95 97 94 93 97 96 92 98 98 92 98 98 92 98 98 92 98 98 92 98 98 92 98 98 92 98 98 99 105 105 99 105 105 99 105 105 99 105 105 99 105 105 99 105 105 99 105 105 102 104 103 108 104 101 111 103 100 111 103 100 111 103 100 111 103 100 111 103 100 111 103 100 111 103 100 82 74 71 82 74 71 82 74 71 82 74 71 82 74 71 82 74 71 82 74 71 84 73 71 94 76 74 97 76 75 99 78 77 102 81 80 104 83 82 107 86 85 109 88 87 110 89 88 118 97 96 116 95 94 114 93 92 111 90 89 107 86 85 104 83 82 102 81 80 102 78 78 94 64 64 97 65 66 99 67 68 102 70 71 106 74 75 109 77 78 111 79 80 113 81 82 121 89 90 119 87 88 117 85 86 114 82 83 110 78 79 107 75 76 105 73 74 106 70 74 113 63 74 112 60 73 110 58 71 104 56 68 100 52 64 94 51 61 91 49 59 86 49 57 63 30 37 61 32 37
73 59 58 69 55 54 66 52 51 64 50 49 63 47 47 66 43 49 68 43 49 68 43 49 68 43 49 68 43 49 68 43 49 68 43 49 68 43 49 75 50 56 75 50 56 75 50 56 75 50 56 75 50 56 75 50 56 75 50 56 73 50 56 53 36 42 52 37 42 52 37 42 52 37 42 52 37 42 52 37 42 52 37 42 52 37 42 48 33 38 48 33 38 48 33 38 48 33 38 48 33 38 48 33 38 48 33 38 45 34 38 41 34 41 38 36 41 38 36 41 38 36 41 38 36 41 38 36 41 38 36 41 38 36 41 34 32 37 34 32 37 34 32 37 34 32 37 34 32 37 34 32 37 34 32 37 34 32 37 46 43 52 46 43 52 46 43 52 46 43 52 46 43 52 46 43 52 46 43 52 46 43 52 43 40 49 43 40 49 43 40 49 43 40 49 43 40 49 43 40 49 43 40 49 46 39 47 49 32 40 55 34 41 60 39 46 67 46 53 75 54 61 82 61 68 87 66 73 90 69 76 87 66 73 86 65 72 83 62 69 79 58 65 75 54 61 71 50 57 68 47 54 64 47 53 50 37 46 48 38 46 48 38 46 48 38 46 48 38 46 48 38 46 48 38 46 48 38 46 52 42 50 52 42 50 52 42 50 52 42 50 52 42 50 52 42 50 52 42 50 50 43 50 47 45 50 46 45 50 49 44 50 49 44 50 52 42 50 53 42 50 54 41 50 57 40 50 61 39 51 67 41 54 74 46 60 83 52 67 92 58 74 99 65 81 107 68 86 103 75 87 105 99 99 98 103 97 99 101 96 97 102 96 98 100 95 95 100 94 97 99 94 95 100 94 95 97 92 93 98 92 95 97 92 93 98 92 95 97 92 93 98 92 95 97 92 93 98 94 92 98 96 92 98 98 92 98 98 92 98 98 92 98 98 92 98 98 92 98 98 92 98 98 99 105 105 99 105 105 99 105 105 99 105 105 99 105 105 99 105 105 99 105 105 102 104 103 108 104 101 111 103 100 111 103 100 111 103 100 111 103 100 111 103 100 111 103 100 111 103 100 80 72 69 80 72 69 80 72 69 80 72 69 80 72 69 80 72 69 80 72 69 82 71 69 88 70 68 92 71 70 95 74 73 99 78 77 103 82 81 106 85 84 109 88 87 111 90 89 120 99 98 119 98 97 116 95 94 113 92 91 110 89 88 106 85 84 104 83 82 105 81 81 94 64 64 97 65 66 99 67 68 102 70 71 106 74 75 109 77 78 111 79 80 113 81 82 121 89 90 119 87 88 117 85 86 114 82 83 110 78 79 107 75 76 105 73 74 106 70 74 113 63 74 112 60 73 110 58 71 104 56 68 100 52 64 94 51 61 91 49 59 86 49 57 63 30 37 61 32 37
71 60 58 69 55 55 64 53 51 64 50 50 63 47 48 66 43 49 68 43 49 68 43 49 68 43 49 68 43 49 68 43 49 68 43 49 68 43 49 75 50 56 75 50 56 75 50 56 75 50 56 75 50 56 75 50 56 75 50 56 73 50 56 53 36 42 52 37 42 52 37 42 52 37 42 52 37 42 52 37 42 52 37 42 52 37 42 48 33 38 48 33 38 48 33 38 48 33 38 48 33 38 48 33 38 48 33 38 46 33 40 41 34 41 38 36 41 40 35 41 38 36 41 40 35 41 38 36 41 40 35 41 38 36 41 36 31 37 34 32 37 36 31 37 34 32 37 36 31 37 34 32 37 36 31 37 34 32 37 48 45 52 48 45 52 48 45 52 48 45 52 48 45 52 48 45 52 48 45 52 48 45 52 43 40 47 43 40 47 43 40 47 43 40 47 43 40 47 43 40 47 43 40 47 46 39 46 46 31 36 52 33 37 58 39 45 66 47 51 74 55 61 82 63 67 88 69 75 91 72 76 88 69 75 86 67 71 83 64 70 78 59 63 74 55 61 69 50 54 66 47 53 62 45 51 53 40 47 51 42 47 52 41 47 51 42 47 52 41 47 51 42 47 52 41 47 51 42 47 53 42 48 52 43 48 53 42 48 52 43 48 53 42 48 52 43 48 53 42 48 52 43 48 49 44 48 47 45 48 49 44 48 50 44 48 52 43 48 53 42 48 54 41 48 56 41 48 60 40 49 64 43 52 71 48 58 81 55 66 90 62 74 97 69 81 105 75 87 103 80 88 108 102 102 102 104 99 103 103 101 100 102 97 100 100 98 98 100 95 98 98 96 96 98 93 96 96 94 95 97 92 96 96 94 95 97 92 96 96 94 95 97 92 96 96 94 95 97 94 93 97 96 93 97 96 93 97 98 93 97 96 93 97 98 93 97 96 93 97 98 93 97 96 100 104 105 100 104 103 100 104 105 100 104 103 100 104 105 100 104 103 100 104 105 103 103 101 109 104 101 112 103 98 112 102 100 112 103 98 112 102 100 112 103 98 112 102 100 112 103 98 79 69 67 79 70 65 79 69 67 79 70 65 79 69 67 79 70 65 79 69 67 82 68 65 86 66 65 89 68 67 95 71 71 97 76 75 104 80 80 106 85 84 112 88 88 111 90 89 123 99 99 120 99 98 120 96 96 114 93 92 113 89 89 108 87 86 107 83 83 106 82 82 91 65 64 95 67 66 97 69 68 101 71 71 105 75 75 108 78 78 111 79 80 113 81 82 123 89 90 121 87 88 119 85 86 117 81 83 113 77 79 110 74 76 108 72 74 109 68 74 113 63 75 112 60 73 109 59 71 104 56 68 99 53 64 93 51 61 90 50 59 85 50 57 62 31 37 59 32 37
76 66 65 73 61 63 69 59 58 68 56 58 68 53 56 71 50 55 74 48 57 74 48 57 74 48 57 74 48 57 74 48 57 74 48 57 74 48 57 69 43 52 69 43 52 69 43 52 69 43 52 69 43 52 69 43 52 69 43 52 67 44 52 50 33 41 49 34 41 49 34 41 49 34 41 49 34 41 49 34 41 49 34 41 49 34 41 39 24 31 39 24 31 39 24 31 39 24 31 39 24 31 39 24 31 39 24 31 37 24 31 46 36 44 43 38 44 44 37 44 43 38 44 44 37 44 43 38 44 44 37 44 43 38 44 50 43 50 49 44 50 50 43 50 49 44 50 50 43 50 49 44 50 50 43 50 49 44 50 38 36 41 38 37 42 40 39 44 42 41 46 44 43 48 46 45 50 47 46 51 48 47 52 52 51 56 51 50 55 50 49 54 48 47 52 46 45 50 44 43 48 42 41 46 44 39 43 51 41 42 54 42 42 59 47 49 66 54 54 72 60 62 79 67 67 84 72 74 86 74 74 100 88 90 98 86 86 96 84 86 93 81 81 89 77 79 86 74 74 84 72 74 82 70 72 59 47 49 58 47 51 59 47 51 58 47 51 59 47 51 58 47 51 59 47 51 58 47 51 62 50 54 59 48 52 56 44 48 51 40 44 47 35 39 42 31 35 39 27 31 37 26 30 69 60 61 67 61 61 67 61 61 69 60 61 69 60 61 69 60 61 70 60 61 70 60 61 85 73 75 86 74 76 88 76 78 94 79 82 97 82 85 100 85 88 103 88 91 102 90 92 100 91 92 98 94 93 100 94 96 100 96 95 102 96 98 103 99 98 104 98 100 104 100 99 100 94 96 99 95 94 100 94 96 99 95 94 100 94 96 99 95 94 100 94 96 99 95 94 99 99 99 98 100 97 98 100 99 98 100 97 98 100 99 98 100 97 98 100 99 98 100 97 103 105 104 103 105 102 103 105 104 103 105 102 103 105 104 103 105 102 103 105 104 105 104 100 115 105 103 116 103 97 114 100 97 111 98 92 107 93 90 104 91 85 102 88 85 100 87 81 91 77 74 90 77 71 87 73 70 84 71 65 81 67 64 77 64 58 75 61 58 75 60 57 81 60 59 83 59 59 84 58 59 83 59 59 84 58 59 83 59 59 84 58 59 83 59 59 103 77 78 103 79 79 107 81 82 109 85 85 113 87 88 116 92 92 119 93 94 119 95 95 113 92 91 112 92 91 113 92 91 115 91 91 116 90 91 118 89 91 119 89 91 120 88 91 122 86 90 122 83 88 121 80 86 119 76 83 117 72 79 114 69 76 113 66 74 113 63 72 120 70 82 116 68 82 110 64 77 101 57 70 94 52 64 86 46 57 79 41 52 74 41 50 56 26 34 55 30 36
76 66 67 72 62 63 69 59 60 67 57 58 68 53 56 71 50 57 74 48 57 74 48 57 74 48 57 74 48 57 74 48 57 74 48 57 74 48 57 69 43 52 69 43 52 69 43 52 69 43 52 69 43 52 69 43 52 69 43 52 67 44 52 50 33 41 49 34 41 49 34 41 49 34 41 49 34 41 49 34 41 49 34 41 49 34 41 41 26 33 41 26 33 41 26 33 41 26 33 41 26 33 41 26 33 41 26 33 39 26 33 48 38 46 46 39 46 46 39 46 46 39 46 46 39 46 46 39 46 46 39 46 46 39 46 50 43 50 50 43 50 50 43 50 50 43 50 50 43 50 50 43 50 50 43 50 49 44 50 39 37 40 39 39 41 41 41 43 44 44 46 47 47 49 49 49 51 51 51 53 52 52 54 61 61 63 60 60 62 58 58 60 55 55 57 52 52 54 50 50 52 48 48 50 48 46 47 50 41 42 53 43 42 58 48 47 65 55 54 71 61 60 78 68 67 83 73 72 85 75 74 99 89 88 97 87 86 95 85 84 92 82 81 88 78 77 85 75 74 83 73 72 81 71 70 59 47 49 59 47 49 59 47 49 59 47 49 59 47 49 59 47 49 59 47 49 59 47 49 62 50 52 61 49 51 58 46 48 54 42 44 50 38 40 47 35 37 44 32 34 41 31 32 72 62 61 71 63 61 71 63 61 71 63 61 71 63 61 71 63 61 71 63 61 71 63 61 84 76 74 85 77 75 88 80 78 91 83 81 94 86 84 98 90 88 100 92 90 101 93 91 101 92 95 101 92 95 101 92 95 102 93 96 103 94 97 103 94 97 104 95 98 104 95 98 102 93 96 102 93 96 102 93 96 102 93 96 102 93 96 102 93 96 102 93 96 100 94 96 100 99 97 99 99 97 99 99 97 99 99 97 99 99 97 99 99 97 99 99 97 99 99 97 104 104 102 104 104 102 104 104 102 104 104 102 104 104 102 104 104 102 104 104 102 107 103 100 116 105 101 117 102 97 115 100 95 112 97 92 108 93 88 105 90 85 103 88 83 101 86 81 93 78 73 92 77 72 90 75 70 86 71 66 83 68 63 80 65 60 77 62 57 78 60 56 85 61 61 86 60 61 86 60 61 86 60 61 86 60 61 86 60 61 86 60 61 86 60 61 102 76 77 103 77 78 105 79 80 109 83 84 112 86 87 115 89 90 118 92 93 118 94 94 111 93 91 109 94 91 112 92 91 112 92 91 115 91 91 116 90 91 118 89 91 120 88 91 122 86 90 123 82 88 122 79 86 121 76 83 120 70 79 117 67 76 117 64 74 114 62 74 120 70 82 115 69 82 110 64 77 100 58 70 94 52 64 84 46 57 78 42 52 73 42 50 54 27 34 53 30 36
76 66 67 72 62 63 69 59 60 67 57 58 68 53 56 71 50 57 74 48 57 74 48 57 74 48 57 74 48 57 74 48 57 74 48 57 74 48 57 69 43 52 69 43 52 69 43 52 69 43 52 69 43 52 69 43 52 69 43 52 67 44 52 50 33 41 49 34 41 49 34 41 49 34 41 49 34 41 49 34 41 49 34 41 49 34 41 43 28 35 43 28 35 43 28 35 43 28 35 43 28 35 43 28 35 43 28 35 41 28 35 53 43 51 51 44 51 51 44 51 51 44 51 51 44 51 51 44 51 51 44 51 51 44 51 50 43 50 50 43 50 50 43 50 50 43 50 50 43 50 50 43 50 50 43 50 49 44 50 41 39 42 41 41 43 44 44 46 48 48 50 52 52 54 56 56 58 59 59 61 61 61 63 75 75 77 73 73 75 70 70 72 66 66 68 62 62 64 58 58 60 55 55 57 55 53 54 50 41 42 53 43 42 58 48 47 65 55 54 71 61 60 78 68 67 83 73 72 85 75 74 99 89 88 97 87 86 95 85 84 92 82 81 88 78 77 85 75 74 83 73 72 81 71 70 59 47 49 59 47 49 59 47 49 59 47 49 59 47 49 59 47 49 59 47 49 59 47 49 64 52 54 63 51 53 61 49 51 59 47 49 56 44 46 53 41 43 51 39 41 49 39 40 74 64 63 73 65 63 73 65 63 73 65 63 73 65 63 73 65 63 73 65 63 73 65 63 86 78 76 88 80 78 90 82 80 93 85 83 97 89 87 100 92 90 102 94 92 104 96 94 102 93 96 101 92 95 101 92 95 100 91 94 100 91 94 99 90 93 98 89 92 98 89 92 102 93 96 102 93 96 102 93 96 102 93 96 102 93 96 102 93 96 102 93 96 100 94 96 100 99 97 99 99 97 99 99 97 99 99 97 99 99 97 99 99 97 99 99 97 99 99 97 104 104 102 104 104 102 104 104 102 104 104 102 104 104 102 104 104 102 104 104 102 107 103 100 116 105 101 117 102 97 115 100 95 112 97 92 108 93 88 105 90 85 103 88 83 101 86 81 96 81 76 94 79 74 92 77 72 89 74 69 85 70 65 82 67 62 80 65 60 80 62 58 87 63 63 88 62 63 88 62 63 88 62 63 88 62 63 88 62 63 88 62 63 88 62 63 99 73 74 101 75 76 103 77 78 106 80 81 110 84 85 113 87 88 115 89 90 116 92 92 111 93 91 109 94 91 112 92 91 112 92 91 115 91 91 116 90 91 118 89 91 120 88 91 122 86 90 123 82 88 122 79 86 121 76 83 120 70 79 117 67 76 117 64 74 114 62 74 120 70 82 115 69 82 110 64 77 100 58 70 94 52 64 84 46 57 78 42 52 73 42 50 54 27 34 53 30 36
76 66 67 72 62 63 69 59 60 67 57 58 68 53 56 71 50 57 74 48 57 74 48 57 74 48 57 74 48 57 74 48 57 74 48 57 74 48 57 69 43 52 69 43 52 69 43 52 69 43 52 69 43 52 69 43 52 69 43 52 67 44 52 50 33 41 49 34 41 49 34 41 49 34 41 49 34 41 49 34 41 49 34 41 49 34 41 46 31 38 46 31 38 46 31 38 46 31 38 46 31 38 46 31 38 46 31 38 44 31 38 60 50 58 58 51 58 58 51 58 58 51 58 58 51 58 58 51 58 58 51 58 58 51 58 50 43 50 50 43 50 50 43 50 50 43 50 50 43 50 50 43 50 50 43 50 49 44 50 43 41 44 44 44 46 48 48 50 54 54 56 60 60 62 65 65 67 69 69 71 72 72 74 88 88 90 86 86 88 81 81 83 76 76 78 70 70 72 64 64 66 60 60 62 59 57 58 50 41 42 53 43 42 58 48 47 65 55 54 71 61 60 78 68 67 83 73 72 85 75 74 99 89 88 97 87 86 95 85 84 92 82 81 88 78 77 85 75 74 83 73 72 81 71 70 59 47 49 59 47 49 59 47 49 59 47 49 59 47 49 59 47 49 59 47 49 59 47 49 66 54 56 66 54 56 65 53 55 64 52 54 63 51 53 62 50 52 62 50 52 60 50 51 77 67 66 76 68 66 76 68 66 76 68 66 76 68 66 76 68 66 76 68 66 76 68 66 90 82 80 91 83 81 93 85 83 97 89 87 100 92 90 103 95 93 106 98 96 107 99 97 103 94 97 102 93 96 100 91 94 98 89 92 95 86 89 93 84 87 91 82 85 90 81 84 102 93 96 102 93 96 102 93 96 102 93 96 102 93 96 102 93 96 102 93 96 100 94 96 100 99 97 99 99 97 99 99 97 99 99 97 99 99 97 99 99 97 99 99 97 99 99 97 104 104 102 104 104 102 104 104 102 104 104 102 104 104 102 104 104 102 104 104 102 107 103 100 116 105 101 117 102 97 115 100 95 112 97 92 108 93 88 105 90 85 103 88 83 101 86 81 99 84 79 98 83 78 95 80 75 92 77 72 89 74 69 85 70 65 83 68 63 84 66 62 90 66 66 91 65 66 91 65 66 91 65 66 91 65 66 91 65 66 91 65 66 91 65 66 96 70 71 97 71 72 100 74 75 103 77 78 106 80 81 110 84 85 112 86 87 112 88 88 111 93 91 109 94 91 112 92 91 112 92 91 115 91 91 116 90 91 118 89 91 120 88 91 122 86 90 123 82 88 122 79 86 121 76 83 120 70 79 117 67 76 117 64 74 114 62 74 120 70 82 115 69 82 110 64 77 100 58 70 94 52 64 84 46 57 78 42 52 73 42 50 54 27 34 53 30 36
76 66 67 72 62 63 69 59 60 67 57 58 68 53 56 71 50 57 74 48 57 74 48 57 74 48 57 74 48 57 74 48 57 74 48 57 74 48 57 69 43 52 69 43 52 69 43 52 69 43 52 69 43 52 69 43 52 69 43 52 67 44 52 50 33 41 49 34 41 49 34 41 49 34 41 49 34 41 49 34 41 49 34 41 49 34 41 50 35 42 50 35 42 50 35 42 50 35 42 50 35 42 50 35 42 50 35 42 48 35 42 66 56 64 64 57 64 64 57 64 64 57 64 64 57 64 64 57 64 64 57 64 64 57 64 50 43 50 50 43 50 50 43 50 50 43 50 50 43 50 50 43 50 50 43 50 49 44 50 45 43 46 47 47 49 52 52 54 60 60 62 67 67 69 75 75 77 80 80 82 83 83 85 96 96 98 93 93 95 88 88 90 80 80 82 72 72 74 65 65 67 60 60 62 58 56 57 50 41 42 53 43 42 58 48 47 65 55 54 71 61 60 78 68 67 83 73 72 85 75 74 99 89 88 97 87 86 95 85 84 92 82 81 88 78 77 85 75 74 83 73 72 81 71 70 59 47 49 59 47 49 59 47 49 59 47 49 59 47 49 59 47 49 59 47 49 59 47 49 68 56 58 68 56 58 69 57 59 70 58 60 71 59 61 72 60 62 72 60 62 72 62 63 81 71 70 80 72 70 80 72 70 80 72 70 80 72 70 80 72 70 80 72 70 80 72 70 93 85 83 94 86 84 97 89 87 100 92 90 103 95 93 107 99 97 109 101 99 110 102 100 104 95 98 103 94 97 100 91 94 95 86 89 91 82 85 87 78 81 84 75 78 82 73 76 102 93 96 102 93 96 102 93 96 102 93 96 102 93 96 102 93 96 102 93 96 100 94 96 100 99 97 99 99 97 99 99 97 99 99 97 99 99 97 99 99 97 99 99 97 99 99 97 104 104 102 104 104 102 104 104 102 104 104 102 104 104 102 104 104 102 104 104 102 107 103 100 116 105 101 117 102 97 115 100 95 112 97 92 108 93 88 105 90 85 103 88 83 101 86 81 102 87 82 101 86 81 99 84 79 95 80 75 92 77 72 89 74 69 86 71 66 87 69 65 94 70 70 95 69 70 95 69 70 95 69 70 95 69 70 95 69 70 95 69 70 95 69 70 93 67 68 94 68 69 96 70 71 100 74 75 103 77 78 106 80 81 109 83 84 109 85 85 111 93 91 109 94 91 112 92 91 112 92 91 115 91 91 116 90 91 118 89 91 120 88 91 122 86 90 123 82 88 122 79 86 121 76 83 120 70 79 117 67 76 117 64 74 114 62 74 120 70 82 115 69 82 110 64 77 100 58 70 94 52 64 84 46 57 78 42 52 73 42 50 54 27 34 53 30 36
76 66 67 72 62 63 69 59 60 67 57 58 68 53 56 71 50 57 74 48 57 74 48 57 74 48 57 74 48 57 74 48 57 74 48 57 74 48 57 69 43 52 69 43 52 69 43 52 69 43 52 69 43 52 69 43 52 69 43 52 67 44 52 50 33 41 49 34 41 49 34 41 49 34 41 49 34 41 49 34 41 49 34 41 49 34 41 53 38 45 53 38 45 53 38 45 53 38 45 53 38 45 53 38 45 53 38 45 51 38 45 73 63 71 71 64 71 71 64 71 71 64 71 71 64 71 71 64 71 71 64 71 71 64 71 50 43 50 50 43 50 50 43 50 50 43 50 50 43 50 50 43 50 50 43 50 49 44 50 47 45 48 49 49 51 56 56 58 65 65 67 75 75 77 83 83 85 90 90 92 94 94 96 98 98 100 94 94 96 88 88 90 79 79 81 69 69 71 60 60 62 53 53 55 51 49 50 50 41 42 53 43 42 58 48 47 65 55 54 71 61 60 78 68 67 83 73 72 85 75 74 99 89 88 97 87 86 95 85 84 92 82 81 88 78 77 85 75 74 83 73 72 81 71 70 59 47 49 59 47 49 59 47 49 59 47 49 59 47 49 59 47 49 59 47 49 59 47 49 70 58 60 71 59 61 73 61 63 75 63 65 78 66 68 81 69 71 83 71 73 83 73 74 84 74 73 83 75 73 83 75 73 83 75 73 83 75 73 83 75 73 83 75 73 83 75 73 96 88 86 98 90 88 100 92 90 103 95 93 107 99 97 110 102 100 112 104 102 114 106 104 106 97 100 103 94 97 99 90 93 93 84 87 87 78 81 81 72 75 77 68 71 75 66 69 102 93 96 102 93 96 102 93 96 102 93 96 102 93 96 102 93 96 102 93 96 100 94 96 100 99 97 99 99 97 99 99 97 99 99 97 99 99 97 99 99 97 99 99 97 99 99 97 104 104 102 104 104 102 104 104 102 104 104 102 104 104 102 104 104 102 104 104 102 107 103 100 116 105 101 117 102 97 115 100 95 112 97 92 108 93 88 105 90 85 103 88 83 101 86 81 106 91 86 104 89 84 102 87 82 99 84 79 95 80 75 92 77 72 90 75 70 90 72 68 97 73 73 98 72 73 98 72 73 98 72 73 98 72 73 98 72 73 98 72 73 98 72 73 89 63 64 91 65 66 93 67 68 96 70 71 100 74 75 103 77 78 105 79 80 106 82 82 111 93 91 109 94 91 112 92 91 112 92 91 115 91 91 116 90 91 118 89 91 120 88 91 122 86 90 123 82 88 122 79 86 121 76 83 120 70 79 117 67 76 117 64 74 114 62 74 120 70 82 115 69 82 110 64 77 100 58 70 94 52 64 84 46 57 78 42 52 73 42 50 54 27 34 53 30 36
76 66 67 72 62 63 69 59 60 67 57 58 68 53 56 71 50 57 74 48 57 74 48 57 74 48 57 74 48 57 74 48 57 74 48 57 74 48 57 69 43 52 69 43 52 69 43 52 69 43 52 69 43 52 69 43 52 69 43 52 67 44 52 50 33 41 49 34 41 49 34 41 49 34 41 49 34 41 49 34 41 49 34 41 49 34 41 55 40 47 55 40 47 55 40 47 55 40 47 55 40 47 55 40 47 55 40 47 53 40 47 78 68 76 76 69 76 76 69 76 76 69 76 76 69 76 76 69 76 76 69 76 76 69 76 50 43 50 50 43 50 50 43 50 50 43 50 50 43 50 50 43 50 50 43 50 49 44 50 48 46 49 51 51 53 59 59 61 69 69 71 80 80 82 90 90 92 98 98 100 102 102 104 96 96 98 92 92 94 84 84 86 74 74 76 63 63 65 53 53 55 45 45 47 42 40 41 50 41 42 53 43 42 58 48 47 65 55 54 71 61 60 78 68 67 83 73 72 85 75 74 99 89 88 97 87 86 95 85 84 92 82 81 88 78 77 85 75 74 83 73 72 81 71 70 59 47 49 59 47 49 59 47 49 59 47 49 59 47 49 59 47 49 59 47 49 59 47 49 72 60 62 73 61 63 76 64 66 80 68 70 84 72 74 87 75 77 90 78 80 91 81 82 86 76 75 85 77 75 85 77 75 85 77 75 85 77 75 85 77 75 85 77 75 85 77 75 99 91 89 100 92 90 102 94 92 106 98 96 109 101 99 112 104 102 115 107 105 116 108 106 107 98 101 104 95 98 98 89 92 91 82 85 84 75 78 77 68 71 72 63 66 69 60 63 102 93 96 102 93 96 102 93 96 102 93 96 102 93 96 102 93 96 102 93 96 100 94 96 100 99 97 99 99 97 99 99 97 99 99 97 99 99 97 99 99 97 99 99 97 99 99 97 104 104 102 104 104 102 104 104 102 104 104 102 104 104 102 104 104 102 104 104 102 107 103 100 116 105 101 117 102 97 115 100 95 112 97 92 108 93 88 105 90 85 103 88 83 101 86 81 108 93 88 107 92 87 104 89 84 101 86 81 98 83 78 94 79 74 92 77 72 93 75 71 99 75 75 100 74 75 100 74 75 100 74 75 100 74 75 100 74 75 100 74 75 100 74 75 87 61 62 88 62 63 91 65 66 94 68 69 97 71 72 101 75 76 103 77 78 103 79 79 111 93 91 109 94 91 112 92 91 112 92 91 115 91 91 116 90 91 118 89 91 120 88 91 122 86 90 123 82 88 122 79 86 121 76 83 120 70 79 117 67 76 117 64 74 114 62 74 120 70 82 115 69 82 110 64 77 100 58 70 94 52 64 84 46 57 78 42 52 73 42 50 54 27 34 53 30 36
76 66 67 72 62 63 69 59 60 67 57 58 68 53 56 71 50 57 74 48 57 74 48 57 74 48 57 74 48 57 74 48 57 74 48 57 74 48 57 69 43 52 69 43 52 69 43 52 69 43 52 69 43 52 69 43 52 69 43 52 67 44 52 50 33 41 49 34 41 49 34 41 49 34 41 49 34 41 49 34 41 49 34 41 49 34 41 57 42 49 57 42 49 57 42 49 57 42 49 57 42 49 57 42 49 57 42 49 55 42 49 80 70 78 78 71 78 78 71 78 78 71 78 78 71 78 78 71 78 78 71 78 78 71 78 50 43 50 50 43 50 50 43 50 50 43 50 50 43 50 50 43 50 50 43 50 49 44 50 49 47 50 52 52 54 61 61 63 72 72 74 83 83 85 94 94 96 102 102 104 107 107 109 93 93 95 89 89 91 81 81 83 70 70 72 58 58 60 47 47 49 39 39 41 36 34 35 50 41 42 53 43 42 58 48 47 65 55 54 71 61 60 78 68 67 83 73 72 85 75 74 99 89 88 97 87 86 95 85 84 92 82 81 88 78 77 85 75 74 83 73 72 81 71 70 59 47 49 59 47 49 59 47 49 59 47 49 59 47 49 59 47 49 59 47 49 59 47 49 72 60 62 74 62 64 78 66 68 82 70 72 87 75 77 91 79 81 95 83 85 95 85 86 88 78 77 87 79 77 87 79 77 87 79 77 87 79 77 87 79 77 87 79 77 87 79 77 100 92 90 101 93 91 104 96 94 107 99 97 110 102 100 114 106 104 116 108 106 117 109 107 107 98 101 104 95 98 98 89 92 90 81 84 82 73 76 75 66 69 69 60 63 66 57 60 102 93 96 102 93 96 102 93 96 102 93 96 102 93 96 102 93 96 102 93 96 100 94 96 100 99 97 99 99 97 99 99 97 99 99 97 99 99 97 99 99 97 99 99 97 99 99 97 104 104 102 104 104 102 104 104 102 104 104 102 104 104 102 104 104 102 104 104 102 107 103 100 116 105 101 117 102 97 115 100 95 112 97 92 108 93 88 105 90 85 103 88 83 101 86 81 109 94 89 108 93 88 106 91 86 102 87 82 99 84 79 96 81 76 93 78 73 94 76 72 101 77 77 102 76 77 102 76 77 102 76 77 102 76 77 102 76 77 102 76 77 102 76 77 86 60 61 87 61 62 89 63 64 93 67 68 96 70 71 99 73 74 102 76 77 102 78 78 111 93 91 109 94 91 112 92 91 112 92 91 115 91 91 116 90 91 118 89 91 120 88 91 122 86 90 123 82 88 122 79 86 121 76 83 120 70 79 117 67 76 117 64 74 114 62 74 120 70 82 115 69 82 110 64 77 100 58 70 94 52 64 84 46 57 78 42 52 73 42 50 54 27 34 53 30 36
86 76 77 82 72 73 79 69 70 77 67 68 78 63 66 74 53 60 77 51 60 77 51 60 77 51 60 77 51 60 77 51 60 77 51 60 77 51 60 80 54 63 78 52 61 76 50 59 73 47 56 69 43 52 66 40 49 64 38 47 60 37 45 55 38 46 54 39 46 54 39 46 54 39 46 54 39 46 54 39 46 54 39 46 54 39 46 50 35 42 51 36 43 54 39 46 57 42 49 60 45 52 64 49 56 66 51 58 65 52 59 76 66 74 72 65 72 70 63 70 67 60 67 63 56 63 60 53 60 58 51 58 56 49 56 46 39 46 47 40 47 48 41 48 50 43 50 52 45 52 54 47 54 56 49 56 56 51 57 88 86 89 87 87 89 87 87 89 87 87 89 87 87 89 87 87 89 87 87 89 87 87 89 85 85 87 89 89 91 95 95 97 97 97 99 94 94 96 85 85 87 75 75 77 69 67 68 44 35 36 46 36 35 50 40 39 54 44 43 59 49 48 63 53 52 67 57 56 69 59 58 97 87 86 96 86 85 92 82 81 88 78 77 83 73 72 79 69 68 75 65 64 73 63 62 58 46 48 58 46 48 58 46 48 58 46 48 58 46 48 58 46 48 58 46 48 58 46 48 86 74 76 86 74 76 86 74 76 86 74 76 86 74 76 86 74 76 86 74 76 85 75 76 88 78 77 89 81 79 91 83 81 94 86 84 98 90 88 101 93 91 103 95 93 105 97 95 106 98 96 106 98 96 106 98 96 106 98 96 106 98 96 106 98 96 106 98 96 106 98 96 99 90 93 97 88 91 92 83 86 85 76 79 79 70 73 72 63 66 67 58 61 65 56 59 79 70 73 81 72 75 86 77 80 93 84 87 99 90 93 106 97 100 111 102 105 111 105 107 102 101 99 101 101 99 101 101 99 101 101 99 101 101 99 101 101 99 101 101 99 101 101 99 104 104 102 104 104 102 104 104 102 104 104 102 104 104 102 104 104 102 104 104 102 107 103 100 104 93 89 105 90 85 103 88 83 100 85 80 96 81 76 93 78 73 91 76 71 89 74 69 99 84 79 100 85 80 103 88 83 106 91 86 109 94 89 113 98 93 115 100 95 118 100 96 110 86 86 111 85 86 111 85 86 111 85 86 111 85 86 111 85 86 111 85 86 111 85 86 106 80 81 105 79 80 102 76 77 99 73 74 96 70 71 92 66 67 90 64 65 88 64 64 98 80 78 98 83 80 104 84 83 109 89 88 116 92 92 122 96 97 127 98 100 131 99 102 111 75 79 114 73 79 115 72 79 117 72 79 120 70 79 120 70 79 122 69 79 121 69 81 118 68 80 113 67 80 108 62 75 98 56 68 92 50 62 82 44 55 76 40 50 71 40 48 57 30 37 56 33 39
86 76 77 82 72 73 79 69 70 77 67 68 78 63 66 74 53 60 77 51 60 77 51 60 77 51 60 77 51 60 77 51 60 77 51 60 77 51 60 80 54 63 78 52 61 76 50 59 73 47 56 69 43 52 66 40 49 64 38 47 60 37 45 55 38 46 54 39 46 54 39 46 54 39 46 54 39 46 54 39 46 54 39 46 54 39 46 53 38 45 54 39 46 56 41 48 60 45 52 63 48 55 66 51 58 69 54 61 68 55 62 76 66 74 72 65 72 70 63 70 67 60 67 63 56 63 60 53 60 58 51 58 56 49 56 46 39 46 47 40 47 49 42 49 51 44 51 54 47 54 57 50 57 59 52 59 59 54 60 88 86 89 87 87 89 87 87 89 87 87 89 87 87 89 87 87 89 87 87 89 87 87 89 85 85 87 89 89 91 95 95 97 97 97 99 94 94 96 85 85 87 75 75 77 69 67 68 44 35 36 47 37 36 50 40 39 53 43 42 57 47 46 61 51 50 64 54 53 66 56 55 93 83 82 91 81 80 88 78 77 85 75 74 81 71 70 77 67 66 74 64 63 73 63 62 58 46 48 58 46 48 58 46 48 58 46 48 58 46 48 58 46 48 58 46 48 58 46 48 84 72 74 84 72 74 84 72 74 84 72 74 84 72 74 84 72 74 84 72 74 83 73 74 88 78 77 89 81 79 91 83 81 94 86 84 98 90 88 101 93 91 103 95 93 105 97 95 106 98 96 106 98 96 106 98 96 106 98 96 106 98 96 106 98 96 106 98 96 106 98 96 99 90 93 97 88 91 92 83 86 85 76 79 79 70 73 72 63 66 67 58 61 65 56 59 79 70 73 81 72 75 86 77 80 93 84 87 99 90 93 106 97 100 111 102 105 111 105 107 102 101 99 101 101 99 101 101 99 101 101 99 101 101 99 101 101 99 101 101 99 101 101 99 104 104 102 104 104 102 104 104 102 104 104 102 104 104 102 104 104 102 104 104 102 107 103 100 104 93 89 105 90 85 103 88 83 100 85 80 96 81 76 93 78 73 91 76 71 89 74 69 98 83 78 99 84 79 101 86 81 105 90 85 108 93 88 111 96 91 114 99 94 117 99 95 112 88 88 113 87 88 113 87 88 113 87 88 113 87 88 113 87 88 113 87 88 113 87 88 107 81 82 106 80 81 104 78 79 100 74 75 97 71 72 94 68 69 91 65 66 89 65 65 100 82 80 99 84 81 105 85 84 109 89 88 116 92 92 121 95 96 126 97 99 129 97 100 111 75 79 114 73 79 115 72 79 117 72 79 120 70 79 120 70 79 122 69 79 121 69 81 118 68 80 113 67 80 108 62 75 98 56 68 92 50 62 82 44 55 76 40 50 71 40 48 57 30 37 56 33 39
86 76 77 82 72 73 79 69 70 77 67 68 78 63 66 74 53 60 77 51 60 77 51 60 77 51 60 77 51 60 77 51 60 77 51 60 77 51 60 80 54 63 78 52 61 76 50 59 73 47 56 69 43 52 66 40 49 64 38 47 60 37 45 55 38 46 54 39 46 54 39 46 54 39 46 54 39 46 54 39 46 54 39 46 54 39 46 58 43 50 59 44 51 61 46 53 64 49 56 68 53 60 71 56 63 74 59 66 73 60 67 76 66 74 72 65 72 70 63 70 67 60 67 63 56 63 60 53 60 58 51 58 56 49 56 45 38 45 46 39 46 49 42 49 53 46 53 57 50 57 61 54 61 64 57 64 65 60 66 88 86 89 87 87 89 87 87 89 87 87 89 87 87 89 87 87 89 87 87 89 87 87 89 85 85 87 89 89 91 95 95 97 97 97 99 94 94 96 85 85 87 75 75 77 69 67 68 45 36 37 47 37 36 49 39 38 52 42 41 54 44 43 57 47 46 59 49 48 60 50 49 85 75 74 84 74 73 82 72 71 79 69 68 76 66 65 74 64 63 72 62 61 71 61 60 58 46 48 58 46 48 58 46 48 58 46 48 58 46 48 58 46 48 58 46 48 58 46 48 82 70 72 82 70 72 82 70 72 82 70 72 82 70 72 82 70 72 82 70 72 81 71 72 88 78 77 89 81 79 91 83 81 94 86 84 98 90 88 101 93 91 103 95 93 105 97 95 106 98 96 106 98 96 106 98 96 106 98 96 106 98 96 106 98 96 106 98 96 106 98 96 99 90 93 97 88 91 92 83 86 85 76 79 79 70 73 72 63 66 67 58 61 65 56 59 79 70 73 81 72 75 86 77 80 93 84 87 99 90 93 106 97 100 111 102 105 111 105 107 102 101 99 101 101 99 101 101 99 101 101 99 101 101 99 101 101 99 101 101 99 101 101 99 104 104 102 104 104 102 104 104 102 104 104 102 104 104 102 104 104 102 104 104 102 107 103 100 104 93 89 105 90 85 103 88 83 100 85 80 96 81 76 93 78 73 91 76 71 89 74 69 95 80 75 97 82 77 99 84 79 102 87 82 106 91 86 109 94 89 111 96 91 115 97 93 114 90 90 115 89 90 115 89 90 115 89 90 115 89 90 115 89 90 115 89 90 115 89 90 110 84 85 108 82 83 106 80 81 103 77 78 99 73 74 96 70 71 94 68 69 91 67 67 103 85 83 102 87 84 107 87 86 110 90 89 115 91 91 119 93 94 123 94 96 126 94 97 111 75 79 114 73 79 115 72 79 117 72 79 120 70 79 120 70 79 122 69 79 121 69 81 118 68 80 113 67 80 108 62 75 98 56 68 92 50 62 82 44 55 76 40 50 71 40 48 57 30 37 56 33 39
86 76 77 82 72 73 79 69 70 77 67 68 78 63 66 74 53 60 77 51 60 77 51 60 77 51 60 77 51 60 77 51 60 77 51 60 77 51 60 80 54 63 78 52 61 76 50 59 73 47 56 69 43 52 66 40 49 64 38 47 60 37 45 55 38 46 54 39 46 54 39 46 54 39 46 54 39 46 54 39 46 54 39 46 54 39 46 64 49 56 65 50 57 68 53 60 71 56 63 74 59 66 77 62 69 80 65 72 79 66 73 76 66 74 72 65 72 70 63 70 67 60 67 63 56 63 60 53 60 58 51 58 56 49 56 43 36 43 46 39 46 50 43 50 55 48 55 61 54 61 67 60 67 71 64 71 72 67 73 88 86 89 87 87 89 87 87 89 87 87 89 87 87 89 87 87 89 87 87 89 87 87 89 85 85 87 89 89 91 95 95 97 97 97 99 94 94 96 85 85 87 75 75 77 69 67 68 46 37 38 48 38 37 48 38 37 49 39 38 50 40 39 51 41 40 52 42 41 52 42 41 74 64 63 73 63 62 73 63 62 72 62 61 71 61 60 70 60 59 69 59 58 69 59 58 58 46 48 58 46 48 58 46 48 58 46 48 58 46 48 58 46 48 58 46 48 58 46 48 79 67 69 79 67 69 79 67 69 79 67 69 79 67 69 79 67 69 79 67 69 78 68 69 88 78 77 89 81 79 91 83 81 94 86 84 98 90 88 101 93 91 103 95 93 105 97 95 106 98 96 106 98 96 106 98 96 106 98 96 106 98 96 106 98 96 106 98 96 106 98 96 99 90 93 97 88 91 92 83 86 85 76 79 79 70 73 72 63 66 67 58 61 65 56 59 79 70 73 81 72 75 86 77 80 93 84 87 99 90 93 106 97 100 111 102 105 111 105 107 102 101 99 101 101 99 101 101 99 101 101 99 101 101 99 101 101 99 101 101 99 101 101 99 104 104 102 104 104 102 104 104 102 104 104 102 104 104 102 104 104 102 104 104 102 107 103 100 104 93 89 105 90 85 103 88 83 100 85 80 96 81 76 93 78 73 91 76 71 89 74 69 92 77 72 93 78 73 96 81 76 99 84 79 102 87 82 106 91 86 108 93 88 111 93 89 117 93 93 118 92 93 118 92 93 118 92 93 118 92 93 118 92 93 118 92 93 118 92 93 113 87 88 112 86 87 109 83 84 106 80 81 103 77 78 99 73 74 97 71 72 95 71 71 108 90 88 106 91 88 110 90 89 111 91 90 114 90 90 116 90 91 119 90 92 121 89 92 111 75 79 114 73 79 115 72 79 117 72 79 120 70 79 120 70 79 122 69 79 121 69 81 118 68 80 113 67 80 108 62 75 98 56 68 92 50 62 82 44 55 76 40 50 71 40 48 57 30 37 56 33 39
86 76 77 82 72 73 79 69 70 77 67 68 78 63 66 74 53 60 77 51 60 77 51 60 77 51 60 77 51 60 77 51 60 77 51 60 77 51 60 80 54 63 78 52 61 76 50 59 73 47 56 69 43 52 66 40 49 64 38 47 60 37 45 55 38 46 54 39 46 54 39 46 54 39 46 54 39 46 54 39 46 54 39 46 54 39 46 71 56 63 72 57 64 75 60 67 78 63 70 81 66 73 84 69 76 87 72 79 86 73 80 76 66 74 72 65 72 70 63 70 67 60 67 63 56 63 60 53 60 58 51 58 56 49 56 42 35 42 45 38 45 51 44 51 58 51 58 66 59 66 73 66 73 78 71 78 80 75 81 88 86 89 87 87 89 87 87 89 87 87 89 87 87 89 87 87 89 87 87 89 87 87 89 85 85 87 89 89 91 95 95 97 97 97 99 94 94 96 85 85 87 75 75 77 69 67 68 48 39 40 48 38 37 48 38 37 47 37 36 46 36 35 45 35 34 44 34 33 44 34 33 62 52 51 63 53 52 63 53 52 64 54 53 65 55 54 66 56 55 67 57 56 67 57 56 58 46 48 58 46 48 58 46 48 58 46 48 58 46 48 58 46 48 58 46 48 58 46 48 75 63 65 75 63 65 75 63 65 75 63 65 75 63 65 75 63 65 75 63 65 74 64 65 88 78 77 89 81 79 91 83 81 94 86 84 98 90 88 101 93 91 103 95 93 105 97 95 106 98 96 106 98 96 106 98 96 106 98 96 106 98 96 106 98 96 106 98 96 106 98 96 99 90 93 97 88 91 92 83 86 85 76 79 79 70 73 72 63 66 67 58 61 65 56 59 79 70 73 81 72 75 86 77 80 93 84 87 99 90 93 106 97 100 111 102 105 111 105 107 102 101 99 101 101 99 101 101 99 101 101 99 101 101 99 101 101 99 101 101 99 101 101 99 104 104 102 104 104 102 104 104 102 104 104 102 104 104 102 104 104 102 104 104 102 107 103 100 104 93 89 105 90 85 103 88 83 100 85 80 96 81 76 93 78 73 91 76 71 89 74 69 89 74 69 90 75 70 92 77 72 96 81 76 99 84 79 102 87 82 105 90 85 108 90 86 121 97 97 122 96 97 122 96 97 122 96 97 122 96 97 122 96 97 122 96 97 122 96 97 116 90 91 115 89 90 113 87 88 109 83 84 106 80 81 103 77 78 100 74 75 98 74 74 112 94 92 110 95 92 112 92 91 111 91 90 114 90 90 114 88 89 115 86 88 117 85 88 111 75 79 114 73 79 115 72 79 117 72 79 120 70 79 120 70 79 122 69 79 121 69 81 118 68 80 113 67 80 108 62 75 98 56 68 92 50 62 82 44 55 76 40 50 71 40 48 57 30 37 56 33 39
86 76 77 82 72 73 79 69 70 77 67 68 78 63 66 74 53 60 77 51 60 77 51 60 77 51 60 77 51 60 77 51 60 77 51 60 77 51 60 80 54 63 78 52 61 76 50 59 73 47 56 69 43 52 66 40 49 64 38 47 60 37 45 55 38 46 54 39 46 54 39 46 54 39 46 54 39 46 54 39 46 54 39 46 54 39 46 77 62 69 78 63 70 81 66 73 84 69 76 88 73 80 91 76 83 93 78 85 92 79 86 76 66 74 72 65 72 70 63 70 67 60 67 63 56 63 60 53 60 58 51 58 56 49 56 41 34 41 44 37 44 51 44 51 60 53 60 70 63 70 79 72 79 85 78 85 88 83 89 88 86 89 87 87 89 87 87 89 87 87 89 87 87 89 87 87 89 87 87 89 87 87 89 85 85 87 89 89 91 95 95 97 97 97 99 94 94 96 85 85 87 75 75 77 69 67 68 49 40 41 49 39 38 47 37 36 44 34 33 42 32 31 39 29 28 37 27 26 36 26 25 51 41 40 52 42 41 54 44 43 57 47 46 60 50 49 62 52 51 64 54 53 65 55 54 58 46 48 58 46 48 58 46 48 58 46 48 58 46 48 58 46 48 58 46 48 58 46 48 72 60 62 72 60 62 72 60 62 72 60 62 72 60 62 72 60 62 72 60 62 71 61 62 88 78 77 89 81 79 91 83 81 94 86 84 98 90 88 101 93 91 103 95 93 105 97 95 106 98 96 106 98 96 106 98 96 106 98 96 106 98 96 106 98 96 106 98 96 106 98 96 99 90 93 97 88 91 92 83 86 85 76 79 79 70 73 72 63 66 67 58 61 65 56 59 79 70 73 81 72 75 86 77 80 93 84 87 99 90 93 106 97 100 111 102 105 111 105 107 102 101 99 101 101 99 101 101 99 101 101 99 101 101 99 101 101 99 101 101 99 101 101 99 104 104 102 104 104 102 104 104 102 104 104 102 104 104 102 104 104 102 104 104 102 107 103 100 104 93 89 105 90 85 103 88 83 100 85 80 96 81 76 93 78 73 91 76 71 89 74 69 85 70 65 87 72 67 89 74 69 92 77 72 96 81 76 99 84 79 101 86 81 105 87 83 124 100 100 125 99 100 125 99 100 125 99 100 125 99 100 125 99 100 125 99 100 125 99 100 120 94 95 118 92 93 116 90 91 113 87 88 109 83 84 106 80 81 104 78 79 101 77 77 117 99 97 114 99 96 115 95 94 112 92 91 113 89 89 111 85 86 111 82 84 112 80 83 111 75 79 114 73 79 115 72 79 117 72 79 120 70 79 120 70 79 122 69 79 121 69 81 118 68 80 113 67 80 108 62 75 98 56 68 92 50 62 82 44 55 76 40 50 71 40 48 57 30 37 56 33 39
86 76 77 82 72 73 79 69 70 77 67 68 78 63 66 74 53 60 77 51 60 77 51 60 77 51 60 77 51 60 77 51 60 77 51 60 77 51 60 80 54 63 78 52 61 76 50 59 73 47 56 69 43 52 66 40 49 64 38 47 60 37 45 55 38 46 54 39 46 54 39 46 54 39 46 54 39 46 54 39 46 54 39 46 54 39 46 82 67 74 83 68 75 86 71 78 89 74 81 92 77 84 96 81 88 98 83 90 97 84 91 76 66 74 72 65 72 70 63 70 67 60 67 63 56 63 60 53 60 58 51 58 56 49 56 40 33 40 44 37 44 52 45 52 62 55 62 73 66 73 83 76 83 91 84 91 94 89 95 88 86 89 87 87 89 87 87 89 87 87 89 87 87 89 87 87 89 87 87 89 87 87 89 85 85 87 89 89 91 95 95 97 97 97 99 94 94 96 85 85 87 75 75 77 69 67 68 50 41 42 49 39 38 46 36 35 43 33 32 39 29 28 35 25 24 32 22 21 30 20 19 43 33 32 45 35 34 48 38 37 51 41 40 55 45 44 59 49 48 62 52 51 63 53 52 58 46 48 58 46 48 58 46 48 58 46 48 58 46 48 58 46 48 58 46 48 58 46 48 70 58 60 70 58 60 70 58 60 70 58 60 70 58 60 70 58 60 70 58 60 69 59 60 88 78 77 89 81 79 91 83 81 94 86 84 98 90 88 101 93 91 103 95 93 105 97 95 106 98 96 106 98 96 106 98 96 106 98 96 106 98 96 106 98 96 106 98 96 106 98 96 99 90 93 97 88 91 92 83 86 85 76 79 79 70 73 72 63 66 67 58 61 65 56 59 79 70 73 81 72 75 86 77 80 93 84 87 99 90 93 106 97 100 111 102 105 111 105 107 102 101 99 101 101 99 101 101 99 101 101 99 101 101 99 101 101 99 101 101 99 101 101 99 104 104 102 104 104 102 104 104 102 104 104 102 104 104 102 104 104 102 104 104 102 107 103 100 104 93 89 105 90 85 103 88 83 100 85 80 96 81 76 93 78 73 91 76 71 89 74 69 83 68 63 84 69 64 87 72 67 90 75 70 93 78 73 97 82 77 99 84 79 102 84 80 126 102 102 127 101 102 127 101 102 127 101 102 127 101 102 127 101 102 127 101 102 127 101 102 122 96 97 121 95 96 118 92 93 115 89 90 112 86 87 108 82 83 106 80 81 104 80 80 120 102 100 117 102 99 117 97 96 113 93 92 112 88 88 109 83 84 108 79 81 109 77 80 111 75 79 114 73 79 115 72 79 117 72 79 120 70 79 120 70 79 122 69 79 121 69 81 118 68 80 113 67 80 108 62 75 98 56 68 92 50 62 82 44 55 76 40 50 71 40 48 57 30 37 56 33 39
86 76 77 82 72 73 79 69 70 77 67 68 76 64 66 74 53 60 75 52 60 77 51 60 75 52 60 77 51 60 75 52 60 77 51 60 75 52 60 80 54 63 76 53 61 76 50 59 71 48 56 69 43 52 64 41 49 64 38 47 60 37 45 57 38 44 55 38 44 55 38 44 55 38 44 55 38 44 55 38 44 55 38 44 55 38 44 86 69 75 87 70 76 89 72 78 93 76 82 96 79 85 99 82 88 102 85 91 102 87 94 77 66 72 74 65 70 72 62 70 69 60 65 65 55 63 62 53 58 60 50 58 58 49 54 41 31 39 46 37 42 54 44 52 65 56 61 76 66 74 87 78 83 96 86 94 98 92 96 88 86 91 87 87 89 88 86 91 87 87 89 88 86 91 87 87 89 88 86 91 87 87 89 86 84 89 89 89 91 96 94 99 97 97 99 95 93 98 85 85 87 76 74 79 69 67 70 48 42 44 47 41 43 45 36 39 39 33 35 36 27 30 30 24 26 28 19 22 24 18 20 38 29 32 37 31 33 43 34 37 45 39 41 52 43 46 54 48 50 60 51 54 62 53 56 56 47 50 56 47 50 57 46 50 56 47 50 57 46 50 56 47 50 57 46 50 56 47 50 67 56 60 66 57 60 67 56 60 66 57 60 67 56 60 66 57 60 67 56 60 66 57 60 85 79 79 86 82 79 89 83 83 91 87 84 96 90 90 98 94 91 101 95 95 102 98 95 104 98 98 103 99 96 104 98 98 103 99 96 104 98 98 103 99 96 104 98 98 104 98 98 100 90 91 99 87 91 94 82 86 87 75 79 81 69 73 74 62 66 69 57 61 67 55 59 81 69 73 83 71 75 88 76 80 95 83 87 101 89 93 108 96 100 113 101 105 114 104 105 104 100 97 102 101 97 102 101 97 102 101 97 102 101 97 102 101 97 102 101 97 102 101 97 105 104 100 105 104 100 105 104 100 105 104 100 105 104 100 105 104 100 105 104 100 108 103 99 106 92 89 105 90 85 105 87 83 100 85 80 98 80 76 93 78 73 93 75 71 89 74 69 84 66 62 83 68 63 87 69 65 89 74 69 94 76 72 95 80 75 100 82 78 101 83 79 126 105 102 128 104 102 128 104 104 128 104 102 128 104 104 128 104 102 128 104 104 128 104 102 122 98 98 121 97 95 119 95 95 115 91 89 112 88 88 109 85 83 106 82 82 105 81 81 124 103 102 122 101 100 119 97 99 116 92 92 113 87 90 110 81 83 108 77 82 107 75 78 111 74 81 113 74 79 114 73 81 115 72 79 117 71 81 118 71 79 118 71 81 118 71 81 115 69 80 111 67 80 105 63 75 97 57 68 89 51 62 81 45 55 74 41 50 70 40 48 56 31 37 55 34 39
91 82 85 91 82 85 91 82 85 91 82 85 93 81 85 73 54 60 74 53 60 76 53 61 76 55 62 79 56 64 79 58 65 81 58 66 80 59 66 76 53 61 73 52 59 72 49 57 68 47 54 65 42 50 61 40 47 60 37 45 57 36 43 53 32 37 54 35 39 59 40 44 66 47 51 72 53 57 79 60 64 84 65 69 86 67 71 103 84 88 103 84 88 103 84 88 103 84 88 103 84 88 103 84 88 103 84 88 101 85 88 89 74 79 86 74 78 84 71 78 80 68 72 77 64 71 74 62 66 71 58 65 70 58 62 61 48 55 64 52 56 70 57 64 77 65 69 85 72 79 93 81 85 99 86 93 101 90 96 96 89 96 93 91 96 95 90 97 93 91 96 95 90 97 93 91 96 95 90 97 93 91 96 106 101 108 101 99 104 97 92 99 87 85 90 81 76 83 71 69 74 67 62 69 62 59 66 38 35 42 37 36 42 38 35 42 37 36 42 38 35 42 37 36 42 38 35 42 37 36 42 45 42 49 44 43 49 45 42 49 44 43 49 45 42 49 44 43 49 45 42 49 45 42 49 48 46 51 48 46 51 50 45 51 48 46 51 50 45 51 48 46 51 50 45 51 48 46 51 54 49 55 55 53 58 62 57 63 66 64 69 75 70 76 79 77 82 86 81 87 87 85 88 98 98 98 97 99 96 98 98 98 97 99 96 98 98 98 97 99 96 98 98 98 97 99 96 110 110 110 108 110 107 107 107 107 102 104 101 100 100 100 96 98 95 94 94 94 96 92 91 90 75 78 92 71 76 89 68 73 84 63 68 80 59 64 75 54 59 72 51 56 70 49 54 92 71 76 94 73 78 96 75 80 99 78 83 103 82 87 106 85 90 108 87 92 107 91 92 108 98 96 107 100 94 107 100 94 107 100 94 107 100 94 107 100 94 107 100 94 107 100 94 112 105 99 110 103 97 108 101 95 105 98 92 101 94 88 98 91 85 96 89 83 95 86 81 110 95 90 112 95 88 113 94 88 112 95 88 113 94 88 112 95 88 113 94 88 112 95 88 94 75 69 93 76 69 94 75 69 93 76 69 94 75 69 93 76 69 94 75 69 94 75 69 103 84 78 104 85 79 108 89 85 112 93 87 117 98 94 121 102 96 125 106 102 127 108 102 105 86 82 107 88 82 109 90 86 112 93 87 116 97 93 119 100 94 121 102 98 124 103 100 122 93 97 121 90 95 119 88 94 116 85 90 113 80 87 110 78 83 108 75 82 108 73 79 111 76 83 112 75 82 112 75 83 112 75 82 114 74 83 114 74 82 114 74 83 114 74 83 110 70 81 106 66 77 97 59 70 86 50 60 74 41 50 62 32 40 53 26 33 46 23 29 47 28 32 51 36 39
91 82 85 91 82 85 91 82 85 91 82 85 92 81 85 74 55 61 76 55 62 76 55 62 77 56 63 77 56 63 78 57 64 78 57 64 79 58 65 75 54 61 73 52 59 71 50 57 68 47 54 64 43 50 61 40 47 59 38 45 57 36 41 53 32 37 55 35 37 60 40 42 67 47 49 73 53 55 80 60 62 85 65 67 87 67 69 104 84 86 104 84 86 104 84 86 104 84 86 104 84 86 104 84 86 104 84 86 103 84 86 89 72 78 87 72 77 84 69 74 81 66 71 78 63 68 74 59 64 72 57 62 71 56 61 62 47 52 65 50 55 70 55 60 77 62 67 84 69 74 91 76 81 97 82 87 98 85 92 98 91 98 97 92 99 97 92 99 97 92 99 97 92 99 97 92 99 97 92 99 97 92 99 100 95 102 97 92 99 92 87 94 85 80 87 77 72 79 70 65 72 65 60 67 60 57 64 37 35 46 36 36 46 36 36 46 36 36 46 36 36 46 36 36 46 36 36 46 36 36 46 43 43 53 43 43 53 43 43 53 43 43 53 43 43 53 43 43 53 43 43 53 43 43 51 47 46 54 47 46 52 47 46 52 47 46 52 47 46 52 47 46 52 47 46 52 47 46 52 52 51 57 55 54 60 60 59 65 66 65 71 73 72 78 79 78 84 84 83 89 87 86 91 97 98 100 95 99 98 97 99 98 95 99 98 97 99 98 95 99 98 97 99 98 95 99 98 108 110 109 105 109 108 104 106 105 99 103 102 98 100 99 92 96 95 92 94 93 95 91 92 91 72 76 94 69 75 91 66 72 87 62 68 83 58 64 79 54 60 76 51 57 75 50 56 95 70 76 97 72 78 99 74 80 102 77 83 106 81 87 109 84 90 111 86 92 110 90 92 111 97 94 108 99 92 108 99 92 108 99 92 108 99 92 108 99 92 108 99 92 108 99 92 113 104 97 111 102 95 109 100 93 106 97 90 102 93 86 99 90 83 97 88 81 96 85 79 110 93 86 111 92 86 111 92 86 111 92 86 111 92 86 111 92 86 111 92 86 111 92 86 96 77 71 96 77 71 96 77 71 96 77 71 96 77 71 96 77 71 96 77 71 96 77 71 102 85 78 104 87 80 107 90 83 110 93 86 114 97 90 118 101 94 121 104 97 123 106 99 104 87 80 106 89 82 108 91 84 111 94 87 115 98 91 118 101 94 120 103 96 124 103 100 123 92 97 124 89 96 122 87 94 119 84 91 115 80 87 112 77 84 110 75 82 108 73 80 111 76 83 111 76 83 111 76 83 111 76 83 111 76 83 111 76 83 111 76 83 111 76 83 108 70 81 103 67 77 96 60 70 83 52 60 73 42 50 60 33 40 52 27 33 45 24 29 45 29 32 49 37 39
91 82 85 91 82 85 91 82 85 91 82 85 92 81 85 78 59 65 79 58 65 78 57 64 77 56 63 77 56 63 76 55 62 75 54 61 75 54 61 75 54 61 73 52 59 71 50 57 68 47 54 64 43 50 61 40 47 59 38 45 57 36 41 53 32 37 55 35 37 60 40 42 67 47 49 73 53 55 80 60 62 85 65 67 87 67 69 104 84 86 104 84 86 104 84 86 104 84 86 104 84 86 104 84 86 104 84 86 103 84 86 87 70 76 84 69 74 82 67 72 79 64 69 75 60 65 72 57 62 70 55 60 68 53 58 60 45 50 63 48 53 67 52 57 73 58 63 79 64 69 85 70 75 89 74 79 89 76 83 99 92 99 98 93 100 98 93 100 98 93 100 98 93 100 98 93 100 98 93 100 98 93 100 89 84 91 87 82 89 82 77 84 77 72 79 71 66 73 65 60 67 61 56 63 56 53 60 37 35 46 36 36 46 36 36 46 36 36 46 36 36 46 36 36 46 36 36 46 36 36 46 43 43 53 43 43 53 43 43 53 43 43 53 43 43 53 43 43 53 43 43 53 43 43 51 47 46 54 47 46 52 47 46 52 47 46 52 47 46 52 47 46 52 47 46 52 47 46 52 55 54 60 57 56 62 62 61 67 69 68 74 76 75 81 82 81 87 87 86 92 89 88 93 98 98 100 97 99 98 98 98 98 97 99 98 98 98 98 97 99 98 98 98 98 97 99 98 107 107 107 104 106 105 103 103 103 99 101 100 96 96 96 92 94 93 91 91 91 93 87 89 88 69 73 91 66 72 89 64 70 86 61 67 84 59 65 81 56 62 79 54 60 78 53 59 95 70 76 97 72 78 99 74 80 102 77 83 106 81 87 109 84 90 111 86 92 110 90 92 111 97 94 108 99 92 108 99 92 108 99 92 108 99 92 108 99 92 108 99 92 108 99 92 113 104 97 111 102 95 109 100 93 106 97 90 102 93 86 99 90 83 97 88 81 96 85 79 108 91 84 109 90 84 109 90 84 109 90 84 109 90 84 109 90 84 109 90 84 109 90 84 98 79 73 98 79 73 98 79 73 98 79 73 98 79 73 98 79 73 98 79 73 98 79 73 103 86 79 104 87 80 106 89 82 109 92 85 111 94 87 114 97 90 116 99 92 117 100 93 104 87 80 106 89 82 108 91 84 111 94 87 115 98 91 118 101 94 120 103 96 124 103 100 123 92 97 124 89 96 122 87 94 119 84 91 115 80 87 112 77 84 110 75 82 108 73 80 111 76 83 111 76 83 111 76 83 111 76 83 111 76 83 111 76 83 111 76 83 111 76 83 108 70 81 103 67 77 96 60 70 83 52 60 73 42 50 60 33 40 52 27 33 45 24 29 45 29 32 49 37 39
91 82 85 91 82 85 91 82 85 91 82 85 92 81 85 82 63 69 82 61 68 81 60 67 78 57 64 76 55 62 73 52 59 72 51 58 71 50 57 75 54 61 73 52 59 71 50 57 68 47 54 64 43 50 61 40 47 59 38 45 57 36 41 53 32 37 55 35 37 60 40 42 67 47 49 73 53 55 80 60 62 85 65 67 87 67 69 104 84 86 104 84 86 104 84 86 104 84 86 104 84 86 104 84 86 104 84 86 103 84 86 83 66 72 81 66 71 79 64 69 75 60 65 72 57 62 69 54 59 66 51 56 65 50 55 58 43 48 60 45 50 63 48 53 67 52 57 72 57 62 76 61 66 79 64 69 78 65 72 95 88 95 94 89 96 94 89 96 94 89 96 94 89 96 94 89 96 94 89 96 94 89 96 75 70 77 74 69 76 70 65 72 66 61 68 62 57 64 58 53 60 55 50 57 51 48 55 37 35 46 36 36 46 36 36 46 36 36 46 36 36 46 36 36 46 36 36 46 36 36 46 43 43 53 43 43 53 43 43 53 43 43 53 43 43 53 43 43 53 43 43 53 43 43 51 47 46 54 47 46 52 47 46 52 47 46 52 47 46 52 47 46 52 47 46 52 47 46 52 58 57 63 61 60 66 65 64 70 72 71 77 79 78 84 85 84 90 90 89 95 93 92 97 98 98 100 98 98 98 99 97 98 98 98 98 99 97 98 98 98 98 99 97 98 98 98 98 104 102 103 102 102 102 101 99 100 96 96 96 94 92 93 90 90 90 88 86 87 90 84 86 83 64 68 87 62 68 86 61 67 85 60 66 85 60 66 84 59 65 83 58 64 83 58 64 95 70 76 97 72 78 99 74 80 102 77 83 106 81 87 109 84 90 111 86 92 110 90 92 111 97 94 108 99 92 108 99 92 108 99 92 108 99 92 108 99 92 108 99 92 108 99 92 113 104 97 111 102 95 109 100 93 106 97 90 102 93 86 99 90 83 97 88 81 96 85 79 105 88 81 106 87 81 106 87 81 106 87 81 106 87 81 106 87 81 106 87 81 106 87 81 101 82 76 101 82 76 101 82 76 101 82 76 101 82 76 101 82 76 101 82 76 101 82 76 104 87 80 105 88 81 105 88 81 106 89 82 107 90 83 108 91 84 109 92 85 109 92 85 104 87 80 106 89 82 108 91 84 111 94 87 115 98 91 118 101 94 120 103 96 124 103 100 123 92 97 124 89 96 122 87 94 119 84 91 115 80 87 112 77 84 110 75 82 108 73 80 111 76 83 111 76 83 111 76 83 111 76 83 111 76 83 111 76 83 111 76 83 111 76 83 108 70 81 103 67 77 96 60 70 83 52 60 73 42 50 60 33 40 52 27 33 45 24 29 45 29 32 49 37 39
91 82 85 91 82 85 91 82 85 91 82 85 92 81 85 87 68 74 86 65 72 83 62 69 79 58 65 75 54 61 71 50 57 68 47 54 66 45 52 75 54 61 73 52 59 71 50 57 68 47 54 64 43 50 61 40 47 59 38 45 57 36 41 53 32 37 55 35 37 60 40 42 67 47 49 73 53 55 80 60 62 85 65 67 87 67 69 104 84 86 104 84 86 104 84 86 104 84 86 104 84 86 104 84 86 104 84 86 103 84 86 80 63 69 78 63 68 75 60 65 72 57 62 69 54 59 65 50 55 63 48 53 62 47 52 56 41 46 57 42 47 59 44 49 61 46 51 64 49 54 66 51 56 68 53 58 67 54 61 84 77 84 83 78 85 83 78 85 83 78 85 83 78 85 83 78 85 83 78 85 83 78 85 60 55 62 59 54 61 57 52 59 55 50 57 53 48 55 50 45 52 48 43 50 46 43 50 37 35 46 36 36 46 36 36 46 36 36 46 36 36 46 36 36 46 36 36 46 36 36 46 43 43 53 43 43 53 43 43 53 43 43 53 43 43 53 43 43 53 43 43 53 43 43 51 47 46 54 47 46 52 47 46 52 47 46 52 47 46 52 47 46 52 47 46 52 47 46 52 61 60 66 64 63 69 69 68 74 75 74 80 82 81 87 89 88 94 93 92 98 96 95 100 99 97 100 99 97 98 101 97 98 99 97 98 101 97 98 99 97 98 101 97 98 99 97 98 103 99 100 100 98 99 99 95 96 94 92 93 93 89 90 87 85 86 87 83 84 89 80 83 79 60 64 83 58 64 84 59 65 85 60 66 85 60 66 86 61 67 87 62 68 87 62 68 95 70 76 97 72 78 99 74 80 102 77 83 106 81 87 109 84 90 111 86 92 110 90 92 111 97 94 108 99 92 108 99 92 108 99 92 108 99 92 108 99 92 108 99 92 108 99 92 113 104 97 111 102 95 109 100 93 106 97 90 102 93 86 99 90 83 97 88 81 96 85 79 101 84 77 102 83 77 102 83 77 102 83 77 102 83 77 102 83 77 102 83 77 102 83 77 105 86 80 105 86 80 105 86 80 105 86 80 105 86 80 105 86 80 105 86 80 105 86 80 106 89 82 105 88 81 105 88 81 104 87 80 103 86 79 102 85 78 101 84 77 101 84 77 104 87 80 106 89 82 108 91 84 111 94 87 115 98 91 118 101 94 120 103 96 124 103 100 123 92 97 124 89 96 122 87 94 119 84 91 115 80 87 112 77 84 110 75 82 108 73 80 111 76 83 111 76 83 111 76 83 111 76 83 111 76 83 111 76 83 111 76 83 111 76 83 108 70 81 103 67 77 96 60 70 83 52 60 73 42 50 60 33 40 52 27 33 45 24 29 45 29 32 49 37 39
91 82 85 91 82 85 91 82 85 91 82 85 92 81 85 91 72 78 90 69 76 86 65 72 80 59 66 74 53 60 68 47 54 64 43 50 62 41 48 75 54 61 73 52 59 71 50 57 68 47 54 64 43 50 61 40 47 59 38 45 57 36 41 53 32 37 55 35 37 60 40 42 67 47 49 73 53 55 80 60 62 85 65 67 87 67 69 104 84 86 104 84 86 104 84 86 104 84 86 104 84 86 104 84 86 104 84 86 103 84 86 77 60 66 74 59 64 72 57 62 69 54 59 65 50 55 62 47 52 60 45 50 58 43 48 54 39 44 55 40 45 55 40 45 56 41 46 57 42 47 57 42 47 58 43 48 56 43 50 69 62 69 68 63 70 68 63 70 68 63 70 68 63 70 68 63 70 68 63 70 68 63 70 46 41 48 46 41 48 45 40 47 45 40 47 44 39 46 43 38 45 43 38 45 40 37 44 37 35 46 36 36 46 36 36 46 36 36 46 36 36 46 36 36 46 36 36 46 36 36 46 43 43 53 43 43 53 43 43 53 43 43 53 43 43 53 43 43 53 43 43 53 43 43 51 47 46 54 47 46 52 47 46 52 47 46 52 47 46 52 47 46 52 47 46 52 47 46 52 65 64 70 67 66 72 72 71 77 78 77 83 85 84 90 92 91 97 97 96 102 100 98 103 101 96 100 102 96 98 102 96 98 102 96 98 102 96 98 102 96 98 102 96 98 102 96 98 101 95 97 99 93 95 97 91 93 94 88 90 90 84 86 87 81 83 85 79 81 86 75 79 75 54 59 79 54 60 81 56 62 84 59 65 86 61 67 89 64 70 91 66 72 92 67 73 95 70 76 97 72 78 99 74 80 102 77 83 106 81 87 109 84 90 111 86 92 110 90 92 111 97 94 108 99 92 108 99 92 108 99 92 108 99 92 108 99 92 108 99 92 108 99 92 113 104 97 111 102 95 109 100 93 106 97 90 102 93 86 99 90 83 97 88 81 96 85 79 98 81 74 99 80 74 99 80 74 99 80 74 99 80 74 99 80 74 99 80 74 99 80 74 108 89 83 108 89 83 108 89 83 108 89 83 108 89 83 108 89 83 108 89 83 108 89 83 107 90 83 106 89 82 104 87 80 101 84 77 99 82 75 96 79 72 94 77 70 93 76 69 104 87 80 106 89 82 108 91 84 111 94 87 115 98 91 118 101 94 120 103 96 124 103 100 123 92 97 124 89 96 122 87 94 119 84 91 115 80 87 112 77 84 110 75 82 108 73 80 111 76 83 111 76 83 111 76 83 111 76 83 111 76 83 111 76 83 111 76 83 111 76 83 108 70 81 103 67 77 96 60 70 83 52 60 73 42 50 60 33 40 52 27 33 45 24 29 45 29 32 49 37 39
91 82 85 91 82 85 91 82 85 91 82 85 92 81 85 95 76 82 93 72 79 88 67 74 81 60 67 73 52 59 66 45 52 61 40 47 58 37 44 75 54 61 73 52 59 71 50 57 68 47 54 64 43 50 61 40 47 59 38 45 57 36 41 53 32 37 55 35 37 60 40 42 67 47 49 73 53 55 80 60 62 85 65 67 87 67 69 104 84 86 104 84 86 104 84 86 104 84 86 104 84 86 104 84 86 104 84 86 103 84 86 74 57 63 72 57 62 70 55 60 66 51 56 63 48 53 60 45 50 57 42 47 56 41 46 53 38 43 53 38 43 52 37 42 52 37 42 51 36 41 50 35 40 50 35 40 48 35 42 54 47 54 53 48 55 53 48 55 53 48 55 53 48 55 53 48 55 53 48 55 53 48 55 35 30 37 36 31 38 36 31 38 37 32 39 37 32 39 38 33 40 38 33 40 36 33 40 37 35 46 36 36 46 36 36 46 36 36 46 36 36 46 36 36 46 36 36 46 36 36 46 43 43 53 43 43 53 43 43 53 43 43 53 43 43 53 43 43 53 43 43 53 43 43 51 47 46 54 47 46 52 47 46 52 47 46 52 47 46 52 47 46 52 47 46 52 47 46 52 67 66 72 70 69 75 75 74 80 81 80 86 88 87 93 94 93 99 99 98 104 103 101 106 102 96 100 104 95 98 104 95 98 104 95 98 104 95 98 104 95 98 104 95 98 104 95 98 100 91 94 99 90 93 97 88 91 93 84 87 90 81 84 87 78 81 84 75 78 85 73 77 72 51 56 76 51 57 79 54 60 83 58 64 87 62 68 91 66 72 94 69 75 95 70 76 95 70 76 97 72 78 99 74 80 102 77 83 106 81 87 109 84 90 111 86 92 110 90 92 111 97 94 108 99 92 108 99 92 108 99 92 108 99 92 108 99 92 108 99 92 108 99 92 113 104 97 111 102 95 109 100 93 106 97 90 102 93 86 99 90 83 97 88 81 96 85 79 96 79 72 97 78 72 97 78 72 97 78 72 97 78 72 97 78 72 97 78 72 97 78 72 110 91 85 110 91 85 110 91 85 110 91 85 110 91 85 110 91 85 110 91 85 110 91 85 108 91 84 106 89 82 103 86 79 100 83 76 96 79 72 92 75 68 89 72 65 87 70 63 104 87 80 106 89 82 108 91 84 111 94 87 115 98 91 118 101 94 120 103 96 124 103 100 123 92 97 124 89 96 122 87 94 119 84 91 115 80 87 112 77 84 110 75 82 108 73 80 111 76 83 111 76 83 111 76 83 111 76 83 111 76 83 111 76 83 111 76 83 111 76 83 108 70 81 103 67 77 96 60 70 83 52 60 73 42 50 60 33 40 52 27 33 45 24 29 45 29 32 49 37 39
91 82 85 91 82 85 91 82 85 91 82 85 92 81 85 97 78 84 95 74 81 89 68 75 81 60 67 73 52 59 65 44 51 59 38 45 56 35 42 75 54 61 73 52 59 71 50 57 68 47 54 64 43 50 61 40 47 59 38 45 57 36 41 53 32 37 55 35 37 60 40 42 67 47 49 73 53 55 80 60 62 85 65 67 87 67 69 104 84 86 104 84 86 104 84 86 104 84 86 104 84 86 104 84 86 104 84 86 103 84 86 73 56 62 71 56 61 68 53 58 65 50 55 62 47 52 58 43 48 56 41 46 55 40 45 52 37 42 51 36 41 51 36 41 49 34 39 48 33 38 47 32 37 46 31 36 43 30 37 44 37 44 43 38 45 43 38 45 43 38 45 43 38 45 43 38 45 43 38 45 43 38 45 30 25 32 30 25 32 31 26 33 32 27 34 34 29 36 35 30 37 36 31 38 34 31 38 37 35 46 36 36 46 36 36 46 36 36 46 36 36 46 36 36 46 36 36 46 36 36 46 43 43 53 43 43 53 43 43 53 43 43 53 43 43 53 43 43 53 43 43 53 43 43 51 47 46 54 47 46 52 47 46 52 47 46 52 47 46 52 47 46 52 47 46 52 47 46 52 68 67 73 71 70 76 76 75 81 82 81 87 89 88 94 95 94 100 100 99 105 104 102 107 105 94 100 106 94 98 106 94 98 106 94 98 106 94 98 106 94 98 106 94 98 106 94 98 101 89 93 100 88 92 97 85 89 94 82 86 91 79 83 87 75 79 85 73 77 86 71 76 71 48 54 75 50 56 78 53 59 83 58 64 87 62 68 92 67 73 95 70 76 97 72 78 95 70 76 97 72 78 99 74 80 102 77 83 106 81 87 109 84 90 111 86 92 110 90 92 111 97 94 108 99 92 108 99 92 108 99 92 108 99 92 108 99 92 108 99 92 108 99 92 113 104 97 111 102 95 109 100 93 106 97 90 102 93 86 99 90 83 97 88 81 96 85 79 94 77 70 95 76 70 95 76 70 95 76 70 95 76 70 95 76 70 95 76 70 95 76 70 112 93 87 112 93 87 112 93 87 112 93 87 112 93 87 112 93 87 112 93 87 112 93 87 108 91 84 107 90 83 103 86 79 99 82 75 94 77 70 90 73 66 86 69 62 84 67 60 104 87 80 106 89 82 108 91 84 111 94 87 115 98 91 118 101 94 120 103 96 124 103 100 123 92 97 124 89 96 122 87 94 119 84 91 115 80 87 112 77 84 110 75 82 108 73 80 111 76 83 111 76 83 111 76 83 111 76 83 111 76 83 111 76 83 111 76 83 111 76 83 108 70 81 103 67 77 96 60 70 83 52 60 73 42 50 60 33 40 52 27 33 45 24 29 45 29 32 49 37 39
93 84 87 93 84 87 93 84 87 93 84 87 94 83 87 92 73 79 92 71 78 89 68 75 86 65 72 83 62 69 79 58 65 77 56 63 76 55 62 62 41 48 62 41 48 62 41 48 62 41 48 62 41 48 62 41 48 62 41 48 62 41 46 54 33 38 56 36 38 61 41 43 68 48 50 74 54 56 81 61 63 86 66 68 88 68 70 104 84 86 104 84 86 104 84 86 104 84 86 104 84 86 104 84 86 104 84 86 103 84 86 68 51 57 65 50 55 63 48 53 60 45 50 56 41 46 53 38 43 51 36 41 49 34 39 48 33 38 48 33 38 48 33 38 48 33 38 48 33 38 48 33 38 48 33 38 46 33 40 40 33 40 39 34 41 39 34 41 39 34 41 39 34 41 39 34 41 39 34 41 39 34 41 37 32 39 37 32 39 37 32 39 37 32 39 37 32 39 37 32 39 37 32 39 35 32 39 39 37 48 38 38 48 38 38 48 38 38 48 38 38 48 38 38 48 38 38 48 38 38 48 42 42 52 42 42 52 42 42 52 42 42 52 42 42 52 42 42 52 42 42 52 42 42 50 44 43 51 44 43 49 44 43 49 44 43 49 44 43 49 44 43 49 44 43 49 44 43 49 61 60 66 68 67 73 79 78 84 88 87 93 91 90 96 89 88 94 83 82 88 82 77 83 80 67 74 83 66 72 83 66 72 83 66 72 83 66 72 83 66 72 83 66 72 83 66 72 80 63 69 78 61 67 75 58 64 70 53 59 66 49 55 61 44 50 58 41 47 58 39 45 80 57 63 84 59 65 86 61 67 89 64 70 93 68 74 96 71 77 98 73 79 100 75 81 113 88 94 113 88 94 113 88 94 113 88 94 113 88 94 113 88 94 113 88 94 110 90 92 107 93 90 104 95 88 104 95 88 104 95 88 104 95 88 104 95 88 104 95 88 104 95 88 102 93 86 102 93 86 102 93 86 102 93 86 102 93 86 102 93 86 102 93 86 103 92 86 99 82 75 100 81 75 100 81 75 100 81 75 100 81 75 100 81 75 100 81 75 100 81 75 99 80 74 100 81 75 103 84 78 106 87 81 109 90 84 113 94 88 115 96 90 116 97 91 122 105 98 120 103 96 117 100 93 112 95 88 108 91 84 103 86 79 100 83 76 98 81 74 116 99 92 116 99 92 116 99 92 116 99 92 116 99 92 116 99 92 116 99 92 118 97 94 115 84 89 118 83 90 118 83 90 118 83 90 118 83 90 118 83 90 118 83 90 118 83 90 123 88 95 123 88 95 123 88 95 123 88 95 123 88 95 123 88 95 123 88 95 123 88 95 116 78 89 105 69 79 90 54 64 72 41 49 61 30 38 54 27 34 54 29 35 53 32 37 49 33 36 52 40 42
91 82 85 91 82 85 91 82 85 91 82 85 92 81 85 89 70 76 89 68 75 87 66 73 83 62 69 80 59 66 77 56 63 74 53 60 73 52 59 62 41 48 62 41 48 62 41 48 62 41 48 62 41 48 62 41 48 62 41 48 62 41 46 54 33 38 56 36 38 61 41 43 68 48 50 74 54 56 81 61 63 86 66 68 88 68 70 104 84 86 104 84 86 104 84 86 104 84 86 104 84 86 104 84 86 104 84 86 103 84 86 68 51 57 65 50 55 63 48 53 60 45 50 56 41 46 53 38 43 51 36 41 49 34 39 48 33 38 48 33 38 48 33 38 48 33 38 48 33 38 48 33 38 48 33 38 46 33 40 40 33 40 39 34 41 39 34 41 39 34 41 39 34 41 39 34 41 39 34 41 39 34 41 37 32 39 37 32 39 37 32 39 37 32 39 37 32 39 37 32 39 37 32 39 35 32 39 39 37 48 38 38 48 38 38 48 38 38 48 38 38 48 38 38 48 38 38 48 38 38 48 42 42 52 42 42 52 42 42 52 42 42 52 42 42 52 42 42 52 42 42 52 42 42 50 44 43 51 44 43 49 44 43 49 44 43 49 44 43 49 44 43 49 44 43 49 44 43 49 64 63 69 71 70 76 82 81 87 91 90 96 94 93 99 92 91 97 86 85 91 85 80 86 80 65 72 84 63 70 84 63 70 84 63 70 84 63 70 84 63 70 84 63 70 84 63 70 81 60 67 80 59 66 77 56 63 73 52 59 69 48 55 65 44 51 62 41 48 61 40 47 80 57 63 84 59 65 86 61 67 89 64 70 93 68 74 96 71 77 98 73 79 100 75 81 113 88 94 113 88 94 113 88 94 113 88 94 113 88 94 113 88 94 113 88 94 110 90 92 107 93 90 104 95 88 104 95 88 104 95 88 104 95 88 104 95 88 104 95 88 104 95 88 102 93 86 102 93 86 102 93 86 102 93 86 102 93 86 102 93 86 102 93 86 103 92 86 99 82 75 100 81 75 100 81 75 100 81 75 100 81 75 100 81 75 100 81 75 100 81 75 98 79 73 99 80 74 101 82 76 105 86 80 108 89 83 111 92 86 114 95 89 115 96 90 120 103 96 119 102 95 116 99 92 112 95 88 108 91 84 104 87 80 101 84 77 100 83 76 116 99 92 116 99 92 116 99 92 116 99 92 116 99 92 116 99 92 116 99 92 118 97 94 115 84 89 118 83 90 118 83 90 118 83 90 118 83 90 118 83 90 118 83 90 118 83 90 123 88 95 123 88 95 123 88 95 123 88 95 123 88 95 123 88 95 123 88 95 123 88 95 116 78 89 105 69 79 90 54 64 72 41 49 61 30 38 54 27 34 54 29 35 53 32 37 49 33 36 52 40 42
89 80 83 89 80 83 89 80 83 89 80 83 90 79 83 84 65 71 84 63 70 82 61 68 79 58 65 75 54 61 72 51 58 69 48 55 68 47 54 62 41 48 62 41 48 62 41 48 62 41 48 62 41 48 62 41 48 62 41 48 62 41 46 54 33 38 56 36 38 61 41 43 68 48 50 74 54 56 81 61 63 86 66 68 88 68 70 104 84 86 104 84 86 104 84 86 104 84 86 104 84 86 104 84 86 104 84 86 103 84 86 68 51 57 65 50 55 63 48 53 60 45 50 56 41 46 53 38 43 51 36 41 49 34 39 48 33 38 48 33 38 48 33 38 48 33 38 48 33 38 48 33 38 48 33 38 46 33 40 40 33 40 39 34 41 39 34 41 39 34 41 39 34 41 39 34 41 39 34 41 39 34 41 37 32 39 37 32 39 37 32 39 37 32 39 37 32 39 37 32 39 37 32 39 35 32 39 39 37 48 38 38 48 38 38 48 38 38 48 38 38 48 38 38 48 38 38 48 38 38 48 42 42 52 42 42 52 42 42 52 42 42 52 42 42 52 42 42 52 42 42 52 42 42 50 44 43 51 44 43 49 44 43 49 44 43 49 44 43 49 44 43 49 44 43 49 44 43 49 68 67 73 74 73 79 85 84 90 94 93 99 97 96 102 95 94 100 89 88 94 89 82 89 79 62 70 83 60 68 83 60 68 83 60 68 83 60 68 83 60 68 83 60 68 83 60 68 79 56 64 78 55 63 76 53 61 73 50 58 71 48 56 68 45 53 66 43 51 65 42 50 82 57 63 84 59 65 86 61 67 89 64 70 93 68 74 96 71 77 98 73 79 100 75 81 113 88 94 113 88 94 113 88 94 113 88 94 113 88 94 113 88 94 113 88 94 110 90 92 107 93 90 104 95 88 104 95 88 104 95 88 104 95 88 104 95 88 104 95 88 104 95 88 102 93 86 102 93 86 102 93 86 102 93 86 102 93 86 102 93 86 102 93 86 103 92 86 99 82 75 100 81 75 100 81 75 100 81 75 100 81 75 100 81 75 100 81 75 100 81 75 95 76 70 97 78 72 99 80 74 102 83 77 106 87 81 109 90 84 111 92 86 113 94 88 117 100 93 116 99 92 114 97 90 111 94 87 109 92 85 106 89 82 104 87 80 103 86 79 116 99 92 116 99 92 116 99 92 116 99 92 116 99 92 116 99 92 116 99 92 118 97 94 115 84 89 118 83 90 118 83 90 118 83 90 118 83 90 118 83 90 118 83 90 118 83 90 123 88 95 123 88 95 123 88 95 123 88 95 123 88 95 123 88 95 123 88 95 123 88 95 116 78 89 105 69 79 90 54 64 72 41 49 61 30 38 54 27 34 54 29 35 53 32 37 49 33 36 52 40 42
86 77 80 86 77 80 86 77 80 86 77 80 87 76 80 78 59 65 78 57 64 75 54 61 72 51 58 69 48 55 66 45 52 63 42 49 62 41 48 62 41 48 62 41 48 62 41 48 62 41 48 62 41 48 62 41 48 62 41 48 62 41 46 54 33 38 56 36 38 61 41 43 68 48 50 74 54 56 81 61 63 86 66 68 88 68 70 104 84 86 104 84 86 104 84 86 104 84 86 104 84 86 104 84 86 104 84 86 103 84 86 68 51 57 65 50 55 63 48 53 60 45 50 56 41 46 53 38 43 51 36 41 49 34 39 48 33 38 48 33 38 48 33 38 48 33 38 48 33 38 48 33 38 48 33 38 46 33 40 40 33 40 39 34 41 39 34 41 39 34 41 39 34 41 39 34 41 39 34 41 39 34 41 37 32 39 37 32 39 37 32 39 37 32 39 37 32 39 37 32 39 37 32 39 35 32 39 39 37 48 38 38 48 38 38 48 38 38 48 38 38 48 38 38 48 38 38 48 38 38 48 42 42 52 42 42 52 42 42 52 42 42 52 42 42 52 42 42 52 42 42 52 42 42 50 44 43 51 44 43 49 44 43 49 44 43 49 44 43 49 44 43 49 44 43 49 44 43 49 67 66 72 74 73 79 84 83 89 93 92 98 96 95 101 94 93 99 88 87 93 88 81 88 78 58 67 82 56 65 83 56 65 82 56 65 83 56 65 82 56 65 83 56 65 82 56 65 77 50 59 76 50 59 76 49 58 74 48 57 75 48 57 73 47 56 73 46 55 72 46 55 82 57 63 84 59 65 86 61 67 89 64 70 93 68 74 96 71 77 98 73 79 100 75 81 113 88 94 113 88 94 113 88 94 113 88 94 113 88 94 113 88 94 113 88 94 110 90 92 107 93 90 104 95 88 104 95 88 104 95 88 104 95 88 104 95 88 104 95 88 104 95 88 102 93 86 102 93 86 102 93 86 102 93 86 102 93 86 102 93 86 102 93 86 103 92 86 99 82 75 100 81 75 100 81 75 100 81 75 100 81 75 100 81 75 100 81 75 100 81 75 92 73 67 93 74 68 96 77 71 99 80 74 102 83 77 106 87 81 108 89 83 109 90 84 112 95 88 112 95 88 111 94 87 110 93 86 110 93 86 109 92 85 108 91 84 108 91 84 116 99 92 116 99 92 116 99 92 116 99 92 116 99 92 116 99 92 116 99 92 118 97 94 115 84 89 118 83 90 118 83 90 118 83 90 118 83 90 118 83 90 118 83 90 118 83 90 123 88 95 123 88 95 123 88 95 123 88 95 123 88 95 123 88 95 123 88 95 123 88 95 116 78 89 105 69 79 90 54 64 72 41 49 61 30 38 54 27 34 54 29 35 53 32 37 49 33 36 52 40 42
82 73 76 82 73 76 82 73 76 82 73 76 83 72 76 71 52 58 71 50 57 68 47 54 65 44 51 62 41 48 59 38 45 56 35 42 55 34 41 62 41 48 62 41 48 62 41 48 62 41 48 62 41 48 62 41 48 62 41 48 62 41 46 54 33 38 56 36 38 61 41 43 68 48 50 74 54 56 81 61 63 86 66 68 88 68 70 104 84 86 104 84 86 104 84 86 104 84 86 104 84 86 104 84 86 104 84 86 103 84 86 68 51 57 65 50 55 63 48 53 60 45 50 56 41 46 53 38 43 51 36 41 49 34 39 48 33 38 48 33 38 48 33 38 48 33 38 48 33 38 48 33 38 48 33 38 46 33 40 40 33 40 39 34 41 39 34 41 39 34 41 39 34 41 39 34 41 39 34 41 39 34 41 37 32 39 37 32 39 37 32 39 37 32 39 37 32 39 37 32 39 37 32 39 35 32 39 39 37 48 38 38 48 38 38 48 38 38 48 38 38 48 38 38 48 38 38 48 38 38 48 42 42 52 42 42 52 42 42 52 42 42 52 42 42 52 42 42 52 42 42 52 42 42 50 44 43 51 44 43 49 44 43 49 44 43 49 44 43 49 44 43 49 44 43 49 44 43 49 60 59 65 67 66 72 77 76 82 86 85 91 90 89 95 87 86 92 82 81 87 81 74 81 75 54 63 79 52 61 81 51 61 79 52 61 81 51 61 79 52 61 81 51 61 79 52 61 75 45 55 73 46 55 76 46 56 75 48 57 77 47 57 76 49 58 79 49 59 77 50 59 82 57 63 84 59 65 86 61 67 89 64 70 93 68 74 96 71 77 98 73 79 100 75 81 113 88 94 113 88 94 113 88 94 113 88 94 113 88 94 113 88 94 113 88 94 110 90 92 107 93 90 104 95 88 104 95 88 104 95 88 104 95 88 104 95 88 104 95 88 104 95 88 102 93 86 102 93 86 102 93 86 102 93 86 102 93 86 102 93 86 102 93 86 103 92 86 99 82 75 100 81 75 100 81 75 100 81 75 100 81 75 100 81 75 100 81 75 100 81 75 89 70 64 90 71 65 92 73 67 96 77 71 99 80 74 102 83 77 105 86 80 106 87 81 108 91 84 108 91 84 109 92 85 110 93 86 110 93 86 111 94 87 112 95 88 112 95 88 116 99 92 116 99 92 116 99 92 116 99 92 116 99 92 116 99 92 116 99 92 118 97 94 115 84 89 118 83 90 118 83 90 118 83 90 118 83 90 118 83 90 118 83 90 118 83 90 123 88 95 123 88 95 123 88 95 123 88 95 123 88 95 123 88 95 123 88 95 123 88 95 116 78 89 105 69 79 90 54 64 72 41 49 61 30 38 54 27 34 54 29 35 53 32 37 49 33 36 52 40 42
79 70 73 79 70 73 79 70 73 79 70 73 80 69 73 65 46 52 65 44 51 62 41 48 59 38 45 55 34 41 52 31 38 50 29 36 49 28 35 62 41 48 62 41 48 62 41 48 62 41 48 62 41 48 62 41 48 62 41 48 62 41 46 54 33 38 56 36 38 61 41 43 68 48 50 74 54 56 81 61 63 86 66 68 88 68 70 104 84 86 104 84 86 104 84 86 104 84 86 104 84 86 104 84 86 104 84 86 103 84 86 68 51 57 65 50 55 63 48 53 60 45 50 56 41 46 53 38 43 51 36 41 49 34 39 48 33 38 48 33 38 48 33 38 48 33 38 48 33 38 48 33 38 48 33 38 46 33 40 40 33 40 39 34 41 39 34 41 39 34 41 39 34 41 39 34 41 39 34 41 39 34 41 37 32 39 37 32 39 37 32 39 37 32 39 37 32 39 37 32 39 37 32 39 35 32 39 39 37 48 38 38 48 38 38 48 38 38 48 38 38 48 38 38 48 38 38 48 38 38 48 42 42 52 42 42 52 42 42 52 42 42 52 42 42 52 42 42 52 42 42 52 42 42 50 44 43 51 44 43 49 44 43 49 44 43 49 44 43 49 44 43 49 44 43 49 44 43 49 48 47 53 55 54 60 65 64 70 74 73 79 78 77 83 75 74 80 70 69 75 71 61 69 73 50 60 78 48 58 79 47 58 78 48 58 79 47 58 78 48 58 79 47 58 78 48 58 71 39 50 71 41 51 74 42 53 76 46 56 79 47 58 81 51 61 84 52 63 84 54 64 83 56 63 84 59 65 86 61 67 89 64 70 93 68 74 96 71 77 98 73 79 100 75 81 113 88 94 113 88 94 113 88 94 113 88 94 113 88 94 113 88 94 113 88 94 110 90 92 107 93 90 104 95 88 104 95 88 104 95 88 104 95 88 104 95 88 104 95 88 104 95 88 102 93 86 102 93 86 102 93 86 102 93 86 102 93 86 102 93 86 102 93 86 103 92 86 99 82 75 100 81 75 100 81 75 100 81 75 100 81 75 100 81 75 100 81 75 100 81 75 85 66 60 87 68 62 89 70 64 92 73 67 96 77 71 99 80 74 101 82 76 103 84 78 103 86 79 104 87 80 106 89 82 109 92 85 111 94 87 114 97 90 116 99 92 117 100 93 116 99 92 116 99 92 116 99 92 116 99 92 116 99 92 116 99 92 116 99 92 118 97 94 115 84 89 118 83 90 118 83 90 118 83 90 118 83 90 118 83 90 118 83 90 118 83 90 123 88 95 123 88 95 123 88 95 123 88 95 123 88 95 123 88 95 123 88 95 123 88 95 116 78 89 105 69 79 90 54 64 72 41 49 61 30 38 54 27 34 54 29 35 53 32 37 49 33 36 52 40 42
77 68 71 77 68 71 77 68 71 77 68 71 78 67 71 60 41 47 60 39 46 57 36 43 54 33 40 51 30 37 47 26 33 45 24 31 44 23 30 62 41 48 62 41 48 62 41 48 62 41 48 62 41 48 62 41 48 62 41 48 62 41 46 54 33 38 56 36 38 61 41 43 68 48 50 74 54 56 81 61 63 86 66 68 88 68 70 104 84 86 104 84 86 104 84 86 104 84 86 104 84 86 104 84 86 104 84 86 103 84 86 68 51 57 65 50 55 63 48 53 60 45 50 56 41 46 53 38 43 51 36 41 49 34 39 48 33 38 48 33 38 48 33 38 48 33 38 48 33 38 48 33 38 48 33 38 46 33 40 40 33 40 39 34 41 39 34 41 39 34 41 39 34 41 39 34 41 39 34 41 39 34 41 37 32 39 37 32 39 37 32 39 37 32 39 37 32 39 37 32 39 37 32 39 35 32 39 39 37 48 38 38 48 38 38 48 38 38 48 38 38 48 38 38 48 38 38 48 38 38 48 42 42 52 42 42 52 42 42 52 42 42 52 42 42 52 42 42 52 42 42 52 42 42 50 44 43 51 44 43 49 44 43 49 44 43 49 44 43 49 44 43 49 44 43 49 44 43 49 35 34 40 42 41 47 52 51 57 61 60 66 65 64 70 62 61 67 57 56 62 58 48 56 73 47 58 77 45 56 78 45 56 77 45 56 78 45 56 77 45 56 78 45 56 77 45 56 69 36 47 69 37 48 73 40 51 76 44 55 81 48 59 84 52 63 88 55 66 88 56 67 83 56 63 84 59 65 86 61 67 89 64 70 93 68 74 96 71 77 98 73 79 100 75 81 113 88 94 113 88 94 113 88 94 113 88 94 113 88 94 113 88 94 113 88 94 110 90 92 107 93 90 104 95 88 104 95 88 104 95 88 104 95 88 104 95 88 104 95 88 104 95 88 102 93 86 102 93 86 102 93 86 102 93 86 102 93 86 102 93 86 102 93 86 103 92 86 99 82 75 100 81 75 100 81 75 100 81 75 100 81 75 100 81 75 100 81 75 100 81 75 83 64 58 84 65 59 87 68 62 90 71 65 93 74 68 97 78 72 99 80 74 100 81 75 100 83 76 101 84 77 104 87 80 108 91 84 112 95 88 116 99 92 119 102 95 120 103 96 116 99 92 116 99 92 116 99 92 116 99 92 116 99 92 116 99 92 116 99 92 118 97 94 115 84 89 118 83 90 118 83 90 118 83 90 118 83 90 118 83 90 118 83 90 118 83 90 123 88 95 123 88 95 123 88 95 123 88 95 123 88 95 123 88 95 123 88 95 123 88 95 116 78 89 105 69 79 90 54 64 72 41 49 61 30 38 54 27 34 54 29 35 53 32 37 49 33 36 52 40 42
75 66 69 75 66 69 75 66 69 75 66 69 76 65 69 54 39 46 54 37 45 54 34 43 48 31 39 47 27 36 42 25 33 41 21 30 38 21 29 61 41 50 59 42 50 61 41 50 59 42 50 61 41 50 59 42 50 61 41 50 61 42 48 53 34 38 55 36 40 60 41 45 67 48 52 73 54 58 80 61 65 85 66 70 87 68 72 103 84 88 103 84 88 103 84 88 103 84 88 103 84 88 103 84 88 103 84 88 103 84 88 68 51 57 66 49 57 64 47 55 61 44 52 57 40 48 54 37 45 52 35 43 50 33 41 49 32 40 49 32 40 49 32 40 49 32 40 49 32 40 49 32 40 49 32 40 48 33 40 40 33 41 37 34 41 39 34 41 37 34 41 39 34 41 37 34 41 39 34 41 37 34 41 37 32 39 35 32 39 37 32 39 35 32 39 37 32 39 35 32 39 37 32 39 35 32 41 38 38 46 38 38 46 38 38 48 38 38 46 38 38 48 38 38 46 38 38 48 38 38 46 42 42 52 42 42 50 42 42 52 42 42 50 42 42 52 42 42 50 42 42 52 42 42 50 45 42 49 47 42 49 47 42 49 47 42 49 47 42 49 47 42 49 47 42 49 47 42 49 30 25 32 37 32 39 47 42 49 56 51 58 59 54 61 57 52 59 51 46 53 51 40 48 71 45 56 75 43 54 75 43 54 75 43 54 75 43 54 75 43 54 75 43 54 75 43 54 66 34 45 68 36 47 71 39 50 76 44 55 80 48 59 85 53 64 88 56 67 90 58 69 83 56 65 85 58 65 86 60 69 89 64 70 93 67 76 96 71 77 96 73 81 98 75 81 110 89 96 110 89 94 109 90 96 109 90 94 109 90 96 109 90 94 107 90 96 106 92 92 104 95 90 103 96 86 104 95 86 103 96 86 104 95 86 103 96 86 104 95 86 103 96 86 102 93 84 101 94 84 102 93 84 101 94 84 102 93 84 101 94 84 102 93 84 103 93 84 97 82 75 100 81 75 100 81 75 100 81 75 100 81 75 100 81 75 100 81 75 100 81 75 82 63 57 83 64 58 85 66 60 89 70 64 92 73 67 95 76 70 98 79 73 99 80 74 99 80 74 101 82 76 104 85 79 109 90 84 113 94 88 118 99 93 121 102 96 123 104 98 117 98 92 117 98 92 117 98 92 117 98 92 117 98 92 117 98 92 117 98 92 120 96 94 116 84 89 119 82 90 119 82 90 119 82 90 119 82 90 119 82 90 119 82 90 119 82 90 124 87 95 124 87 95 124 87 95 124 87 95 124 87 95 124 87 95 124 87 95 123 88 95 112 81 89 101 71 79 84 57 64 68 43 49 57 32 38 51 28 34 51 30 35 50 34 37 48 33 36 51 41 42
59 49 50 55 45 46 52 42 43 50 40 41 48 37 41 46 35 43 46 35 43 47 34 43 46 35 43 47 34 43 46 35 43 47 34 43 46 35 43 47 34 43 46 35 43 47 34 43 46 35 43 47 34 43 46 35 43 47 34 43 47 34 43 49 34 41 51 36 41 56 41 46 63 48 53 69 54 59 76 61 66 81 66 71 83 68 73 98 83 88 98 83 88 98 83 88 98 83 88 98 83 88 98 83 88 98 83 88 99 82 90 69 47 59 68 44 57 66 42 55 63 39 52 59 35 48 56 32 45 54 30 43 52 28 41 54 30 43 54 30 43 54 30 43 54 30 43 54 30 43 54 30 43 54 30 43 50 32 44 48 41 49 44 43 51 45 42 51 44 43 51 45 42 51 44 43 51 45 42 51 44 43 51 38 35 44 37 36 44 38 35 44 37 36 44 38 35 44 37 36 44 38 35 44 37 36 44 39 39 47 37 40 45 37 40 47 37 40 45 37 40 47 37 40 45 37 40 47 37 40 45 38 41 48 38 41 46 38 41 48 38 41 46 38 41 48 38 41 46 38 41 48 41 40 46 47 37 46 48 37 45 48 37 45 48 37 45 48 37 45 48 37 45 48 37 45 48 37 45 47 36 44 47 36 44 47 36 44 47 36 44 47 36 44 47 36 44 47 36 44 50 35 42 68 42 51 71 41 49 71 41 49 71 41 49 71 41 49 71 41 49 71 41 49 71 41 49 71 41 49 73 43 51 75 45 53 78 48 56 82 52 60 85 55 63 87 57 65 89 59 69 93 63 73 94 64 74 96 68 80 99 73 82 104 78 89 106 83 91 109 88 97 108 91 97 109 94 101 106 95 99 105 96 101 103 97 99 103 97 101 102 98 99 100 98 101 100 99 97 98 94 85 98 94 82 100 94 82 98 94 82 100 94 82 98 94 82 100 94 82 98 94 82 101 95 83 100 96 84 104 98 86 106 102 90 111 105 93 112 108 96 117 111 99 119 111 100 103 89 80 105 88 80 105 88 80 105 88 80 105 88 80 105 88 80 105 88 80 105 88 80 92 75 67 92 75 67 92 75 67 92 75 67 92 75 67 92 75 67 92 75 67 93 74 68 102 81 76 104 83 80 106 85 82 109 88 85 113 92 89 116 95 92 118 97 94 120 99 96 118 97 94 116 95 92 114 93 90 111 90 87 107 86 83 104 83 80 102 81 78 103 77 76 112 77 83 115 75 83 115 75 83 115 75 83 115 75 83 115 75 83 115 75 83 115 75 83 131 91 99 131 91 99 131 91 99 131 91 99 131 91 99 131 91 99 131 91 99 126 93 100 79 58 63 68 53 58 56 44 48 47 35 39 44 32 36 46 34 38 51 40 44 55 44 48 59 50 53 57 48 51
59 49 50 55 45 46 52 42 43 50 40 41 48 37 41 45 35 43 45 35 44 45 35 44 45 35 44 45 35 44 45 35 44 45 35 44 45 35 44 45 35 44 45 35 44 45 35 44 45 35 44 45 35 44 45 35 44 45 35 44 45 35 43 47 34 43 49 36 43 54 41 48 61 48 55 67 54 61 74 61 68 79 66 73 81 68 75 94 81 88 94 81 88 94 81 88 94 81 88 94 81 88 94 81 88 94 81 88 96 81 88 69 47 60 68 44 58 68 41 56 63 39 53 61 34 49 56 32 46 56 29 44 52 28 42 56 29 44 54 30 44 56 29 44 54 30 44 56 29 44 54 30 44 56 29 44 52 32 44 48 40 51 44 43 51 44 43 51 44 43 51 44 43 51 44 43 51 44 43 51 44 43 51 37 36 44 37 36 44 37 36 44 37 36 44 37 36 44 37 36 44 37 36 44 37 36 44 39 40 45 37 40 45 39 40 45 37 40 45 39 40 45 37 40 45 39 40 45 37 40 45 40 41 46 38 41 46 40 41 46 38 41 46 40 41 46 38 41 46 40 41 46 42 39 46 48 37 45 51 35 45 51 35 45 51 35 45 51 35 45 51 35 45 51 35 45 51 35 45 50 34 44 50 34 44 50 34 44 50 34 44 50 34 44 50 34 44 50 34 44 51 34 42 68 42 51 69 42 49 69 42 49 69 42 49 69 42 49 69 42 49 69 42 49 69 42 49 69 42 49 71 44 51 73 46 53 76 49 56 80 53 60 83 56 63 85 58 65 87 60 67 94 62 75 95 65 77 98 68 80 98 72 83 102 76 87 103 82 91 105 85 94 104 89 96 102 91 97 99 93 97 98 93 97 95 95 97 95 95 97 92 96 97 92 96 97 92 97 93 95 92 83 96 93 78 96 92 80 96 93 78 96 92 80 96 93 78 96 92 80 96 93 78 96 92 80 97 94 79 100 96 84 103 100 85 106 102 90 110 107 92 112 108 96 115 109 97 103 89 80 105 88 80 105 88 80 105 88 80 105 88 80 105 88 80 105 88 80 105 88 80 94 77 69 94 77 69 94 77 69 94 77 69 94 77 69 94 77 69 94 77 69 95 76 69 102 81 78 106 82 80 108 84 82 111 87 85 115 91 89 118 94 92 120 96 94 122 98 96 120 96 94 118 94 92 116 92 90 113 89 87 109 85 83 106 82 80 104 80 78 105 77 76 113 76 83 116 75 83 116 75 83 116 75 83 116 75 83 116 75 83 116 75 83 116 75 83 130 89 97 130 89 97 130 89 97 130 89 97 130 89 97 130 89 97 130 89 97 124 91 98 75 60 63 62 56 58 52 46 48 43 37 39 40 34 36 42 36 38 48 42 44 52 46 48 57 51 53 55 49 51
59 49 50 55 45 46 52 42 43 50 40 41 48 37 41 45 35 43 45 35 44 45 35 44 45 35 44 45 35 44 45 35 44 45 35 44 45 35 44 45 35 44 45 35 44 45 35 44 45 35 44 45 35 44 45 35 44 45 35 44 45 35 43 47 34 43 49 36 43 54 41 48 61 48 55 67 54 61 74 61 68 79 66 73 81 68 75 92 79 86 92 79 86 92 79 86 92 79 86 92 79 86 92 79 86 92 79 86 94 79 86 68 48 60 67 45 58 66 42 56 62 40 53 59 35 49 55 33 46 54 30 44 51 29 42 54 30 44 53 31 44 54 30 44 53 31 44 54 30 44 53 31 44 54 30 44 50 32 44 48 40 51 44 43 51 44 43 51 44 43 51 44 43 51 44 43 51 44 43 51 44 43 51 37 36 44 37 36 44 37 36 44 37 36 44 37 36 44 37 36 44 37 36 44 37 36 44 40 39 45 39 40 45 40 39 45 39 40 45 40 39 45 39 40 45 40 39 45 39 40 45 41 40 46 40 41 46 41 40 46 40 41 46 41 40 46 40 41 46 41 40 46 42 39 46 48 37 45 51 35 45 51 35 45 51 35 45 51 35 45 51 35 45 51 35 45 51 35 45 50 34 44 50 34 44 50 34 44 50 34 44 50 34 44 50 34 44 50 34 44 51 34 42 68 42 51 69 42 49 69 42 49 69 42 49 69 42 49 69 42 49 69 42 49 69 42 49 69 42 49 71 44 51 73 46 53 76 49 56 80 53 60 83 56 63 85 58 65 87 60 67 95 63 76 95 65 77 97 67 79 97 71 82 99 73 84 99 78 87 100 80 89 98 83 90 95 84 90 92 86 90 91 86 90 88 88 90 88 88 90 85 89 90 85 89 90 85 90 86 90 87 78 91 87 75 91 87 76 91 87 75 91 87 76 91 87 75 91 87 76 91 87 75 91 87 76 92 88 76 95 91 80 98 94 82 102 98 87 105 101 89 107 103 92 110 104 92 103 89 80 105 88 80 105 88 80 105 88 80 105 88 80 105 88 80 105 88 80 105 88 80 96 79 71 96 79 71 96 79 71 96 79 71 96 79 71 96 79 71 96 79 71 97 78 71 102 81 78 106 82 80 108 84 82 111 87 85 115 91 89 118 94 92 120 96 94 122 98 96 120 96 94 118 94 92 116 92 90 113 89 87 109 85 83 106 82 80 104 80 78 105 77 76 113 76 83 116 75 83 116 75 83 116 75 83 116 75 83 116 75 83 116 75 83 116 75 83 128 87 95 128 87 95 128 87 95 128 87 95 128 87 95 128 87 95 128 87 95 122 89 96 75 60 63 62 56 58 52 46 48 43 37 39 40 34 36 42 36 38 48 42 44 52 46 48 57 51 53 55 49 51
59 49 50 55 45 46 52 42 43 50 40 41 48 37 41 45 35 43 45 35 44 45 35 44 45 35 44 45 35 44 45 35 44 45 35 44 45 35 44 45 35 44 45 35 44 45 35 44 45 35 44 45 35 44 45 35 44 45 35 44 45 35 43 47 34 43 49 36 43 54 41 48 61 48 55 67 54 61 74 61 68 79 66 73 81 68 75 89 76 83 89 76 83 89 76 83 89 76 83 89 76 83 89 76 83 89 76 83 91 76 83 68 48 60 66 46 58 65 43 56 61 41 53 58 36 49 54 34 46 53 31 44 50 30 42 53 31 44 52 32 44 53 31 44 52 32 44 53 31 44 52 32 44 53 31 44 49 33 44 47 41 51 44 43 51 44 43 51 44 43 51 44 43 51 44 43 51 44 43 51 44 43 51 37 36 44 37 36 44 37 36 44 37 36 44 37 36 44 37 36 44 37 36 44 37 36 44 40 39 45 40 39 45 41 38 45 40 39 45 41 38 45 40 39 45 41 38 45 40 39 45 42 39 46 41 40 46 42 39 46 41 40 46 42 39 46 41 40 46 42 39 46 44 39 46 48 37 45 51 35 45 51 35 45 51 35 45 51 35 45 51 35 45 51 35 45 51 35 45 50 34 44 50 34 44 50 34 44 50 34 44 50 34 44 50 34 44 50 34 44 51 34 42 68 42 51 69 42 49 69 42 49 69 42 49 69 42 49 69 42 49 69 42 49 69 42 49 69 42 49 71 44 51 73 46 53 76 49 56 80 53 60 83 56 63 85 58 65 87 60 67 96 64 77 96 66 78 96 66 78 94 68 79 95 69 80 93 72 81 93 73 82 90 75 82 85 74 80 82 76 80 81 76 80 78 78 80 78 78 80 75 79 80 75 79 80 75 80 76 83 80 73 84 80 69 84 80 71 84 80 69 84 80 71 84 80 69 84 80 71 84 80 69 85 81 72 86 82 71 89 85 76 92 88 77 95 91 82 98 94 83 101 97 88 104 97 87 103 89 80 105 88 80 105 88 80 105 88 80 105 88 80 105 88 80 105 88 80 105 88 80 99 82 74 99 82 74 99 82 74 99 82 74 99 82 74 99 82 74 99 82 74 100 81 74 102 81 78 106 82 80 108 84 82 111 87 85 115 91 89 118 94 92 120 96 94 122 98 96 120 96 94 118 94 92 116 92 90 113 89 87 109 85 83 106 82 80 104 80 78 105 77 76 113 76 83 116 75 83 116 75 83 116 75 83 116 75 83 116 75 83 116 75 83 116 75 83 125 84 92 125 84 92 125 84 92 125 84 92 125 84 92 125 84 92 125 84 92 119 86 93 75 60 63 62 56 58 52 46 48 43 37 39 40 34 36 42 36 38 48 42 44 52 46 48 57 51 53 55 49 51
59 49 50 55 45 46 52 42 43 50 40 41 48 37 41 45 35 43 45 35 44 45 35 44 45 35 44 45 35 44 45 35 44 45 35 44 45 35 44 45 35 44 45 35 44 45 35 44 45 35 44 45 35 44 45 35 44 45 35 44 45 35 43 47 34 43 49 36 43 54 41 48 61 48 55 67 54 61 74 61 68 79 66 73 81 68 75 85 72 79 85 72 79 85 72 79 85 72 79 85 72 79 85 72 79 85 72 79 87 72 79 66 48 60 64 46 58 64 44 56 59 41 53 57 37 49 52 34 46 52 32 44 48 30 42 52 32 44 50 32 44 52 32 44 50 32 44 52 32 44 50 32 44 52 32 44 47 34 44 47 41 51 44 43 51 44 43 51 44 43 51 44 43 51 44 43 51 44 43 51 44 43 51 37 36 44 37 36 44 37 36 44 37 36 44 37 36 44 37 36 44 37 36 44 37 36 44 41 38 45 41 38 45 43 38 45 41 38 45 43 38 45 41 38 45 43 38 45 41 38 45 44 39 46 42 39 46 44 39 46 42 39 46 44 39 46 42 39 46 44 39 46 45 38 46 49 36 45 51 35 45 51 35 45 51 35 45 51 35 45 51 35 45 51 35 45 51 35 45 50 34 44 50 34 44 50 34 44 50 34 44 50 34 44 50 34 44 50 34 44 51 34 42 68 42 51 69 42 49 69 42 49 69 42 49 69 42 49 69 42 49 69 42 49 69 42 49 69 42 49 71 44 51 73 46 53 76 49 56 80 53 60 83 56 63 85 58 65 87 60 67 98 66 79 96 66 78 96 66 78 92 66 77 91 65 76 87 66 75 85 65 74 82 67 74 75 64 70 72 66 70 71 66 70 68 68 70 68 68 70 65 69 70 65 69 70 65 69 68 77 74 69 78 74 65 78 73 67 78 74 65 78 73 67 78 74 65 78 73 67 78 74 65 78 73 67 79 75 66 82 77 71 85 81 72 88 83 77 91 87 78 94 89 83 97 90 82 103 88 81 105 88 80 105 88 80 105 88 80 105 88 80 105 88 80 105 88 80 105 88 80 103 86 78 103 86 78 103 86 78 103 86 78 103 86 78 103 86 78 103 86 78 104 85 78 102 81 78 106 82 80 108 84 82 111 87 85 115 91 89 118 94 92 120 96 94 122 98 96 120 96 94 118 94 92 116 92 90 113 89 87 109 85 83 106 82 80 104 80 78 105 77 76 113 76 83 116 75 83 116 75 83 116 75 83 116 75 83 116 75 83 116 75 83 116 75 83 121 80 88 121 80 88 121 80 88 121 80 88 121 80 88 121 80 88 121 80 88 115 82 89 75 60 63 62 56 58 52 46 48 43 37 39 40 34 36 42 36 38 48 42 44 52 46 48 57 51 53 55 49 51
59 49 50 55 45 46 52 42 43 50 40 41 48 37 41 45 35 43 45 35 44 45 35 44 45 35 44 45 35 44 45 35 44 45 35 44 45 35 44 45 35 44 45 35 44 45 35 44 45 35 44 45 35 44 45 35 44 45 35 44 45 35 43 47 34 43 49 36 43 54 41 48 61 48 55 67 54 61 74 61 68 79 66 73 81 68 75 82 69 76 82 69 76 82 69 76 82 69 76 82 69 76 82 69 76 82 69 76 82 69 76 65 49 60 63 47 58 61 45 56 58 42 53 54 38 49 51 35 46 49 33 44 47 31 42 49 33 44 49 33 44 49 33 44 49 33 44 49 33 44 49 33 44 49 33 44 46 34 44 47 41 51 44 43 51 44 43 51 44 43 51 44 43 51 44 43 51 44 43 51 44 43 51 37 36 44 37 36 44 37 36 44 37 36 44 37 36 44 37 36 44 37 36 44 38 35 44 43 38 45 44 37 45 44 37 45 44 37 45 44 37 45 44 37 45 44 37 45 44 37 45 45 38 46 45 38 46 45 38 46 45 38 46 45 38 46 45 38 46 45 38 46 47 37 46 49 36 45 51 35 45 51 35 45 51 35 45 51 35 45 51 35 45 51 35 45 51 35 45 50 34 44 50 34 44 50 34 44 50 34 44 50 34 44 50 34 44 50 34 44 51 34 42 68 42 51 69 42 49 69 42 49 69 42 49 69 42 49 69 42 49 69 42 49 69 42 49 69 42 49 71 44 51 73 46 53 76 49 56 80 53 60 83 56 63 85 58 65 87 60 67 99 67 80 97 67 79 95 65 77 89 63 74 87 61 72 81 60 69 78 58 67 74 59 66 65 54 60 62 56 60 61 56 60 58 58 60 58 58 60 55 59 60 55 59 60 55 59 58 70 66 63 71 66 62 71 66 62 71 66 62 71 66 62 71 66 62 71 66 62 71 66 62 72 67 63 73 68 64 75 70 66 78 73 69 82 77 73 85 80 76 88 83 79 91 84 78 103 88 81 105 88 80 105 88 80 105 88 80 105 88 80 105 88 80 105 88 80 105 88 80 106 89 81 106 89 81 106 89 81 106 89 81 106 89 81 106 89 81 106 89 81 107 88 81 102 81 78 106 82 80 108 84 82 111 87 85 115 91 89 118 94 92 120 96 94 122 98 96 120 96 94 118 94 92 116 92 90 113 89 87 109 85 83 106 82 80 104 80 78 105 77 76 113 76 83 116 75 83 116 75 83 116 75 83 116 75 83 116 75 83 116 75 83 116 75 83 118 77 85 118 77 85 118 77 85 118 77 85 118 77 85 118 77 85 118 77 85 112 79 86 75 60 63 62 56 58 52 46 48 43 37 39 40 34 36 42 36 38 48 42 44 52 46 48 57 51 53 55 49 51
59 49 50 55 45 46 52 42 43 50 40 41 48 37 41 45 35 43 45 35 44 45 35 44 45 35 44 45 35 44 45 35 44 45 35 44 45 35 44 45 35 44 45 35 44 45 35 44 45 35 44 45 35 44 45 35 44 45 35 44 45 35 43 47 34 43 49 36 43 54 41 48 61 48 55 67 54 61 74 61 68 79 66 73 81 68 75 80 67 74 80 67 74 80 67 74 80 67 74 80 67 74 80 67 74 80 67 74 80 67 74 63 50 60 61 48 58 59 46 56 56 43 53 52 39 49 49 36 46 47 34 44 45 32 42 47 34 44 47 34 44 47 34 44 47 34 44 47 34 44 47 34 44 47 34 44 45 35 44 45 42 51 44 43 51 44 43 51 44 43 51 44 43 51 44 43 51 44 43 51 44 43 51 37 36 44 37 36 44 37 36 44 37 36 44 37 36 44 37 36 44 37 36 44 38 35 44 44 37 45 46 36 45 46 36 45 46 36 45 46 36 45 46 36 45 46 36 45 46 36 45 47 37 46 47 37 46 47 37 46 47 37 46 47 37 46 47 37 46 47 37 46 48 36 46 49 36 45 51 35 45 51 35 45 51 35 45 51 35 45 51 35 45 51 35 45 51 35 45 50 34 44 50 34 44 50 34 44 50 34 44 50 34 44 50 34 44 50 34 44 51 34 42 68 42 51 69 42 49 69 42 49 69 42 49 69 42 49 69 42 49 69 42 49 69 42 49 69 42 49 71 44 51 73 46 53 76 49 56 80 53 60 83 56 63 85 58 65 87 60 67 100 68 81 97 67 79 94 64 76 88 62 73 84 58 69 77 56 65 73 53 62 68 53 60 58 47 53 55 49 53 54 49 53 51 51 53 51 51 53 48 52 53 48 52 53 48 52 51 65 61 60 66 61 58 66 61 58 66 61 58 66 61 58 66 61 58 66 61 58 66 61 58 67 62 59 68 63 60 70 65 62 74 69 66 77 72 69 80 75 72 83 78 75 86 78 75 103 88 81 105 88 80 105 88 80 105 88 80 105 88 80 105 88 80 105 88 80 105 88 80 108 91 83 108 91 83 108 91 83 108 91 83 108 91 83 108 91 83 108 91 83 109 90 83 102 81 78 106 82 80 108 84 82 111 87 85 115 91 89 118 94 92 120 96 94 122 98 96 120 96 94 118 94 92 116 92 90 113 89 87 109 85 83 106 82 80 104 80 78 105 77 76 113 76 83 116 75 83 116 75 83 116 75 83 116 75 83 116 75 83 116 75 83 116 75 83 116 75 83 116 75 83 116 75 83 116 75 83 116 75 83 116 75 83 116 75 83 110 77 84 75 60 63 62 56 58 52 46 48 43 37 39 40 34 36 42 36 38 48 42 44 52 46 48 57 51 53 55 49 51
59 49 50 55 45 46 52 42 43 50 40 41 48 37 41 45 35 43 45 35 44 45 35 44 45 35 44 45 35 44 45 35 44 45 35 44 45 35 44 45 35 44 45 35 44 45 35 44 45 35 44 45 35 44 45 35 44 45 35 44 45 35 43 47 34 43 49 36 43 54 41 48 61 48 55 67 54 61 74 61 68 79 66 73 81 68 75 78 65 72 78 65 72 78 65 72 78 65 72 78 65 72 78 65 72 78 65 72 77 66 72 62 50 60 59 49 58 57 47 56 54 44 53 50 40 49 47 37 46 45 35 44 43 33 42 45 35 44 45 35 44 45 35 44 45 35 44 45 35 44 45 35 44 45 35 44 43 36 44 45 42 51 44 43 51 44 43 51 44 43 51 44 43 51 44 43 51 44 43 51 44 43 51 37 36 44 37 36 44 37 36 44 37 36 44 37 36 44 37 36 44 37 36 44 38 35 44 47 35 45 48 35 45 48 35 45 48 35 45 48 35 45 48 35 45 48 35 45 48 35 45 49 36 46 49 36 46 49 36 46 49 36 46 49 36 46 49 36 46 49 36 46 49 36 46 51 35 45 51 35 45 51 35 45 51 35 45 51 35 45 51 35 45 51 35 45 51 35 45 50 34 44 50 34 44 50 34 44 50 34 44 50 34 44 50 34 44 50 34 44 51 34 42 68 42 51 69 42 49 69 42 49 69 42 49 69 42 49 69 42 49 69 42 49 69 42 49 69 42 49 71 44 51 73 46 53 76 49 56 80 53 60 83 56 63 85 58 65 87 60 67 100 68 81 98 68 80 94 64 76 87 61 72 82 56 67 75 54 63 70 50 59 65 50 57 54 43 49 51 45 49 50 45 49 47 47 49 47 47 49 44 48 49 44 48 49 44 48 49 63 59 60 64 58 60 64 58 60 64 58 60 64 58 60 64 58 60 64 58 60 64 58 60 64 58 60 65 59 61 68 62 64 71 65 67 74 68 70 78 72 74 80 74 76 83 75 73 103 88 83 105 88 80 105 88 80 105 88 80 105 88 80 105 88 80 105 88 80 105 88 80 110 93 85 110 93 85 110 93 85 110 93 85 110 93 85 110 93 85 110 93 85 111 92 85 102 81 78 106 82 80 108 84 82 111 87 85 115 91 89 118 94 92 120 96 94 122 98 96 120 96 94 118 94 92 116 92 90 113 89 87 109 85 83 106 82 80 104 80 78 105 77 76 113 76 83 116 75 83 116 75 83 116 75 83 116 75 83 116 75 83 116 75 83 116 75 83 114 73 81 114 73 81 114 73 81 114 73 81 114 73 81 114 73 81 114 73 81 108 75 82 75 60 63 62 56 58 52 46 48 43 37 39 40 34 36 42 36 38 48 42 44 52 46 48 57 51 53 55 49 51
79 69 70 79 69 70 79 69 70 79 69 70 79 68 72 58 48 56 57 47 56 55 45 54 51 41 50 48 38 47 45 35 44 42 32 41 41 31 40 46 36 45 46 36 45 46 36 45 46 36 45 46 36 45 46 36 45 46 36 45 46 36 44 62 49 58 62 49 56 62 49 56 62 49 56 62 49 56 62 49 56 62 49 56 62 49 56 63 50 57 63 50 57 63 50 57 63 50 57 63 50 57 63 50 57 63 50 57 62 51 57 44 37 45 43 38 45 43 38 45 43 38 45 43 38 45 43 38 45 43 38 45 43 38 45 44 39 46 44 39 46 44 39 46 44 39 46 44 39 46 44 39 46 44 39 46 42 39 46 51 48 57 50 49 57 50 49 57 50 49 57 50 49 57 50 49 57 50 49 57 50 49 57 47 46 54 47 46 54 47 46 54 47 46 54 47 46 54 47 46 54 47 46 54 50 44 54 51 38 48 54 36 48 54 36 48 54 36 48 54 36 48 54 36 48 54 36 48 54 36 48 58 40 52 58 40 52 58 40 52 58 40 52 58 40 52 58 40 52 58 40 52 58 40 52 51 35 45 51 35 45 51 35 45 51 35 45 51 35 45 51 35 45 51 35 45 51 35 45 45 29 39 47 31 41 49 33 43 52 36 46 56 40 50 59 43 53 61 45 55 64 47 55 65 39 48 67 40 47 69 42 49 73 46 53 76 49 56 79 52 59 82 55 62 83 56 63 94 67 74 94 67 74 95 68 75 96 69 76 98 71 78 99 72 79 100 73 80 100 73 80 85 53 66 83 53 65 81 51 63 74 48 59 71 45 56 65 44 53 61 41 50 57 42 49 44 33 39 43 37 41 44 39 43 44 44 46 48 48 50 48 52 53 50 54 55 52 56 57 52 47 53 53 46 53 53 46 53 53 46 53 53 46 53 53 46 53 53 46 53 53 46 53 51 44 51 52 45 52 54 47 54 58 51 58 61 54 61 64 57 64 67 60 67 70 61 64 89 74 69 93 76 68 95 78 70 98 81 73 102 85 77 105 88 80 107 90 82 109 92 84 106 89 81 106 89 81 106 89 81 106 89 81 106 89 81 106 89 81 106 89 81 107 88 81 111 90 87 113 89 87 113 89 87 113 89 87 113 89 87 113 89 87 113 89 87 113 89 87 112 88 86 112 88 86 112 88 86 112 88 86 112 88 86 112 88 86 112 88 86 115 87 86 103 66 73 106 65 73 106 65 73 106 65 73 106 65 73 106 65 73 106 65 73 106 65 73 122 81 89 121 80 88 119 78 86 115 74 82 112 71 79 109 68 76 106 65 73 99 66 73 53 38 41 47 41 43 47 41 43 47 41 43 47 41 43 47 41 43 47 41 43 47 41 43 62 56 58 60 54 56
79 69 70 79 69 70 79 69 70 79 69 70 79 68 72 61 51 59 60 50 59 57 47 56 54 44 53 51 41 50 47 37 46 45 35 44 44 34 43 46 36 45 46 36 45 46 36 45 46 36 45 46 36 45 46 36 45 46 36 45 46 36 44 60 47 56 60 47 54 60 47 54 60 47 54 60 47 54 60 47 54 60 47 54 60 47 54 61 48 55 61 48 55 61 48 55 61 48 55 61 48 55 61 48 55 61 48 55 60 49 55 43 38 45 40 39 45 40 39 45 40 39 45 40 39 45 40 39 45 40 39 45 40 39 45 41 40 46 41 40 46 41 40 46 41 40 46 41 40 46 41 40 46 41 40 46 41 40 46 50 49 57 50 49 57 50 49 57 50 49 57 50 49 57 50 49 57 50 49 57 50 49 57 47 46 54 47 46 54 47 46 54 47 46 54 47 46 54 47 46 54 47 46 54 50 44 54 53 37 48 57 35 48 57 35 48 57 35 48 57 35 48 57 35 48 57 35 48 57 35 48 61 39 52 61 39 52 61 39 52 61 39 52 61 39 52 61 39 52 61 39 52 60 40 52 52 35 45 51 35 45 51 35 45 51 35 45 51 35 45 51 35 45 51 35 45 51 35 45 45 29 39 47 31 41 49 33 43 52 36 46 56 40 50 59 43 53 61 45 55 64 47 55 66 40 49 68 41 48 71 44 51 74 47 54 77 50 57 81 54 61 83 56 63 84 57 64 95 68 75 96 69 76 96 69 76 97 70 77 97 70 77 98 71 78 98 71 78 99 72 79 84 52 65 82 52 64 79 49 61 73 47 58 70 44 55 63 42 51 60 40 49 56 41 48 44 33 39 43 37 41 44 39 43 44 44 46 48 48 50 48 52 53 50 54 55 52 56 59 52 47 54 53 45 56 53 45 56 53 45 56 53 45 56 53 45 56 53 45 56 53 45 56 52 44 55 53 45 56 56 48 59 59 51 62 62 54 65 66 58 69 68 60 71 71 62 67 89 74 71 93 76 68 95 78 70 98 81 73 102 85 77 105 88 80 107 90 82 109 92 84 106 89 81 106 89 81 106 89 81 106 89 81 106 89 81 106 89 81 106 89 81 107 88 81 111 90 87 113 89 87 113 89 87 113 89 87 113 89 87 113 89 87 113 89 87 113 89 87 110 86 84 110 86 84 110 86 84 110 86 84 110 86 84 110 86 84 110 86 84 113 85 84 103 66 73 106 65 73 106 65 73 106 65 73 106 65 73 106 65 73 106 65 73 106 65 73 121 80 88 120 79 87 117 76 84 114 73 81 111 70 78 107 66 74 105 64 72 98 65 72 53 38 41 47 41 43 47 41 43 47 41 43 47 41 43 47 41 43 47 41 43 47 41 43 62 56 58 60 54 56
79 69 70 79 69 70 79 69 70 79 69 70 79 68 72 66 56 64 65 55 64 62 52 61 59 49 58 55 45 54 52 42 51 50 40 49 49 39 48 46 36 45 46 36 45 46 36 45 46 36 45 46 36 45 46 36 45 46 36 45 46 36 44 58 45 54 58 45 52 58 45 52 58 45 52 58 45 52 58 45 52 58 45 52 58 45 52 59 46 53 59 46 53 59 46 53 59 46 53 59 46 53 59 46 53 59 46 53 57 48 53 41 38 45 39 40 45 39 40 45 39 40 45 39 40 45 39 40 45 39 40 45 39 40 45 40 41 46 40 41 46 40 41 46 40 41 46 40 41 46 40 41 46 40 41 46 40 41 46 50 49 57 50 49 57 50 49 57 50 49 57 50 49 57 50 49 57 50 49 57 50 49 57 47 46 54 47 46 54 47 46 54 47 46 54 47 46 54 47 46 54 47 46 54 51 43 54 54 36 48 58 34 48 58 34 48 58 34 48 58 34 48 58 34 48 58 34 48 58 34 48 62 38 52 62 38 52 62 38 52 62 38 52 62 38 52 62 38 52 62 38 52 61 39 52 52 35 45 51 35 45 51 35 45 51 35 45 51 35 45 51 35 45 51 35 45 51 35 45 45 29 39 47 31 41 49 33 43 52 36 46 56 40 50 59 43 53 61 45 55 64 47 55 68 42 51 71 44 51 73 46 53 76 49 56 80 53 60 83 56 63 85 58 65 87 60 67 99 72 79 99 72 79 98 71 78 97 70 77 97 70 77 96 69 76 95 68 75 95 68 75 82 50 63 79 49 61 77 47 59 71 45 56 67 41 52 61 40 49 58 38 47 53 38 45 44 33 39 43 37 41 44 39 43 44 44 46 48 48 50 48 52 53 50 54 55 52 56 59 52 46 56 53 45 58 53 45 58 53 45 58 53 45 58 53 45 58 53 45 58 53 45 58 54 46 59 56 48 61 58 50 63 61 53 66 65 57 70 68 60 73 70 62 75 74 64 72 89 74 71 93 76 68 95 78 70 98 81 73 102 85 77 105 88 80 107 90 82 109 92 84 106 89 81 106 89 81 106 89 81 106 89 81 106 89 81 106 89 81 106 89 81 107 88 81 111 90 87 113 89 87 113 89 87 113 89 87 113 89 87 113 89 87 113 89 87 113 89 87 108 84 82 108 84 82 108 84 82 108 84 82 108 84 82 108 84 82 108 84 82 111 83 82 103 66 73 106 65 73 106 65 73 106 65 73 106 65 73 106 65 73 106 65 73 106 65 73 119 78 86 117 76 84 115 74 82 112 71 79 108 67 75 105 64 72 103 62 70 95 62 69 53 38 41 47 41 43 47 41 43 47 41 43 47 41 43 47 41 43 47 41 43 47 41 43 62 56 58 60 54 56
79 69 70 79 69 70 79 69 70 79 69 70 79 68 72 72 62 70 71 61 70 68 58 67 65 55 64 62 52 61 59 49 58 56 46 55 55 45 54 46 36 45 46 36 45 46 36 45 46 36 45 46 36 45 46 36 45 46 36 45 46 36 44 55 42 51 55 42 49 55 42 49 55 42 49 55 42 49 55 42 49 55 42 49 55 42 49 56 43 50 56 43 50 56 43 50 56 43 50 56 43 50 56 43 50 56 43 50 54 45 50 40 39 45 36 41 45 37 40 45 36 41 45 37 40 45 36 41 45 37 40 45 36 41 45 38 41 46 37 42 46 38 41 46 37 42 46 38 41 46 37 42 46 38 41 46 38 41 46 49 49 57 50 49 57 50 49 57 50 49 57 50 49 57 50 49 57 50 49 57 50 49 57 47 46 54 47 46 54 47 46 54 47 46 54 47 46 54 47 46 54 47 46 54 51 43 54 56 36 48 60 33 48 61 33 48 60 33 48 61 33 48 60 33 48 61 33 48 60 33 48 65 37 52 64 37 52 65 37 52 64 37 52 65 37 52 64 37 52 65 37 52 62 38 52 52 35 45 51 35 45 51 35 45 51 35 45 51 35 45 51 35 45 51 35 45 51 35 45 45 29 39 47 31 41 49 33 43 52 36 46 56 40 50 59 43 53 61 45 55 64 47 55 72 46 55 74 47 54 76 49 56 80 53 60 83 56 63 86 59 66 89 62 69 90 63 70 103 76 83 102 75 82 101 74 81 98 71 78 96 69 76 93 66 73 92 65 72 91 64 71 78 46 59 76 46 58 74 44 56 67 41 52 64 38 49 58 37 46 54 34 43 50 35 42 44 33 39 43 37 41 44 39 43 44 44 46 48 48 50 48 52 53 50 54 55 52 56 59 52 46 58 53 45 60 53 44 61 53 45 60 53 44 61 53 45 60 53 44 61 53 45 60 58 49 66 59 51 66 61 52 69 65 57 72 68 59 76 71 63 78 74 65 82 77 67 76 89 74 71 93 76 68 95 78 70 98 81 73 102 85 77 105 88 80 107 90 82 109 92 84 106 89 81 106 89 81 106 89 81 106 89 81 106 89 81 106 89 81 106 89 81 107 88 81 111 90 87 113 89 87 113 89 87 113 89 87 113 89 87 113 89 87 113 89 87 113 89 87 105 81 79 105 81 79 105 81 79 105 81 79 105 81 79 105 81 79 105 81 79 108 80 79 103 66 73 106 65 73 106 65 73 106 65 73 106 65 73 106 65 73 106 65 73 106 65 73 115 74 82 114 73 81 112 71 79 108 67 75 105 64 72 102 61 69 99 58 66 92 59 66 53 38 41 47 41 43 47 41 43 47 41 43 47 41 43 47 41 43 47 41 43 47 41 43 62 56 58 60 54 56
79 69 70 79 69 70 79 69 70 79 69 70 79 68 72 79 69 77 78 68 77 75 65 74 72 62 71 69 59 68 66 56 65 63 53 62 62 52 61 46 36 45 46 36 45 46 36 45 46 36 45 46 36 45 46 36 45 46 36 45 46 36 44 51 38 47 51 38 45 51 38 45 51 38 45 51 38 45 51 38 45 51 38 45 51 38 45 52 39 46 52 39 46 52 39 46 52 39 46 52 39 46 52 39 46 52 39 46 50 41 46 39 40 45 34 42 45 36 41 45 34 42 45 36 41 45 34 42 45 36 41 45 34 42 45 37 42 46 35 43 46 37 42 46 35 43 46 37 42 46 35 43 46 37 42 46 37 42 46 49 49 57 50 49 57 50 49 57 50 49 57 50 49 57 50 49 57 50 49 57 50 49 57 47 46 54 47 46 54 47 46 54 47 46 54 47 46 54 47 46 54 47 46 54 51 43 54 57 35 48 61 33 48 63 32 48 61 33 48 63 32 48 61 33 48 63 32 48 61 33 48 67 36 52 65 37 52 67 36 52 65 37 52 67 36 52 65 37 52 67 36 52 64 37 52 54 34 45 51 35 45 51 35 45 51 35 45 51 35 45 51 35 45 51 35 45 51 35 45 45 29 39 47 31 41 49 33 43 52 36 46 56 40 50 59 43 53 61 45 55 64 47 55 75 49 58 77 50 57 80 53 60 83 56 63 86 59 66 90 63 70 92 65 72 93 66 73 108 81 88 106 79 86 103 76 83 99 72 79 95 68 75 91 64 71 88 61 68 86 59 66 75 43 56 73 43 55 70 40 52 64 38 49 61 35 46 54 33 42 51 31 40 47 32 39 44 33 39 43 37 41 44 39 43 44 44 46 48 48 50 48 52 53 50 54 55 52 55 60 52 46 60 53 44 61 53 44 63 53 44 61 53 44 63 53 44 61 53 44 63 53 44 61 61 52 71 62 53 70 65 56 75 68 59 76 71 62 81 75 66 83 77 68 87 80 70 81 89 73 73 93 76 68 95 78 70 98 81 73 102 85 77 105 88 80 107 90 82 109 92 84 106 89 81 106 89 81 106 89 81 106 89 81 106 89 81 106 89 81 106 89 81 107 88 81 111 90 87 113 89 87 113 89 87 113 89 87 113 89 87 113 89 87 113 89 87 113 89 87 101 77 75 101 77 75 101 77 75 101 77 75 101 77 75 101 77 75 101 77 75 104 76 75 103 66 73 106 65 73 106 65 73 106 65 73 106 65 73 106 65 73 106 65 73 106 65 73 112 71 79 111 70 78 108 67 75 105 64 72 102 61 69 98 57 65 96 55 63 89 56 63 53 38 41 47 41 43 47 41 43 47 41 43 47 41 43 47 41 43 47 41 43 47 41 43 62 56 58 60 54 56
79 69 70 79 69 70 79 69 70 79 69 70 79 68 72 85 75 83 84 74 83 82 72 81 79 69 78 75 65 74 72 62 71 69 59 68 68 58 67 46 36 45 46 36 45 46 36 45 46 36 45 46 36 45 46 36 45 46 36 45 46 36 44 48 35 44 48 35 42 48 35 42 48 35 42 48 35 42 48 35 42 48 35 42 48 35 42 49 36 43 49 36 43 49 36 43 49 36 43 49 36 43 49 36 43 49 36 43 45 39 43 37 40 45 33 43 45 34 42 45 33 43 45 34 42 45 33 43 45 34 42 45 33 43 45 35 43 46 34 44 46 35 43 46 34 44 46 35 43 46 34 44 46 35 43 46 37 42 46 49 49 57 50 49 57 50 49 57 50 49 57 50 49 57 50 49 57 50 49 57 50 49 57 47 46 54 47 46 54 47 46 54 47 46 54 47 46 54 47 46 54 47 46 54 53 43 54 58 34 48 63 32 48 64 31 48 63 32 48 64 31 48 63 32 48 64 31 48 63 32 48 68 35 52 67 36 52 68 35 52 67 36 52 68 35 52 67 36 52 68 35 52 65 37 52 54 34 45 51 35 45 51 35 45 51 35 45 51 35 45 51 35 45 51 35 45 51 35 45 45 29 39 47 31 41 49 33 43 52 36 46 56 40 50 59 43 53 61 45 55 64 47 55 78 52 61 81 54 61 83 56 63 86 59 66 90 63 70 93 66 73 95 68 75 97 70 77 112 85 92 110 83 90 106 79 86 100 73 80 94 67 74 88 61 68 84 57 64 82 55 62 72 40 53 69 39 51 67 37 49 61 35 46 57 31 42 51 30 39 48 28 37 43 28 35 44 33 39 43 37 41 44 39 43 44 44 46 48 48 50 48 52 53 50 54 55 52 55 60 52 45 61 53 44 63 53 44 65 53 44 63 53 44 65 53 44 63 53 44 65 53 44 63 64 55 76 66 57 76 68 59 80 71 62 81 75 66 87 78 69 88 80 71 92 84 73 87 89 73 73 93 76 68 95 78 70 98 81 73 102 85 77 105 88 80 107 90 82 109 92 84 106 89 81 106 89 81 106 89 81 106 89 81 106 89 81 106 89 81 106 89 81 107 88 81 111 90 87 113 89 87 113 89 87 113 89 87 113 89 87 113 89 87 113 89 87 113 89 87 98 74 72 98 74 72 98 74 72 98 74 72 98 74 72 98 74 72 98 74 72 101 73 72 103 66 73 106 65 73 106 65 73 106 65 73 106 65 73 106 65 73 106 65 73 106 65 73 109 68 76 107 66 74 105 64 72 102 61 69 98 57 65 95 54 62 93 52 60 85 52 59 53 38 41 47 41 43 47 41 43 47 41 43 47 41 43 47 41 43 47 41 43 47 41 43 62 56 58 60 54 56
79 69 70 79 69 70 79 69 70 79 69 70 79 68 72 90 80 88 89 79 88 87 77 86 83 73 82 80 70 79 77 67 76 74 64 73 73 63 72 46 36 45 46 36 45 46 36 45 46 36 45 46 36 45 46 36 45 46 36 45 46 36 44 46 33 42 46 33 40 46 33 40 46 33 40 46 33 40 46 33 40 46 33 40 46 33 40 47 34 41 47 34 41 47 34 41 47 34 41 47 34 41 47 34 41 47 34 41 43 37 41 36 41 45 32 43 45 33 43 45 32 43 45 33 43 45 32 43 45 33 43 45 32 43 45 34 44 46 33 44 46 34 44 46 33 44 46 34 44 46 33 44 46 34 44 46 35 43 46 49 49 57 50 49 57 50 49 57 50 49 57 50 49 57 50 49 57 50 49 57 50 49 57 47 46 54 47 46 54 47 46 54 47 46 54 47 46 54 47 46 54 47 46 54 53 43 54 60 33 48 64 31 48 65 31 48 64 31 48 65 31 48 64 31 48 65 31 48 64 31 48 69 35 52 68 35 52 69 35 52 68 35 52 69 35 52 68 35 52 69 35 52 65 37 52 54 34 45 51 35 45 51 35 45 51 35 45 51 35 45 51 35 45 51 35 45 51 35 45 45 29 39 47 31 41 49 33 43 52 36 46 56 40 50 59 43 53 61 45 55 64 47 55 81 55 64 83 56 63 85 58 65 89 62 69 92 65 72 95 68 75 98 71 78 99 72 79 116 89 96 113 86 93 108 81 88 101 74 81 93 66 73 86 59 66 81 54 61 78 51 58 69 37 50 67 37 49 65 35 47 58 32 43 55 29 40 49 28 37 45 25 34 41 26 33 44 33 39 43 37 41 44 39 43 44 44 46 48 48 50 48 52 53 50 54 55 52 55 60 52 45 61 53 44 65 53 43 67 53 44 65 53 43 67 53 44 65 53 43 67 53 44 65 67 57 81 68 59 80 70 60 84 74 65 86 77 67 91 80 71 92 83 73 97 86 75 89 89 73 73 93 76 68 95 78 70 98 81 73 102 85 77 105 88 80 107 90 82 109 92 84 106 89 81 106 89 81 106 89 81 106 89 81 106 89 81 106 89 81 106 89 81 107 88 81 111 90 87 113 89 87 113 89 87 113 89 87 113 89 87 113 89 87 113 89 87 113 89 87 96 72 70 96 72 70 96 72 70 96 72 70 96 72 70 96 72 70 96 72 70 99 71 70 103 66 73 106 65 73 106 65 73 106 65 73 106 65 73 106 65 73 106 65 73 106 65 73 106 65 73 105 64 72 103 62 70 99 58 66 96 55 63 93 52 60 90 49 57 83 50 57 53 38 41 47 41 43 47 41 43 47 41 43 47 41 43 47 41 43 47 41 43 47 41 43 62 56 58 60 54 56
79 69 70 79 69 70 79 69 70 79 69 70 78 69 72 93 83 91 92 82 90 89 79 87 86 76 84 83 73 81 79 69 77 77 67 75 76 66 74 46 36 44 46 36 44 46 36 44 46 36 44 46 36 44 46 36 44 46 36 44 44 37 44 39 34 40 39 34 40 39 34 40 39 34 40 39 34 40 39 34 40 39 34 40 39 34 40 40 35 41 40 35 41 40 35 41 40 35 41 40 35 41 40 35 41 40 35 41 37 36 41 36 41 45 33 43 45 33 42 47 33 43 45 33 42 47 33 43 45 33 42 47 33 43 45 34 43 48 34 44 46 34 43 48 34 44 46 34 43 48 34 44 46 34 43 48 35 43 46 47 50 57 47 50 55 49 49 57 47 50 55 49 49 57 47 50 55 49 49 57 47 50 55 46 46 54 44 47 52 46 46 54 44 47 52 46 46 54 44 47 52 46 46 54 50 45 52 57 35 48 63 32 47 63 32 48 63 32 47 63 32 48 63 32 47 63 32 48 63 32 47 67 36 52 67 36 51 67 36 52 67 36 51 67 36 52 67 36 51 67 36 52 64 37 52 51 35 46 48 36 46 48 36 46 48 36 46 48 36 46 48 36 46 48 36 46 48 36 46 42 30 40 44 32 42 46 34 44 49 37 47 53 41 51 56 44 54 58 46 56 63 47 57 79 58 67 81 58 66 84 61 69 87 64 72 90 67 75 94 71 79 96 73 81 97 74 82 115 92 100 112 89 97 106 83 91 98 75 83 90 67 75 82 59 67 76 53 61 73 50 58 61 39 51 60 38 50 56 36 48 51 34 44 47 31 42 41 28 37 38 26 36 36 26 34 41 34 42 40 38 43 41 40 46 43 44 48 45 48 53 48 52 55 49 54 58 52 55 62 49 47 60 50 46 63 52 45 63 52 45 63 52 45 63 52 45 63 53 44 63 53 44 63 70 58 78 71 59 79 75 62 82 78 65 85 81 68 88 85 72 92 88 73 94 91 75 88 89 73 73 93 76 69 95 78 71 98 81 74 102 85 78 105 88 81 107 90 83 109 92 85 106 89 82 106 89 82 106 89 82 106 89 82 106 89 82 106 89 82 106 89 82 107 88 82 113 89 87 114 88 89 114 88 89 114 88 89 114 88 89 114 88 89 114 88 89 114 88 89 95 69 70 95 69 70 95 69 70 95 69 70 95 69 70 95 69 70 95 69 70 98 68 70 105 65 73 106 65 73 107 64 73 106 65 73 107 64 73 106 65 73 107 64 73 106 65 73 106 63 72 104 63 71 102 59 68 98 57 65 96 53 62 91 50 58 90 47 56 82 49 56 53 38 43 46 42 43 46 41 45 46 42 43 46 41 45 46 42 43 46 41 45 46 42 43 61 56 60 59 55 56
82 73 76 82 73 76 82 73 76 82 73 76 82 73 76 84 75 80 82 76 80 82 76 80 82 76 80 82 76 80 82 76 80 82 76 80 82 76 80 59 53 57 58 52 56 55 49 53 52 46 50 49 43 47 45 39 43 43 37 41 39 37 42 34 42 45 30 44 47 30 44 47 30 44 47 30 44 47 30 44 47 30 44 47 30 44 47 28 42 45 28 42 45 28 42 45 28 42 45 28 42 45 28 42 45 28 42 45 30 41 45 35 42 48 37 42 48 37 41 50 37 42 48 37 41 50 37 42 48 37 41 50 37 42 48 44 48 57 44 49 55 44 48 57 44 49 55 44 48 57 44 49 55 44 48 57 44 49 55 50 58 61 49 59 60 50 58 61 49 59 60 50 58 61 49 59 60 50 58 61 49 59 60 48 56 59 47 57 58 48 56 59 47 57 58 48 56 59 47 57 58 48 56 59 53 54 58 52 39 48 57 37 46 57 37 48 57 37 46 57 37 48 57 37 46 57 37 48 57 37 46 64 44 55 64 44 53 64 44 55 64 44 53 64 44 55 64 44 53 64 44 55 61 45 55 53 43 54 50 44 54 50 44 54 50 44 54 50 44 54 50 44 54 50 44 54 50 44 54 50 44 54 50 44 54 50 44 54 50 44 54 50 44 54 50 44 54 50 44 54 51 44 52 76 63 72 78 63 70 78 63 70 78 63 70 78 63 70 78 63 70 78 63 70 78 63 70 92 77 84 89 74 81 84 69 76 78 63 70 71 56 63 65 50 57 60 45 52 54 43 51 39 33 43 36 34 45 36 34 47 35 35 45 35 35 47 35 35 45 33 35 47 33 36 45 44 46 58 43 47 56 43 47 58 41 48 56 41 48 58 41 48 56 41 48 58 41 48 56 32 37 43 36 39 44 43 44 49 50 49 55 57 56 62 64 61 68 71 66 73 77 67 76 85 73 83 88 72 83 89 71 83 91 71 83 91 71 83 92 70 83 93 69 83 93 70 80 97 77 78 97 78 74 97 78 74 97 78 74 97 78 74 97 78 74 97 78 74 97 78 74 108 89 85 108 89 85 108 89 85 108 89 85 108 89 85 108 89 85 108 89 85 109 88 87 114 85 89 113 82 87 111 80 85 108 77 82 104 73 78 101 70 75 99 68 73 97 66 71 97 66 71 97 66 71 97 66 71 97 66 71 97 66 71 97 66 71 97 66 71 100 65 71 98 56 66 99 56 66 101 55 66 99 56 66 101 55 66 99 56 66 101 55 66 99 56 66 97 51 62 99 56 66 107 61 72 107 64 74 106 60 71 95 52 62 87 41 52 71 38 47 52 39 46 45 43 46 45 43 48 45 43 46 45 43 48 45 43 46 45 43 48 45 43 46 44 42 47 42 40 43
82 73 76 82 73 76 82 73 76 82 73 76 82 73 76 82 76 78 82 76 78 82 76 78 82 76 78 82 76 78 82 76 78 82 76 78 82 76 78 60 54 56 59 53 55 57 51 53 53 47 49 50 44 46 47 41 43 44 38 40 39 39 41 30 44 47 25 46 49 26 45 49 25 46 49 26 45 49 25 46 49 26 45 49 25 46 49 24 43 47 23 44 47 24 43 47 23 44 47 24 43 47 23 44 47 24 43 47 27 42 47 35 42 50 38 41 50 38 41 50 38 41 50 38 41 50 38 41 50 38 41 50 38 41 50 45 48 57 45 48 57 45 48 57 45 48 57 45 48 57 45 48 57 45 48 57 44 49 55 49 59 61 48 60 60 49 59 60 48 60 60 49 59 60 48 60 60 49 59 60 48 60 60 49 59 60 48 60 60 49 59 60 48 60 60 49 59 60 48 60 60 49 59 60 53 57 60 52 43 48 56 41 48 56 41 48 56 41 48 56 41 48 56 41 48 56 41 48 56 41 48 61 46 53 61 46 53 61 46 53 61 46 53 61 46 53 61 46 53 61 46 53 58 47 55 50 44 54 47 45 56 47 45 56 47 45 56 47 45 56 47 45 56 47 45 56 47 45 56 47 45 56 47 45 56 47 45 56 47 45 56 47 45 56 47 45 56 47 45 56 48 45 54 72 62 71 73 62 70 73 62 70 73 62 70 73 62 70 73 62 70 73 62 70 73 62 70 88 77 85 85 74 82 80 69 77 74 63 71 67 56 64 61 50 58 56 45 53 49 44 51 33 35 47 29 37 48 29 37 48 29 37 48 29 37 48 29 37 48 29 37 48 29 37 48 40 48 59 40 48 59 40 48 59 40 48 59 40 48 59 40 48 59 40 48 59 40 49 56 31 39 42 34 43 42 42 46 47 48 52 53 58 58 60 65 63 66 72 67 71 78 69 74 86 73 80 89 72 80 91 71 80 92 71 80 95 69 80 95 69 80 98 68 80 96 69 78 98 76 78 97 77 76 97 77 76 97 77 76 97 77 76 97 77 76 97 77 76 97 77 76 108 88 87 108 88 87 108 88 87 108 88 87 108 88 87 108 88 87 108 88 87 109 88 87 115 84 90 114 81 88 112 79 86 109 76 83 105 72 79 102 69 76 100 67 74 98 65 72 98 65 72 98 65 72 98 65 72 98 65 72 98 65 72 98 65 72 98 65 72 100 65 72 99 56 66 101 55 66 101 55 66 101 55 66 101 55 66 101 55 66 101 55 66 101 55 66 97 51 62 101 55 66 107 61 72 109 63 74 106 60 71 97 51 62 87 41 52 71 38 47 52 39 46 44 43 48 44 43 48 44 43 48 44 43 48 44 43 48 44 43 48 44 43 48 43 42 47 41 40 45
82 73 76 82 73 76 82 73 76 82 73 76 82 73 76 82 76 78 82 76 78 82 76 78 82 76 78 82 76 78 82 76 78 82 76 78 82 76 78 63 57 59 61 55 57 59 53 55 56 50 52 52 46 48 49 43 45 47 41 43 41 41 43 32 43 47 26 45 49 27 45 49 26 45 49 27 45 49 26 45 49 27 45 49 26 45 49 25 43 47 24 43 47 25 43 47 24 43 47 25 43 47 24 43 47 25 43 47 27 42 47 35 42 50 38 41 50 38 41 50 38 41 50 38 41 50 38 41 50 38 41 50 38 41 50 45 48 57 45 48 57 45 48 57 45 48 57 45 48 57 45 48 57 45 48 57 44 49 55 50 58 61 49 59 60 50 58 60 49 59 60 50 58 60 49 59 60 50 58 60 49 59 60 52 60 62 51 61 62 52 60 62 51 61 62 52 60 62 51 61 62 52 60 62 55 59 62 57 48 53 61 46 53 61 46 53 61 46 53 61 46 53 61 46 53 61 46 53 61 46 53 61 46 53 61 46 53 61 46 53 61 46 53 61 46 53 61 46 53 61 46 53 58 47 55 50 44 54 47 45 56 47 45 56 47 45 56 47 45 56 47 45 56 47 45 56 47 45 56 47 45 56 47 45 56 47 45 56 47 45 56 47 45 56 47 45 56 47 45 56 48 45 54 70 60 69 71 60 68 71 60 68 71 60 68 71 60 68 71 60 68 71 60 68 71 60 68 85 74 82 83 72 80 78 67 75 71 60 68 64 53 61 58 47 55 53 42 50 47 42 49 33 35 47 29 37 48 29 37 48 29 37 48 29 37 48 29 37 48 29 37 48 29 37 48 40 48 59 40 48 59 40 48 59 40 48 59 40 48 59 40 48 59 40 48 59 40 49 56 34 42 45 36 45 44 44 48 49 51 55 56 61 61 63 68 66 69 75 70 74 80 71 76 86 73 80 89 72 80 91 71 80 92 71 80 95 69 80 95 69 80 98 68 80 96 69 78 98 76 78 97 77 76 97 77 76 97 77 76 97 77 76 97 77 76 97 77 76 97 77 76 108 88 87 108 88 87 108 88 87 108 88 87 108 88 87 108 88 87 108 88 87 109 88 87 115 84 90 114 81 88 112 79 86 109 76 83 105 72 79 102 69 76 100 67 74 98 65 72 98 65 72 98 65 72 98 65 72 98 65 72 98 65 72 98 65 72 98 65 72 100 65 72 99 56 66 101 55 66 101 55 66 101 55 66 101 55 66 101 55 66 101 55 66 101 55 66 97 51 62 101 55 66 107 61 72 109 63 74 106 60 71 97 51 62 87 41 52 71 38 47 52 39 46 44 43 48 44 43 48 44 43 48 44 43 48 44 43 48 44 43 48 44 43 48 43 42 47 41 40 45
82 73 76 82 73 76 82 73 76 82 73 76 82 73 76 82 76 78 82 76 78 82 76 78 82 76 78 82 76 78 82 76 78 82 76 78 82 76 78 66 60 62 65 59 61 62 56 58 59 53 55 56 50 52 52 46 48 50 44 46 45 45 47 32 43 47 27 45 49 29 44 49 27 45 49 29 44 49 27 45 49 29 44 49 27 45 49 27 42 47 25 43 47 27 42 47 25 43 47 27 42 47 25 43 47 27 42 47 28 41 47 35 42 50 38 41 50 38 41 50 38 41 50 38 41 50 38 41 50 38 41 50 38 41 50 45 48 57 45 48 57 45 48 57 45 48 57 45 48 57 45 48 57 45 48 57 45 48 55 52 57 61 50 58 60 52 57 60 50 58 60 52 57 60 50 58 60 52 57 60 50 58 60 57 62 65 55 63 65 57 62 65 55 63 65 57 62 65 55 63 65 57 62 65 60 61 65 64 55 60 68 53 60 68 53 60 68 53 60 68 53 60 68 53 60 68 53 60 68 53 60 61 46 53 61 46 53 61 46 53 61 46 53 61 46 53 61 46 53 61 46 53 58 47 55 50 44 54 47 45 56 47 45 56 47 45 56 47 45 56 47 45 56 47 45 56 47 45 56 47 45 56 47 45 56 47 45 56 47 45 56 47 45 56 47 45 56 47 45 56 48 45 54 67 57 66 68 57 65 68 57 65 68 57 65 68 57 65 68 57 65 68 57 65 68 57 65 82 71 79 79 68 76 75 64 72 68 57 65 61 50 58 55 44 52 50 39 47 43 38 45 33 35 47 29 37 48 29 37 48 29 37 48 29 37 48 29 37 48 29 37 48 29 37 48 40 48 59 40 48 59 40 48 59 40 48 59 40 48 59 40 48 59 40 48 59 40 49 56 37 45 48 40 49 48 47 51 52 54 58 59 64 64 66 71 69 72 78 73 77 84 75 80 86 73 80 89 72 80 91 71 80 92 71 80 95 69 80 95 69 80 98 68 80 96 69 78 98 76 78 97 77 76 97 77 76 97 77 76 97 77 76 97 77 76 97 77 76 97 77 76 108 88 87 108 88 87 108 88 87 108 88 87 108 88 87 108 88 87 108 88 87 109 88 87 115 84 90 114 81 88 112 79 86 109 76 83 105 72 79 102 69 76 100 67 74 98 65 72 98 65 72 98 65 72 98 65 72 98 65 72 98 65 72 98 65 72 98 65 72 100 65 72 99 56 66 101 55 66 101 55 66 101 55 66 101 55 66 101 55 66 101 55 66 101 55 66 97 51 62 101 55 66 107 61 72 109 63 74 106 60 71 97 51 62 87 41 52 71 38 47 52 39 46 44 43 48 44 43 48 44 43 48 44 43 48 44 43 48 44 43 48 44 43 48 43 42 47 41 40 45
82 73 76 82 73 76 82 73 76 82 73 76 82 73 76 82 76 78 82 76 78 82 76 78 82 76 78 82 76 78 82 76 78 82 76 78 82 76 78 69 63 65 68 62 64 66 60 62 62 56 58 59 53 55 56 50 52 53 47 49 48 48 50 33 42 47 29 44 49 30 43 49 29 44 49 30 43 49 29 44 49 30 43 49 29 44 49 28 41 47 27 42 47 28 41 47 27 42 47 28 41 47 27 42 47 28 41 47 30 41 47 37 41 50 38 41 50 38 41 50 38 41 50 38 41 50 38 41 50 38 41 50 38 41 50 45 48 57 45 48 57 45 48 57 45 48 57 45 48 57 45 48 57 45 48 57 45 48 55 53 56 61 52 57 60 53 57 60 52 57 60 53 57 60 52 57 60 53 57 60 52 57 60 62 66 69 61 66 69 62 66 69 61 66 69 62 66 69 61 66 69 62 66 69 65 64 69 71 60 66 74 59 66 74 59 66 74 59 66 74 59 66 74 59 66 74 59 66 74 59 66 61 46 53 61 46 53 61 46 53 61 46 53 61 46 53 61 46 53 61 46 53 58 47 55 50 44 54 47 45 56 47 45 56 47 45 56 47 45 56 47 45 56 47 45 56 47 45 56 47 45 56 47 45 56 47 45 56 47 45 56 47 45 56 47 45 56 47 45 56 48 45 54 63 53 62 64 53 61 64 53 61 64 53 61 64 53 61 64 53 61 64 53 61 64 53 61 79 68 76 76 65 73 71 60 68 65 54 62 58 47 55 51 40 48 47 36 44 40 35 42 33 35 47 29 37 48 29 37 48 29 37 48 29 37 48 29 37 48 29 37 48 29 37 48 40 48 59 40 48 59 40 48 59 40 48 59 40 48 59 40 48 59 40 48 59 40 49 56 40 48 51 43 52 51 51 55 56 57 61 62 67 67 69 75 73 76 81 76 80 87 78 83 86 73 80 89 72 80 91 71 80 92 71 80 95 69 80 95 69 80 98 68 80 96 69 78 98 76 78 97 77 76 97 77 76 97 77 76 97 77 76 97 77 76 97 77 76 97 77 76 108 88 87 108 88 87 108 88 87 108 88 87 108 88 87 108 88 87 108 88 87 109 88 87 115 84 90 114 81 88 112 79 86 109 76 83 105 72 79 102 69 76 100 67 74 98 65 72 98 65 72 98 65 72 98 65 72 98 65 72 98 65 72 98 65 72 98 65 72 100 65 72 99 56 66 101 55 66 101 55 66 101 55 66 101 55 66 101 55 66 101 55 66 101 55 66 97 51 62 101 55 66 107 61 72 109 63 74 106 60 71 97 51 62 87 41 52 71 38 47 52 39 46 44 43 48 44 43 48 44 43 48 44 43 48 44 43 48 44 43 48 44 43 48 43 42 47 41 40 45
82 73 76 82 73 76 82 73 76 82 73 76 82 73 76 82 76 78 82 76 78 82 76 78 82 76 78 82 76 78 82 76 78 82 76 78 82 76 78 73 67 69 71 65 67 69 63 65 66 60 62 62 56 58 59 53 55 57 51 53 52 50 53 34 41 47 32 43 49 32 43 49 32 43 49 32 43 49 32 43 49 32 43 49 32 43 49 30 41 47 30 41 47 30 41 47 30 41 47 30 41 47 30 41 47 30 41 47 31 40 47 37 41 50 38 41 50 38 41 50 38 41 50 38 41 50 38 41 50 38 41 50 38 41 50 45 48 57 45 48 57 45 48 57 45 48 57 45 48 57 45 48 57 45 48 57 45 48 55 55 56 61 55 56 60 55 56 60 55 56 60 55 56 60 55 56 60 55 56 60 55 56 60 67 68 72 67 68 72 67 68 72 67 68 72 67 68 72 67 68 72 67 68 72 69 67 72 78 67 73 81 66 73 81 66 73 81 66 73 81 66 73 81 66 73 81 66 73 81 66 73 61 46 53 61 46 53 61 46 53 61 46 53 61 46 53 61 46 53 61 46 53 58 47 55 50 44 54 47 45 56 47 45 56 47 45 56 47 45 56 47 45 56 47 45 56 47 45 56 47 45 56 47 45 56 47 45 56 47 45 56 47 45 56 47 45 56 47 45 56 48 45 54 60 50 59 61 50 58 61 50 58 61 50 58 61 50 58 61 50 58 61 50 58 61 50 58 75 64 72 73 62 70 68 57 65 62 51 59 55 44 52 48 37 45 43 32 40 37 32 39 33 35 47 29 37 48 29 37 48 29 37 48 29 37 48 29 37 48 29 37 48 29 37 48 40 48 59 40 48 59 40 48 59 40 48 59 40 48 59 40 48 59 40 48 59 40 49 56 44 52 55 46 55 54 54 58 59 60 64 65 70 70 72 78 76 79 85 80 84 90 81 86 86 73 80 89 72 80 91 71 80 92 71 80 95 69 80 95 69 80 98 68 80 96 69 78 98 76 78 97 77 76 97 77 76 97 77 76 97 77 76 97 77 76 97 77 76 97 77 76 108 88 87 108 88 87 108 88 87 108 88 87 108 88 87 108 88 87 108 88 87 109 88 87 115 84 90 114 81 88 112 79 86 109 76 83 105 72 79 102 69 76 100 67 74 98 65 72 98 65 72 98 65 72 98 65 72 98 65 72 98 65 72 98 65 72 98 65 72 100 65 72 99 56 66 101 55 66 101 55 66 101 55 66 101 55 66 101 55 66 101 55 66 101 55 66 97 51 62 101 55 66 107 61 72 109 63 74 106 60 71 97 51 62 87 41 52 71 38 47 52 39 46 44 43 48 44 43 48 44 43 48 44 43 48 44 43 48 44 43 48 44 43 48 43 42 47 41 40 45
82 73 76 82 73 76 82 73 76 82 73 76 82 73 76 82 76 78 82 76 78 82 76 78 82 76 78 82 76 78 82 76 78 82 76 78 82 76 78 75 69 71 74 68 70 71 65 67 68 62 64 65 59 61 61 55 57 59 53 55 55 53 56 36 41 47 33 42 49 33 42 49 33 42 49 33 42 49 33 42 49 33 42 49 33 42 49 31 40 47 31 40 47 31 40 47 31 40 47 31 40 47 31 40 47 31 40 47 32 39 47 37 41 50 38 41 50 38 41 50 38 41 50 38 41 50 38 41 50 38 41 50 38 41 50 45 48 57 45 48 57 45 48 57 45 48 57 45 48 57 45 48 57 45 48 57 47 47 55 56 55 61 56 55 60 56 55 60 56 55 60 56 55 60 56 55 60 56 55 60 56 55 60 70 69 74 70 69 74 70 69 74 70 69 74 70 69 74 70 69 74 70 69 74 73 68 74 83 72 78 86 71 78 86 71 78 86 71 78 86 71 78 86 71 78 86 71 78 86 71 78 61 46 53 61 46 53 61 46 53 61 46 53 61 46 53 61 46 53 61 46 53 58 47 55 50 44 54 47 45 56 47 45 56 47 45 56 47 45 56 47 45 56 47 45 56 47 45 56 47 45 56 47 45 56 47 45 56 47 45 56 47 45 56 47 45 56 47 45 56 48 45 54 58 48 57 59 48 56 59 48 56 59 48 56 59 48 56 59 48 56 59 48 56 59 48 56 73 62 70 70 59 67 65 54 62 59 48 56 52 41 49 46 35 43 41 30 38 34 29 36 33 35 47 29 37 48 29 37 48 29 37 48 29 37 48 29 37 48 29 37 48 29 37 48 40 48 59 40 48 59 40 48 59 40 48 59 40 48 59 40 48 59 40 48 59 40 49 56 46 54 57 49 58 57 57 61 62 63 67 68 73 73 75 80 78 81 87 82 86 93 84 89 86 73 80 89 72 80 91 71 80 92 71 80 95 69 80 95 69 80 98 68 80 96 69 78 98 76 78 97 77 76 97 77 76 97 77 76 97 77 76 97 77 76 97 77 76 97 77 76 108 88 87 108 88 87 108 88 87 108 88 87 108 88 87 108 88 87 108 88 87 109 88 87 115 84 90 114 81 88 112 79 86 109 76 83 105 72 79 102 69 76 100 67 74 98 65 72 98 65 72 98 65 72 98 65 72 98 65 72 98 65 72 98 65 72 98 65 72 100 65 72 99 56 66 101 55 66 101 55 66 101 55 66 101 55 66 101 55 66 101 55 66 101 55 66 97 51 62 101 55 66 107 61 72 109 63 74 106 60 71 97 51 62 87 41 52 71 38 47 52 39 46 44 43 48 44 43 48 44 43 48 44 43 48 44 43 48 44 43 48 44 43 48 43 42 47 41 40 45
82 73 76 82 73 76 82 73 76 82 73 76 82 73 76 82 76 78 82 76 78 82 76 78 82 76 78 82 76 78 82 76 78 82 76 78 82 76 78 76 70 72 75 69 71 73 67 69 69 63 65 66 60 62 63 57 59 60 54 56 56 54 57 39 39 47 36 40 49 36 40 49 36 40 49 36 40 49 36 40 49 36 40 49 36 40 49 34 38 47 34 38 47 34 38 47 34 38 47 34 38 47 34 38 47 34 38 47 34 38 47 38 41 50 38 41 50 38 41 50 38 41 50 38 41 50 38 41 50 38 41 50 38 41 50 45 48 57 45 48 57 45 48 57 45 48 57 45 48 57 45 48 57 45 48 57 47 47 55 57 54 61 59 54 60 59 54 60 59 54 60 59 54 60 59 54 60 59 54 60 59 54 60 75 70 76 75 70 76 75 70 76 75 70 76 75 70 76 75 70 76 75 70 76 76 69 76 86 73 80 88 73 80 88 73 80 88 73 80 88 73 80 88 73 80 88 73 80 88 73 80 61 46 53 61 46 53 61 46 53 61 46 53 61 46 53 61 46 53 61 46 53 58 47 55 50 44 54 47 45 56 47 45 56 47 45 56 47 45 56 47 45 56 47 45 56 47 45 56 47 45 56 47 45 56 47 45 56 47 45 56 47 45 56 47 45 56 47 45 56 48 45 54 56 46 55 57 46 54 57 46 54 57 46 54 57 46 54 57 46 54 57 46 54 57 46 54 72 61 69 69 58 66 64 53 61 58 47 55 51 40 48 45 34 42 40 29 37 33 28 35 33 35 47 29 37 48 29 37 48 29 37 48 29 37 48 29 37 48 29 37 48 29 37 48 40 48 59 40 48 59 40 48 59 40 48 59 40 48 59 40 48 59 40 48 59 40 49 56 47 55 58 50 59 58 58 62 63 64 68 69 74 74 76 81 79 82 88 83 87 94 85 90 86 73 80 89 72 80 91 71 80 92 71 80 95 69 80 95 69 80 98 68 80 96 69 78 98 76 78 97 77 76 97 77 76 97 77 76 97 77 76 97 77 76 97 77 76 97 77 76 108 88 87 108 88 87 108 88 87 108 88 87 108 88 87 108 88 87 108 88 87 109 88 87 115 84 90 114 81 88 112 79 86 109 76 83 105 72 79 102 69 76 100 67 74 98 65 72 98 65 72 98 65 72 98 65 72 98 65 72 98 65 72 98 65 72 98 65 72 100 65 72 99 56 66 101 55 66 101 55 66 101 55 66 101 55 66 101 55 66 101 55 66 101 55 66 97 51 62 101 55 66 107 61 72 109 63 74 106 60 71 97 51 62 87 41 52 71 38 47 52 39 46 44 43 48 44 43 48 44 43 48 44 43 48 44 43 48 44 43 48 44 43 48 43 42 47 41 40 45
87 78 81 87 78 81 87 78 81 87 78 81 87 78 81 67 61 63 67 61 63 68 62 64 69 63 65 71 65 67 72 66 68 73 67 69 73 67 69 73 67 69 73 67 69 73 67 69 73 67 69 73 67 69 73 67 69 73 67 69 72 67 71 64 63 71 62 62 72 58 58 68 54 54 64 49 49 59 45 45 55 41 41 51 39 39 49 52 52 62 52 52 62 52 52 62 52 52 62 52 52 62 52 52 62 52 52 62 52 52 62 55 58 67 54 57 66 51 54 63 48 51 60 45 48 57 41 44 53 39 42 51 38 41 50 56 59 68 56 59 68 56 59 68 56 59 68 56 59 68 56 59 68 56 59 68 58 58 66 56 49 57 59 49 57 61 51 59 65 55 63 68 58 66 71 61 69 74 64 72 75 65 73 87 77 85 87 77 85 87 77 85 87 77 85 87 77 85 87 77 85 87 77 85 88 77 85 87 74 81 89 74 81 89 74 81 89 74 81 89 74 81 89 74 81 89 74 81 89 74 81 91 76 83 89 74 81 84 69 76 77 62 69 71 56 63 64 49 56 59 44 51 54 43 51 48 42 52 45 43 54 45 43 54 45 43 54 45 43 54 45 43 54 45 43 54 45 43 54 41 39 50 41 39 50 41 39 50 41 39 50 41 39 50 41 39 50 41 39 50 42 39 48 50 40 49 51 40 48 51 40 48 51 40 48 51 40 48 51 40 48 51 40 48 51 40 48 48 37 45 48 37 45 48 37 45 48 37 45 48 37 45 48 37 45 48 37 45 44 39 46 36 38 50 32 40 51 32 40 51 32 40 51 32 40 51 32 40 51 32 40 51 32 40 51 32 40 51 34 42 53 36 44 55 39 47 58 43 51 62 46 54 65 48 56 67 50 59 66 57 65 68 57 66 65 60 64 65 60 64 65 63 63 65 64 62 65 66 61 65 69 60 65 73 60 67 78 61 69 82 62 71 86 65 74 93 67 78 96 70 81 101 71 83 101 74 83 104 82 84 103 83 82 103 83 82 103 83 82 103 83 82 103 83 82 103 83 82 103 83 82 100 80 79 100 80 79 100 80 79 100 80 79 100 80 79 100 80 79 100 80 79 101 80 79 103 72 78 104 71 78 104 71 78 104 71 78 104 71 78 104 71 78 104 71 78 104 71 78 102 69 76 102 69 76 102 69 76 102 69 76 102 69 76 102 69 76 102 69 76 104 69 76 98 55 65 100 54 65 100 54 65 100 54 65 100 54 65 100 54 65 100 54 65 100 54 65 97 51 62 95 49 60 93 47 58 90 44 55 86 40 51 83 37 48 81 35 46 70 37 46 44 31 38 38 37 42 40 39 44 43 42 47 47 46 51 50 49 54 52 51 56 54 53 58 39 38 43 37 36 41
87 78 81 87 78 81 87 78 81 87 78 81 87 78 81 68 62 64 69 63 65 69 63 65 70 64 66 70 64 66 71 65 67 71 65 67 72 66 68 71 65 67 71 65 67 71 65 67 71 65 67 71 65 67 71 65 67 71 65 67 70 65 69 65 62 71 63 60 71 60 57 68 57 54 65 53 50 61 49 46 57 46 43 54 44 41 52 56 53 64 56 53 64 56 53 64 56 53 64 56 53 64 56 53 64 56 53 64 55 53 64 58 58 68 55 58 67 53 56 65 49 52 61 46 49 58 43 46 55 40 43 52 39 42 51 56 59 68 56 59 68 56 59 68 56 59 68 56 59 68 56 59 68 56 59 68 59 58 66 59 49 58 62 49 58 65 52 61 68 55 64 71 58 67 75 62 71 77 64 73 78 65 74 89 76 85 89 76 85 89 76 85 89 76 85 89 76 85 89 76 85 89 76 85 89 76 85 89 74 81 89 74 81 89 74 81 89 74 81 89 74 81 89 74 81 89 74 81 89 74 81 91 76 83 89 74 81 84 69 76 77 62 69 71 56 63 64 49 56 59 44 51 54 43 51 48 42 52 45 43 54 45 43 54 45 43 54 45 43 54 45 43 54 45 43 54 45 43 54 41 39 50 41 39 50 41 39 50 41 39 50 41 39 50 41 39 50 41 39 50 42 39 48 50 40 49 51 40 48 51 40 48 51 40 48 51 40 48 51 40 48 51 40 48 51 40 48 48 37 45 48 37 45 48 37 45 48 37 45 48 37 45 48 37 45 48 37 45 44 39 46 36 38 50 32 40 51 32 40 51 32 40 51 32 40 51 32 40 51 32 40 51 32 40 51 32 40 51 34 42 53 36 44 55 39 47 58 43 51 62 46 54 65 48 56 67 50 59 66 59 67 70 59 68 67 62 66 67 62 66 67 65 65 67 66 64 67 68 63 67 71 62 67 73 60 67 78 61 69 82 62 71 86 65 74 93 67 78 96 70 81 101 71 83 101 74 83 104 82 84 103 83 82 103 83 82 103 83 82 103 83 82 103 83 82 103 83 82 103 83 82 100 80 79 100 80 79 100 80 79 100 80 79 100 80 79 100 80 79 100 80 79 101 80 79 103 72 78 104 71 78 104 71 78 104 71 78 104 71 78 104 71 78 104 71 78 104 71 78 102 69 76 102 69 76 102 69 76 102 69 76 102 69 76 102 69 76 102 69 76 104 69 76 98 55 65 100 54 65 100 54 65 100 54 65 100 54 65 100 54 65 100 54 65 100 54 65 97 51 62 95 49 60 93 47 58 90 44 55 86 40 51 83 37 48 81 35 46 70 37 46 44 31 38 38 37 42 40 39 44 43 42 47 47 46 51 50 49 54 52 51 56 54 53 58 39 38 43 37 36 41
87 78 81 87 78 81 87 78 81 87 78 81 87 78 81 72 66 68 72 66 68 71 65 67 70 64 66 70 64 66 69 63 65 68 62 64 68 62 64 69 63 65 69 63 65 69 63 65 69 63 65 69 63 65 69 63 65 69 63 65 69 63 67 66 60 70 65 59 71 63 57 69 60 54 66 58 52 64 55 49 61 53 47 59 52 46 58 63 57 69 63 57 69 63 57 69 63 57 69 63 57 69 63 57 69 63 57 69 61 58 69 61 61 71 57 60 69 55 58 67 52 55 64 48 51 60 45 48 57 43 46 55 41 44 53 56 59 68 56 59 68 56 59 68 56 59 68 56 59 68 56 59 68 56 59 68 59 58 66 62 50 60 67 51 61 69 53 63 72 56 66 76 60 70 79 63 73 81 65 75 83 67 77 91 75 85 91 75 85 91 75 85 91 75 85 91 75 85 91 75 85 91 75 85 91 75 85 89 74 81 89 74 81 89 74 81 89 74 81 89 74 81 89 74 81 89 74 81 89 74 81 91 76 83 89 74 81 84 69 76 77 62 69 71 56 63 64 49 56 59 44 51 54 43 51 48 42 52 45 43 54 45 43 54 45 43 54 45 43 54 45 43 54 45 43 54 45 43 54 41 39 50 41 39 50 41 39 50 41 39 50 41 39 50 41 39 50 41 39 50 42 39 48 50 40 49 51 40 48 51 40 48 51 40 48 51 40 48 51 40 48 51 40 48 51 40 48 48 37 45 48 37 45 48 37 45 48 37 45 48 37 45 48 37 45 48 37 45 44 39 46 36 38 50 32 40 51 32 40 51 32 40 51 32 40 51 32 40 51 32 40 51 32 40 51 32 40 51 34 42 53 36 44 55 39 47 58 43 51 62 46 54 65 48 56 67 50 59 66 61 69 72 61 70 69 64 68 69 64 68 69 67 67 69 68 66 69 70 65 69 73 64 69 73 60 67 78 61 69 82 62 71 86 65 74 93 67 78 96 70 81 101 71 83 101 74 83 104 82 84 103 83 82 103 83 82 103 83 82 103 83 82 103 83 82 103 83 82 103 83 82 100 80 79 100 80 79 100 80 79 100 80 79 100 80 79 100 80 79 100 80 79 101 80 79 103 72 78 104 71 78 104 71 78 104 71 78 104 71 78 104 71 78 104 71 78 104 71 78 102 69 76 102 69 76 102 69 76 102 69 76 102 69 76 102 69 76 102 69 76 104 69 76 98 55 65 100 54 65 100 54 65 100 54 65 100 54 65 100 54 65 100 54 65 100 54 65 97 51 62 95 49 60 93 47 58 90 44 55 86 40 51 83 37 48 81 35 46 70 37 46 44 31 38 38 37 42 40 39 44 43 42 47 47 46 51 50 49 54 52 51 56 54 53 58 39 38 43 37 36 41
87 78 81 87 78 81 87 78 81 87 78 81 87 78 81 76 70 72 75 69 71 74 68 70 71 65 67 69 63 65 66 60 62 65 59 61 64 58 60 66 60 62 66 60 62 66 60 62 66 60 62 66 60 62 66 60 62 66 60 62 66 60 64 66 58 69 65 57 70 67 56 70 64 56 69 65 54 68 62 54 67 63 52 66 61 53 66 73 62 76 71 63 76 73 62 76 71 63 76 73 62 76 71 63 76 73 62 76 70 64 76 64 64 74 61 64 73 58 61 70 55 58 67 52 55 64 48 51 60 46 49 58 45 48 57 56 59 68 56 59 68 56 59 68 56 59 68 56 59 68 56 59 68 56 59 68 60 57 66 67 54 64 71 54 64 75 55 66 77 60 70 82 62 73 83 66 76 88 68 79 87 70 80 94 74 85 92 75 85 94 74 85 92 75 85 94 74 85 92 75 85 94 74 85 92 75 85 89 74 81 89 74 81 89 74 81 89 74 81 89 74 81 89 74 81 89 74 81 89 74 81 91 76 83 89 74 81 84 69 76 77 62 69 71 56 63 64 49 56 59 44 51 54 43 51 48 42 52 45 43 54 45 43 54 45 43 54 45 43 54 45 43 54 45 43 54 45 43 54 41 39 50 41 39 50 41 39 50 41 39 50 41 39 50 41 39 50 41 39 50 42 39 48 50 40 49 51 40 48 51 40 48 51 40 48 51 40 48 51 40 48 51 40 48 51 40 48 48 37 45 48 37 45 48 37 45 48 37 45 48 37 45 48 37 45 48 37 45 44 39 46 36 38 50 32 40 51 32 40 51 32 40 51 32 40 51 32 40 51 32 40 51 32 40 51 32 40 51 34 42 53 36 44 55 39 47 58 43 51 62 46 54 65 48 56 67 50 59 66 64 72 75 64 73 72 67 71 72 67 71 72 70 70 72 71 69 72 73 68 72 76 67 72 73 60 67 78 61 69 82 62 71 86 65 74 93 67 78 96 70 81 101 71 83 101 74 83 104 82 84 103 83 82 103 83 82 103 83 82 103 83 82 103 83 82 103 83 82 103 83 82 100 80 79 100 80 79 100 80 79 100 80 79 100 80 79 100 80 79 100 80 79 101 80 79 103 72 78 104 71 78 104 71 78 104 71 78 104 71 78 104 71 78 104 71 78 104 71 78 102 69 76 102 69 76 102 69 76 102 69 76 102 69 76 102 69 76 102 69 76 104 69 76 98 55 65 100 54 65 100 54 65 100 54 65 100 54 65 100 54 65 100 54 65 100 54 65 97 51 62 95 49 60 93 47 58 90 44 55 86 40 51 83 37 48 81 35 46 70 37 46 44 31 38 38 37 42 40 39 44 43 42 47 47 46 51 50 49 54 52 51 56 54 53 58 39 38 43 37 36 41
87 78 81 87 78 81 87 78 81 87 78 81 87 78 81 81 75 77 79 73 75 76 70 72 72 66 68 68 62 64 64 58 60 61 55 57 59 53 55 62 56 58 62 56 58 62 56 58 62 56 58 62 56 58 62 56 58 62 56 58 62 56 60 66 56 67 67 56 70 68 56 70 68 57 71 70 58 72 70 59 73 72 60 74 71 60 74 80 68 82 79 68 82 80 68 82 79 68 82 80 68 82 79 68 82 80 68 82 77 69 82 68 66 77 64 67 76 62 65 74 58 61 70 55 58 67 52 55 64 49 52 61 48 51 60 56 59 68 56 59 68 56 59 68 56 59 68 56 59 68 56 59 68 56 59 68 60 57 66 72 56 67 76 56 67 80 58 70 82 62 73 86 64 76 89 69 80 92 70 82 92 72 83 95 73 85 94 74 85 95 73 85 94 74 85 95 73 85 94 74 85 95 73 85 94 74 85 90 73 81 89 74 81 89 74 81 89 74 81 89 74 81 89 74 81 89 74 81 89 74 81 91 76 83 89 74 81 84 69 76 77 62 69 71 56 63 64 49 56 59 44 51 54 43 51 48 42 52 45 43 54 45 43 54 45 43 54 45 43 54 45 43 54 45 43 54 45 43 54 41 39 50 41 39 50 41 39 50 41 39 50 41 39 50 41 39 50 41 39 50 42 39 48 50 40 49 51 40 48 51 40 48 51 40 48 51 40 48 51 40 48 51 40 48 51 40 48 48 37 45 48 37 45 48 37 45 48 37 45 48 37 45 48 37 45 48 37 45 44 39 46 36 38 50 32 40 51 32 40 51 32 40 51 32 40 51 32 40 51 32 40 51 32 40 51 32 40 51 34 42 53 36 44 55 39 47 58 43 51 62 46 54 65 48 56 67 50 59 66 68 76 79 68 77 76 71 75 76 71 75 76 74 74 76 75 73 76 77 72 76 80 71 76 73 60 67 78 61 69 82 62 71 86 65 74 93 67 78 96 70 81 101 71 83 101 74 83 104 82 84 103 83 82 103 83 82 103 83 82 103 83 82 103 83 82 103 83 82 103 83 82 100 80 79 100 80 79 100 80 79 100 80 79 100 80 79 100 80 79 100 80 79 101 80 79 103 72 78 104 71 78 104 71 78 104 71 78 104 71 78 104 71 78 104 71 78 104 71 78 102 69 76 102 69 76 102 69 76 102 69 76 102 69 76 102 69 76 102 69 76 104 69 76 98 55 65 100 54 65 100 54 65 100 54 65 100 54 65 100 54 65 100 54 65 100 54 65 97 51 62 95 49 60 93 47 58 90 44 55 86 40 51 83 37 48 81 35 46 70 37 46 44 31 38 38 37 42 40 39 44 43 42 47 47 46 51 50 49 54 52 51 56 54 53 58 39 38 43 37 36 41
87 78 81 87 78 81 87 78 81 87 78 81 87 78 81 85 79 81 83 77 79 79 73 75 73 67 69 67 61 63 61 55 57 57 51 53 55 49 51 59 53 55 59 53 55 59 53 55 59 53 55 59 53 55 59 53 55 59 53 55 61 52 57 66 54 66 67 55 69 70 56 71 72 60 74 75 61 76 77 65 79 80 66 81 80 68 82 88 74 89 87 75 89 88 74 89 87 75 89 88 74 89 87 75 89 88 74 89 86 75 89 72 70 81 67 70 79 65 68 77 62 65 74 58 61 70 55 58 67 53 56 65 51 54 63 56 59 68 56 59 68 56 59 68 56 59 68 56 59 68 56 59 68 56 59 68 60 57 66 75 59 70 81 59 71 84 60 73 86 64 76 91 67 80 93 71 83 96 72 85 97 75 87 96 72 85 95 73 85 96 72 85 95 73 85 96 72 85 95 73 85 96 72 85 95 73 85 90 73 81 89 74 81 89 74 81 89 74 81 89 74 81 89 74 81 89 74 81 89 74 81 91 76 83 89 74 81 84 69 76 77 62 69 71 56 63 64 49 56 59 44 51 54 43 51 48 42 52 45 43 54 45 43 54 45 43 54 45 43 54 45 43 54 45 43 54 45 43 54 41 39 50 41 39 50 41 39 50 41 39 50 41 39 50 41 39 50 41 39 50 42 39 48 50 40 49 51 40 48 51 40 48 51 40 48 51 40 48 51 40 48 51 40 48 51 40 48 48 37 45 48 37 45 48 37 45 48 37 45 48 37 45 48 37 45 48 37 45 44 39 46 36 38 50 32 40 51 32 40 51 32 40 51 32 40 51 32 40 51 32 40 51 32 40 51 32 40 51 34 42 53 36 44 55 39 47 58 43 51 62 46 54 65 48 56 67 50 59 66 71 79 82 71 80 79 74 78 79 74 78 79 77 77 79 78 76 79 80 75 79 83 74 79 73 60 67 78 61 69 82 62 71 86 65 74 93 67 78 96 70 81 101 71 83 101 74 83 104 82 84 103 83 82 103 83 82 103 83 82 103 83 82 103 83 82 103 83 82 103 83 82 100 80 79 100 80 79 100 80 79 100 80 79 100 80 79 100 80 79 100 80 79 101 80 79 103 72 78 104 71 78 104 71 78 104 71 78 104 71 78 104 71 78 104 71 78 104 71 78 102 69 76 102 69 76 102 69 76 102 69 76 102 69 76 102 69 76 102 69 76 104 69 76 98 55 65 100 54 65 100 54 65 100 54 65 100 54 65 100 54 65 100 54 65 100 54 65 97 51 62 95 49 60 93 47 58 90 44 55 86 40 51 83 37 48 81 35 46 70 37 46 44 31 38 38 37 42 40 39 44 43 42 47 47 46 51 50 49 54 52 51 56 54 53 58 39 38 43 37 36 41
87 78 81 87 78 81 87 78 81 87 78 81 87 78 81 89 83 85 86 80 82 81 75 77 74 68 70 66 60 62 59 53 55 54 48 50 51 45 47 57 51 53 57 51 53 57 51 53 57 51 53 57 51 53 57 51 53 57 51 53 59 50 55 66 52 65 68 54 69 73 56 72 74 60 75 80 63 79 82 68 83 87 70 86 87 73 88 95 78 94 93 79 94 95 78 94 93 79 94 95 78 94 93 79 94 95 78 94 91 80 94 74 72 83 70 73 82 67 70 79 64 67 76 61 64 73 57 60 69 55 58 67 54 57 66 56 59 68 56 59 68 56 59 68 56 59 68 56 59 68 56 59 68 56 59 68 60 57 66 79 61 73 84 60 73 88 62 75 90 66 79 95 69 82 96 72 85 101 75 88 100 76 89 98 72 85 96 72 85 98 72 85 96 72 85 98 72 85 96 72 85 98 72 85 95 73 85 90 73 81 89 74 81 89 74 81 89 74 81 89 74 81 89 74 81 89 74 81 89 74 81 91 76 83 89 74 81 84 69 76 77 62 69 71 56 63 64 49 56 59 44 51 54 43 51 48 42 52 45 43 54 45 43 54 45 43 54 45 43 54 45 43 54 45 43 54 45 43 54 41 39 50 41 39 50 41 39 50 41 39 50 41 39 50 41 39 50 41 39 50 42 39 48 50 40 49 51 40 48 51 40 48 51 40 48 51 40 48 51 40 48 51 40 48 51 40 48 48 37 45 48 37 45 48 37 45 48 37 45 48 37 45 48 37 45 48 37 45 44 39 46 36 38 50 32 40 51 32 40 51 32 40 51 32 40 51 32 40 51 32 40 51 32 40 51 32 40 51 34 42 53 36 44 55 39 47 58 43 51 62 46 54 65 48 56 67 50 59 66 73 81 84 73 82 81 76 80 81 76 80 81 79 79 81 80 78 81 82 77 81 85 76 81 73 60 67 78 61 69 82 62 71 86 65 74 93 67 78 96 70 81 101 71 83 101 74 83 104 82 84 103 83 82 103 83 82 103 83 82 103 83 82 103 83 82 103 83 82 103 83 82 100 80 79 100 80 79 100 80 79 100 80 79 100 80 79 100 80 79 100 80 79 101 80 79 103 72 78 104 71 78 104 71 78 104 71 78 104 71 78 104 71 78 104 71 78 104 71 78 102 69 76 102 69 76 102 69 76 102 69 76 102 69 76 102 69 76 102 69 76 104 69 76 98 55 65 100 54 65 100 54 65 100 54 65 100 54 65 100 54 65 100 54 65 100 54 65 97 51 62 95 49 60 93 47 58 90 44 55 86 40 51 83 37 48 81 35 46 70 37 46 44 31 38 38 37 42 40 39 44 43 42 47 47 46 51 50 49 54 52 51 56 54 53 58 39 38 43 37 36 41
87 78 81 87 78 81 87 78 81 87 78 81 85 79 81 91 85 87 88 82 84 82 76 78 74 68 70 66 60 62 58 52 54 52 46 48 49 43 45 55 49 51 55 49 51 55 49 51 55 49 51 55 49 51 55 49 51 55 49 51 57 48 53 66 53 63 67 53 66 73 57 70 75 61 74 82 66 79 84 70 83 90 74 87 90 76 89 97 81 94 95 81 94 97 81 94 95 81 94 97 81 94 95 81 94 97 81 94 94 82 94 78 72 82 74 73 81 72 71 79 68 67 75 65 64 72 62 61 69 59 58 66 58 57 65 59 58 66 59 58 66 59 58 66 59 58 66 59 58 66 59 58 66 59 58 66 63 56 64 82 62 73 85 62 72 88 65 75 91 68 78 94 71 81 98 75 85 100 77 87 101 78 88 96 73 83 96 73 83 96 73 83 96 73 83 96 73 83 96 73 83 96 73 83 95 74 83 90 73 81 89 74 79 89 74 81 89 74 79 89 74 81 89 74 79 89 74 81 89 74 79 91 76 83 89 74 79 84 69 76 77 62 67 71 56 63 64 49 54 59 44 51 54 43 51 48 42 52 45 43 54 45 43 54 45 43 54 45 43 54 45 43 54 45 43 54 45 43 54 41 39 50 41 39 50 41 39 50 41 39 50 41 39 50 41 39 50 41 39 50 42 39 48 48 41 49 50 40 48 50 40 49 50 40 48 50 40 49 50 40 48 50 40 49 50 40 48 47 37 46 47 37 45 47 37 46 47 37 45 47 37 46 47 37 45 47 37 46 44 39 46 36 38 50 33 40 50 33 39 51 33 40 50 33 39 51 33 40 50 33 39 51 33 40 50 33 39 51 35 42 52 37 43 55 40 47 57 44 50 62 47 54 64 49 55 67 53 57 66 78 82 83 80 82 81 81 81 81 81 81 81 82 80 81 84 80 81 85 79 81 87 78 81 73 61 65 77 62 67 80 63 69 85 66 72 90 69 76 94 71 79 98 72 81 100 75 81 104 82 84 104 83 82 104 82 84 104 83 82 104 82 84 104 83 82 104 82 84 104 83 82 101 79 81 101 80 79 101 79 81 101 80 79 101 79 81 101 80 79 101 79 81 103 78 81 103 72 77 104 71 78 104 71 78 104 71 78 104 71 78 104 71 78 104 71 78 104 71 78 102 69 76 102 69 76 102 69 76 102 69 76 102 69 76 102 69 76 102 69 76 105 68 76 100 54 65 101 53 65 101 53 65 101 53 65 101 53 65 100 54 65 100 54 65 98 55 65 95 52 62 93 50 60 90 48 58 87 45 55 83 41 51 79 39 48 77 37 46 68 38 46 42 33 38 37 38 42 40 39 44 42 43 47 47 46 51 49 50 54 52 51 56 53 54 58 39 38 43 36 37 41
87 81 83 87 81 83 87 81 83 87 81 83 87 81 83 86 80 84 83 78 82 81 76 80 78 73 77 74 69 73 71 66 70 69 64 68 67 62 66 57 52 56 57 52 56 57 52 56 57 52 56 57 52 56 57 52 56 57 52 56 58 52 56 58 47 55 60 49 57 63 50 59 65 54 62 70 57 66 72 61 69 75 62 71 76 65 73 102 89 98 100 89 97 99 86 95 94 83 91 92 79 88 88 77 85 86 73 82 84 73 81 64 53 59 64 53 59 64 53 59 64 53 59 64 53 59 64 53 59 64 53 59 64 53 59 67 56 62 69 58 64 71 60 66 74 63 69 78 67 73 81 70 76 83 72 78 86 73 80 95 76 82 96 75 82 96 75 82 96 75 82 96 75 82 96 75 82 96 75 82 96 75 82 86 65 72 88 67 74 90 69 76 93 72 79 97 76 83 100 79 86 102 81 88 103 84 90 90 73 79 87 72 75 85 70 75 82 67 70 78 63 68 75 60 63 73 58 63 71 56 59 79 64 69 79 64 67 79 64 69 79 64 67 79 64 69 79 64 67 79 64 69 76 65 71 47 42 49 44 43 51 44 43 51 44 43 51 44 43 51 44 43 51 44 43 51 44 43 51 34 33 41 34 33 41 34 33 41 34 33 41 34 33 41 34 33 41 34 33 41 34 33 41 50 47 56 50 47 54 50 47 56 50 47 54 50 47 56 50 47 54 50 47 56 50 47 54 40 37 46 40 37 44 40 37 46 40 37 44 40 37 46 40 37 44 40 37 46 40 37 46 42 42 52 42 42 52 42 42 54 42 42 52 42 42 54 42 42 52 42 42 54 42 42 52 44 44 56 46 46 56 51 51 63 58 58 68 64 64 76 71 71 81 76 76 88 79 78 84 96 92 91 97 89 86 94 86 83 89 81 78 85 77 74 81 71 69 78 68 66 76 66 64 95 84 82 95 84 82 97 83 82 97 83 82 97 83 82 98 82 82 98 82 82 100 82 82 99 74 77 100 74 77 100 73 78 100 74 77 100 73 78 100 74 77 100 73 78 100 74 77 98 71 76 98 72 75 98 71 76 98 72 75 98 71 76 98 72 75 98 71 76 100 71 75 100 68 73 102 67 73 102 67 73 102 67 73 102 67 73 102 67 73 102 67 73 102 67 73 104 69 75 104 69 75 104 69 75 104 69 75 104 69 75 104 69 75 104 69 75 107 67 76 105 55 67 107 53 69 106 53 69 106 53 69 105 54 69 103 55 69 102 56 69 99 57 69 96 56 67 92 54 65 86 50 60 77 44 53 70 39 47 62 32 40 55 28 35 48 29 35 39 34 38 35 39 42 39 40 44 40 44 47 46 47 51 47 51 54 51 52 56 51 55 58 36 37 41 32 36 39
87 81 83 87 81 83 87 81 83 87 81 83 87 81 83 85 80 84 83 78 82 81 76 80 78 73 77 74 69 73 71 66 70 69 64 68 67 62 66 57 52 56 57 52 56 57 52 56 57 52 56 57 52 56 57 52 56 57 52 56 58 52 56 57 48 53 60 49 55 62 51 57 65 54 60 69 58 64 72 61 67 74 63 69 76 65 71 100 89 95 99 88 94 96 85 91 93 82 88 90 79 85 86 75 81 84 73 79 83 72 78 67 52 57 67 52 57 67 52 57 67 52 57 67 52 57 67 52 57 67 52 57 67 52 57 70 55 60 72 57 62 74 59 64 77 62 67 81 66 71 84 69 74 86 71 76 88 73 78 93 74 78 93 74 78 93 74 78 93 74 78 93 74 78 93 74 78 93 74 78 93 74 78 85 66 70 87 68 72 89 70 74 92 73 77 96 77 81 99 80 84 101 82 86 101 85 88 90 74 77 87 72 75 85 70 73 82 67 70 78 63 66 75 60 63 73 58 61 71 56 59 79 64 67 79 64 67 79 64 67 79 64 67 79 64 67 79 64 67 79 64 67 76 65 69 47 42 49 44 43 51 44 43 51 44 43 51 44 43 51 44 43 51 44 43 51 44 43 51 36 35 43 36 35 43 36 35 43 36 35 43 36 35 43 36 35 43 36 35 43 36 35 43 49 48 56 49 48 56 49 48 56 49 48 56 49 48 56 49 48 56 49 48 56 49 48 56 39 38 46 39 38 46 39 38 46 39 38 46 39 38 46 39 38 46 39 38 46 39 38 46 43 41 52 43 41 52 43 41 52 43 41 52 43 41 52 43 41 52 43 41 52 43 41 52 45 43 54 47 45 56 52 50 61 59 57 68 65 63 74 72 70 81 77 75 86 80 77 84 98 88 87 98 87 83 95 84 80 91 80 76 87 76 72 83 72 68 80 69 65 79 68 64 95 84 80 95 84 80 95 84 80 95 84 80 95 84 80 95 84 80 95 84 80 98 83 80 99 74 78 102 73 78 102 73 78 102 73 78 102 73 78 102 73 78 102 73 78 102 73 78 100 71 76 100 71 76 100 71 76 100 71 76 100 71 76 100 71 76 100 71 76 101 70 76 100 68 73 102 67 73 102 67 73 102 67 73 102 67 73 102 67 73 102 67 73 102 67 73 104 69 75 104 69 75 104 69 75 104 69 75 104 69 75 104 69 75 104 69 75 108 67 75 106 53 69 109 52 69 109 52 69 106 53 69 106 53 69 103 55 69 102 56 69 99 57 69 94 56 67 89 56 65 83 52 60 73 46 53 67 40 47 57 34 40 52 29 35 45 30 35 37 35 38 35 39 42 37 41 44 40 44 47 44 48 51 47 51 54 49 53 56 51 55 58 34 38 41 32 36 39
87 81 83 87 81 83 87 81 83 87 81 83 87 81 83 85 80 84 83 78 82 81 76 80 78 73 77 74 69 73 71 66 70 69 64 68 67 62 66 57 52 56 57 52 56 57 52 56 57 52 56 57 52 56 57 52 56 57 52 56 58 52 56 57 48 53 60 49 55 62 51 57 65 54 60 69 58 64 72 61 67 74 63 69 76 65 71 98 87 93 96 85 91 94 83 89 91 80 86 87 76 82 84 73 79 82 71 77 80 69 75 67 52 57 67 52 57 67 52 57 67 52 57 67 52 57 67 52 57 67 52 57 67 52 57 70 55 60 72 57 62 74 59 64 77 62 67 81 66 71 84 69 74 86 71 76 88 73 78 91 72 76 91 72 76 91 72 76 91 72 76 91 72 76 91 72 76 91 72 76 91 72 76 85 66 70 87 68 72 89 70 74 92 73 77 96 77 81 99 80 84 101 82 86 101 85 88 90 74 77 87 72 75 85 70 73 82 67 70 78 63 66 75 60 63 73 58 61 71 56 59 79 64 67 79 64 67 79 64 67 79 64 67 79 64 67 79 64 67 79 64 67 76 65 69 47 42 49 44 43 51 44 43 51 44 43 51 44 43 51 44 43 51 44 43 51 44 43 51 38 37 45 38 37 45 38 37 45 38 37 45 38 37 45 38 37 45 38 37 45 38 37 45 49 48 56 49 48 56 49 48 56 49 48 56 49 48 56 49 48 56 49 48 56 49 48 56 39 38 46 39 38 46 39 38 46 39 38 46 39 38 46 39 38 46 39 38 46 39 38 46 43 41 52 43 41 52 43 41 52 43 41 52 43 41 52 43 41 52 43 41 52 43 41 52 45 43 54 47 45 56 52 50 61 59 57 68 65 63 74 72 70 81 77 75 86 80 77 84 95 85 84 95 84 80 93 82 78 90 79 75 88 77 73 85 74 70 83 72 68 82 71 67 95 84 80 95 84 80 95 84 80 95 84 80 95 84 80 95 84 80 95 84 80 98 83 80 99 74 78 102 73 78 102 73 78 102 73 78 102 73 78 102 73 78 102 73 78 102 73 78 100 71 76 100 71 76 100 71 76 100 71 76 100 71 76 100 71 76 100 71 76 101 70 76 100 68 73 102 67 73 102 67 73 102 67 73 102 67 73 102 67 73 102 67 73 102 67 73 104 69 75 104 69 75 104 69 75 104 69 75 104 69 75 104 69 75 104 69 75 108 67 75 106 53 69 109 52 69 109 52 69 106 53 69 106 53 69 103 55 69 102 56 69 99 57 69 94 56 67 89 56 65 83 52 60 73 46 53 67 40 47 57 34 40 52 29 35 45 30 35 37 35 38 35 39 42 37 41 44 40 44 47 44 48 51 47 51 54 49 53 56 51 55 58 34 38 41 32 36 39
87 81 83 87 81 83 87 81 83 87 81 83 87 81 83 85 80 84 83 78 82 81 76 80 78 73 77 74 69 73 71 66 70 69 64 68 67 62 66 57 52 56 57 52 56 57 52 56 57 52 56 57 52 56 57 52 56 57 52 56 58 52 56 57 48 53 60 49 55 62 51 57 65 54 60 69 58 64 72 61 67 74 63 69 76 65 71 94 83 89 93 82 88 91 80 86 87 76 82 84 73 79 81 70 76 78 67 73 77 66 72 67 52 57 67 52 57 67 52 57 67 52 57 67 52 57 67 52 57 67 52 57 67 52 57 70 55 60 72 57 62 74 59 64 77 62 67 81 66 71 84 69 74 86 71 76 88 73 78 88 69 73 88 69 73 88 69 73 88 69 73 88 69 73 88 69 73 88 69 73 88 69 73 85 66 70 87 68 72 89 70 74 92 73 77 96 77 81 99 80 84 101 82 86 101 85 88 90 74 77 87 72 75 85 70 73 82 67 70 78 63 66 75 60 63 73 58 61 71 56 59 79 64 67 79 64 67 79 64 67 79 64 67 79 64 67 79 64 67 79 64 67 76 65 69 47 42 49 44 43 51 44 43 51 44 43 51 44 43 51 44 43 51 44 43 51 44 43 51 41 40 48 41 40 48 41 40 48 41 40 48 41 40 48 41 40 48 41 40 48 41 40 48 49 48 56 49 48 56 49 48 56 49 48 56 49 48 56 49 48 56 49 48 56 49 48 56 39 38 46 39 38 46 39 38 46 39 38 46 39 38 46 39 38 46 39 38 46 39 38 46 43 41 52 43 41 52 43 41 52 43 41 52 43 41 52 43 41 52 43 41 52 43 41 52 45 43 54 47 45 56 52 50 61 59 57 68 65 63 74 72 70 81 77 75 86 80 77 84 90 80 79 91 80 76 90 79 75 89 78 74 89 78 74 88 77 73 87 76 72 87 76 72 95 84 80 95 84 80 95 84 80 95 84 80 95 84 80 95 84 80 95 84 80 98 83 80 99 74 78 102 73 78 102 73 78 102 73 78 102 73 78 102 73 78 102 73 78 102 73 78 100 71 76 100 71 76 100 71 76 100 71 76 100 71 76 100 71 76 100 71 76 101 70 76 100 68 73 102 67 73 102 67 73 102 67 73 102 67 73 102 67 73 102 67 73 102 67 73 104 69 75 104 69 75 104 69 75 104 69 75 104 69 75 104 69 75 104 69 75 108 67 75 106 53 69 109 52 69 109 52 69 106 53 69 106 53 69 103 55 69 102 56 69 99 57 69 94 56 67 89 56 65 83 52 60 73 46 53 67 40 47 57 34 40 52 29 35 45 30 35 37 35 38 35 39 42 37 41 44 40 44 47 44 48 51 47 51 54 49 53 56 51 55 58 34 38 41 32 36 39
87 81 83 87 81 83 87 81 83 87 81 83 87 81 83 85 80 84 83 78 82 81 76 80 78 73 77 74 69 73 71 66 70 69 64 68 67 62 66 57 52 56 57 52 56 57 52 56 57 52 56 57 52 56 57 52 56 57 52 56 58 52 56 57 48 53 60 49 55 62 51 57 65 54 60 69 58 64 72 61 67 74 63 69 76 65 71 91 80 86 90 79 85 87 76 82 84 73 79 81 70 76 77 66 72 75 64 70 74 63 69 67 52 57 67 52 57 67 52 57 67 52 57 67 52 57 67 52 57 67 52 57 67 52 57 70 55 60 72 57 62 74 59 64 77 62 67 81 66 71 84 69 74 86 71 76 88 73 78 84 65 69 84 65 69 84 65 69 84 65 69 84 65 69 84 65 69 84 65 69 84 65 69 85 66 70 87 68 72 89 70 74 92 73 77 96 77 81 99 80 84 101 82 86 101 85 88 90 74 77 87 72 75 85 70 73 82 67 70 78 63 66 75 60 63 73 58 61 71 56 59 79 64 67 79 64 67 79 64 67 79 64 67 79 64 67 79 64 67 79 64 67 76 65 69 47 42 49 44 43 51 44 43 51 44 43 51 44 43 51 44 43 51 44 43 51 44 43 51 45 44 52 45 44 52 45 44 52 45 44 52 45 44 52 45 44 52 45 44 52 45 44 52 49 48 56 49 48 56 49 48 56 49 48 56 49 48 56 49 48 56 49 48 56 49 48 56 39 38 46 39 38 46 39 38 46 39 38 46 39 38 46 39 38 46 39 38 46 39 38 46 43 41 52 43 41 52 43 41 52 43 41 52 43 41 52 43 41 52 43 41 52 43 41 52 45 43 54 47 45 56 52 50 61 59 57 68 65 63 74 72 70 81 77 75 86 80 77 84 86 76 75 87 76 72 88 77 73 89 78 74 89 78 74 90 79 75 91 80 76 91 80 76 95 84 80 95 84 80 95 84 80 95 84 80 95 84 80 95 84 80 95 84 80 98 83 80 99 74 78 102 73 78 102 73 78 102 73 78 102 73 78 102 73 78 102 73 78 102 73 78 100 71 76 100 71 76 100 71 76 100 71 76 100 71 76 100 71 76 100 71 76 101 70 76 100 68 73 102 67 73 102 67 73 102 67 73 102 67 73 102 67 73 102 67 73 102 67 73 104 69 75 104 69 75 104 69 75 104 69 75 104 69 75 104 69 75 104 69 75 108 67 75 106 53 69 109 52 69 109 52 69 106 53 69 106 53 69 103 55 69 102 56 69 99 57 69 94 56 67 89 56 65 83 52 60 73 46 53 67 40 47 57 34 40 52 29 35 45 30 35 37 35 38 35 39 42 37 41 44 40 44 47 44 48 51 47 51 54 49 53 56 51 55 58 34 38 41 32 36 39
87 81 83 87 81 83 87 81 83 87 81 83 87 81 83 85 80 84 83 78 82 81 76 80 78 73 77 74 69 73 71 66 70 69 64 68 67 62 66 57 52 56 57 52 56 57 52 56 57 52 56 57 52 56 57 52 56 57 52 56 58 52 56 57 48 53 60 49 55 62 51 57 65 54 60 69 58 64 72 61 67 74 63 69 76 65 71 88 77 83 86 75 81 84 73 79 81 70 76 77 66 72 74 63 69 72 61 67 70 59 65 67 52 57 67 52 57 67 52 57 67 52 57 67 52 57 67 52 57 67 52 57 67 52 57 70 55 60 72 57 62 74 59 64 77 62 67 81 66 71 84 69 74 86 71 76 88 73 78 81 62 66 81 62 66 81 62 66 81 62 66 81 62 66 81 62 66 81 62 66 81 62 66 85 66 70 87 68 72 89 70 74 92 73 77 96 77 81 99 80 84 101 82 86 101 85 88 90 74 77 87 72 75 85 70 73 82 67 70 78 63 66 75 60 63 73 58 61 71 56 59 79 64 67 79 64 67 79 64 67 79 64 67 79 64 67 79 64 67 79 64 67 76 65 69 47 42 49 44 43 51 44 43 51 44 43 51 44 43 51 44 43 51 44 43 51 44 43 51 48 47 55 48 47 55 48 47 55 48 47 55 48 47 55 48 47 55 48 47 55 48 47 55 49 48 56 49 48 56 49 48 56 49 48 56 49 48 56 49 48 56 49 48 56 49 48 56 39 38 46 39 38 46 39 38 46 39 38 46 39 38 46 39 38 46 39 38 46 39 38 46 43 41 52 43 41 52 43 41 52 43 41 52 43 41 52 43 41 52 43 41 52 43 41 52 45 43 54 47 45 56 52 50 61 59 57 68 65 63 74 72 70 81 77 75 86 80 77 84 81 71 70 83 72 68 85 74 70 88 77 73 90 79 75 93 82 78 95 84 80 96 85 81 95 84 80 95 84 80 95 84 80 95 84 80 95 84 80 95 84 80 95 84 80 98 83 80 99 74 78 102 73 78 102 73 78 102 73 78 102 73 78 102 73 78 102 73 78 102 73 78 100 71 76 100 71 76 100 71 76 100 71 76 100 71 76 100 71 76 100 71 76 101 70 76 100 68 73 102 67 73 102 67 73 102 67 73 102 67 73 102 67 73 102 67 73 102 67 73 104 69 75 104 69 75 104 69 75 104 69 75 104 69 75 104 69 75 104 69 75 108 67 75 106 53 69 109 52 69 109 52 69 106 53 69 106 53 69 103 55 69 102 56 69 99 57 69 94 56 67 89 56 65 83 52 60 73 46 53 67 40 47 57 34 40 52 29 35 45 30 35 37 35 38 35 39 42 37 41 44 40 44 47 44 48 51 47 51 54 49 53 56 51 55 58 34 38 41 32 36 39
87 81 83 87 81 83 87 81 83 87 81 83 87 81 83 85 80 84 83 78 82 81 76 80 78 73 77 74 69 73 71 66 70 69 64 68 67 62 66 57 52 56 57 52 56 57 52 56 57 52 56 57 52 56 57 52 56 57 52 56 58 52 56 57 48 53 60 49 55 62 51 57 65 54 60 69 58 64 72 61 67 74 63 69 76 65 71 85 74 80 84 73 79 82 71 77 78 67 73 75 64 70 72 61 67 69 58 64 68 57 63 67 52 57 67 52 57 67 52 57 67 52 57 67 52 57 67 52 57 67 52 57 67 52 57 70 55 60 72 57 62 74 59 64 77 62 67 81 66 71 84 69 74 86 71 76 88 73 78 79 60 64 79 60 64 79 60 64 79 60 64 79 60 64 79 60 64 79 60 64 79 60 64 85 66 70 87 68 72 89 70 74 92 73 77 96 77 81 99 80 84 101 82 86 101 85 88 90 74 77 87 72 75 85 70 73 82 67 70 78 63 66 75 60 63 73 58 61 71 56 59 79 64 67 79 64 67 79 64 67 79 64 67 79 64 67 79 64 67 79 64 67 76 65 69 47 42 49 44 43 51 44 43 51 44 43 51 44 43 51 44 43 51 44 43 51 44 43 51 50 49 57 50 49 57 50 49 57 50 49 57 50 49 57 50 49 57 50 49 57 50 49 57 49 48 56 49 48 56 49 48 56 49 48 56 49 48 56 49 48 56 49 48 56 49 48 56 39 38 46 39 38 46 39 38 46 39 38 46 39 38 46 39 38 46 39 38 46 39 38 46 43 41 52 43 41 52 43 41 52 43 41 52 43 41 52 43 41 52 43 41 52 43 41 52 45 43 54 47 45 56 52 50 61 59 57 68 65 63 74 72 70 81 77 75 86 80 77 84 78 68 67 80 69 65 83 72 68 87 76 72 91 80 76 95 84 80 98 87 83 99 88 84 95 84 80 95 84 80 95 84 80 95 84 80 95 84 80 95 84 80 95 84 80 98 83 80 99 74 78 102 73 78 102 73 78 102 73 78 102 73 78 102 73 78 102 73 78 102 73 78 100 71 76 100 71 76 100 71 76 100 71 76 100 71 76 100 71 76 100 71 76 101 70 76 100 68 73 102 67 73 102 67 73 102 67 73 102 67 73 102 67 73 102 67 73 102 67 73 104 69 75 104 69 75 104 69 75 104 69 75 104 69 75 104 69 75 104 69 75 108 67 75 106 53 69 109 52 69 109 52 69 106 53 69 106 53 69 103 55 69 102 56 69 99 57 69 94 56 67 89 56 65 83 52 60 73 46 53 67 40 47 57 34 40 52 29 35 45 30 35 37 35 38 35 39 42 37 41 44 40 44 47 44 48 51 47 51 54 49 53 56 51 55 58 34 38 41 32 36 39
87 81 83 87 81 83 87 81 83 87 81 83 87 81 83 85 80 84 83 78 82 81 76 80 78 73 77 74 69 73 71 66 70 69 64 68 67 62 66 57 52 56 57 52 56 57 52 56 57 52 56 57 52 56 57 52 56 57 52 56 58 52 56 57 48 53 60 49 55 62 51 57 65 54 60 69 58 64 72 61 67 74 63 69 76 65 71 84 73 79 83 72 78 80 69 75 77 66 72 74 63 69 70 59 65 68 57 63 67 56 62 67 52 57 67 52 57 67 52 57 67 52 57 67 52 57 67 52 57 67 52 57 67 52 57 70 55 60 72 57 62 74 59 64 77 62 67 81 66 71 84 69 74 86 71 76 88 73 78 77 58 62 77 58 62 77 58 62 77 58 62 77 58 62 77 58 62 77 58 62 77 58 62 85 66 70 87 68 72 89 70 74 92 73 77 96 77 81 99 80 84 101 82 86 101 85 88 90 74 77 87 72 75 85 70 73 82 67 70 78 63 66 75 60 63 73 58 61 71 56 59 79 64 67 79 64 67 79 64 67 79 64 67 79 64 67 79 64 67 79 64 67 76 65 69 47 42 49 44 43 51 44 43 51 44 43 51 44 43 51 44 43 51 44 43 51 44 43 51 52 51 59 52 51 59 52 51 59 52 51 59 52 51 59 52 51 59 52 51 59 52 51 59 49 48 56 49 48 56 49 48 56 49 48 56 49 48 56 49 48 56 49 48 56 49 48 56 39 38 46 39 38 46 39 38 46 39 38 46 39 38 46 39 38 46 39 38 46 39 38 46 43 41 52 43 41 52 43 41 52 43 41 52 43 41 52 43 41 52 43 41 52 43 41 52 45 43 54 47 45 56 52 50 61 59 57 68 65 63 74 72 70 81 77 75 86 80 77 84 76 66 65 79 68 64 82 71 67 87 76 72 91 80 76 96 85 81 99 88 84 101 90 86 95 84 80 95 84 80 95 84 80 95 84 80 95 84 80 95 84 80 95 84 80 98 83 80 99 74 78 102 73 78 102 73 78 102 73 78 102 73 78 102 73 78 102 73 78 102 73 78 100 71 76 100 71 76 100 71 76 100 71 76 100 71 76 100 71 76 100 71 76 101 70 76 100 68 73 102 67 73 102 67 73 102 67 73 102 67 73 102 67 73 102 67 73 102 67 73 104 69 75 104 69 75 104 69 75 104 69 75 104 69 75 104 69 75 104 69 75 108 67 75 106 53 69 109 52 69 109 52 69 106 53 69 106 53 69 103 55 69 102 56 69 99 57 69 94 56 67 89 56 65 83 52 60 73 46 53 67 40 47 57 34 40 52 29 35 45 30 35 37 35 38 35 39 42 37 41 44 40 44 47 44 48 51 47 51 54 49 53 56 51 55 58 34 38 41 32 36 39
68 62 64 68 62 64 68 62 64 68 62 64 68 62 64 63 58 62 63 58 62 63 58 62 63 58 62 63 58 62 63 58 62 63 58 62 63 58 62 59 54 58 59 54 58 59 54 58 59 54 58 59 54 58 59 54 58 59 54 58 60 54 58 60 51 56 61 50 56 61 50 56 61 50 56 61 50 56 61 50 56 61 50 56 61 50 56 62 51 57 62 51 57 62 51 57 62 51 57 62 51 57 62 51 57 62 51 57 62 51 57 72 57 62 72 57 62 72 57 62 72 57 62 72 57 62 72 57 62 72 57 62 72 57 62 80 65 70 80 65 70 80 65 70 80 65 70 80 65 70 80 65 70 80 65 70 80 65 70 84 65 69 82 63 67 80 61 65 77 58 62 73 54 58 70 51 55 68 49 53 66 47 51 79 60 64 81 62 66 83 64 68 86 67 71 90 71 75 93 74 78 95 76 80 95 79 82 92 76 79 89 74 77 87 72 75 84 69 72 80 65 68 77 62 65 75 60 63 73 58 61 74 59 62 74 59 62 74 59 62 74 59 62 74 59 62 74 59 62 74 59 62 71 60 64 64 59 66 60 59 67 56 55 63 52 51 59 47 46 54 43 42 50 39 38 46 37 36 44 74 73 81 72 71 79 70 69 77 67 66 74 63 62 70 60 59 67 58 57 65 56 55 63 61 60 68 59 58 66 57 56 64 54 53 61 50 49 57 47 46 54 45 44 52 43 42 50 42 41 49 42 41 49 42 41 49 42 41 49 42 41 49 42 41 49 42 41 49 42 41 49 48 46 57 48 46 57 48 46 57 48 46 57 48 46 57 48 46 57 48 46 57 48 46 57 60 58 69 61 59 70 63 61 72 67 65 76 70 68 79 73 71 82 76 74 85 78 75 82 96 86 85 97 86 82 97 86 82 97 86 82 97 86 82 97 86 82 97 86 82 97 86 82 93 82 78 93 82 78 93 82 78 93 82 78 93 82 78 93 82 78 93 82 78 96 81 78 97 72 76 100 71 76 100 71 76 100 71 76 100 71 76 100 71 76 100 71 76 100 71 76 98 69 74 98 69 74 98 69 74 98 69 74 98 69 74 98 69 74 98 69 74 99 68 74 95 63 68 97 62 68 97 62 68 97 62 68 97 62 68 97 62 68 97 62 68 97 62 68 100 65 71 100 65 71 100 65 71 100 65 71 100 65 71 100 65 71 100 65 71 104 63 71 106 53 69 109 52 69 109 52 69 106 53 69 106 53 69 103 55 69 102 56 69 99 57 69 92 54 65 87 54 63 81 50 58 71 44 51 65 38 45 55 32 38 50 27 33 43 28 33 45 43 46 41 45 48 41 45 48 41 45 48 41 45 48 41 45 48 41 45 48 41 45 48 22 26 29 22 26 29
68 62 64 68 62 64 68 62 64 68 62 64 68 62 64 63 58 62 63 58 62 63 58 62 63 58 62 63 58 62 63 58 62 63 58 62 63 58 62 59 54 58 59 54 58 59 54 58 59 54 58 59 54 58 59 54 58 59 54 58 60 54 58 60 51 56 61 50 56 61 50 56 61 50 56 61 50 56 61 50 56 61 50 56 61 50 56 62 51 57 62 51 57 62 51 57 62 51 57 62 51 57 62 51 57 62 51 57 62 51 57 72 57 62 72 57 62 72 57 62 72 57 62 72 57 62 72 57 62 72 57 62 72 57 62 80 65 70 80 65 70 80 65 70 80 65 70 80 65 70 80 65 70 80 65 70 80 65 70 84 65 69 82 63 67 80 61 65 77 58 62 73 54 58 70 51 55 68 49 53 66 47 51 79 60 64 81 62 66 83 64 68 86 67 71 90 71 75 93 74 78 95 76 80 95 79 82 92 76 79 89 74 77 87 72 75 84 69 72 80 65 68 77 62 65 75 60 63 73 58 61 74 59 62 74 59 62 74 59 62 74 59 62 74 59 62 74 59 62 74 59 62 71 60 64 64 59 66 59 58 66 56 55 63 53 52 60 49 48 56 45 44 52 42 41 49 40 39 47 74 73 81 72 71 79 70 69 77 67 66 74 63 62 70 60 59 67 58 57 65 56 55 63 61 60 68 59 58 66 57 56 64 54 53 61 50 49 57 47 46 54 45 44 52 43 42 50 42 41 49 42 41 49 42 41 49 42 41 49 42 41 49 42 41 49 42 41 49 42 41 49 48 46 57 48 46 57 48 46 57 48 46 57 48 46 57 48 46 57 48 46 57 48 46 57 61 59 70 62 60 71 65 63 74 68 66 77 71 69 80 75 73 84 77 75 86 79 76 83 96 86 85 97 86 82 97 86 82 97 86 82 97 86 82 97 86 82 97 86 82 97 86 82 93 82 78 93 82 78 93 82 78 93 82 78 93 82 78 93 82 78 93 82 78 96 81 78 97 72 76 100 71 76 100 71 76 100 71 76 100 71 76 100 71 76 100 71 76 100 71 76 98 69 74 98 69 74 98 69 74 98 69 74 98 69 74 98 69 74 98 69 74 99 68 74 95 63 68 97 62 68 97 62 68 97 62 68 97 62 68 97 62 68 97 62 68 97 62 68 100 65 71 100 65 71 100 65 71 100 65 71 100 65 71 100 65 71 100 65 71 104 63 71 106 53 69 109 52 69 109 52 69 106 53 69 106 53 69 103 55 69 102 56 69 99 57 69 92 54 65 87 54 63 81 50 58 71 44 51 65 38 45 55 32 38 50 27 33 43 28 33 45 43 46 41 45 48 41 45 48 41 45 48 41 45 48 41 45 48 41 45 48 41 45 48 22 26 29 22 26 29
68 62 64 68 62 64 68 62 64 68 62 64 68 62 64 63 58 62 63 58 62 63 58 62 63 58 62 63 58 62 63 58 62 63 58 62 63 58 62 59 54 58 59 54 58 59 54 58 59 54 58 59 54 58 59 54 58 59 54 58 60 54 58 60 51 56 61 50 56 61 50 56 61 50 56 61 50 56 61 50 56 61 50 56 61 50 56 62 51 57 62 51 57 62 51 57 62 51 57 62 51 57 62 51 57 62 51 57 62 51 57 72 57 62 72 57 62 72 57 62 72 57 62 72 57 62 72 57 62 72 57 62 72 57 62 80 65 70 80 65 70 80 65 70 80 65 70 80 65 70 80 65 70 80 65 70 80 65 70 84 65 69 82 63 67 80 61 65 77 58 62 73 54 58 70 51 55 68 49 53 66 47 51 79 60 64 81 62 66 83 64 68 86 67 71 90 71 75 93 74 78 95 76 80 95 79 82 92 76 79 89 74 77 87 72 75 84 69 72 80 65 68 77 62 65 75 60 63 73 58 61 74 59 62 74 59 62 74 59 62 74 59 62 74 59 62 74 59 62 74 59 62 71 60 64 63 58 65 59 58 66 57 56 64 54 53 61 52 51 59 49 48 56 47 46 54 46 45 53 74 73 81 72 71 79 70 69 77 67 66 74 63 62 70 60 59 67 58 57 65 56 55 63 61 60 68 59 58 66 57 56 64 54 53 61 50 49 57 47 46 54 45 44 52 43 42 50 42 41 49 42 41 49 42 41 49 42 41 49 42 41 49 42 41 49 42 41 49 42 41 49 48 46 57 48 46 57 48 46 57 48 46 57 48 46 57 48 46 57 48 46 57 48 46 57 63 61 72 65 63 74 67 65 76 70 68 79 74 72 83 77 75 86 79 77 88 82 79 86 96 86 85 97 86 82 97 86 82 97 86 82 97 86 82 97 86 82 97 86 82 97 86 82 93 82 78 93 82 78 93 82 78 93 82 78 93 82 78 93 82 78 93 82 78 96 81 78 97 72 76 100 71 76 100 71 76 100 71 76 100 71 76 100 71 76 100 71 76 100 71 76 98 69 74 98 69 74 98 69 74 98 69 74 98 69 74 98 69 74 98 69 74 99 68 74 95 63 68 97 62 68 97 62 68 97 62 68 97 62 68 97 62 68 97 62 68 97 62 68 100 65 71 100 65 71 100 65 71 100 65 71 100 65 71 100 65 71 100 65 71 104 63 71 106 53 69 109 52 69 109 52 69 106 53 69 106 53 69 103 55 69 102 56 69 99 57 69 92 54 65 87 54 63 81 50 58 71 44 51 65 38 45 55 32 38 50 27 33 43 28 33 45 43 46 41 45 48 41 45 48 41 45 48 41 45 48 41 45 48 41 45 48 41 45 48 22 26 29 22 26 29
68 62 64 68 62 64 68 62 64 68 62 64 68 62 64 63 58 62 63 58 62 63 58 62 63 58 62 63 58 62 63 58 62 63 58 62 63 58 62 59 54 58 59 54 58 59 54 58 59 54 58 59 54 58 59 54 58 59 54 58 60 54 58 60 51 56 61 50 56 61 50 56 61 50 56 61 50 56 61 50 56 61 50 56 61 50 56 62 51 57 62 51 57 62 51 57 62 51 57 62 51 57 62 51 57 62 51 57 62 51 57 72 57 62 72 57 62 72 57 62 72 57 62 72 57 62 72 57 62 72 57 62 72 57 62 80 65 70 80 65 70 80 65 70 80 65 70 80 65 70 80 65 70 80 65 70 80 65 70 84 65 69 82 63 67 80 61 65 77 58 62 73 54 58 70 51 55 68 49 53 66 47 51 79 60 64 81 62 66 83 64 68 86 67 71 90 71 75 93 74 78 95 76 80 95 79 82 92 76 79 89 74 77 87 72 75 84 69 72 80 65 68 77 62 65 75 60 63 73 58 61 74 59 62 74 59 62 74 59 62 74 59 62 74 59 62 74 59 62 74 59 62 71 60 64 62 57 64 58 57 65 58 57 65 57 56 64 56 55 63 55 54 62 54 53 61 54 53 61 74 73 81 72 71 79 70 69 77 67 66 74 63 62 70 60 59 67 58 57 65 56 55 63 61 60 68 59 58 66 57 56 64 54 53 61 50 49 57 47 46 54 45 44 52 43 42 50 42 41 49 42 41 49 42 41 49 42 41 49 42 41 49 42 41 49 42 41 49 42 41 49 48 46 57 48 46 57 48 46 57 48 46 57 48 46 57 48 46 57 48 46 57 48 46 57 67 65 76 68 66 77 70 68 79 74 72 83 77 75 86 80 78 89 83 81 92 85 82 89 96 86 85 97 86 82 97 86 82 97 86 82 97 86 82 97 86 82 97 86 82 97 86 82 93 82 78 93 82 78 93 82 78 93 82 78 93 82 78 93 82 78 93 82 78 96 81 78 97 72 76 100 71 76 100 71 76 100 71 76 100 71 76 100 71 76 100 71 76 100 71 76 98 69 74 98 69 74 98 69 74 98 69 74 98 69 74 98 69 74 98 69 74 99 68 74 95 63 68 97 62 68 97 62 68 97 62 68 97 62 68 97 62 68 97 62 68 97 62 68 100 65 71 100 65 71 100 65 71 100 65 71 100 65 71 100 65 71 100 65 71 104 63 71 106 53 69 109 52 69 109 52 69 106 53 69 106 53 69 103 55 69 102 56 69 99 57 69 92 54 65 87 54 63 81 50 58 71 44 51 65 38 45 55 32 38 50 27 33 43 28 33 45 43 46 41 45 48 41 45 48 41 45 48 41 45 48 41 45 48 41 45 48 41 45 48 22 26 29 22 26 29
68 62 64 68 62 64 68 62 64 68 62 64 68 62 64 63 58 62 63 58 62 63 58 62 63 58 62 63 58 62 63 58 62 63 58 62 63 58 62 59 54 58 59 54 58 59 54 58 59 54 58 59 54 58 59 54 58 59 54 58 60 54 58 60 51 56 61 50 56 61 50 56 61 50 56 61 50 56 61 50 56 61 50 56 61 50 56 62 51 57 62 51 57 62 51 57 62 51 57 62 51 57 62 51 57 62 51 57 62 51 57 72 57 62 72 57 62 72 57 62 72 57 62 72 57 62 72 57 62 72 57 62 72 57 62 80 65 70 80 65 70 80 65 70 80 65 70 80 65 70 80 65 70 80 65 70 80 65 70 84 65 69 82 63 67 80 61 65 77 58 62 73 54 58 70 51 55 68 49 53 66 47 51 79 60 64 81 62 66 83 64 68 86 67 71 90 71 75 93 74 78 95 76 80 95 79 82 92 76 79 89 74 77 87 72 75 84 69 72 80 65 68 77 62 65 75 60 63 73 58 61 74 59 62 74 59 62 74 59 62 74 59 62 74 59 62 74 59 62 74 59 62 71 60 64 60 55 62 58 57 65 58 57 65 59 58 66 60 59 67 61 60 68 62 61 69 62 61 69 74 73 81 72 71 79 70 69 77 67 66 74 63 62 70 60 59 67 58 57 65 56 55 63 61 60 68 59 58 66 57 56 64 54 53 61 50 49 57 47 46 54 45 44 52 43 42 50 42 41 49 42 41 49 42 41 49 42 41 49 42 41 49 42 41 49 42 41 49 42 41 49 48 46 57 48 46 57 48 46 57 48 46 57 48 46 57 48 46 57 48 46 57 48 46 57 70 68 79 71 69 80 74 72 83 77 75 86 80 78 89 84 82 93 86 84 95 88 85 92 96 86 85 97 86 82 97 86 82 97 86 82 97 86 82 97 86 82 97 86 82 97 86 82 93 82 78 93 82 78 93 82 78 93 82 78 93 82 78 93 82 78 93 82 78 96 81 78 97 72 76 100 71 76 100 71 76 100 71 76 100 71 76 100 71 76 100 71 76 100 71 76 98 69 74 98 69 74 98 69 74 98 69 74 98 69 74 98 69 74 98 69 74 99 68 74 95 63 68 97 62 68 97 62 68 97 62 68 97 62 68 97 62 68 97 62 68 97 62 68 100 65 71 100 65 71 100 65 71 100 65 71 100 65 71 100 65 71 100 65 71 104 63 71 106 53 69 109 52 69 109 52 69 106 53 69 106 53 69 103 55 69 102 56 69 99 57 69 92 54 65 87 54 63 81 50 58 71 44 51 65 38 45 55 32 38 50 27 33 43 28 33 45 43 46 41 45 48 41 45 48 41 45 48 41 45 48 41 45 48 41 45 48 41 45 48 22 26 29 22 26 29
68 62 64 68 62 64 68 62 64 68 62 64 68 62 64 63 58 62 63 58 62 63 58 62 63 58 62 63 58 62 63 58 62 63 58 62 63 58 62 59 54 58 59 54 58 59 54 58 59 54 58 59 54 58 59 54 58 59 54 58 60 54 58 60 51 56 61 50 56 61 50 56 61 50 56 61 50 56 61 50 56 61 50 56 61 50 56 62 51 57 62 51 57 62 51 57 62 51 57 62 51 57 62 51 57 62 51 57 62 51 57 72 57 62 72 57 62 72 57 62 72 57 62 72 57 62 72 57 62 72 57 62 72 57 62 80 65 70 80 65 70 80 65 70 80 65 70 80 65 70 80 65 70 80 65 70 80 65 70 84 65 69 82 63 67 80 61 65 77 58 62 73 54 58 70 51 55 68 49 53 66 47 51 79 60 64 81 62 66 83 64 68 86 67 71 90 71 75 93 74 78 95 76 80 95 79 82 92 76 79 89 74 77 87 72 75 84 69 72 80 65 68 77 62 65 75 60 63 73 58 61 74 59 62 74 59 62 74 59 62 74 59 62 74 59 62 74 59 62 74 59 62 71 60 64 59 54 61 57 56 64 59 58 66 62 61 69 64 63 71 67 66 74 69 68 76 70 69 77 74 73 81 72 71 79 70 69 77 67 66 74 63 62 70 60 59 67 58 57 65 56 55 63 61 60 68 59 58 66 57 56 64 54 53 61 50 49 57 47 46 54 45 44 52 43 42 50 42 41 49 42 41 49 42 41 49 42 41 49 42 41 49 42 41 49 42 41 49 42 41 49 48 46 57 48 46 57 48 46 57 48 46 57 48 46 57 48 46 57 48 46 57 48 46 57 73 71 82 75 73 84 77 75 86 80 78 89 84 82 93 87 85 96 89 87 98 92 89 96 96 86 85 97 86 82 97 86 82 97 86 82 97 86 82 97 86 82 97 86 82 97 86 82 93 82 78 93 82 78 93 82 78 93 82 78 93 82 78 93 82 78 93 82 78 96 81 78 97 72 76 100 71 76 100 71 76 100 71 76 100 71 76 100 71 76 100 71 76 100 71 76 98 69 74 98 69 74 98 69 74 98 69 74 98 69 74 98 69 74 98 69 74 99 68 74 95 63 68 97 62 68 97 62 68 97 62 68 97 62 68 97 62 68 97 62 68 97 62 68 100 65 71 100 65 71 100 65 71 100 65 71 100 65 71 100 65 71 100 65 71 104 63 71 106 53 69 109 52 69 109 52 69 106 53 69 106 53 69 103 55 69 102 56 69 99 57 69 92 54 65 87 54 63 81 50 58 71 44 51 65 38 45 55 32 38 50 27 33 43 28 33 45 43 46 41 45 48 41 45 48 41 45 48 41 45 48 41 45 48 41 45 48 41 45 48 22 26 29 22 26 29
68 62 64 68 62 64 68 62 64 68 62 64 68 62 64 63 58 62 63 58 62 63 58 62 63 58 62 63 58 62 63 58 62 63 58 62 63 58 62 59 54 58 59 54 58 59 54 58 59 54 58 59 54 58 59 54 58 59 54 58 60 54 58 60 51 56 61 50 56 61 50 56 61 50 56 61 50 56 61 50 56 61 50 56 61 50 56 62 51 57 62 51 57 62 51 57 62 51 57 62 51 57 62 51 57 62 51 57 62 51 57 72 57 62 72 57 62 72 57 62 72 57 62 72 57 62 72 57 62 72 57 62 72 57 62 80 65 70 80 65 70 80 65 70 80 65 70 80 65 70 80 65 70 80 65 70 80 65 70 84 65 69 82 63 67 80 61 65 77 58 62 73 54 58 70 51 55 68 49 53 66 47 51 79 60 64 81 62 66 83 64 68 86 67 71 90 71 75 93 74 78 95 76 80 95 79 82 92 76 79 89 74 77 87 72 75 84 69 72 80 65 68 77 62 65 75 60 63 73 58 61 74 59 62 74 59 62 74 59 62 74 59 62 74 59 62 74 59 62 74 59 62 71 60 64 58 53 60 57 56 64 60 59 67 63 62 70 67 66 74 71 70 78 74 73 81 76 75 83 74 73 81 72 71 79 70 69 77 67 66 74 63 62 70 60 59 67 58 57 65 56 55 63 61 60 68 59 58 66 57 56 64 54 53 61 50 49 57 47 46 54 45 44 52 43 42 50 42 41 49 42 41 49 42 41 49 42 41 49 42 41 49 42 41 49 42 41 49 42 41 49 48 46 57 48 46 57 48 46 57 48 46 57 48 46 57 48 46 57 48 46 57 48 46 57 76 74 85 77 75 86 79 77 88 83 81 92 86 84 95 89 87 98 92 90 101 94 91 98 96 86 85 97 86 82 97 86 82 97 86 82 97 86 82 97 86 82 97 86 82 97 86 82 93 82 78 93 82 78 93 82 78 93 82 78 93 82 78 93 82 78 93 82 78 96 81 78 97 72 76 100 71 76 100 71 76 100 71 76 100 71 76 100 71 76 100 71 76 100 71 76 98 69 74 98 69 74 98 69 74 98 69 74 98 69 74 98 69 74 98 69 74 99 68 74 95 63 68 97 62 68 97 62 68 97 62 68 97 62 68 97 62 68 97 62 68 97 62 68 100 65 71 100 65 71 100 65 71 100 65 71 100 65 71 100 65 71 100 65 71 104 63 71 106 53 69 109 52 69 109 52 69 106 53 69 106 53 69 103 55 69 102 56 69 99 57 69 92 54 65 87 54 63 81 50 58 71 44 51 65 38 45 55 32 38 50 27 33 43 28 33 45 43 46 41 45 48 41 45 48 41 45 48 41 45 48 41 45 48 41 45 48 41 45 48 22 26 29 22 26 29
68 62 64 68 62 66 68 62 64 68 62 66 68 62 66 63 58 62 63 58 62 63 58 62 63 58 62 63 58 62 63 58 62 63 58 62 63 58 62 59 54 58 59 54 58 59 54 58 59 54 58 59 54 58 59 54 58 59 54 58 60 54 58 60 51 56 60 51 56 60 51 56 60 51 56 60 51 56 60 51 56 60 51 56 60 51 56 61 52 57 61 52 57 61 52 57 61 52 57 61 52 57 61 52 57 61 52 57 62 51 57 70 57 64 72 57 62 72 57 62 72 57 62 72 57 62 72 57 62 72 57 62 72 57 62 80 65 70 80 65 70 80 65 70 80 65 70 80 65 70 80 65 70 80 65 70 80 65 70 81 66 71 79 64 69 78 61 67 74 59 64 71 54 60 67 52 57 66 49 55 63 48 53 77 60 66 78 63 68 81 64 70 83 68 73 88 71 77 90 75 80 93 76 82 94 79 84 91 76 79 87 75 77 85 73 75 82 70 72 78 66 68 75 63 65 73 61 63 71 59 61 72 60 62 72 60 62 72 60 62 72 60 62 72 60 62 72 60 62 72 60 62 71 60 64 58 53 59 57 54 61 61 58 65 65 62 69 70 67 74 74 71 78 78 75 82 80 77 84 75 72 79 73 70 77 71 68 75 68 65 72 64 61 68 61 58 65 59 56 63 57 54 61 62 59 66 60 57 64 58 55 64 55 52 59 51 48 57 48 45 52 46 43 52 44 41 48 43 40 49 43 40 47 43 40 49 43 40 47 43 40 49 43 40 47 43 40 49 43 40 49 49 46 55 48 46 57 49 46 57 48 46 57 49 46 57 48 46 57 49 46 57 48 46 57 78 75 86 78 76 87 82 79 90 84 82 93 88 85 96 91 89 100 94 91 102 97 92 99 96 86 87 99 85 84 99 85 84 99 85 84 99 85 84 99 85 84 99 85 84 99 85 84 95 81 80 95 81 80 95 81 80 95 81 80 95 81 80 95 81 80 95 81 80 96 80 80 97 72 76 98 71 76 100 71 76 98 71 76 100 71 76 98 71 76 100 71 76 98 71 76 98 69 74 96 69 74 98 69 74 96 69 74 98 69 74 96 69 74 98 69 74 98 69 74 94 63 69 95 63 68 95 63 68 95 63 68 95 63 68 95 63 68 95 63 68 95 63 68 98 66 71 98 66 71 98 66 71 98 66 71 98 66 71 98 66 71 98 66 71 101 64 72 105 54 69 106 53 69 106 53 69 103 55 69 103 55 69 100 56 69 99 57 69 96 58 69 89 56 65 85 55 63 78 51 58 68 45 51 62 39 45 53 34 38 48 29 33 40 29 33 44 43 48 41 45 48 41 44 49 41 45 48 41 44 49 41 45 48 41 44 49 41 45 48 22 25 30 22 26 29
65 60 64 65 60 66 65 60 64 65 60 66 65 60 66 73 68 74 73 68 74 73 68 74 73 68 74 73 68 74 73 68 74 73 68 74 73 68 74 64 59 65 64 59 65 64 59 65 64 59 65 64 59 65 64 59 65 64 59 65 64 59 65 59 52 59 59 52 59 59 52 59 59 52 59 59 52 59 59 52 59 59 52 59 59 52 59 56 49 56 58 51 58 60 53 60 63 56 63 67 60 67 70 63 70 72 65 72 76 67 72 71 60 66 72 59 66 72 59 66 72 59 66 72 59 66 72 59 66 72 59 66 72 59 66 60 47 54 62 49 56 65 52 59 70 57 64 74 61 68 79 66 73 82 69 76 84 71 78 73 62 68 72 63 68 73 62 68 72 63 68 73 62 68 72 63 68 73 62 68 72 63 68 72 61 67 72 63 68 76 65 71 78 69 74 82 71 77 85 76 81 88 77 83 89 78 84 82 71 75 80 69 73 78 67 71 75 64 68 71 60 64 68 57 61 66 55 59 64 53 57 67 56 60 67 56 60 67 56 60 67 56 60 67 56 60 67 56 60 67 56 60 66 57 60 68 62 66 69 62 69 72 65 72 75 68 75 78 71 78 82 75 82 84 77 84 85 78 85 65 58 65 65 58 65 65 58 65 65 58 65 65 58 65 65 58 65 65 58 65 65 58 65 69 59 67 69 59 67 69 59 68 69 59 67 69 59 68 69 59 67 69 59 68 69 59 67 57 47 56 57 47 55 57 47 56 57 47 55 57 47 56 57 47 55 57 47 56 55 48 56 44 38 48 45 42 51 53 47 57 59 56 65 69 63 73 75 72 81 83 77 87 84 81 90 101 95 105 99 96 105 101 95 105 99 96 105 101 95 105 99 96 105 101 95 105 102 95 103 96 81 86 97 81 82 97 81 82 97 81 82 97 81 82 97 81 82 97 81 82 97 81 82 99 83 84 99 83 84 99 83 84 99 83 84 99 83 84 99 83 84 99 83 84 101 82 84 91 68 74 93 68 74 94 67 74 93 68 74 94 67 74 93 68 74 94 67 74 93 68 74 79 52 59 78 53 59 79 52 59 78 53 59 79 52 59 78 53 59 79 52 59 79 52 57 82 53 58 82 53 58 82 53 58 82 53 58 82 53 58 82 53 58 82 53 58 82 53 58 96 67 72 96 67 72 96 67 72 96 67 72 96 67 72 96 67 72 96 67 72 98 65 72 103 61 73 104 60 75 104 60 75 102 61 75 102 61 75 99 63 75 97 64 75 95 65 75 74 48 57 69 48 55 66 47 53 60 45 50 56 41 46 50 39 43 48 37 41 42 37 41 31 32 37 34 39 43 42 47 53 48 53 57 48 53 59 42 47 51 34 39 45 28 33 37 21 26 32 21 26 30
65 60 66 65 60 66 65 60 66 65 60 66 65 60 66 73 68 74 73 68 74 73 68 74 73 68 74 73 68 74 73 68 74 73 68 74 73 68 74 64 59 65 64 59 65 64 59 65 64 59 65 64 59 65 64 59 65 64 59 65 64 59 65 58 53 59 58 53 59 58 53 59 58 53 59 58 53 59 58 53 59 58 53 59 58 53 59 55 50 56 57 52 58 59 54 60 62 57 63 66 61 67 69 64 70 71 66 72 74 67 74 71 60 66 72 59 66 72 59 66 72 59 66 72 59 66 72 59 66 72 59 66 72 59 66 62 49 56 63 50 57 66 53 60 70 57 64 74 61 68 78 65 72 81 68 75 81 70 76 70 60 68 68 61 68 68 61 68 68 61 68 68 61 68 68 61 68 68 61 68 68 61 68 68 61 68 69 62 69 71 64 71 75 68 75 78 71 78 81 74 81 84 77 84 85 79 83 81 72 77 79 70 73 77 68 71 74 65 68 70 61 64 67 58 61 65 56 59 63 54 57 66 57 60 66 57 60 66 57 60 66 57 60 66 57 60 66 57 60 66 57 60 66 57 60 69 60 65 70 61 66 72 63 68 76 67 72 79 70 75 82 73 78 85 76 81 86 77 82 67 58 63 67 58 63 67 58 63 67 58 63 67 58 63 67 58 63 67 58 63 67 58 63 70 59 67 70 59 67 70 59 67 70 59 67 70 59 67 70 59 67 70 59 67 70 59 67 60 49 57 60 49 57 60 49 57 60 49 57 60 49 57 60 49 57 60 49 57 59 49 57 47 39 50 49 43 53 54 48 58 61 55 65 69 63 73 76 70 80 81 75 85 84 78 88 99 93 103 99 93 103 99 93 103 99 93 103 99 93 103 99 93 103 99 93 103 102 92 101 94 79 84 97 78 82 97 78 82 97 78 82 97 78 82 97 78 82 97 78 82 97 78 82 99 80 84 99 80 84 99 80 84 99 80 84 99 80 84 99 80 84 99 80 84 100 79 84 89 66 72 91 66 72 91 66 72 91 66 72 91 66 72 91 66 72 91 66 72 91 66 72 78 53 59 78 53 59 78 53 59 78 53 59 78 53 59 78 53 59 78 53 59 78 53 59 80 53 58 80 53 58 80 53 58 80 53 58 80 53 58 80 53 58 80 53 58 80 53 58 94 67 72 94 67 72 94 67 72 94 67 72 94 67 72 94 67 72 94 67 72 97 66 72 100 62 75 102 61 75 102 61 75 99 63 75 99 63 75 96 64 75 95 65 75 92 66 75 71 50 57 66 49 55 63 48 53 57 46 50 53 42 46 47 41 43 45 39 41 40 38 41 29 32 37 34 39 45 42 47 53 48 53 59 48 53 59 42 47 53 34 39 45 28 33 39 21 26 32 21 26 32
65 60 66 65 60 66 65 60 66 65 60 66 65 60 66 73 68 74 73 68 74 73 68 74 73 68 74 73 68 74 73 68 74 73 68 74 73 68 74 64 59 65 64 59 65 64 59 65 64 59 65 64 59 65 64 59 65 64 59 65 64 59 65 58 53 59 58 53 59 58 53 59 58 53 59 58 53 59 58 53 59 58 53 59 58 53 59 55 50 56 57 52 58 59 54 60 62 57 63 66 61 67 69 64 70 71 66 72 74 67 74 71 60 66 72 59 66 72 59 66 72 59 66 72 59 66 72 59 66 72 59 66 72 59 66 65 52 59 66 53 60 68 55 62 71 58 65 73 60 67 76 63 70 78 65 72 78 67 73 68 58 66 66 59 66 66 59 66 66 59 66 66 59 66 66 59 66 66 59 66 66 59 66 65 58 65 67 60 67 69 62 69 72 65 72 76 69 76 79 72 79 81 74 81 83 77 81 81 72 77 79 70 73 77 68 71 74 65 68 70 61 64 67 58 61 65 56 59 63 54 57 66 57 60 66 57 60 66 57 60 66 57 60 66 57 60 66 57 60 66 57 60 66 57 60 66 57 62 68 59 64 70 61 66 73 64 69 77 68 73 80 71 76 82 73 78 84 75 80 67 58 63 67 58 63 67 58 63 67 58 63 67 58 63 67 58 63 67 58 63 67 58 63 70 59 67 70 59 67 70 59 67 70 59 67 70 59 67 70 59 67 70 59 67 70 59 67 62 51 59 62 51 59 62 51 59 62 51 59 62 51 59 62 51 59 62 51 59 61 51 59 51 43 54 52 46 56 56 50 60 62 56 66 68 62 72 74 68 78 78 72 82 80 74 84 94 88 98 94 88 98 94 88 98 94 88 98 94 88 98 94 88 98 94 88 98 97 87 96 92 77 82 95 76 80 95 76 80 95 76 80 95 76 80 95 76 80 95 76 80 95 76 80 97 78 82 97 78 82 97 78 82 97 78 82 97 78 82 97 78 82 97 78 82 98 77 82 87 64 70 89 64 70 89 64 70 89 64 70 89 64 70 89 64 70 89 64 70 89 64 70 78 53 59 78 53 59 78 53 59 78 53 59 78 53 59 78 53 59 78 53 59 78 53 59 80 53 58 80 53 58 80 53 58 80 53 58 80 53 58 80 53 58 80 53 58 80 53 58 94 67 72 94 67 72 94 67 72 94 67 72 94 67 72 94 67 72 94 67 72 97 66 72 100 62 75 102 61 75 102 61 75 99 63 75 99 63 75 96 64 75 95 65 75 92 66 75 71 50 57 66 49 55 63 48 53 57 46 50 53 42 46 47 41 43 45 39 41 40 38 41 29 32 37 34 39 45 42 47 53 48 53 59 48 53 59 42 47 53 34 39 45 28 33 39 21 26 32 21 26 32
65 60 66 65 60 66 65 60 66 65 60 66 65 60 66 73 68 74 73 68 74 73 68 74 73 68 74 73 68 74 73 68 74 73 68 74 73 68 74 64 59 65 64 59 65 64 59 65 64 59 65 64 59 65 64 59 65 64 59 65 64 59 65 58 53 59 58 53 59 58 53 59 58 53 59 58 53 59 58 53 59 58 53 59 58 53 59 55 50 56 57 52 58 59 54 60 62 57 63 66 61 67 69 64 70 71 66 72 74 67 74 71 60 66 72 59 66 72 59 66 72 59 66 72 59 66 72 59 66 72 59 66 72 59 66 70 57 64 70 57 64 71 58 65 72 59 66 72 59 66 73 60 67 74 61 68 73 62 68 65 55 63 63 56 63 63 56 63 63 56 63 63 56 63 63 56 63 63 56 63 63 56 63 62 55 62 63 56 63 66 59 66 69 62 69 72 65 72 76 69 76 78 71 78 79 73 77 81 72 77 79 70 73 77 68 71 74 65 68 70 61 64 67 58 61 65 56 59 63 54 57 66 57 60 66 57 60 66 57 60 66 57 60 66 57 60 66 57 60 66 57 60 66 57 60 63 54 59 64 55 60 67 58 63 70 61 66 73 64 69 77 68 73 79 70 75 80 71 76 67 58 63 67 58 63 67 58 63 67 58 63 67 58 63 67 58 63 67 58 63 67 58 63 70 59 67 70 59 67 70 59 67 70 59 67 70 59 67 70 59 67 70 59 67 70 59 67 65 54 62 65 54 62 65 54 62 65 54 62 65 54 62 65 54 62 65 54 62 64 54 62 55 47 58 56 50 60 59 53 63 63 57 67 67 61 71 71 65 75 74 68 78 76 70 80 87 81 91 87 81 91 87 81 91 87 81 91 87 81 91 87 81 91 87 81 91 90 80 89 89 74 79 92 73 77 92 73 77 92 73 77 92 73 77 92 73 77 92 73 77 92 73 77 94 75 79 94 75 79 94 75 79 94 75 79 94 75 79 94 75 79 94 75 79 95 74 79 84 61 67 86 61 67 86 61 67 86 61 67 86 61 67 86 61 67 86 61 67 86 61 67 78 53 59 78 53 59 78 53 59 78 53 59 78 53 59 78 53 59 78 53 59 78 53 59 80 53 58 80 53 58 80 53 58 80 53 58 80 53 58 80 53 58 80 53 58 80 53 58 94 67 72 94 67 72 94 67 72 94 67 72 94 67 72 94 67 72 94 67 72 97 66 72 100 62 75 102 61 75 102 61 75 99 63 75 99 63 75 96 64 75 95 65 75 92 66 75 71 50 57 66 49 55 63 48 53 57 46 50 53 42 46 47 41 43 45 39 41 40 38 41 29 32 37 34 39 45 42 47 53 48 53 59 48 53 59 42 47 53 34 39 45 28 33 39 21 26 32 21 26 32
65 60 66 65 60 66 65 60 66 65 60 66 65 60 66 73 68 74 73 68 74 73 68 74 73 68 74 73 68 74 73 68 74 73 68 74 73 68 74 64 59 65 64 59 65 64 59 65 64 59 65 64 59 65 64 59 65 64 59 65 64 59 65 58 53 59 58 53 59 58 53 59 58 53 59 58 53 59 58 53 59 58 53 59 58 53 59 55 50 56 57 52 58 59 54 60 62 57 63 66 61 67 69 64 70 71 66 72 74 67 74 71 60 66 72 59 66 72 59 66 72 59 66 72 59 66 72 59 66 72 59 66 72 59 66 74 61 68 74 61 68 73 60 67 72 59 66 72 59 66 71 58 65 70 57 64 69 58 64 61 51 59 59 52 59 59 52 59 59 52 59 59 52 59 59 52 59 59 52 59 59 52 59 59 52 59 60 53 60 62 55 62 66 59 66 69 62 69 72 65 72 75 68 75 76 70 74 81 72 77 79 70 73 77 68 71 74 65 68 70 61 64 67 58 61 65 56 59 63 54 57 66 57 60 66 57 60 66 57 60 66 57 60 66 57 60 66 57 60 66 57 60 66 57 60 60 51 56 61 52 57 63 54 59 67 58 63 70 61 66 73 64 69 76 67 72 77 68 73 67 58 63 67 58 63 67 58 63 67 58 63 67 58 63 67 58 63 67 58 63 67 58 63 70 59 67 70 59 67 70 59 67 70 59 67 70 59 67 70 59 67 70 59 67 70 59 67 69 58 66 69 58 66 69 58 66 69 58 66 69 58 66 69 58 66 69 58 66 68 58 66 60 52 63 60 54 64 61 55 65 64 58 68 66 60 70 69 63 73 70 64 74 71 65 75 81 75 85 81 75 85 81 75 85 81 75 85 81 75 85 81 75 85 81 75 85 84 74 83 85 70 75 88 69 73 88 69 73 88 69 73 88 69 73 88 69 73 88 69 73 88 69 73 90 71 75 90 71 75 90 71 75 90 71 75 90 71 75 90 71 75 90 71 75 91 70 75 80 57 63 82 57 63 82 57 63 82 57 63 82 57 63 82 57 63 82 57 63 82 57 63 78 53 59 78 53 59 78 53 59 78 53 59 78 53 59 78 53 59 78 53 59 78 53 59 80 53 58 80 53 58 80 53 58 80 53 58 80 53 58 80 53 58 80 53 58 80 53 58 94 67 72 94 67 72 94 67 72 94 67 72 94 67 72 94 67 72 94 67 72 97 66 72 100 62 75 102 61 75 102 61 75 99 63 75 99 63 75 96 64 75 95 65 75 92 66 75 71 50 57 66 49 55 63 48 53 57 46 50 53 42 46 47 41 43 45 39 41 40 38 41 29 32 37 34 39 45 42 47 53 48 53 59 48 53 59 42 47 53 34 39 45 28 33 39 21 26 32 21 26 32
65 60 66 65 60 66 65 60 66 65 60 66 65 60 66 73 68 74 73 68 74 73 68 74 73 68 74 73 68 74 73 68 74 73 68 74 73 68 74 64 59 65 64 59 65 64 59 65 64 59 65 64 59 65 64 59 65 64 59 65 64 59 65 58 53 59 58 53 59 58 53 59 58 53 59 58 53 59 58 53 59 58 53 59 58 53 59 55 50 56 57 52 58 59 54 60 62 57 63 66 61 67 69 64 70 71 66 72 74 67 74 71 60 66 72 59 66 72 59 66 72 59 66 72 59 66 72 59 66 72 59 66 72 59 66 79 66 73 78 65 72 76 63 70 73 60 67 71 58 65 68 55 62 66 53 60 64 53 59 58 48 56 56 49 56 56 49 56 56 49 56 56 49 56 56 49 56 56 49 56 56 49 56 55 48 55 57 50 57 59 52 59 62 55 62 66 59 66 69 62 69 71 64 71 73 67 71 81 72 77 79 70 73 77 68 71 74 65 68 70 61 64 67 58 61 65 56 59 63 54 57 66 57 60 66 57 60 66 57 60 66 57 60 66 57 60 66 57 60 66 57 60 66 57 60 56 47 52 58 49 54 60 51 56 63 54 59 67 58 63 70 61 66 72 63 68 74 65 70 67 58 63 67 58 63 67 58 63 67 58 63 67 58 63 67 58 63 67 58 63 67 58 63 70 59 67 70 59 67 70 59 67 70 59 67 70 59 67 70 59 67 70 59 67 70 59 67 72 61 69 72 61 69 72 61 69 72 61 69 72 61 69 72 61 69 72 61 69 71 61 69 64 56 67 63 57 67 64 58 68 65 59 69 65 59 69 66 60 70 67 61 71 67 61 71 74 68 78 74 68 78 74 68 78 74 68 78 74 68 78 74 68 78 74 68 78 77 67 76 82 67 72 85 66 70 85 66 70 85 66 70 85 66 70 85 66 70 85 66 70 85 66 70 87 68 72 87 68 72 87 68 72 87 68 72 87 68 72 87 68 72 87 68 72 88 67 72 77 54 60 79 54 60 79 54 60 79 54 60 79 54 60 79 54 60 79 54 60 79 54 60 78 53 59 78 53 59 78 53 59 78 53 59 78 53 59 78 53 59 78 53 59 78 53 59 80 53 58 80 53 58 80 53 58 80 53 58 80 53 58 80 53 58 80 53 58 80 53 58 94 67 72 94 67 72 94 67 72 94 67 72 94 67 72 94 67 72 94 67 72 97 66 72 100 62 75 102 61 75 102 61 75 99 63 75 99 63 75 96 64 75 95 65 75 92 66 75 71 50 57 66 49 55 63 48 53 57 46 50 53 42 46 47 41 43 45 39 41 40 38 41 29 32 37 34 39 45 42 47 53 48 53 59 48 53 59 42 47 53 34 39 45 28 33 39 21 26 32 21 26 32
65 60 66 65 60 66 65 60 66 65 60 66 65 60 66 73 68 74 73 68 74 73 68 74 73 68 74 73 68 74 73 68 74 73 68 74 73 68 74 64 59 65 64 59 65 64 59 65 64 59 65 64 59 65 64 59 65 64 59 65 64 59 65 58 53 59 58 53 59 58 53 59 58 53 59 58 53 59 58 53 59 58 53 59 58 53 59 55 50 56 57 52 58 59 54 60 62 57 63 66 61 67 69 64 70 71 66 72 74 67 74 71 60 66 72 59 66 72 59 66 72 59 66 72 59 66 72 59 66 72 59 66 72 59 66 82 69 76 81 68 75 78 65 72 74 61 68 70 57 64 66 53 60 63 50 57 61 50 56 56 46 54 54 47 54 54 47 54 54 47 54 54 47 54 54 47 54 54 47 54 54 47 54 53 46 53 54 47 54 57 50 57 60 53 60 63 56 63 67 60 67 69 62 69 70 64 68 81 72 77 79 70 73 77 68 71 74 65 68 70 61 64 67 58 61 65 56 59 63 54 57 66 57 60 66 57 60 66 57 60 66 57 60 66 57 60 66 57 60 66 57 60 66 57 60 54 45 50 55 46 51 58 49 54 61 52 57 64 55 60 68 59 64 70 61 66 71 62 67 67 58 63 67 58 63 67 58 63 67 58 63 67 58 63 67 58 63 67 58 63 67 58 63 70 59 67 70 59 67 70 59 67 70 59 67 70 59 67 70 59 67 70 59 67 70 59 67 74 63 71 74 63 71 74 63 71 74 63 71 74 63 71 74 63 71 74 63 71 73 63 71 68 60 71 66 60 70 66 60 70 65 59 69 65 59 69 64 58 68 64 58 68 63 57 67 69 63 73 69 63 73 69 63 73 69 63 73 69 63 73 69 63 73 69 63 73 72 62 71 80 65 70 83 64 68 83 64 68 83 64 68 83 64 68 83 64 68 83 64 68 83 64 68 85 66 70 85 66 70 85 66 70 85 66 70 85 66 70 85 66 70 85 66 70 86 65 70 75 52 58 77 52 58 77 52 58 77 52 58 77 52 58 77 52 58 77 52 58 77 52 58 78 53 59 78 53 59 78 53 59 78 53 59 78 53 59 78 53 59 78 53 59 78 53 59 80 53 58 80 53 58 80 53 58 80 53 58 80 53 58 80 53 58 80 53 58 80 53 58 94 67 72 94 67 72 94 67 72 94 67 72 94 67 72 94 67 72 94 67 72 97 66 72 100 62 75 102 61 75 102 61 75 99 63 75 99 63 75 96 64 75 95 65 75 92 66 75 71 50 57 66 49 55 63 48 53 57 46 50 53 42 46 47 41 43 45 39 41 40 38 41 29 32 37 34 39 45 42 47 53 48 53 59 48 53 59 42 47 53 34 39 45 28 33 39 21 26 32 21 26 32
65 60 66 65 60 66 65 60 66 65 60 66 65 60 66 73 68 74 73 68 74 73 68 74 73 68 74 73 68 74 73 68 74 73 68 74 73 68 74 64 59 65 64 59 65 64 59 65 64 59 65 64 59 65 64 59 65 64 59 65 64 59 65 58 53 59 58 53 59 58 53 59 58 53 59 58 53 59 58 53 59 58 53 59 58 53 59 55 50 56 57 52 58 59 54 60 62 57 63 66 61 67 69 64 70 71 66 72 74 67 74 71 60 66 72 59 66 72 59 66 72 59 66 72 59 66 72 59 66 72 59 66 72 59 66 84 71 78 82 69 76 79 66 73 74 61 68 70 57 64 65 52 59 62 49 56 59 48 54 54 44 52 52 45 52 52 45 52 52 45 52 52 45 52 52 45 52 52 45 52 52 45 52 52 45 52 53 46 53 55 48 55 59 52 59 62 55 62 65 58 65 68 61 68 69 63 67 81 72 77 79 70 73 77 68 71 74 65 68 70 61 64 67 58 61 65 56 59 63 54 57 66 57 60 66 57 60 66 57 60 66 57 60 66 57 60 66 57 60 66 57 60 66 57 60 53 44 49 54 45 50 56 47 52 60 51 56 63 54 59 66 57 62 69 60 65 70 61 66 67 58 63 67 58 63 67 58 63 67 58 63 67 58 63 67 58 63 67 58 63 67 58 63 70 59 67 70 59 67 70 59 67 70 59 67 70 59 67 70 59 67 70 59 67 70 59 67 76 65 73 76 65 73 76 65 73 76 65 73 76 65 73 76 65 73 76 65 73 75 65 73 69 61 72 68 62 72 67 61 71 66 60 70 64 58 68 63 57 67 62 56 66 62 56 66 67 61 71 67 61 71 67 61 71 67 61 71 67 61 71 67 61 71 67 61 71 70 60 69 78 63 68 81 62 66 81 62 66 81 62 66 81 62 66 81 62 66 81 62 66 81 62 66 83 64 68 83 64 68 83 64 68 83 64 68 83 64 68 83 64 68 83 64 68 84 63 68 73 50 56 75 50 56 75 50 56 75 50 56 75 50 56 75 50 56 75 50 56 75 50 56 78 53 59 78 53 59 78 53 59 78 53 59 78 53 59 78 53 59 78 53 59 78 53 59 80 53 58 80 53 58 80 53 58 80 53 58 80 53 58 80 53 58 80 53 58 80 53 58 94 67 72 94 67 72 94 67 72 94 67 72 94 67 72 94 67 72 94 67 72 97 66 72 100 62 75 102 61 75 102 61 75 99 63 75 99 63 75 96 64 75 95 65 75 92 66 75 71 50 57 66 49 55 63 48 53 57 46 50 53 42 46 47 41 43 45 39 41 40 38 41 29 32 37 34 39 45 42 47 53 48 53 59 48 53 59 42 47 53 34 39 45 28 33 39 21 26 32 21 26 32
74 69 75 74 69 75 74 69 75 74 69 75 74 69 75 76 71 77 76 71 77 76 71 77 76 71 77 76 71 77 76 71 77 76 71 77 76 71 77 85 80 86 83 78 84 81 76 82 78 73 79 74 69 75 71 66 72 69 64 70 67 62 68 60 55 61 60 55 61 60 55 61 60 55 61 60 55 61 60 55 61 60 55 61 60 55 61 69 64 70 69 64 70 69 64 70 69 64 70 69 64 70 69 64 70 69 64 70 70 63 70 69 58 64 72 59 66 74 61 68 77 64 71 81 68 75 84 71 78 86 73 80 88 75 82 79 66 73 79 66 73 79 66 73 79 66 73 79 66 73 79 66 73 79 66 73 78 67 73 52 42 50 51 44 51 51 44 51 53 46 53 54 47 54 55 48 55 56 49 56 57 50 57 52 45 52 52 45 52 52 45 52 52 45 52 52 45 52 52 45 52 52 45 52 52 46 50 52 43 48 54 45 48 56 47 50 59 50 53 63 54 57 66 57 60 68 59 62 70 61 64 79 70 73 77 68 71 75 66 69 72 63 66 68 59 62 65 56 59 63 54 57 61 52 55 57 48 53 57 48 53 57 48 53 57 48 53 57 48 53 57 48 53 57 48 53 57 48 53 62 53 58 64 55 60 66 57 62 69 60 65 73 64 69 76 67 72 78 69 74 80 71 76 80 69 77 80 69 77 80 69 77 80 69 77 80 69 77 80 69 77 80 69 77 80 69 77 82 71 79 80 69 77 78 67 75 75 64 72 71 60 68 68 57 65 66 55 63 63 53 61 54 46 57 53 47 57 53 47 57 53 47 57 53 47 57 53 47 57 53 47 57 53 47 57 48 42 52 48 42 52 48 42 52 48 42 52 48 42 52 48 42 52 48 42 52 51 41 50 67 52 57 70 51 55 70 51 55 70 51 55 70 51 55 70 51 55 70 51 55 70 51 55 80 61 65 80 61 65 80 61 65 80 61 65 80 61 65 80 61 65 80 61 65 81 60 65 74 51 57 76 51 57 76 51 57 76 51 57 76 51 57 76 51 57 76 51 57 76 51 57 70 45 51 70 45 51 70 45 51 70 45 51 70 45 51 70 45 51 70 45 51 70 45 51 85 58 63 85 58 63 85 58 63 85 58 63 85 58 63 85 58 63 85 58 63 85 58 63 81 54 59 83 56 61 85 58 63 88 61 66 92 65 70 95 68 73 97 70 75 102 71 77 100 62 75 102 61 75 102 61 75 99 63 75 99 63 75 96 64 75 95 65 75 92 66 75 71 50 57 66 49 55 63 48 53 57 46 50 53 42 46 47 41 43 45 39 41 40 38 41 48 51 56 45 50 56 43 48 54 40 45 51 36 41 47 33 38 44 31 36 42 29 34 40 23 28 34 23 28 34
76 71 77 76 71 77 76 71 77 76 71 77 76 71 77 76 71 77 76 71 77 76 71 77 76 71 77 76 71 77 76 71 77 76 71 77 76 71 77 85 80 86 83 78 84 81 76 82 78 73 79 74 69 75 71 66 72 69 64 70 67 62 68 60 55 61 60 55 61 60 55 61 60 55 61 60 55 61 60 55 61 60 55 61 60 55 61 69 64 70 69 64 70 69 64 70 69 64 70 69 64 70 69 64 70 69 64 70 70 63 70 69 58 64 72 59 66 74 61 68 77 64 71 81 68 75 84 71 78 86 73 80 88 75 82 81 68 75 81 68 75 81 68 75 81 68 75 81 68 75 81 68 75 81 68 75 80 69 75 55 45 53 53 46 53 54 47 54 54 47 54 55 48 55 56 49 56 56 49 56 56 49 56 52 45 52 52 45 52 52 45 52 52 45 52 52 45 52 52 45 52 52 45 52 52 46 50 52 43 48 54 45 48 56 47 50 59 50 53 63 54 57 66 57 60 68 59 62 70 61 64 79 70 73 77 68 71 75 66 69 72 63 66 68 59 62 65 56 59 63 54 57 61 52 55 57 48 53 57 48 53 57 48 53 57 48 53 57 48 53 57 48 53 57 48 53 57 48 53 62 53 58 64 55 60 66 57 62 69 60 65 73 64 69 76 67 72 78 69 74 80 71 76 80 69 77 80 69 77 80 69 77 80 69 77 80 69 77 80 69 77 80 69 77 80 69 77 82 71 79 80 69 77 78 67 75 75 64 72 71 60 68 68 57 65 66 55 63 63 53 61 54 46 57 53 47 57 53 47 57 53 47 57 53 47 57 53 47 57 53 47 57 53 47 57 48 42 52 48 42 52 48 42 52 48 42 52 48 42 52 48 42 52 48 42 52 51 41 50 67 52 57 70 51 55 70 51 55 70 51 55 70 51 55 70 51 55 70 51 55 70 51 55 78 59 63 78 59 63 78 59 63 78 59 63 78 59 63 78 59 63 78 59 63 79 58 63 74 51 57 76 51 57 76 51 57 76 51 57 76 51 57 76 51 57 76 51 57 76 51 57 72 47 53 72 47 53 72 47 53 72 47 53 72 47 53 72 47 53 72 47 53 72 47 53 85 58 63 85 58 63 85 58 63 85 58 63 85 58 63 85 58 63 85 58 63 85 58 63 81 54 59 83 56 61 85 58 63 88 61 66 92 65 70 95 68 73 97 70 75 102 71 77 100 62 75 102 61 75 102 61 75 99 63 75 99 63 75 96 64 75 95 65 75 92 66 75 71 50 57 66 49 55 63 48 53 57 46 50 53 42 46 47 41 43 45 39 41 40 38 41 48 51 56 45 50 56 43 48 54 40 45 51 36 41 47 33 38 44 31 36 42 29 34 40 23 28 34 23 28 34
78 73 79 78 73 79 78 73 79 78 73 79 78 73 79 76 71 77 76 71 77 76 71 77 76 71 77 76 71 77 76 71 77 76 71 77 76 71 77 85 80 86 83 78 84 81 76 82 78 73 79 74 69 75 71 66 72 69 64 70 67 62 68 60 55 61 60 55 61 60 55 61 60 55 61 60 55 61 60 55 61 60 55 61 60 55 61 69 64 70 69 64 70 69 64 70 69 64 70 69 64 70 69 64 70 69 64 70 70 63 70 69 58 64 72 59 66 74 61 68 77 64 71 81 68 75 84 71 78 86 73 80 88 75 82 83 70 77 83 70 77 83 70 77 83 70 77 83 70 77 83 70 77 83 70 77 82 71 77 61 51 59 59 52 59 58 51 58 57 50 57 57 50 57 56 49 56 56 49 56 55 48 55 52 45 52 52 45 52 52 45 52 52 45 52 52 45 52 52 45 52 52 45 52 52 46 50 52 43 48 54 45 48 56 47 50 59 50 53 63 54 57 66 57 60 68 59 62 70 61 64 79 70 73 77 68 71 75 66 69 72 63 66 68 59 62 65 56 59 63 54 57 61 52 55 57 48 53 57 48 53 57 48 53 57 48 53 57 48 53 57 48 53 57 48 53 57 48 53 62 53 58 64 55 60 66 57 62 69 60 65 73 64 69 76 67 72 78 69 74 80 71 76 80 69 77 80 69 77 80 69 77 80 69 77 80 69 77 80 69 77 80 69 77 80 69 77 82 71 79 80 69 77 78 67 75 75 64 72 71 60 68 68 57 65 66 55 63 63 53 61 54 46 57 53 47 57 53 47 57 53 47 57 53 47 57 53 47 57 53 47 57 53 47 57 48 42 52 48 42 52 48 42 52 48 42 52 48 42 52 48 42 52 48 42 52 51 41 50 67 52 57 70 51 55 70 51 55 70 51 55 70 51 55 70 51 55 70 51 55 70 51 55 76 57 61 76 57 61 76 57 61 76 57 61 76 57 61 76 57 61 76 57 61 77 56 61 74 51 57 76 51 57 76 51 57 76 51 57 76 51 57 76 51 57 76 51 57 76 51 57 74 49 55 74 49 55 74 49 55 74 49 55 74 49 55 74 49 55 74 49 55 74 49 55 85 58 63 85 58 63 85 58 63 85 58 63 85 58 63 85 58 63 85 58 63 85 58 63 81 54 59 83 56 61 85 58 63 88 61 66 92 65 70 95 68 73 97 70 75 102 71 77 100 62 75 102 61 75 102 61 75 99 63 75 99 63 75 96 64 75 95 65 75 92 66 75 71 50 57 66 49 55 63 48 53 57 46 50 53 42 46 47 41 43 45 39 41 40 38 41 48 51 56 45 50 56 43 48 54 40 45 51 36 41 47 33 38 44 31 36 42 29 34 40 23 28 34 23 28 34
81 76 82 81 76 82 81 76 82 81 76 82 81 76 82 76 71 77 76 71 77 76 71 77 76 71 77 76 71 77 76 71 77 76 71 77 76 71 77 85 80 86 83 78 84 81 76 82 78 73 79 74 69 75 71 66 72 69 64 70 67 62 68 60 55 61 60 55 61 60 55 61 60 55 61 60 55 61 60 55 61 60 55 61 60 55 61 69 64 70 69 64 70 69 64 70 69 64 70 69 64 70 69 64 70 69 64 70 70 63 70 69 58 64 72 59 66 74 61 68 77 64 71 81 68 75 84 71 78 86 73 80 88 75 82 86 73 80 86 73 80 86 73 80 86 73 80 86 73 80 86 73 80 86 73 80 85 74 80 69 59 67 66 59 66 64 57 64 62 55 62 59 52 59 57 50 57 55 48 55 54 47 54 52 45 52 52 45 52 52 45 52 52 45 52 52 45 52 52 45 52 52 45 52 52 46 50 52 43 48 54 45 48 56 47 50 59 50 53 63 54 57 66 57 60 68 59 62 70 61 64 79 70 73 77 68 71 75 66 69 72 63 66 68 59 62 65 56 59 63 54 57 61 52 55 57 48 53 57 48 53 57 48 53 57 48 53 57 48 53 57 48 53 57 48 53 57 48 53 62 53 58 64 55 60 66 57 62 69 60 65 73 64 69 76 67 72 78 69 74 80 71 76 80 69 77 80 69 77 80 69 77 80 69 77 80 69 77 80 69 77 80 69 77 80 69 77 82 71 79 80 69 77 78 67 75 75 64 72 71 60 68 68 57 65 66 55 63 63 53 61 54 46 57 53 47 57 53 47 57 53 47 57 53 47 57 53 47 57 53 47 57 53 47 57 48 42 52 48 42 52 48 42 52 48 42 52 48 42 52 48 42 52 48 42 52 51 41 50 67 52 57 70 51 55 70 51 55 70 51 55 70 51 55 70 51 55 70 51 55 70 51 55 73 54 58 73 54 58 73 54 58 73 54 58 73 54 58 73 54 58 73 54 58 74 53 58 74 51 57 76 51 57 76 51 57 76 51 57 76 51 57 76 51 57 76 51 57 76 51 57 77 52 58 77 52 58 77 52 58 77 52 58 77 52 58 77 52 58 77 52 58 77 52 58 85 58 63 85 58 63 85 58 63 85 58 63 85 58 63 85 58 63 85 58 63 85 58 63 81 54 59 83 56 61 85 58 63 88 61 66 92 65 70 95 68 73 97 70 75 102 71 77 100 62 75 102 61 75 102 61 75 99 63 75 99 63 75 96 64 75 95 65 75 92 66 75 71 50 57 66 49 55 63 48 53 57 46 50 53 42 46 47 41 43 45 39 41 40 38 41 48 51 56 45 50 56 43 48 54 40 45 51 36 41 47 33 38 44 31 36 42 29 34 40 23 28 34 23 28 34
85 80 86 85 80 86 85 80 86 85 80 86 85 80 86 76 71 77 76 71 77 76 71 77 76 71 77 76 71 77 76 71 77 76 71 77 76 71 77 85 80 86 83 78 84 81 76 82 78 73 79 74 69 75 71 66 72 69 64 70 67 62 68 60 55 61 60 55 61 60 55 61 60 55 61 60 55 61 60 55 61 60 55 61 60 55 61 69 64 70 69 64 70 69 64 70 69 64 70 69 64 70 69 64 70 69 64 70 70 63 70 69 58 64 72 59 66 74 61 68 77 64 71 81 68 75 84 71 78 86 73 80 88 75 82 90 77 84 90 77 84 90 77 84 90 77 84 90 77 84 90 77 84 90 77 84 89 78 84 77 67 75 73 66 73 70 63 70 66 59 66 62 55 62 57 50 57 54 47 54 53 46 53 52 45 52 52 45 52 52 45 52 52 45 52 52 45 52 52 45 52 52 45 52 52 46 50 52 43 48 54 45 48 56 47 50 59 50 53 63 54 57 66 57 60 68 59 62 70 61 64 79 70 73 77 68 71 75 66 69 72 63 66 68 59 62 65 56 59 63 54 57 61 52 55 57 48 53 57 48 53 57 48 53 57 48 53 57 48 53 57 48 53 57 48 53 57 48 53 62 53 58 64 55 60 66 57 62 69 60 65 73 64 69 76 67 72 78 69 74 80 71 76 80 69 77 80 69 77 80 69 77 80 69 77 80 69 77 80 69 77 80 69 77 80 69 77 82 71 79 80 69 77 78 67 75 75 64 72 71 60 68 68 57 65 66 55 63 63 53 61 54 46 57 53 47 57 53 47 57 53 47 57 53 47 57 53 47 57 53 47 57 53 47 57 48 42 52 48 42 52 48 42 52 48 42 52 48 42 52 48 42 52 48 42 52 51 41 50 67 52 57 70 51 55 70 51 55 70 51 55 70 51 55 70 51 55 70 51 55 70 51 55 69 50 54 69 50 54 69 50 54 69 50 54 69 50 54 69 50 54 69 50 54 70 49 54 74 51 57 76 51 57 76 51 57 76 51 57 76 51 57 76 51 57 76 51 57 76 51 57 81 56 62 81 56 62 81 56 62 81 56 62 81 56 62 81 56 62 81 56 62 81 56 62 85 58 63 85 58 63 85 58 63 85 58 63 85 58 63 85 58 63 85 58 63 85 58 63 81 54 59 83 56 61 85 58 63 88 61 66 92 65 70 95 68 73 97 70 75 102 71 77 100 62 75 102 61 75 102 61 75 99 63 75 99 63 75 96 64 75 95 65 75 92 66 75 71 50 57 66 49 55 63 48 53 57 46 50 53 42 46 47 41 43 45 39 41 40 38 41 48 51 56 45 50 56 43 48 54 40 45 51 36 41 47 33 38 44 31 36 42 29 34 40 23 28 34 23 28 34
88 83 89 88 83 89 88 83 89 88 83 89 88 83 89 76 71 77 76 71 77 76 71 77 76 71 77 76 71 77 76 71 77 76 71 77 76 71 77 85 80 86 83 78 84 81 76 82 78 73 79 74 69 75 71 66 72 69 64 70 67 62 68 60 55 61 60 55 61 60 55 61 60 55 61 60 55 61 60 55 61 60 55 61 60 55 61 69 64 70 69 64 70 69 64 70 69 64 70 69 64 70 69 64 70 69 64 70 70 63 70 69 58 64 72 59 66 74 61 68 77 64 71 81 68 75 84 71 78 86 73 80 88 75 82 93 80 87 93 80 87 93 80 87 93 80 87 93 80 87 93 80 87 93 80 87 92 81 87 84 74 82 80 73 80 76 69 76 70 63 70 64 57 64 58 51 58 54 47 54 51 44 51 52 45 52 52 45 52 52 45 52 52 45 52 52 45 52 52 45 52 52 45 52 52 46 50 52 43 48 54 45 48 56 47 50 59 50 53 63 54 57 66 57 60 68 59 62 70 61 64 79 70 73 77 68 71 75 66 69 72 63 66 68 59 62 65 56 59 63 54 57 61 52 55 57 48 53 57 48 53 57 48 53 57 48 53 57 48 53 57 48 53 57 48 53 57 48 53 62 53 58 64 55 60 66 57 62 69 60 65 73 64 69 76 67 72 78 69 74 80 71 76 80 69 77 80 69 77 80 69 77 80 69 77 80 69 77 80 69 77 80 69 77 80 69 77 82 71 79 80 69 77 78 67 75 75 64 72 71 60 68 68 57 65 66 55 63 63 53 61 54 46 57 53 47 57 53 47 57 53 47 57 53 47 57 53 47 57 53 47 57 53 47 57 48 42 52 48 42 52 48 42 52 48 42 52 48 42 52 48 42 52 48 42 52 51 41 50 67 52 57 70 51 55 70 51 55 70 51 55 70 51 55 70 51 55 70 51 55 70 51 55 66 47 51 66 47 51 66 47 51 66 47 51 66 47 51 66 47 51 66 47 51 67 46 51 74 51 57 76 51 57 76 51 57 76 51 57 76 51 57 76 51 57 76 51 57 76 51 57 84 59 65 84 59 65 84 59 65 84 59 65 84 59 65 84 59 65 84 59 65 84 59 65 85 58 63 85 58 63 85 58 63 85 58 63 85 58 63 85 58 63 85 58 63 85 58 63 81 54 59 83 56 61 85 58 63 88 61 66 92 65 70 95 68 73 97 70 75 102 71 77 100 62 75 102 61 75 102 61 75 99 63 75 99 63 75 96 64 75 95 65 75 92 66 75 71 50 57 66 49 55 63 48 53 57 46 50 53 42 46 47 41 43 45 39 41 40 38 41 48 51 56 45 50 56 43 48 54 40 45 51 36 41 47 33 38 44 31 36 42 29 34 40 23 28 34 23 28 34
90 85 91 90 85 91 90 85 91 90 85 91 90 85 91 76 71 77 76 71 77 76 71 77 76 71 77 76 71 77 76 71 77 76 71 77 76 71 77 85 80 86 83 78 84 81 76 82 78 73 79 74 69 75 71 66 72 69 64 70 67 62 68 60 55 61 60 55 61 60 55 61 60 55 61 60 55 61 60 55 61 60 55 61 60 55 61 69 64 70 69 64 70 69 64 70 69 64 70 69 64 70 69 64 70 69 64 70 70 63 70 69 58 64 72 59 66 74 61 68 77 64 71 81 68 75 84 71 78 86 73 80 88 75 82 95 82 89 95 82 89 95 82 89 95 82 89 95 82 89 95 82 89 95 82 89 94 83 89 90 80 88 85 78 85 80 73 80 73 66 73 66 59 66 59 52 59 53 46 53 50 43 50 52 45 52 52 45 52 52 45 52 52 45 52 52 45 52 52 45 52 52 45 52 52 46 50 52 43 48 54 45 48 56 47 50 59 50 53 63 54 57 66 57 60 68 59 62 70 61 64 79 70 73 77 68 71 75 66 69 72 63 66 68 59 62 65 56 59 63 54 57 61 52 55 57 48 53 57 48 53 57 48 53 57 48 53 57 48 53 57 48 53 57 48 53 57 48 53 62 53 58 64 55 60 66 57 62 69 60 65 73 64 69 76 67 72 78 69 74 80 71 76 80 69 77 80 69 77 80 69 77 80 69 77 80 69 77 80 69 77 80 69 77 80 69 77 82 71 79 80 69 77 78 67 75 75 64 72 71 60 68 68 57 65 66 55 63 63 53 61 54 46 57 53 47 57 53 47 57 53 47 57 53 47 57 53 47 57 53 47 57 53 47 57 48 42 52 48 42 52 48 42 52 48 42 52 48 42 52 48 42 52 48 42 52 51 41 50 67 52 57 70 51 55 70 51 55 70 51 55 70 51 55 70 51 55 70 51 55 70 51 55 64 45 49 64 45 49 64 45 49 64 45 49 64 45 49 64 45 49 64 45 49 65 44 49 74 51 57 76 51 57 76 51 57 76 51 57 76 51 57 76 51 57 76 51 57 76 51 57 86 61 67 86 61 67 86 61 67 86 61 67 86 61 67 86 61 67 86 61 67 86 61 67 85 58 63 85 58 63 85 58 63 85 58 63 85 58 63 85 58 63 85 58 63 85 58 63 81 54 59 83 56 61 85 58 63 88 61 66 92 65 70 95 68 73 97 70 75 102 71 77 100 62 75 102 61 75 102 61 75 99 63 75 99 63 75 96 64 75 95 65 75 92 66 75 71 50 57 66 49 55 63 48 53 57 46 50 53 42 46 47 41 43 45 39 41 40 38 41 48 51 56 45 50 56 43 48 54 40 45 51 36 41 47 33 38 44 31 36 42 29 34 40 23 28 34 23 28 34
90 88 91 90 88 91 90 88 91 90 88 91 90 88 93 74 71 78 74 71 78 76 71 78 74 71 78 76 71 78 74 71 78 76 71 78 74 71 78 85 80 87 81 78 85 81 76 83 76 73 80 74 69 76 69 66 73 69 64 71 67 62 69 60 55 62 60 55 62 61 54 62 60 55 62 61 54 62 60 55 62 61 54 62 60 55 62 70 63 71 69 64 71 70 63 71 69 64 71 70 63 71 69 64 71 70 63 71 70 63 70 69 58 66 71 60 68 73 62 70 76 65 73 80 69 77 83 72 80 85 74 82 87 76 84 96 85 93 96 85 93 96 85 93 96 85 93 96 85 93 96 85 93 96 85 93 96 85 93 91 84 91 88 81 88 82 75 83 75 68 75 67 60 68 59 52 59 53 46 54 50 43 50 52 45 53 52 45 52 52 45 53 52 45 52 52 45 53 52 45 52 52 45 53 52 45 52 52 43 48 54 45 50 56 47 52 59 50 55 63 54 59 66 57 62 68 59 64 70 61 66 79 70 75 77 68 73 75 66 71 72 63 68 68 59 64 65 56 61 63 54 59 61 52 57 57 48 53 57 48 53 57 47 55 57 48 53 57 47 55 57 48 53 57 47 55 57 48 53 62 52 60 64 55 60 66 56 64 69 60 65 73 63 71 76 67 72 78 68 76 80 70 78 79 69 77 79 69 77 80 69 77 79 69 77 80 69 77 79 69 77 80 69 77 79 69 77 82 71 79 79 69 77 78 67 75 74 64 72 71 60 68 67 57 65 66 55 63 63 53 61 53 47 57 53 47 57 53 47 57 53 47 57 53 47 57 53 47 57 53 47 57 53 47 57 48 42 52 48 42 52 48 42 52 48 42 52 48 42 52 48 42 52 48 42 52 49 42 50 65 52 59 68 52 55 68 51 57 68 52 55 68 51 57 68 52 55 68 51 57 68 52 55 60 43 49 60 44 47 60 43 49 60 44 47 60 43 49 60 44 47 60 43 49 60 44 47 73 52 57 73 52 57 74 51 57 73 52 57 74 51 57 73 52 57 74 51 57 73 52 57 86 63 69 85 64 69 86 63 69 85 64 69 86 63 69 85 64 69 86 63 69 86 63 69 84 59 63 84 59 63 84 59 63 84 59 63 84 59 63 84 59 63 84 59 63 84 59 63 80 55 59 82 57 61 84 59 63 87 62 66 91 66 70 94 69 73 96 71 75 101 72 77 99 63 75 100 62 75 99 63 75 97 64 75 96 64 75 95 65 75 93 66 75 90 67 75 70 51 57 65 50 55 61 49 53 56 47 50 50 44 46 46 42 43 42 40 41 39 39 41 48 51 56 45 50 56 43 48 54 40 45 51 36 41 47 33 38 44 31 36 42 29 34 40 23 28 34 23 28 34
96 96 94 96 96 94 96 96 94 96 96 94 96 96 98 83 82 90 83 81 94 84 80 94 83 81 94 84 80 94 83 81 94 84 80 94 83 81 94 75 71 85 74 72 85 75 71 85 74 72 85 75 71 85 74 72 85 75 71 85 75 72 83 67 59 72 67 59 70 69 59 70 67 59 70 69 59 70 67 59 70 69 59 70 67 59 70 74 64 75 72 64 75 74 64 75 72 64 75 74 64 75 72 64 75 74 64 75 74 64 75 75 65 76 77 67 76 79 69 78 82 72 81 86 76 85 89 79 88 91 81 90 93 83 92 94 84 93 94 84 93 94 84 93 94 84 93 94 84 93 94 84 93 94 84 93 92 85 93 103 96 104 99 94 101 93 87 97 85 80 87 77 71 81 69 64 71 63 57 67 60 55 62 55 49 59 55 50 57 55 49 59 55 50 57 55 49 59 55 50 57 55 49 59 55 50 57 69 62 70 69 62 69 69 62 69 69 62 69 69 62 69 69 62 69 69 62 69 69 62 69 73 66 73 71 64 71 69 62 69 66 59 66 62 55 62 59 52 59 57 50 57 55 48 55 64 54 62 64 54 62 64 54 63 64 54 62 64 54 63 64 54 62 64 54 63 64 54 62 78 68 77 78 68 76 78 68 77 78 68 76 78 68 77 78 68 76 78 68 77 78 68 76 85 75 83 83 76 83 85 75 83 83 76 83 85 75 83 83 76 83 85 75 83 83 76 83 82 72 80 80 73 80 82 72 80 80 73 80 82 72 80 80 73 80 82 72 80 80 73 80 56 50 60 54 51 60 54 51 60 54 51 60 54 51 60 54 51 60 54 51 60 54 51 60 46 43 52 46 43 52 46 43 52 46 43 52 46 43 52 46 43 52 46 43 52 48 43 50 73 64 69 74 63 67 74 63 69 74 63 67 74 63 69 74 63 67 74 63 69 74 63 67 64 53 59 64 53 57 64 53 59 64 53 57 64 53 59 64 53 57 64 53 59 65 53 57 77 62 67 77 62 67 78 61 67 77 62 67 78 61 67 77 62 67 78 61 67 77 62 67 85 68 74 84 69 74 85 68 74 84 69 74 85 68 74 84 69 74 85 68 74 85 69 72 86 67 69 87 67 68 87 67 68 87 67 68 87 67 68 87 67 68 87 67 68 87 67 68 85 65 66 85 65 66 85 65 66 85 65 66 85 65 66 85 65 66 85 65 66 88 63 67 90 58 69 91 57 71 90 58 71 89 59 71 87 59 71 84 61 71 83 62 71 80 63 71 53 40 47 51 42 47 49 43 47 48 43 47 46 44 47 45 45 47 44 45 47 42 46 49 46 51 57 44 48 57 42 46 55 39 43 52 35 39 48 32 36 45 30 34 43 28 32 41 24 28 37 24 28 37
93 95 90 93 95 92 93 95 90 93 95 92 93 94 96 81 79 90 81 79 93 81 79 93 81 79 93 81 79 93 81 79 93 81 79 93 81 79 93 74 72 86 74 72 86 74 72 86 74 72 86 74 72 86 74 72 86 74 72 86 75 71 85 67 59 74 69 58 72 69 58 72 69 58 72 69 58 72 69 58 72 69 58 72 69 58 72 74 63 77 74 63 77 74 63 77 74 63 77 74 63 77 74 63 77 74 63 77 74 63 77 73 65 76 75 67 78 77 69 80 80 72 83 84 76 87 87 79 90 89 81 92 91 83 94 92 84 95 92 84 95 92 84 95 92 84 95 92 84 95 92 84 95 92 84 95 92 84 95 100 94 104 97 91 101 92 86 96 85 79 89 77 71 81 70 64 74 65 59 69 62 56 66 55 49 59 55 49 59 55 49 59 55 49 59 55 49 59 55 49 59 55 49 59 55 49 59 69 62 70 69 62 70 69 62 70 69 62 70 69 62 70 69 62 70 69 62 70 69 62 70 73 66 74 71 64 72 69 62 70 66 59 67 62 55 63 59 52 60 57 50 58 55 48 56 64 54 63 64 54 63 64 54 63 64 54 63 64 54 63 64 54 63 64 54 63 64 54 63 78 68 77 78 68 77 78 68 77 78 68 77 78 68 77 78 68 77 78 68 77 78 68 77 83 76 83 83 76 83 83 76 83 83 76 83 83 76 83 83 76 83 83 76 83 83 76 83 80 73 80 80 73 80 80 73 80 80 73 80 80 73 80 80 73 80 80 73 80 79 74 80 58 52 62 56 53 62 56 53 62 56 53 62 56 53 62 56 53 62 56 53 62 56 53 62 48 45 54 48 45 54 48 45 54 48 45 54 48 45 54 48 45 54 48 45 54 50 45 52 71 64 71 73 64 69 73 64 69 73 64 69 73 64 69 73 64 69 73 64 69 73 64 69 63 54 59 63 54 59 63 54 59 63 54 59 63 54 59 63 54 59 63 54 59 63 54 59 75 63 67 75 63 67 75 63 67 75 63 67 75 63 67 75 63 67 75 63 67 75 63 67 82 70 74 82 70 74 82 70 74 82 70 74 82 70 74 82 70 74 82 70 74 84 69 72 84 68 69 86 68 68 86 68 68 86 68 68 86 68 68 86 68 68 86 68 68 86 68 68 84 66 66 84 66 66 84 66 66 84 66 66 84 66 66 84 66 66 84 66 66 85 65 67 89 59 69 89 59 71 89 59 71 86 60 71 86 60 71 83 62 71 82 62 71 79 64 71 52 41 47 49 43 47 48 43 47 45 45 47 45 45 47 42 46 47 42 46 47 41 46 49 46 51 57 44 48 57 42 46 55 39 43 52 35 39 48 32 36 45 30 34 43 28 32 41 24 28 37 24 28 37
91 93 90 91 93 92 91 93 90 91 93 92 91 92 94 79 77 88 79 77 91 79 77 91 79 77 91 79 77 91 79 77 91 79 77 91 79 77 91 74 72 86 74 72 86 74 72 86 74 72 86 74 72 86 74 72 86 74 72 86 75 71 85 67 59 74 69 58 72 69 58 72 69 58 72 69 58 72 69 58 72 69 58 72 69 58 72 74 63 77 74 63 77 74 63 77 74 63 77 74 63 77 74 63 77 74 63 77 74 63 77 73 65 76 75 67 78 77 69 80 80 72 83 84 76 87 87 79 90 89 81 92 91 83 94 92 84 95 92 84 95 92 84 95 92 84 95 92 84 95 92 84 95 92 84 95 92 84 95 96 90 100 94 88 98 90 84 94 84 78 88 78 72 82 72 66 76 68 62 72 66 60 70 55 49 59 55 49 59 55 49 59 55 49 59 55 49 59 55 49 59 55 49 59 55 49 59 69 62 70 69 62 70 69 62 70 69 62 70 69 62 70 69 62 70 69 62 70 69 62 70 73 66 74 71 64 72 69 62 70 66 59 67 62 55 63 59 52 60 57 50 58 55 48 56 64 54 63 64 54 63 64 54 63 64 54 63 64 54 63 64 54 63 64 54 63 64 54 63 78 68 77 78 68 77 78 68 77 78 68 77 78 68 77 78 68 77 78 68 77 78 68 77 83 76 83 83 76 83 83 76 83 83 76 83 83 76 83 83 76 83 83 76 83 83 76 83 80 73 80 80 73 80 80 73 80 80 73 80 80 73 80 80 73 80 80 73 80 79 74 80 60 54 64 58 55 64 58 55 64 58 55 64 58 55 64 58 55 64 58 55 64 58 55 64 50 47 56 50 47 56 50 47 56 50 47 56 50 47 56 50 47 56 50 47 56 52 47 54 71 64 71 73 64 69 73 64 69 73 64 69 73 64 69 73 64 69 73 64 69 73 64 69 63 54 59 63 54 59 63 54 59 63 54 59 63 54 59 63 54 59 63 54 59 63 54 59 75 63 67 75 63 67 75 63 67 75 63 67 75 63 67 75 63 67 75 63 67 75 63 67 82 70 74 82 70 74 82 70 74 82 70 74 82 70 74 82 70 74 82 70 74 84 69 72 84 68 69 86 68 68 86 68 68 86 68 68 86 68 68 86 68 68 86 68 68 86 68 68 84 66 66 84 66 66 84 66 66 84 66 66 84 66 66 84 66 66 84 66 66 85 65 67 89 59 69 89 59 71 89 59 71 86 60 71 86 60 71 83 62 71 82 62 71 79 64 71 52 41 47 49 43 47 48 43 47 45 45 47 45 45 47 42 46 47 42 46 47 41 46 49 46 51 57 44 48 57 42 46 55 39 43 52 35 39 48 32 36 45 30 34 43 28 32 41 24 28 37 24 28 37
88 90 89 88 89 91 88 90 89 88 89 91 88 89 93 76 74 85 76 74 88 76 74 88 76 74 88 76 74 88 76 74 88 76 74 88 76 74 88 74 72 86 74 72 86 74 72 86 74 72 86 74 72 86 74 72 86 74 72 86 75 71 85 67 59 74 69 58 72 69 58 72 69 58 72 69 58 72 69 58 72 69 58 72 69 58 72 74 63 77 74 63 77 74 63 77 74 63 77 74 63 77 74 63 77 74 63 77 74 63 77 73 65 76 75 67 78 77 69 80 80 72 83 84 76 87 87 79 90 89 81 92 91 83 94 92 84 95 92 84 95 92 84 95 92 84 95 92 84 95 92 84 95 92 84 95 92 84 95 92 86 96 90 84 94 87 81 91 83 77 87 79 73 83 75 69 79 72 66 76 70 64 74 55 49 59 55 49 59 55 49 59 55 49 59 55 49 59 55 49 59 55 49 59 55 49 59 69 62 70 69 62 70 69 62 70 69 62 70 69 62 70 69 62 70 69 62 70 69 62 70 73 66 74 71 64 72 69 62 70 66 59 67 62 55 63 59 52 60 57 50 58 55 48 56 64 54 63 64 54 63 64 54 63 64 54 63 64 54 63 64 54 63 64 54 63 64 54 63 78 68 77 78 68 77 78 68 77 78 68 77 78 68 77 78 68 77 78 68 77 78 68 77 83 76 83 83 76 83 83 76 83 83 76 83 83 76 83 83 76 83 83 76 83 83 76 83 80 73 80 80 73 80 80 73 80 80 73 80 80 73 80 80 73 80 80 73 80 79 74 80 63 57 67 61 58 67 61 58 67 61 58 67 61 58 67 61 58 67 61 58 67 61 58 67 53 50 59 53 50 59 53 50 59 53 50 59 53 50 59 53 50 59 53 50 59 55 50 57 71 64 71 73 64 69 73 64 69 73 64 69 73 64 69 73 64 69 73 64 69 73 64 69 63 54 59 63 54 59 63 54 59 63 54 59 63 54 59 63 54 59 63 54 59 63 54 59 75 63 67 75 63 67 75 63 67 75 63 67 75 63 67 75 63 67 75 63 67 75 63 67 82 70 74 82 70 74 82 70 74 82 70 74 82 70 74 82 70 74 82 70 74 84 69 72 84 68 69 86 68 68 86 68 68 86 68 68 86 68 68 86 68 68 86 68 68 86 68 68 84 66 66 84 66 66 84 66 66 84 66 66 84 66 66 84 66 66 84 66 66 85 65 67 89 59 69 89 59 71 89 59 71 86 60 71 86 60 71 83 62 71 82 62 71 79 64 71 52 41 47 49 43 47 48 43 47 45 45 47 45 45 47 42 46 47 42 46 47 41 46 49 46 51 57 44 48 57 42 46 55 39 43 52 35 39 48 32 36 45 30 34 43 28 32 41 24 28 37 24 28 37
84 85 87 84 85 89 84 85 87 84 85 89 84 85 90 72 70 83 72 70 84 72 70 84 72 70 84 72 70 84 72 70 84 72 70 84 72 70 84 74 72 86 74 72 86 74 72 86 74 72 86 74 72 86 74 72 86 74 72 86 75 71 85 67 59 74 69 58 72 69 58 72 69 58 72 69 58 72 69 58 72 69 58 72 69 58 72 74 63 77 74 63 77 74 63 77 74 63 77 74 63 77 74 63 77 74 63 77 74 63 77 73 65 76 75 67 78 77 69 80 80 72 83 84 76 87 87 79 90 89 81 92 91 83 94 92 84 95 92 84 95 92 84 95 92 84 95 92 84 95 92 84 95 92 84 95 92 84 95 87 81 91 86 80 90 85 79 89 82 76 86 80 74 84 77 71 81 76 70 80 75 69 79 55 49 59 55 49 59 55 49 59 55 49 59 55 49 59 55 49 59 55 49 59 55 49 59 69 62 70 69 62 70 69 62 70 69 62 70 69 62 70 69 62 70 69 62 70 69 62 70 73 66 74 71 64 72 69 62 70 66 59 67 62 55 63 59 52 60 57 50 58 55 48 56 64 54 63 64 54 63 64 54 63 64 54 63 64 54 63 64 54 63 64 54 63 64 54 63 78 68 77 78 68 77 78 68 77 78 68 77 78 68 77 78 68 77 78 68 77 78 68 77 83 76 83 83 76 83 83 76 83 83 76 83 83 76 83 83 76 83 83 76 83 83 76 83 80 73 80 80 73 80 80 73 80 80 73 80 80 73 80 80 73 80 80 73 80 79 74 80 67 61 71 65 62 71 65 62 71 65 62 71 65 62 71 65 62 71 65 62 71 65 62 71 57 54 63 57 54 63 57 54 63 57 54 63 57 54 63 57 54 63 57 54 63 59 54 61 71 64 71 73 64 69 73 64 69 73 64 69 73 64 69 73 64 69 73 64 69 73 64 69 63 54 59 63 54 59 63 54 59 63 54 59 63 54 59 63 54 59 63 54 59 63 54 59 75 63 67 75 63 67 75 63 67 75 63 67 75 63 67 75 63 67 75 63 67 75 63 67 82 70 74 82 70 74 82 70 74 82 70 74 82 70 74 82 70 74 82 70 74 84 69 72 84 68 69 86 68 68 86 68 68 86 68 68 86 68 68 86 68 68 86 68 68 86 68 68 84 66 66 84 66 66 84 66 66 84 66 66 84 66 66 84 66 66 84 66 66 85 65 67 89 59 69 89 59 71 89 59 71 86 60 71 86 60 71 83 62 71 82 62 71 79 64 71 52 41 47 49 43 47 48 43 47 45 45 47 45 45 47 42 46 47 42 46 47 41 46 49 46 51 57 44 48 57 42 46 55 39 43 52 35 39 48 32 36 45 30 34 43 28 32 41 24 28 37 24 28 37
81 82 87 81 82 87 81 82 87 81 82 87 81 81 89 69 67 80 69 67 81 69 67 81 69 67 81 69 67 81 69 67 81 69 67 81 69 67 81 74 72 86 74 72 86 74 72 86 74 72 86 74 72 86 74 72 86 74 72 86 75 71 85 67 59 74 69 58 72 69 58 72 69 58 72 69 58 72 69 58 72 69 58 72 69 58 72 74 63 77 74 63 77 74 63 77 74 63 77 74 63 77 74 63 77 74 63 77 74 63 77 73 65 76 75 67 78 77 69 80 80 72 83 84 76 87 87 79 90 89 81 92 91 83 94 92 84 95 92 84 95 92 84 95 92 84 95 92 84 95 92 84 95 92 84 95 92 84 95 83 77 87 83 77 87 82 76 86 81 75 85 81 75 85 80 74 84 79 73 83 79 73 83 55 49 59 55 49 59 55 49 59 55 49 59 55 49 59 55 49 59 55 49 59 55 49 59 69 62 70 69 62 70 69 62 70 69 62 70 69 62 70 69 62 70 69 62 70 69 62 70 73 66 74 71 64 72 69 62 70 66 59 67 62 55 63 59 52 60 57 50 58 55 48 56 64 54 63 64 54 63 64 54 63 64 54 63 64 54 63 64 54 63 64 54 63 64 54 63 78 68 77 78 68 77 78 68 77 78 68 77 78 68 77 78 68 77 78 68 77 78 68 77 83 76 83 83 76 83 83 76 83 83 76 83 83 76 83 83 76 83 83 76 83 83 76 83 80 73 80 80 73 80 80 73 80 80 73 80 80 73 80 80 73 80 80 73 80 79 74 80 70 64 74 68 65 74 68 65 74 68 65 74 68 65 74 68 65 74 68 65 74 68 65 74 60 57 66 60 57 66 60 57 66 60 57 66 60 57 66 60 57 66 60 57 66 62 57 64 71 64 71 73 64 69 73 64 69 73 64 69 73 64 69 73 64 69 73 64 69 73 64 69 63 54 59 63 54 59 63 54 59 63 54 59 63 54 59 63 54 59 63 54 59 63 54 59 75 63 67 75 63 67 75 63 67 75 63 67 75 63 67 75 63 67 75 63 67 75 63 67 82 70 74 82 70 74 82 70 74 82 70 74 82 70 74 82 70 74 82 70 74 84 69 72 84 68 69 86 68 68 86 68 68 86 68 68 86 68 68 86 68 68 86 68 68 86 68 68 84 66 66 84 66 66 84 66 66 84 66 66 84 66 66 84 66 66 84 66 66 85 65 67 89 59 69 89 59 71 89 59 71 86 60 71 86 60 71 83 62 71 82 62 71 79 64 71 52 41 47 49 43 47 48 43 47 45 45 47 45 45 47 42 46 47 42 46 47 41 46 49 46 51 57 44 48 57 42 46 55 39 43 52 35 39 48 32 36 45 30 34 43 28 32 41 24 28 37 24 28 37
79 79 87 79 79 87 79 79 87 79 79 87 79 79 89 67 65 78 67 65 79 67 65 79 67 65 79 67 65 79 67 65 79 67 65 79 67 65 79 74 72 86 74 72 86 74 72 86 74 72 86 74 72 86 74 72 86 74 72 86 75 71 85 67 59 74 69 58 72 69 58 72 69 58 72 69 58 72 69 58 72 69 58 72 69 58 72 74 63 77 74 63 77 74 63 77 74 63 77 74 63 77 74 63 77 74 63 77 74 63 77 73 65 76 75 67 78 77 69 80 80 72 83 84 76 87 87 79 90 89 81 92 91 83 94 92 84 95 92 84 95 92 84 95 92 84 95 92 84 95 92 84 95 92 84 95 92 84 95 79 73 83 80 74 84 80 74 84 81 75 85 81 75 85 82 76 86 82 76 86 83 77 87 55 49 59 55 49 59 55 49 59 55 49 59 55 49 59 55 49 59 55 49 59 55 49 59 69 62 70 69 62 70 69 62 70 69 62 70 69 62 70 69 62 70 69 62 70 69 62 70 73 66 74 71 64 72 69 62 70 66 59 67 62 55 63 59 52 60 57 50 58 55 48 56 64 54 63 64 54 63 64 54 63 64 54 63 64 54 63 64 54 63 64 54 63 64 54 63 78 68 77 78 68 77 78 68 77 78 68 77 78 68 77 78 68 77 78 68 77 78 68 77 83 76 83 83 76 83 83 76 83 83 76 83 83 76 83 83 76 83 83 76 83 83 76 83 80 73 80 80 73 80 80 73 80 80 73 80 80 73 80 80 73 80 80 73 80 79 74 80 72 66 76 70 67 76 70 67 76 70 67 76 70 67 76 70 67 76 70 67 76 70 67 76 62 59 68 62 59 68 62 59 68 62 59 68 62 59 68 62 59 68 62 59 68 64 59 66 71 64 71 73 64 69 73 64 69 73 64 69 73 64 69 73 64 69 73 64 69 73 64 69 63 54 59 63 54 59 63 54 59 63 54 59 63 54 59 63 54 59 63 54 59 63 54 59 75 63 67 75 63 67 75 63 67 75 63 67 75 63 67 75 63 67 75 63 67 75 63 67 82 70 74 82 70 74 82 70 74 82 70 74 82 70 74 82 70 74 82 70 74 84 69 72 84 68 69 86 68 68 86 68 68 86 68 68 86 68 68 86 68 68 86 68 68 86 68 68 84 66 66 84 66 66 84 66 66 84 66 66 84 66 66 84 66 66 84 66 66 85 65 67 89 59 69 89 59 71 89 59 71 86 60 71 86 60 71 83 62 71 82 62 71 79 64 71 52 41 47 49 43 47 48 43 47 45 45 47 45 45 47 42 46 47 42 46 47 41 46 49 46 51 57 44 48 57 42 46 55 39 43 52 35 39 48 32 36 45 30 34 43 28 32 41 24 28 37 24 28 37
77 77 89 77 77 89 77 77 89 77 77 89 77 77 89 65 63 77 65 63 77 65 63 77 65 63 77 65 63 77 65 63 77 65 63 77 65 63 77 74 72 86 74 72 86 74 72 86 74 72 86 74 72 86 74 72 86 74 72 86 75 71 85 67 59 74 69 58 72 69 58 72 69 58 72 69 58 72 69 58 72 69 58 72 69 58 72 74 63 77 74 63 77 74 63 77 74 63 77 74 63 77 74 63 77 74 63 77 74 63 77 73 65 76 75 67 78 77 69 80 80 72 83 84 76 87 87 79 90 89 81 92 91 83 94 92 84 95 92 84 95 92 84 95 92 84 95 92 84 95 92 84 95 92 84 95 92 84 95 78 72 82 78 72 82 79 73 83 80 74 84 82 76 86 83 77 87 84 78 88 84 78 88 55 49 59 55 49 59 55 49 59 55 49 59 55 49 59 55 49 59 55 49 59 55 49 59 69 62 70 69 62 70 69 62 70 69 62 70 69 62 70 69 62 70 69 62 70 69 62 70 73 66 74 71 64 72 69 62 70 66 59 67 62 55 63 59 52 60 57 50 58 55 48 56 64 54 63 64 54 63 64 54 63 64 54 63 64 54 63 64 54 63 64 54 63 64 54 63 78 68 77 78 68 77 78 68 77 78 68 77 78 68 77 78 68 77 78 68 77 78 68 77 83 76 83 83 76 83 83 76 83 83 76 83 83 76 83 83 76 83 83 76 83 83 76 83 80 73 80 80 73 80 80 73 80 80 73 80 80 73 80 80 73 80 80 73 80 79 74 80 74 68 78 72 69 78 72 69 78 72 69 78 72 69 78 72 69 78 72 69 78 72 69 78 64 61 70 64 61 70 64 61 70 64 61 70 64 61 70 64 61 70 64 61 70 66 61 68 71 64 71 73 64 69 73 64 69 73 64 69 73 64 69 73 64 69 73 64 69 73 64 69 63 54 59 63 54 59 63 54 59 63 54 59 63 54 59 63 54 59 63 54 59 63 54 59 75 63 67 75 63 67 75 63 67 75 63 67 75 63 67 75 63 67 75 63 67 75 63 67 82 70 74 82 70 74 82 70 74 82 70 74 82 70 74 82 70 74 82 70 74 84 69 72 84 68 69 86 68 68 86 68 68 86 68 68 86 68 68 86 68 68 86 68 68 86 68 68 84 66 66 84 66 66 84 66 66 84 66 66 84 66 66 84 66 66 84 66 66 85 65 67 89 59 69 89 59 71 89 59 71 86 60 71 86 60 71 83 62 71 82 62 71 79 64 71 52 41 47 49 43 47 48 43 47 45 45 47 45 45 47 42 46 47 42 46 47 41 46 49 46 51 57 44 48 57 42 46 55 39 43 52 35 39 48 32 36 45 30 34 43 28 32 41 24 28 37 24 28 37
62 61 77 62 61 77 62 61 77 62 61 77 62 61 77 61 59 73 61 59 73 61 59 73 61 59 73 61 59 73 61 59 73 61 59 73 61 59 73 69 67 81 69 67 81 69 67 81 69 67 81 69 67 81 69 67 81 69 67 81 70 66 80 73 65 80 75 64 78 75 64 78 75 64 78 75 64 78 75 64 78 75 64 78 75 64 78 73 62 76 73 62 76 73 62 76 73 62 76 73 62 76 73 62 76 73 62 76 73 62 76 74 66 77 74 66 77 74 66 77 74 66 77 74 66 77 74 66 77 74 66 77 74 66 77 80 72 83 80 72 83 80 72 83 80 72 83 80 72 83 80 72 83 80 72 83 80 72 83 81 75 85 81 75 85 81 75 85 81 75 85 81 75 85 81 75 85 81 75 85 81 75 85 58 52 62 60 54 64 62 56 66 65 59 69 69 63 73 72 66 76 74 68 78 76 70 80 80 73 81 78 71 79 76 69 77 73 66 74 69 62 70 66 59 67 64 57 65 62 55 63 48 41 49 48 41 49 48 41 49 48 41 49 48 41 49 48 41 49 48 41 49 48 41 49 66 56 65 66 56 65 66 56 65 66 56 65 66 56 65 66 56 65 66 56 65 66 56 65 77 67 76 77 67 76 77 67 76 77 67 76 77 67 76 77 67 76 77 67 76 77 67 76 86 79 86 86 79 86 86 79 86 86 79 86 86 79 86 86 79 86 86 79 86 86 79 86 87 80 87 87 80 87 87 80 87 87 80 87 87 80 87 87 80 87 87 80 87 86 81 87 81 75 85 79 76 85 79 76 85 79 76 85 79 76 85 79 76 85 79 76 85 79 76 85 72 69 78 72 69 78 72 69 78 72 69 78 72 69 78 72 69 78 72 69 78 74 69 76 78 71 78 80 71 76 80 71 76 80 71 76 80 71 76 80 71 76 80 71 76 80 71 76 73 64 69 73 64 69 73 64 69 73 64 69 73 64 69 73 64 69 73 64 69 73 64 69 82 70 74 82 70 74 82 70 74 82 70 74 82 70 74 82 70 74 82 70 74 82 70 74 78 66 70 78 66 70 78 66 70 78 66 70 78 66 70 78 66 70 78 66 70 80 65 68 91 75 76 93 75 75 93 75 75 93 75 75 93 75 75 93 75 75 93 75 75 93 75 75 84 66 66 84 66 66 84 66 66 84 66 66 84 66 66 84 66 66 84 66 66 85 65 67 92 62 72 90 60 72 88 58 70 82 56 67 78 52 63 72 51 60 69 49 58 64 49 56 51 40 46 48 42 46 47 42 46 44 44 46 44 44 46 41 45 46 41 45 46 40 45 48 45 50 56 43 47 56 41 45 54 38 42 51 34 38 47 31 35 44 29 33 42 27 31 40 23 27 36 23 27 36
62 60 81 62 60 81 62 60 81 62 60 81 62 61 79 61 58 75 61 59 73 61 59 73 61 59 73 61 59 73 61 59 73 61 59 73 61 59 73 69 67 81 69 67 81 69 67 81 69 67 81 69 67 81 69 67 81 69 67 81 70 66 80 73 65 80 75 64 78 75 64 78 75 64 78 75 64 78 75 64 78 75 64 78 75 64 78 73 62 76 73 62 76 73 62 76 73 62 76 73 62 76 73 62 76 73 62 76 73 62 76 74 66 77 74 66 77 74 66 77 74 66 77 74 66 77 74 66 77 74 66 77 74 66 77 80 72 83 80 72 83 80 72 83 80 72 83 80 72 83 80 72 83 80 72 83 80 72 83 79 73 83 79 73 83 79 73 83 79 73 83 79 73 83 79 73 83 79 73 83 79 73 83 58 52 62 60 54 64 62 56 66 65 59 69 69 63 73 72 66 76 74 68 78 76 70 80 80 73 81 78 71 79 76 69 77 73 66 74 69 62 70 66 59 67 64 57 65 62 55 63 50 43 51 50 43 51 50 43 51 50 43 51 50 43 51 50 43 51 50 43 51 50 43 51 62 52 61 62 52 61 62 52 61 62 52 61 62 52 61 62 52 61 62 52 61 62 52 61 71 61 70 71 61 70 71 61 70 71 61 70 71 61 70 71 61 70 71 61 70 71 61 70 84 77 84 84 77 84 84 77 84 84 77 84 84 77 84 84 77 84 84 77 84 84 77 84 85 78 85 85 78 85 85 78 85 85 78 85 85 78 85 85 78 85 85 78 85 84 79 85 79 73 83 77 74 83 77 74 83 77 74 83 77 74 83 77 74 83 77 74 83 77 74 83 76 73 82 76 73 82 76 73 82 76 73 82 76 73 82 76 73 82 76 73 82 78 73 80 78 71 78 80 71 76 80 71 76 80 71 76 80 71 76 80 71 76 80 71 76 80 71 76 73 64 69 73 64 69 73 64 69 73 64 69 73 64 69 73 64 69 73 64 69 73 64 69 82 70 74 82 70 74 82 70 74 82 70 74 82 70 74 82 70 74 82 70 74 82 70 74 80 68 72 80 68 72 80 68 72 80 68 72 80 68 72 80 68 72 80 68 72 82 67 70 91 75 76 93 75 75 93 75 75 93 75 75 93 75 75 93 75 75 93 75 75 93 75 75 84 66 66 84 66 66 84 66 66 84 66 66 84 66 66 84 66 66 84 66 66 85 65 67 92 62 72 90 60 72 88 58 70 82 56 67 78 52 63 72 51 60 69 49 58 64 49 56 51 40 46 48 42 46 47 42 46 44 44 46 44 44 46 41 45 46 41 45 46 40 45 48 45 50 56 43 47 56 41 45 54 38 42 51 34 38 47 31 35 44 29 33 42 27 31 40 23 27 36 23 27 36
62 60 82 62 60 82 62 60 82 62 60 82 62 60 81 61 58 75 61 59 73 61 59 73 61 59 73 61 59 73 61 59 73 61 59 73 61 59 73 69 67 81 69 67 81 69 67 81 69 67 81 69 67 81 69 67 81 69 67 81 70 66 80 73 65 80 75 64 78 75 64 78 75 64 78 75 64 78 75 64 78 75 64 78 75 64 78 73 62 76 73 62 76 73 62 76 73 62 76 73 62 76 73 62 76 73 62 76 73 62 76 74 66 77 74 66 77 74 66 77 74 66 77 74 66 77 74 66 77 74 66 77 74 66 77 80 72 83 80 72 83 80 72 83 80 72 83 80 72 83 80 72 83 80 72 83 80 72 83 77 71 81 77 71 81 77 71 81 77 71 81 77 71 81 77 71 81 77 71 81 77 71 81 58 52 62 60 54 64 62 56 66 65 59 69 69 63 73 72 66 76 74 68 78 76 70 80 80 73 81 78 71 79 76 69 77 73 66 74 69 62 70 66 59 67 64 57 65 62 55 63 55 48 56 55 48 56 55 48 56 55 48 56 55 48 56 55 48 56 55 48 56 55 48 56 56 46 55 56 46 55 56 46 55 56 46 55 56 46 55 56 46 55 56 46 55 56 46 55 63 53 62 63 53 62 63 53 62 63 53 62 63 53 62 63 53 62 63 53 62 63 53 62 79 72 79 79 72 79 79 72 79 79 72 79 79 72 79 79 72 79 79 72 79 79 72 79 80 73 80 80 73 80 80 73 80 80 73 80 80 73 80 80 73 80 80 73 80 79 74 80 77 71 81 75 72 81 75 72 81 75 72 81 75 72 81 75 72 81 75 72 81 75 72 81 82 79 88 82 79 88 82 79 88 82 79 88 82 79 88 82 79 88 82 79 88 84 79 86 78 71 78 80 71 76 80 71 76 80 71 76 80 71 76 80 71 76 80 71 76 80 71 76 73 64 69 73 64 69 73 64 69 73 64 69 73 64 69 73 64 69 73 64 69 73 64 69 82 70 74 82 70 74 82 70 74 82 70 74 82 70 74 82 70 74 82 70 74 82 70 74 82 70 74 82 70 74 82 70 74 82 70 74 82 70 74 82 70 74 82 70 74 84 69 72 91 75 76 93 75 75 93 75 75 93 75 75 93 75 75 93 75 75 93 75 75 93 75 75 84 66 66 84 66 66 84 66 66 84 66 66 84 66 66 84 66 66 84 66 66 85 65 67 92 62 72 90 60 72 88 58 70 82 56 67 78 52 63 72 51 60 69 49 58 64 49 56 51 40 46 48 42 46 47 42 46 44 44 46 44 44 46 41 45 46 41 45 46 40 45 48 45 50 56 43 47 56 41 45 54 38 42 51 34 38 47 31 35 44 29 33 42 27 31 40 23 27 36 23 27 36
62 60 84 62 59 86 62 60 84 62 59 86 62 60 82 61 58 75 61 59 73 61 59 73 61 59 73 61 59 73 61 59 73 61 59 73 61 59 73 69 67 81 69 67 81 69 67 81 69 67 81 69 67 81 69 67 81 69 67 81 70 66 80 73 65 80 75 64 78 75 64 78 75 64 78 75 64 78 75 64 78 75 64 78 75 64 78 73 62 76 73 62 76 73 62 76 73 62 76 73 62 76 73 62 76 73 62 76 73 62 76 74 66 77 74 66 77 74 66 77 74 66 77 74 66 77 74 66 77 74 66 77 74 66 77 80 72 83 80 72 83 80 72 83 80 72 83 80 72 83 80 72 83 80 72 83 80 72 83 74 68 78 74 68 78 74 68 78 74 68 78 74 68 78 74 68 78 74 68 78 74 68 78 58 52 62 60 54 64 62 56 66 65 59 69 69 63 73 72 66 76 74 68 78 76 70 80 80 73 81 78 71 79 76 69 77 73 66 74 69 62 70 66 59 67 64 57 65 62 55 63 62 55 63 62 55 63 62 55 63 62 55 63 62 55 63 62 55 63 62 55 63 62 55 63 54 44 53 54 44 53 54 44 53 54 44 53 54 44 53 54 44 53 54 44 53 54 44 53 57 47 56 57 47 56 57 47 56 57 47 56 57 47 56 57 47 56 57 47 56 57 47 56 72 65 72 72 65 72 72 65 72 72 65 72 72 65 72 72 65 72 72 65 72 72 65 72 73 66 73 73 66 73 73 66 73 73 66 73 73 66 73 73 66 73 73 66 73 72 67 73 74 68 78 72 69 78 72 69 78 72 69 78 72 69 78 72 69 78 72 69 78 72 69 78 84 81 90 84 81 90 84 81 90 84 81 90 84 81 90 84 81 90 84 81 90 86 81 88 78 71 78 80 71 76 80 71 76 80 71 76 80 71 76 80 71 76 80 71 76 80 71 76 73 64 69 73 64 69 73 64 69 73 64 69 73 64 69 73 64 69 73 64 69 73 64 69 82 70 74 82 70 74 82 70 74 82 70 74 82 70 74 82 70 74 82 70 74 82 70 74 85 73 77 85 73 77 85 73 77 85 73 77 85 73 77 85 73 77 85 73 77 87 72 75 91 75 76 93 75 75 93 75 75 93 75 75 93 75 75 93 75 75 93 75 75 93 75 75 84 66 66 84 66 66 84 66 66 84 66 66 84 66 66 84 66 66 84 66 66 85 65 67 92 62 72 90 60 72 88 58 70 82 56 67 78 52 63 72 51 60 69 49 58 64 49 56 51 40 46 48 42 46 47 42 46 44 44 46 44 44 46 41 45 46 41 45 46 40 45 48 45 50 56 43 47 56 41 45 54 38 42 51 34 38 47 31 35 44 29 33 42 27 31 40 23 27 36 23 27 36
62 59 86 62 59 88 62 59 86 62 59 88 62 60 84 61 58 77 61 59 73 61 59 73 61 59 73 61 59 73 61 59 73 61 59 73 61 59 73 69 67 81 69 67 81 69 67 81 69 67 81 69 67 81 69 67 81 69 67 81 70 66 80 73 65 80 75 64 78 75 64 78 75 64 78 75 64 78 75 64 78 75 64 78 75 64 78 73 62 76 73 62 76 73 62 76 73 62 76 73 62 76 73 62 76 73 62 76 73 62 76 74 66 77 74 66 77 74 66 77 74 66 77 74 66 77 74 66 77 74 66 77 74 66 77 80 72 83 80 72 83 80 72 83 80 72 83 80 72 83 80 72 83 80 72 83 80 72 83 70 64 74 70 64 74 70 64 74 70 64 74 70 64 74 70 64 74 70 64 74 70 64 74 58 52 62 60 54 64 62 56 66 65 59 69 69 63 73 72 66 76 74 68 78 76 70 80 80 73 81 78 71 79 76 69 77 73 66 74 69 62 70 66 59 67 64 57 65 62 55 63 68 61 69 68 61 69 68 61 69 68 61 69 68 61 69 68 61 69 68 61 69 68 61 69 57 47 56 57 47 56 57 47 56 57 47 56 57 47 56 57 47 56 57 47 56 57 47 56 57 47 56 57 47 56 57 47 56 57 47 56 57 47 56 57 47 56 57 47 56 57 47 56 66 59 66 66 59 66 66 59 66 66 59 66 66 59 66 66 59 66 66 59 66 66 59 66 67 60 67 67 60 67 67 60 67 67 60 67 67 60 67 67 60 67 67 60 67 66 61 67 70 64 74 68 65 74 68 65 74 68 65 74 68 65 74 68 65 74 68 65 74 68 65 74 81 78 87 81 78 87 81 78 87 81 78 87 81 78 87 81 78 87 81 78 87 83 78 85 78 71 78 80 71 76 80 71 76 80 71 76 80 71 76 80 71 76 80 71 76 80 71 76 73 64 69 73 64 69 73 64 69 73 64 69 73 64 69 73 64 69 73 64 69 73 64 69 82 70 74 82 70 74 82 70 74 82 70 74 82 70 74 82 70 74 82 70 74 82 70 74 89 77 81 89 77 81 89 77 81 89 77 81 89 77 81 89 77 81 89 77 81 91 76 79 91 75 76 93 75 75 93 75 75 93 75 75 93 75 75 93 75 75 93 75 75 93 75 75 84 66 66 84 66 66 84 66 66 84 66 66 84 66 66 84 66 66 84 66 66 85 65 67 92 62 72 90 60 72 88 58 70 82 56 67 78 52 63 72 51 60 69 49 58 64 49 56 51 40 46 48 42 46 47 42 46 44 44 46 44 44 46 41 45 46 41 45 46 40 45 48 45 50 56 43 47 56 41 45 54 38 42 51 34 38 47 31 35 44 29 33 42 27 31 40 23 27 36 23 27 36
62 59 88 62 59 90 62 59 88 62 59 90 62 59 86 61 58 77 61 59 73 61 59 73 61 59 73 61 59 73 61 59 73 61 59 73 61 59 73 69 67 81 69 67 81 69 67 81 69 67 81 69 67 81 69 67 81 69 67 81 70 66 80 73 65 80 75 64 78 75 64 78 75 64 78 75 64 78 75 64 78 75 64 78 75 64 78 73 62 76 73 62 76 73 62 76 73 62 76 73 62 76 73 62 76 73 62 76 73 62 76 74 66 77 74 66 77 74 66 77 74 66 77 74 66 77 74 66 77 74 66 77 74 66 77 80 72 83 80 72 83 80 72 83 80 72 83 80 72 83 80 72 83 80 72 83 80 72 83 67 61 71 67 61 71 67 61 71 67 61 71 67 61 71 67 61 71 67 61 71 67 61 71 58 52 62 60 54 64 62 56 66 65 59 69 69 63 73 72 66 76 74 68 78 76 70 80 80 73 81 78 71 79 76 69 77 73 66 74 69 62 70 66 59 67 64 57 65 62 55 63 75 68 76 75 68 76 75 68 76 75 68 76 75 68 76 75 68 76 75 68 76 75 68 76 66 56 65 66 56 65 66 56 65 66 56 65 66 56 65 66 56 65 66 56 65 66 56 65 63 53 62 63 53 62 63 53 62 63 53 62 63 53 62 63 53 62 63 53 62 63 53 62 59 52 59 59 52 59 59 52 59 59 52 59 59 52 59 59 52 59 59 52 59 59 52 59 60 53 60 60 53 60 60 53 60 60 53 60 60 53 60 60 53 60 60 53 60 59 54 60 67 61 71 65 62 71 65 62 71 65 62 71 65 62 71 65 62 71 65 62 71 65 62 71 72 69 78 72 69 78 72 69 78 72 69 78 72 69 78 72 69 78 72 69 78 74 69 76 78 71 78 80 71 76 80 71 76 80 71 76 80 71 76 80 71 76 80 71 76 80 71 76 73 64 69 73 64 69 73 64 69 73 64 69 73 64 69 73 64 69 73 64 69 73 64 69 82 70 74 82 70 74 82 70 74 82 70 74 82 70 74 82 70 74 82 70 74 82 70 74 92 80 84 92 80 84 92 80 84 92 80 84 92 80 84 92 80 84 92 80 84 94 79 82 91 75 76 93 75 75 93 75 75 93 75 75 93 75 75 93 75 75 93 75 75 93 75 75 84 66 66 84 66 66 84 66 66 84 66 66 84 66 66 84 66 66 84 66 66 85 65 67 92 62 72 90 60 72 88 58 70 82 56 67 78 52 63 72 51 60 69 49 58 64 49 56 51 40 46 48 42 46 47 42 46 44 44 46 44 44 46 41 45 46 41 45 46 40 45 48 45 50 56 43 47 56 41 45 54 38 42 51 34 38 47 31 35 44 29 33 42 27 31 40 23 27 36 23 27 36
62 59 90 62 58 91 62 59 90 62 58 91 62 59 86 61 58 77 61 59 73 61 59 73 61 59 73 61 59 73 61 59 73 61 59 73 61 59 73 69 67 81 69 67 81 69 67 81 69 67 81 69 67 81 69 67 81 69 67 81 70 66 80 73 65 80 75 64 78 75 64 78 75 64 78 75 64 78 75 64 78 75 64 78 75 64 78 73 62 76 73 62 76 73 62 76 73 62 76 73 62 76 73 62 76 73 62 76 73 62 76 74 66 77 74 66 77 74 66 77 74 66 77 74 66 77 74 66 77 74 66 77 74 66 77 80 72 83 80 72 83 80 72 83 80 72 83 80 72 83 80 72 83 80 72 83 80 72 83 65 59 69 65 59 69 65 59 69 65 59 69 65 59 69 65 59 69 65 59 69 65 59 69 58 52 62 60 54 64 62 56 66 65 59 69 69 63 73 72 66 76 74 68 78 76 70 80 80 73 81 78 71 79 76 69 77 73 66 74 69 62 70 66 59 67 64 57 65 62 55 63 80 73 81 80 73 81 80 73 81 80 73 81 80 73 81 80 73 81 80 73 81 80 73 81 76 66 75 76 66 75 76 66 75 76 66 75 76 66 75 76 66 75 76 66 75 76 66 75 71 61 70 71 61 70 71 61 70 71 61 70 71 61 70 71 61 70 71 61 70 71 61 70 54 47 54 54 47 54 54 47 54 54 47 54 54 47 54 54 47 54 54 47 54 54 47 54 55 48 55 55 48 55 55 48 55 55 48 55 55 48 55 55 48 55 55 48 55 54 49 55 65 59 69 63 60 69 63 60 69 63 60 69 63 60 69 63 60 69 63 60 69 63 60 69 62 59 68 62 59 68 62 59 68 62 59 68 62 59 68 62 59 68 62 59 68 64 59 66 78 71 78 80 71 76 80 71 76 80 71 76 80 71 76 80 71 76 80 71 76 80 71 76 73 64 69 73 64 69 73 64 69 73 64 69 73 64 69 73 64 69 73 64 69 73 64 69 82 70 74 82 70 74 82 70 74 82 70 74 82 70 74 82 70 74 82 70 74 82 70 74 94 82 86 94 82 86 94 82 86 94 82 86 94 82 86 94 82 86 94 82 86 96 81 84 91 75 76 93 75 75 93 75 75 93 75 75 93 75 75 93 75 75 93 75 75 93 75 75 84 66 66 84 66 66 84 66 66 84 66 66 84 66 66 84 66 66 84 66 66 85 65 67 92 62 72 90 60 72 88 58 70 82 56 67 78 52 63 72 51 60 69 49 58 64 49 56 51 40 46 48 42 46 47 42 46 44 44 46 44 44 46 41 45 46 41 45 46 40 45 48 45 50 56 43 47 56 41 45 54 38 42 51 34 38 47 31 35 44 29 33 42 27 31 40 23 27 36 23 27 36
59 60 91 59 59 93 59 60 91 59 59 93 59 60 90 58 59 80 58 59 77 58 59 79 58 59 77 58 59 79 58 59 77 58 59 79 58 59 77 66 67 87 66 67 85 66 67 87 66 67 85 66 67 87 66 67 85 66 67 87 68 67 85 70 66 83 72 65 81 72 65 81 72 65 81 72 65 81 72 65 81 72 65 81 72 65 81 70 63 79 70 63 79 70 63 79 70 63 79 70 63 79 70 63 79 70 63 79 70 64 78 73 67 79 71 68 77 73 67 77 71 68 77 73 67 77 71 68 77 73 67 77 71 68 77 79 73 83 77 74 83 79 73 83 77 74 83 79 73 83 77 74 83 79 73 83 77 74 83 61 58 69 61 58 69 61 58 69 61 58 69 61 58 69 61 58 69 61 58 69 61 58 69 56 53 64 58 55 66 60 57 68 63 60 71 67 64 75 70 67 78 72 69 80 74 71 82 77 74 83 77 72 79 75 69 79 72 67 74 68 62 72 66 59 67 64 56 67 62 55 63 84 74 85 84 74 83 85 73 85 85 73 83 85 73 85 86 73 83 86 72 85 86 73 83 84 72 84 84 72 82 84 72 84 84 72 82 84 72 84 84 72 82 84 72 84 84 72 82 78 66 78 78 66 76 78 66 78 78 66 76 78 66 78 78 66 76 78 66 78 78 66 76 55 43 53 54 44 52 55 43 53 54 44 52 55 43 53 54 44 52 55 43 53 54 44 52 56 44 54 55 45 53 56 44 54 55 45 53 56 44 54 55 45 53 56 44 54 55 45 54 64 57 65 64 56 67 64 56 67 64 56 67 64 56 67 64 56 67 64 56 67 64 56 67 58 50 61 58 50 61 58 50 61 58 50 61 58 50 61 58 50 61 58 50 61 60 50 59 81 70 78 81 70 76 82 69 78 81 70 76 82 69 78 81 70 76 82 69 78 81 70 76 75 62 71 74 63 69 75 62 71 74 63 69 75 62 71 74 63 69 75 62 71 74 63 69 81 70 76 80 71 74 81 70 76 80 71 74 81 70 76 80 71 74 81 70 76 80 71 74 95 84 90 94 85 88 95 84 90 94 85 88 95 84 90 94 85 88 95 84 90 96 84 88 91 75 78 93 74 76 93 74 76 93 74 76 93 74 76 93 74 76 93 74 76 93 74 76 84 65 67 84 65 67 84 65 67 84 65 67 84 65 67 84 65 67 84 65 67 85 64 69 87 64 74 87 61 74 83 59 72 79 57 69 75 53 65 71 51 62 67 50 60 62 49 58 51 40 48 48 41 48 47 42 48 45 43 48 45 43 48 44 43 48 43 44 48 41 44 49 45 50 56 43 47 56 41 45 54 38 42 51 34 38 47 31 35 44 29 33 42 27 31 40 23 27 36 23 27 36
52 61 92 52 61 94 52 61 92 52 61 94 52 61 92 52 62 89 52 62 87 52 62 89 52 62 87 52 62 89 52 62 87 52 62 89 52 62 87 54 64 91 54 64 89 54 64 91 54 64 89 54 64 91 54 64 89 54 64 91 56 63 89 58 63 85 60 62 85 60 62 85 60 62 85 60 62 85 60 62 85 60 62 85 60 62 85 63 65 88 63 65 88 63 65 88 63 65 88 63 65 88 63 65 88 63 65 88 64 65 85 70 73 82 70 73 78 72 73 78 70 73 78 72 73 78 70 73 78 72 73 78 70 73 78 77 78 83 75 78 83 77 78 83 75 78 83 77 78 83 75 78 83 77 78 83 77 77 85 63 62 76 64 61 78 64 61 78 64 61 78 64 61 78 64 61 78 64 61 78 64 61 78 70 67 84 72 69 86 74 71 88 77 74 91 81 78 95 84 81 98 86 83 100 87 86 100 79 79 89 73 73 81 66 64 75 60 59 67 61 58 69 69 63 73 78 70 83 86 76 87 86 72 87 86 70 83 85 67 83 84 63 78 81 58 76 79 55 71 79 52 71 75 51 67 82 64 80 81 65 78 81 64 80 81 65 78 81 64 80 81 65 78 81 64 80 81 65 78 91 74 90 91 75 88 91 74 90 91 75 88 91 74 90 91 75 88 91 74 90 91 75 88 86 70 83 86 70 81 87 69 83 86 70 81 87 69 83 86 70 81 87 69 83 86 70 81 67 49 63 66 50 61 67 49 63 66 50 61 67 49 63 66 50 61 67 49 63 66 50 61 59 43 54 59 43 54 59 43 54 59 43 54 59 43 54 59 43 54 59 43 54 59 43 54 57 41 52 57 41 52 57 41 52 57 41 52 57 41 52 57 41 52 57 41 52 57 41 52 65 47 59 65 48 58 67 47 59 65 48 58 67 47 59 65 48 58 67 47 59 65 48 58 74 54 66 72 55 65 74 54 66 72 55 65 74 54 66 72 55 65 74 54 66 71 55 65 71 64 71 70 68 71 76 71 77 78 76 79 85 80 86 87 85 88 92 87 93 92 90 93 84 79 85 82 80 83 84 79 85 82 80 83 84 79 85 82 80 83 84 79 85 85 79 83 92 77 84 95 75 84 95 75 84 95 75 84 95 75 84 95 75 84 95 75 84 95 75 84 86 66 75 86 66 75 86 66 75 86 66 75 86 66 75 86 66 75 86 66 75 84 67 75 79 63 74 77 61 72 73 60 70 70 57 67 66 53 63 63 50 60 60 48 58 58 46 56 51 41 50 51 41 50 49 42 50 49 42 50 49 42 50 49 42 50 48 43 50 46 43 52 46 49 58 43 47 58 41 45 56 38 42 53 34 38 49 31 35 46 29 33 44 27 31 42 26 30 41 26 30 41
49 62 94 49 62 94 49 62 94 49 62 94 49 62 94 49 63 92 49 63 92 49 63 92 49 63 92 49 63 92 49 63 92 49 63 92 49 63 92 51 65 94 51 65 94 51 65 94 51 65 94 51 65 94 51 65 94 51 65 94 53 64 92 56 63 91 57 63 89 57 63 89 57 63 89 57 63 89 57 63 89 57 63 89 57 63 89 60 66 92 60 66 92 60 66 92 60 66 92 60 66 92 60 66 92 60 66 92 60 67 86 69 73 84 69 74 78 69 74 80 69 74 78 69 74 80 69 74 78 69 74 80 69 74 78 74 79 85 74 79 83 74 79 85 74 79 83 74 79 85 74 79 83 74 79 85 74 78 87 63 62 78 63 62 80 63 62 80 63 62 80 63 62 80 63 62 80 63 62 80 63 62 80 69 68 86 71 70 88 73 72 90 76 75 93 80 79 97 83 82 100 85 84 102 85 87 102 77 79 91 70 74 83 65 65 75 59 59 69 61 58 69 69 63 75 78 70 83 87 75 89 88 71 87 89 68 85 88 65 83 86 61 80 85 56 76 82 53 73 83 50 71 78 49 69 83 60 78 80 62 78 80 62 78 80 62 78 80 62 78 80 62 78 80 62 78 80 62 78 90 72 88 90 72 88 90 72 88 90 72 88 90 72 88 90 72 88 90 72 88 90 72 88 87 66 81 87 66 81 87 66 81 87 66 81 87 66 81 87 66 81 87 66 81 87 66 81 75 54 69 75 54 69 75 54 69 75 54 69 75 54 69 75 54 69 75 54 69 75 54 69 69 49 61 69 49 61 69 49 61 69 49 61 69 49 61 69 49 61 69 49 61 69 49 61 62 42 54 62 42 54 62 42 54 62 42 54 62 42 54 62 42 54 62 42 54 62 42 54 65 43 56 65 43 56 65 43 56 65 43 56 65 43 56 65 43 56 65 43 56 65 43 56 71 49 62 71 49 62 71 49 62 71 49 62 71 49 62 71 49 62 71 49 62 68 50 62 66 59 66 64 63 68 68 66 71 70 69 74 75 73 78 78 77 82 82 80 85 83 82 87 80 78 83 79 78 83 80 78 83 79 78 83 80 78 83 79 78 83 80 78 83 83 76 83 90 74 84 93 73 84 93 73 84 93 73 84 93 73 84 93 73 84 93 73 84 93 73 84 84 64 75 84 64 75 84 64 75 84 64 75 84 64 75 84 64 75 84 64 75 82 65 75 76 64 76 73 63 74 71 61 72 68 58 69 64 54 65 61 51 62 59 49 60 57 47 58 51 41 52 51 41 52 51 41 52 51 41 52 51 41 52 51 41 52 51 41 52 48 42 52 48 48 60 43 47 58 41 45 56 38 42 53 34 38 49 31 35 46 29 33 44 27 31 42 26 30 41 26 30 41
49 62 94 49 62 94 49 62 94 49 62 94 49 62 94 49 63 92 49 63 92 49 63 92 49 63 92 49 63 92 49 63 92 49 63 92 49 63 92 51 65 94 51 65 94 51 65 94 51 65 94 51 65 94 51 65 94 51 65 94 53 64 92 56 63 91 57 63 89 57 63 89 57 63 89 57 63 89 57 63 89 57 63 89 57 63 89 60 66 92 60 66 92 60 66 92 60 66 92 60 66 92 60 66 92 60 66 92 60 66 88 69 73 85 69 74 80 69 73 82 69 74 80 69 73 82 69 74 80 69 73 82 69 74 80 74 78 87 74 79 85 74 78 87 74 79 85 74 78 87 74 79 85 74 78 87 74 78 89 63 62 78 63 62 80 63 62 80 63 62 80 63 62 80 63 62 80 63 62 80 63 62 80 69 68 86 71 70 88 73 72 90 76 75 93 80 79 97 83 82 100 85 84 102 85 87 102 77 79 91 70 74 83 65 65 75 59 59 69 61 58 69 69 63 75 78 70 83 87 75 89 88 71 87 89 68 85 88 65 83 86 61 80 85 56 76 82 53 73 83 50 71 78 49 69 81 58 76 78 60 76 78 60 76 78 60 76 78 60 76 78 60 76 78 60 76 78 60 76 85 67 83 85 67 83 85 67 83 85 67 83 85 67 83 85 67 83 85 67 83 85 67 83 85 64 79 85 64 79 85 64 79 85 64 79 85 64 79 85 64 79 85 64 79 85 64 79 83 62 77 83 62 77 83 62 77 83 62 77 83 62 77 83 62 77 83 62 77 83 62 77 79 59 71 79 59 71 79 59 71 79 59 71 79 59 71 79 59 71 79 59 71 79 59 71 67 47 59 67 47 59 67 47 59 67 47 59 67 47 59 67 47 59 67 47 59 67 47 59 62 40 53 62 40 53 62 40 53 62 40 53 62 40 53 62 40 53 62 40 53 62 40 53 65 43 56 65 43 56 65 43 56 65 43 56 65 43 56 65 43 56 65 43 56 62 44 56 61 51 59 57 55 60 61 56 62 62 60 65 66 61 67 67 65 70 71 66 72 70 68 73 77 72 78 75 73 78 77 72 78 75 73 78 77 72 78 75 73 78 77 72 78 78 71 78 85 69 79 88 68 79 88 68 79 88 68 79 88 68 79 88 68 79 88 68 79 88 68 79 82 62 73 82 62 73 82 62 73 82 62 73 82 62 73 82 62 73 82 62 73 80 63 73 76 64 76 73 63 74 71 61 72 68 58 69 64 54 65 61 51 62 59 49 60 57 47 58 51 41 52 51 41 52 51 41 52 51 41 52 51 41 52 51 41 52 51 41 52 48 42 52 48 48 60 43 47 58 41 45 56 38 42 53 34 38 49 31 35 46 29 33 44 27 31 42 26 30 41 26 30 41
49 62 94 49 62 94 49 62 94 49 62 94 49 62 94 49 63 92 49 63 92 49 63 92 49 63 92 49 63 92 49 63 92 49 63 92 49 63 92 51 65 94 51 65 94 51 65 94 51 65 94 51 65 94 51 65 94 51 65 94 53 64 92 56 63 91 57 63 89 57 63 89 57 63 89 57 63 89 57 63 89 57 63 89 57 63 89 60 66 92 60 66 92 60 66 92 60 66 92 60 66 92 60 66 92 60 66 92 60 66 88 69 72 87 69 73 82 69 73 84 69 73 82 69 73 84 69 73 82 69 73 84 69 73 82 74 78 89 74 78 87 74 78 89 74 78 87 74 78 89 74 78 87 74 78 89 74 78 89 63 62 78 63 62 80 63 62 80 63 62 80 63 62 80 63 62 80 63 62 80 63 62 80 69 68 86 71 70 88 73 72 90 76 75 93 80 79 97 83 82 100 85 84 102 85 87 102 77 79 91 70 74 83 65 65 75 59 59 69 61 58 69 69 63 75 78 70 83 87 75 89 88 71 87 89 68 85 88 65 83 86 61 80 85 56 76 82 53 73 83 50 71 78 49 69 78 55 73 75 57 73 75 57 73 75 57 73 75 57 73 75 57 73 75 57 73 75 57 73 78 60 76 78 60 76 78 60 76 78 60 76 78 60 76 78 60 76 78 60 76 78 60 76 82 61 76 82 61 76 82 61 76 82 61 76 82 61 76 82 61 76 82 61 76 82 61 76 89 68 83 89 68 83 89 68 83 89 68 83 89 68 83 89 68 83 89 68 83 89 68 83 88 68 80 88 68 80 88 68 80 88 68 80 88 68 80 88 68 80 88 68 80 88 68 80 74 54 66 74 54 66 74 54 66 74 54 66 74 54 66 74 54 66 74 54 66 74 54 66 63 41 54 63 41 54 63 41 54 63 41 54 63 41 54 63 41 54 63 41 54 63 41 54 63 41 54 63 41 54 63 41 54 63 41 54 63 41 54 63 41 54 63 41 54 60 42 54 57 47 55 54 49 55 56 49 56 56 51 57 58 51 58 57 52 58 59 52 59 58 53 59 71 64 71 70 65 71 71 64 71 70 65 71 71 64 71 70 65 71 71 64 71 73 63 71 78 62 72 81 61 72 81 61 72 81 61 72 81 61 72 81 61 72 81 61 72 81 61 72 79 59 70 79 59 70 79 59 70 79 59 70 79 59 70 79 59 70 79 59 70 77 60 70 76 64 76 73 63 74 71 61 72 68 58 69 64 54 65 61 51 62 59 49 60 57 47 58 51 41 52 51 41 52 51 41 52 51 41 52 51 41 52 51 41 52 51 41 52 48 42 52 48 48 60 43 47 58 41 45 56 38 42 53 34 38 49 31 35 46 29 33 44 27 31 42 26 30 41 26 30 41
49 62 94 49 62 94 49 62 94 49 62 94 49 62 94 49 63 92 49 63 92 49 63 92 49 63 92 49 63 92 49 63 92 49 63 92 49 63 92 51 65 94 51 65 94 51 65 94 51 65 94 51 65 94 51 65 94 51 65 94 53 64 92 56 63 91 57 63 89 57 63 89 57 63 89 57 63 89 57 63 89 57 63 89 57 63 89 60 66 92 60 66 92 60 66 92 60 66 92 60 66 92 60 66 92 60 66 92 60 66 88 69 72 87 69 73 84 69 73 85 69 73 84 69 73 85 69 73 84 69 73 85 69 73 84 74 78 90 74 78 89 74 78 90 74 78 89 74 78 90 74 78 89 74 78 90 74 78 90 63 62 78 63 62 80 63 62 80 63 62 80 63 62 80 63 62 80 63 62 80 63 62 80 69 68 86 71 70 88 73 72 90 76 75 93 80 79 97 83 82 100 85 84 102 85 87 102 77 79 91 70 74 83 65 65 75 59 59 69 61 58 69 69 63 75 78 70 83 87 75 89 88 71 87 89 68 85 88 65 83 86 61 80 85 56 76 82 53 73 83 50 71 78 49 69 74 51 69 71 53 69 71 53 69 71 53 69 71 53 69 71 53 69 71 53 69 71 53 69 72 54 70 72 54 70 72 54 70 72 54 70 72 54 70 72 54 70 72 54 70 72 54 70 78 57 72 78 57 72 78 57 72 78 57 72 78 57 72 78 57 72 78 57 72 78 57 72 89 68 83 89 68 83 89 68 83 89 68 83 89 68 83 89 68 83 89 68 83 89 68 83 91 71 83 91 71 83 91 71 83 91 71 83 91 71 83 91 71 83 91 71 83 91 71 83 80 60 72 80 60 72 80 60 72 80 60 72 80 60 72 80 60 72 80 60 72 80 60 72 70 48 61 70 48 61 70 48 61 70 48 61 70 48 61 70 48 61 70 48 61 70 48 61 66 44 57 66 44 57 66 44 57 66 44 57 66 44 57 66 44 57 66 44 57 63 45 57 59 48 56 56 49 56 57 47 55 54 47 54 55 45 53 52 45 52 54 44 52 51 44 51 67 57 65 65 58 65 67 57 65 65 58 65 67 57 65 65 58 65 67 57 65 68 57 65 73 56 66 75 55 66 75 55 66 75 55 66 75 55 66 75 55 66 75 55 66 75 55 66 75 55 66 75 55 66 75 55 66 75 55 66 75 55 66 75 55 66 75 55 66 73 56 66 76 64 76 73 63 74 71 61 72 68 58 69 64 54 65 61 51 62 59 49 60 57 47 58 51 41 52 51 41 52 51 41 52 51 41 52 51 41 52 51 41 52 51 41 52 48 42 52 48 48 60 43 47 58 41 45 56 38 42 53 34 38 49 31 35 46 29 33 44 27 31 42 26 30 41 26 30 41
49 62 94 49 62 94 49 62 94 49 62 94 49 62 94 49 63 92 49 63 92 49 63 92 49 63 92 49 63 92 49 63 92 49 63 92 49 63 92 51 65 94 51 65 94 51 65 94 51 65 94 51 65 94 51 65 94 51 65 94 53 64 92 56 63 91 57 63 89 57 63 89 57 63 89 57 63 89 57 63 89 57 63 89 57 63 89 60 66 92 60 66 92 60 66 92 60 66 92 60 66 92 60 66 92 60 66 92 60 66 88 69 72 89 69 72 87 69 72 87 69 72 87 69 72 87 69 72 87 69 72 87 69 72 87 74 77 92 74 77 92 74 77 92 74 77 92 74 77 92 74 77 92 74 77 92 74 77 92 63 62 80 63 62 80 63 62 80 63 62 80 63 62 80 63 62 80 63 62 80 63 62 80 69 68 86 71 70 88 73 72 90 76 75 93 80 79 97 83 82 100 85 84 102 85 87 102 77 79 91 70 74 83 65 65 75 59 59 69 61 58 69 69 63 75 78 70 83 87 75 89 88 71 87 89 68 85 88 65 83 86 61 80 85 56 76 82 53 73 83 50 71 78 49 69 71 48 66 68 50 66 68 50 66 68 50 66 68 50 66 68 50 66 68 50 66 68 50 66 65 47 63 65 47 63 65 47 63 65 47 63 65 47 63 65 47 63 65 47 63 65 47 63 75 54 69 75 54 69 75 54 69 75 54 69 75 54 69 75 54 69 75 54 69 75 54 69 83 62 77 83 62 77 83 62 77 83 62 77 83 62 77 83 62 77 83 62 77 83 62 77 89 69 81 89 69 81 89 69 81 89 69 81 89 69 81 89 69 81 89 69 81 89 69 81 87 67 79 87 67 79 87 67 79 87 67 79 87 67 79 87 67 79 87 67 79 87 67 79 82 60 73 82 60 73 82 60 73 82 60 73 82 60 73 82 60 73 82 60 73 82 60 73 75 53 66 75 53 66 75 53 66 75 53 66 75 53 66 75 53 66 75 53 66 74 54 66 67 54 63 65 54 62 63 52 60 60 49 57 58 47 55 55 44 52 53 42 50 52 41 49 61 50 58 61 50 58 61 50 58 61 50 58 61 50 58 61 50 58 61 50 58 62 49 58 66 49 59 68 48 59 68 48 59 68 48 59 68 48 59 68 48 59 68 48 59 68 48 59 72 52 63 72 52 63 72 52 63 72 52 63 72 52 63 72 52 63 72 52 63 70 53 63 76 64 76 73 63 74 71 61 72 68 58 69 64 54 65 61 51 62 59 49 60 57 47 58 51 41 52 51 41 52 51 41 52 51 41 52 51 41 52 51 41 52 51 41 52 48 42 52 48 48 60 43 47 58 41 45 56 38 42 53 34 38 49 31 35 46 29 33 44 27 31 42 26 30 41 26 30 41
49 62 94 49 62 94 49 62 94 49 62 94 49 62 94 49 63 92 49 63 92 49 63 92 49 63 92 49 63 92 49 63 92 49 63 92 49 63 92 51 65 94 51 65 94 51 65 94 51 65 94 51 65 94 51 65 94 51 65 94 53 64 92 56 63 91 57 63 89 57 63 89 57 63 89 57 63 89 57 63 89 57 63 89 57 63 89 60 66 92 60 66 92 60 66 92 60 66 92 60 66 92 60 66 92 60 66 92 60 66 90 69 72 91 69 72 89 69 72 89 69 72 89 69 72 89 69 72 89 69 72 89 69 72 89 74 77 94 74 77 94 74 77 94 74 77 94 74 77 94 74 77 94 74 77 94 74 77 94 63 62 80 63 62 80 63 62 80 63 62 80 63 62 80 63 62 80 63 62 80 63 62 80 69 68 86 71 70 88 73 72 90 76 75 93 80 79 97 83 82 100 85 84 102 85 87 102 77 79 91 70 74 83 65 65 75 59 59 69 61 58 69 69 63 75 78 70 83 87 75 89 88 71 87 89 68 85 88 65 83 86 61 80 85 56 76 82 53 73 83 50 71 78 49 69 69 46 64 66 48 64 66 48 64 66 48 64 66 48 64 66 48 64 66 48 64 66 48 64 60 42 58 60 42 58 60 42 58 60 42 58 60 42 58 60 42 58 60 42 58 60 42 58 73 52 67 73 52 67 73 52 67 73 52 67 73 52 67 73 52 67 73 52 67 73 52 67 75 54 69 75 54 69 75 54 69 75 54 69 75 54 69 75 54 69 75 54 69 75 54 69 83 63 75 83 63 75 83 63 75 83 63 75 83 63 75 83 63 75 83 63 75 83 63 75 92 72 84 92 72 84 92 72 84 92 72 84 92 72 84 92 72 84 92 72 84 92 72 84 95 73 86 95 73 86 95 73 86 95 73 86 95 73 86 95 73 86 95 73 86 95 73 86 85 63 76 85 63 76 85 63 76 85 63 76 85 63 76 85 63 76 85 63 76 84 64 76 78 62 72 74 61 70 71 58 67 68 55 64 64 51 60 60 47 56 57 44 53 55 42 51 57 44 53 57 44 53 57 44 53 57 44 53 57 44 53 57 44 53 57 44 53 59 43 53 61 44 54 63 43 54 63 43 54 63 43 54 63 43 54 63 43 54 63 43 54 63 43 54 70 50 61 70 50 61 70 50 61 70 50 61 70 50 61 70 50 61 70 50 61 68 51 61 76 64 76 73 63 74 71 61 72 68 58 69 64 54 65 61 51 62 59 49 60 57 47 58 51 41 52 51 41 52 51 41 52 51 41 52 51 41 52 51 41 52 51 41 52 48 42 52 48 48 60 43 47 58 41 45 56 38 42 53 34 38 49 31 35 46 29 33 44 27 31 42 26 30 41 26 30 41
49 62 94 49 62 94 49 62 94 49 62 94 49 62 94 49 63 92 49 63 92 49 63 92 49 63 92 49 63 92 49 63 92 49 63 92 49 63 92 51 65 94 51 65 94 51 65 94 51 65 94 51 65 94 51 65 94 51 65 94 53 64 92 56 63 91 57 63 89 57 63 89 57 63 89 57 63 89 57 63 89 57 63 89 57 63 89 60 66 92 60 66 92 60 66 92 60 66 92 60 66 92 60 66 92 60 66 92 60 66 90 69 71 94 69 71 92 69 71 92 69 71 92 69 71 92 69 71 92 69 71 92 69 71 92 74 76 97 74 76 97 74 76 97 74 76 97 74 76 97 74 76 97 74 76 97 74 77 96 63 61 82 63 62 80 63 62 80 63 62 80 63 62 80 63 62 80 63 62 80 63 62 80 69 68 86 71 70 88 73 72 90 76 75 93 80 79 97 83 82 100 85 84 102 85 87 102 77 79 91 70 74 83 65 65 75 59 59 69 61 58 69 69 63 75 78 70 83 87 75 89 88 71 87 89 68 85 88 65 83 86 61 80 85 56 76 82 53 73 83 50 71 78 49 69 67 44 62 64 46 62 64 46 62 64 46 62 64 46 62 64 46 62 64 46 62 64 46 62 58 40 56 58 40 56 58 40 56 58 40 56 58 40 56 58 40 56 58 40 56 58 40 56 71 50 65 71 50 65 71 50 65 71 50 65 71 50 65 71 50 65 71 50 65 71 50 65 69 48 63 69 48 63 69 48 63 69 48 63 69 48 63 69 48 63 69 48 63 69 48 63 79 59 71 79 59 71 79 59 71 79 59 71 79 59 71 79 59 71 79 59 71 79 59 71 94 74 86 94 74 86 94 74 86 94 74 86 94 74 86 94 74 86 94 74 86 94 74 86 103 81 94 103 81 94 103 81 94 103 81 94 103 81 94 103 81 94 103 81 94 103 81 94 92 70 83 92 70 83 92 70 83 92 70 83 92 70 83 92 70 83 92 70 83 91 71 83 87 67 78 83 66 76 80 63 73 75 58 68 71 54 64 66 49 59 63 46 56 61 44 54 58 41 51 58 41 51 58 41 51 58 41 51 58 41 51 58 41 51 58 41 51 58 41 51 61 41 52 61 41 52 61 41 52 61 41 52 61 41 52 61 41 52 61 41 52 61 41 52 68 48 59 68 48 59 68 48 59 68 48 59 68 48 59 68 48 59 68 48 59 66 49 59 76 64 76 73 63 74 71 61 72 68 58 69 64 54 65 61 51 62 59 49 60 57 47 58 51 41 52 51 41 52 51 41 52 51 41 52 51 41 52 51 41 52 51 41 52 48 42 52 48 48 60 43 47 58 41 45 56 38 42 53 34 38 49 31 35 46 29 33 44 27 31 42 26 30 41 26 30 41
48 61 93 48 61 93 48 61 93 48 61 93 48 61 93 47 61 90 47 61 90 47 61 90 47 61 90 47 61 90 47 61 90 47 61 90 47 61 90 53 67 96 53 67 96 53 67 96 53 67 96 53 67 96 53 67 96 53 67 96 55 66 94 57 64 92 58 64 90 58 64 90 58 64 90 58 64 90 58 64 90 58 64 90 58 64 90 58 64 90 58 64 90 58 64 90 58 64 90 58 64 90 58 64 90 58 64 90 58 64 90 61 63 88 61 63 88 61 63 88 61 63 88 61 63 88 61 63 88 61 63 88 61 63 88 59 61 86 59 61 86 59 61 86 59 61 86 59 61 86 59 61 86 59 61 86 59 61 84 62 60 81 62 61 79 62 61 79 62 61 79 62 61 79 62 61 79 62 61 79 62 61 79 78 77 95 78 77 95 78 77 95 78 77 95 78 77 95 78 77 95 78 77 95 76 78 93 57 59 71 58 62 71 63 63 73 66 66 76 72 69 80 77 71 83 80 72 85 85 73 87 78 61 77 81 60 77 82 59 77 83 58 77 86 57 77 86 57 77 89 56 77 86 57 77 74 51 69 71 53 69 71 53 69 71 53 69 71 53 69 71 53 69 71 53 69 71 53 69 67 49 65 67 49 65 67 49 65 67 49 65 67 49 65 67 49 65 67 49 65 67 49 65 71 50 65 71 50 65 71 50 65 71 50 65 71 50 65 71 50 65 71 50 65 71 50 65 73 52 67 73 52 67 73 52 67 73 52 67 73 52 67 73 52 67 73 52 67 73 52 67 76 56 68 76 56 68 76 56 68 76 56 68 76 56 68 76 56 68 76 56 68 76 56 68 78 58 70 78 58 70 78 58 70 78 58 70 78 58 70 78 58 70 78 58 70 78 58 70 82 60 73 82 60 73 82 60 73 82 60 73 82 60 73 82 60 73 82 60 73 82 60 73 93 71 84 93 71 84 93 71 84 93 71 84 93 71 84 93 71 84 93 71 84 93 71 84 96 74 86 96 74 86 96 74 86 96 74 86 96 74 86 96 74 86 96 74 86 96 74 86 76 54 66 76 54 66 76 54 66 76 54 66 76 54 66 76 54 66 76 54 66 76 54 66 73 53 64 73 53 64 73 53 64 73 53 64 73 53 64 73 53 64 73 53 64 73 53 64 51 31 42 51 31 42 51 31 42 51 31 42 51 31 42 51 31 42 51 31 42 49 32 42 53 41 53 52 42 53 52 42 53 52 42 53 52 42 53 52 42 53 52 42 53 52 42 53 56 46 57 56 46 57 56 46 57 56 46 57 56 46 57 56 46 57 56 46 57 53 47 57 41 41 53 38 42 53 38 42 53 38 42 53 38 42 53 38 42 53 38 42 53 38 42 53 28 32 43 28 32 43
50 63 95 50 63 95 50 63 95 50 63 95 50 63 95 49 63 92 49 63 92 49 63 92 49 63 92 49 63 92 49 63 92 49 63 92 49 63 92 53 67 96 53 67 96 53 67 96 53 67 96 53 67 96 53 67 96 53 67 96 55 66 94 57 64 92 58 64 90 58 64 90 58 64 90 58 64 90 58 64 90 58 64 90 58 64 90 58 64 90 58 64 90 58 64 90 58 64 90 58 64 90 58 64 90 58 64 90 58 64 90 61 62 92 61 62 92 61 62 92 61 62 92 61 62 92 61 62 92 61 62 92 61 62 92 59 60 90 59 60 90 59 60 90 59 60 90 59 60 90 59 60 90 59 60 90 59 61 86 62 60 81 62 61 79 62 61 79 62 61 79 62 61 79 62 61 79 62 61 79 62 61 79 76 75 93 76 75 93 76 75 93 76 75 93 76 75 93 76 75 93 76 75 93 74 76 91 57 59 71 58 62 71 63 63 73 66 66 76 72 69 80 77 71 83 80 72 85 85 73 87 78 61 77 81 60 77 82 59 77 83 58 77 86 57 77 86 57 77 89 56 77 86 57 77 74 51 69 71 53 69 71 53 69 71 53 69 71 53 69 71 53 69 71 53 69 71 53 69 67 49 65 67 49 65 67 49 65 67 49 65 67 49 65 67 49 65 67 49 65 67 49 65 71 50 65 71 50 65 71 50 65 71 50 65 71 50 65 71 50 65 71 50 65 71 50 65 73 52 67 73 52 67 73 52 67 73 52 67 73 52 67 73 52 67 73 52 67 73 52 67 76 56 68 76 56 68 76 56 68 76 56 68 76 56 68 76 56 68 76 56 68 76 56 68 78 58 70 78 58 70 78 58 70 78 58 70 78 58 70 78 58 70 78 58 70 78 58 70 82 60 73 82 60 73 82 60 73 82 60 73 82 60 73 82 60 73 82 60 73 82 60 73 91 69 82 91 69 82 91 69 82 91 69 82 91 69 82 91 69 82 91 69 82 91 69 82 95 71 84 97 71 84 97 71 84 97 71 84 97 71 84 97 71 84 97 71 84 97 71 84 85 59 72 85 59 72 85 59 72 85 59 72 85 59 72 85 59 72 85 59 72 83 59 72 80 58 70 79 59 70 79 59 70 79 59 70 79 59 70 79 59 70 79 59 70 79 59 70 59 39 50 59 39 50 59 39 50 59 39 50 59 39 50 59 39 50 59 39 50 57 40 50 55 43 55 54 44 55 54 44 55 54 44 55 54 44 55 54 44 55 54 44 55 54 44 55 53 43 54 53 43 54 53 43 54 53 43 54 53 43 54 53 43 54 53 43 54 50 44 54 38 38 50 35 39 50 35 39 50 35 39 50 35 39 50 35 39 50 35 39 50 35 39 50 30 34 45 30 34 45
55 68 100 55 68 100 55 68 100 55 68 100 55 68 100 51 65 94 51 65 94 51 65 94 51 65 94 51 65 94 51 65 94 51 65 94 51 65 94 53 67 96 53 67 96 53 67 96 53 67 96 53 67 96 53 67 96 53 67 96 55 66 94 57 64 92 58 64 90 58 64 90 58 64 90 58 64 90 58 64 90 58 64 90 58 64 90 58 64 90 58 64 90 58 64 90 58 64 90 58 64 90 58 64 90 58 64 90 58 63 92 61 62 93 61 62 93 61 62 93 61 62 93 61 62 93 61 62 93 61 62 93 61 62 93 59 60 91 59 60 91 59 60 91 59 60 91 59 60 91 59 60 91 59 60 91 59 60 88 62 60 82 62 61 79 62 61 79 62 61 79 62 61 79 62 61 79 62 61 79 62 61 79 74 73 91 74 73 91 74 73 91 74 73 91 74 73 91 74 73 91 74 73 91 72 74 89 57 59 71 58 62 71 63 63 73 66 66 76 72 69 80 77 71 83 80 72 85 85 73 87 78 61 77 81 60 77 82 59 77 83 58 77 86 57 77 86 57 77 89 56 77 86 57 77 74 51 69 71 53 69 71 53 69 71 53 69 71 53 69 71 53 69 71 53 69 71 53 69 67 49 65 67 49 65 67 49 65 67 49 65 67 49 65 67 49 65 67 49 65 67 49 65 71 50 65 71 50 65 71 50 65 71 50 65 71 50 65 71 50 65 71 50 65 71 50 65 73 52 67 73 52 67 73 52 67 73 52 67 73 52 67 73 52 67 73 52 67 73 52 67 76 56 68 76 56 68 76 56 68 76 56 68 76 56 68 76 56 68 76 56 68 76 56 68 78 58 70 78 58 70 78 58 70 78 58 70 78 58 70 78 58 70 78 58 70 78 58 70 82 60 73 82 60 73 82 60 73 82 60 73 82 60 73 82 60 73 82 60 73 82 60 73 89 67 80 89 67 80 89 67 80 89 67 80 89 67 80 89 67 80 89 67 80 90 66 80 95 69 82 96 68 82 96 68 82 96 68 82 96 68 82 96 68 82 96 68 82 96 68 82 94 66 80 94 66 80 94 66 80 94 66 80 94 66 80 94 66 80 94 66 80 93 67 80 88 66 78 87 67 78 87 67 78 87 67 78 87 67 78 87 67 78 87 67 78 87 67 78 72 52 63 72 52 63 72 52 63 72 52 63 72 52 63 72 52 63 72 52 63 70 53 63 60 48 60 59 49 60 59 49 60 59 49 60 59 49 60 59 49 60 59 49 60 59 49 60 50 40 51 50 40 51 50 40 51 50 40 51 50 40 51 50 40 51 50 40 51 47 41 51 35 35 47 32 36 47 32 36 47 32 36 47 32 36 47 32 36 47 32 36 47 32 36 47 32 36 47 32 36 47
62 75 107 62 75 107 62 75 107 62 75 107 62 75 107 54 68 97 54 68 97 54 68 97 54 68 97 54 68 97 54 68 97 54 68 97 54 68 97 53 67 96 53 67 96 53 67 96 53 67 96 53 67 96 53 67 96 53 67 96 55 66 94 57 64 92 58 64 90 58 64 90 58 64 90 58 64 90 58 64 90 58 64 90 58 64 90 58 64 90 58 64 90 58 64 90 58 64 90 58 64 90 58 64 90 58 64 90 58 63 92 61 61 95 61 61 95 61 61 97 61 61 95 61 61 97 61 61 95 61 61 97 61 61 95 59 59 95 59 59 93 59 59 95 59 59 93 59 59 95 59 59 93 59 59 95 59 60 90 62 60 82 62 61 79 62 61 79 62 61 79 62 61 79 62 61 79 62 61 79 62 61 79 71 70 88 71 70 88 71 70 88 71 70 88 71 70 88 71 70 88 71 70 88 69 71 86 57 59 71 58 62 71 63 63 73 66 66 76 72 69 80 77 71 83 80 72 85 85 73 87 78 61 77 81 60 77 82 59 77 83 58 77 86 57 77 86 57 77 89 56 77 86 57 77 74 51 69 71 53 69 71 53 69 71 53 69 71 53 69 71 53 69 71 53 69 71 53 69 67 49 65 67 49 65 67 49 65 67 49 65 67 49 65 67 49 65 67 49 65 67 49 65 71 50 65 71 50 65 71 50 65 71 50 65 71 50 65 71 50 65 71 50 65 71 50 65 73 52 67 73 52 67 73 52 67 73 52 67 73 52 67 73 52 67 73 52 67 73 52 67 76 56 68 76 56 68 76 56 68 76 56 68 76 56 68 76 56 68 76 56 68 76 56 68 78 58 70 78 58 70 78 58 70 78 58 70 78 58 70 78 58 70 78 58 70 78 58 70 82 60 73 82 60 73 82 60 73 82 60 73 82 60 73 82 60 73 82 60 73 82 60 73 86 64 77 86 64 77 86 64 77 86 64 77 86 64 77 86 64 77 86 64 77 87 63 77 93 65 79 95 64 79 96 64 79 95 64 79 96 64 79 95 64 79 96 64 79 95 64 79 103 71 86 102 71 86 103 71 86 102 71 86 103 71 86 102 71 86 103 71 86 100 72 86 94 72 84 93 73 84 93 73 84 93 73 84 93 73 84 93 73 84 93 73 84 93 73 84 84 64 75 84 64 75 84 64 75 84 64 75 84 64 75 84 64 75 84 64 75 82 65 75 67 55 67 66 56 67 66 56 67 66 56 67 66 56 67 66 56 67 66 56 67 66 56 67 51 41 52 51 41 52 51 41 52 51 41 52 51 41 52 51 41 52 51 41 52 48 42 52 36 36 48 33 37 48 33 37 48 33 37 48 33 37 48 33 37 48 33 37 48 33 37 48 35 39 50 35 39 50
68 81 113 68 81 113 68 81 113 68 81 113 68 81 113 58 72 101 58 72 101 58 72 101 58 72 101 58 72 101 58 72 101 58 72 101 58 72 101 53 67 96 53 67 96 53 67 96 53 67 96 53 67 96 53 67 96 53 67 96 55 66 94 57 64 92 58 64 90 58 64 90 58 64 90 58 64 90 58 64 90 58 64 90 58 64 90 58 64 90 58 64 90 58 64 90 58 64 90 58 64 90 58 64 90 58 64 90 58 63 92 61 61 95 61 61 97 61 61 99 61 61 97 61 61 99 61 61 97 61 61 99 61 61 97 59 59 97 59 59 95 59 59 97 59 59 95 59 59 97 59 59 95 59 59 97 59 60 91 62 60 82 62 61 79 62 61 79 62 61 79 62 61 79 62 61 79 62 61 79 62 61 79 67 66 84 67 66 84 67 66 84 67 66 84 67 66 84 67 66 84 67 66 84 65 67 82 57 59 71 58 62 71 63 63 73 66 66 76 72 69 80 77 71 83 80 72 85 85 73 87 78 61 77 81 60 77 82 59 77 83 58 77 86 57 77 86 57 77 89 56 77 86 57 77 74 51 69 71 53 69 71 53 69 71 53 69 71 53 69 71 53 69 71 53 69 71 53 69 67 49 65 67 49 65 67 49 65 67 49 65 67 49 65 67 49 65 67 49 65 67 49 65 71 50 65 71 50 65 71 50 65 71 50 65 71 50 65 71 50 65 71 50 65 71 50 65 73 52 67 73 52 67 73 52 67 73 52 67 73 52 67 73 52 67 73 52 67 73 52 67 76 56 68 76 56 68 76 56 68 76 56 68 76 56 68 76 56 68 76 56 68 76 56 68 78 58 70 78 58 70 78 58 70 78 58 70 78 58 70 78 58 70 78 58 70 78 58 70 82 60 73 82 60 73 82 60 73 82 60 73 82 60 73 82 60 73 82 60 73 82 60 73 82 60 73 82 60 73 82 60 73 82 60 73 82 60 73 82 60 73 82 60 73 83 59 73 91 60 75 92 60 75 93 59 75 92 60 75 93 59 75 92 60 75 93 59 75 92 60 75 104 70 86 103 71 86 104 70 86 103 71 86 104 70 86 103 71 86 104 70 86 102 71 86 95 71 84 93 73 84 93 73 84 93 73 84 93 73 84 93 73 84 93 73 84 93 73 84 91 71 82 91 71 82 91 71 82 91 71 82 91 71 82 91 71 82 91 71 82 89 72 82 73 61 73 72 62 73 72 62 73 72 62 73 72 62 73 72 62 73 72 62 73 72 62 73 58 48 59 58 48 59 58 48 59 58 48 59 58 48 59 58 48 59 58 48 59 55 49 59 43 43 55 40 44 55 40 44 55 40 44 55 40 44 55 40 44 55 40 44 55 40 44 55 39 43 54 39 43 54
75 88 120 75 88 120 75 88 120 75 88 120 75 88 120 61 75 104 61 75 104 61 75 104 61 75 104 61 75 104 61 75 104 61 75 104 61 75 104 53 67 96 53 67 96 53 67 96 53 67 96 53 67 96 53 67 96 53 67 96 55 66 94 57 64 92 58 64 90 58 64 90 58 64 90 58 64 90 58 64 90 58 64 90 58 64 90 58 64 90 58 64 90 58 64 90 58 64 90 58 64 90 58 64 90 58 64 90 58 63 92 61 61 97 61 61 99 61 60 100 61 61 99 61 60 100 61 61 99 61 60 100 61 61 99 59 58 98 59 59 97 59 58 98 59 59 97 59 58 98 59 59 97 59 58 98 59 59 93 62 60 84 62 61 79 62 61 79 62 61 79 62 61 79 62 61 79 62 61 79 62 61 79 64 63 81 64 63 81 64 63 81 64 63 81 64 63 81 64 63 81 64 63 81 62 64 79 57 59 71 58 62 71 63 63 73 66 66 76 72 69 80 77 71 83 80 72 85 85 73 87 78 61 77 81 60 77 82 59 77 83 58 77 86 57 77 86 57 77 89 56 77 86 57 77 74 51 69 71 53 69 71 53 69 71 53 69 71 53 69 71 53 69 71 53 69 71 53 69 67 49 65 67 49 65 67 49 65 67 49 65 67 49 65 67 49 65 67 49 65 67 49 65 71 50 65 71 50 65 71 50 65 71 50 65 71 50 65 71 50 65 71 50 65 71 50 65 73 52 67 73 52 67 73 52 67 73 52 67 73 52 67 73 52 67 73 52 67 73 52 67 76 56 68 76 56 68 76 56 68 76 56 68 76 56 68 76 56 68 76 56 68 76 56 68 78 58 70 78 58 70 78 58 70 78 58 70 78 58 70 78 58 70 78 58 70 78 58 70 82 60 73 82 60 73 82 60 73 82 60 73 82 60 73 82 60 73 82 60 73 82 60 73 79 57 70 79 57 70 79 57 70 79 57 70 79 57 70 79 57 70 79 57 70 82 55 70 89 57 72 90 56 72 92 55 72 90 56 72 92 55 72 90 56 72 92 55 72 90 56 72 100 63 80 98 64 80 100 63 80 98 64 80 100 63 80 98 64 80 100 63 80 97 65 80 89 65 78 87 67 78 87 67 78 87 67 78 87 67 78 87 67 78 87 67 78 87 67 78 92 72 83 92 72 83 92 72 83 92 72 83 92 72 83 92 72 83 92 72 83 90 73 83 80 68 80 79 69 80 79 69 80 79 69 80 79 69 80 79 69 80 79 69 80 79 69 80 70 60 71 70 60 71 70 60 71 70 60 71 70 60 71 70 60 71 70 60 71 67 61 71 55 55 67 52 56 67 52 56 67 52 56 67 52 56 67 52 56 67 52 56 67 52 56 67 42 46 57 42 46 57
80 93 125 80 93 125 80 93 125 80 93 125 80 93 125 63 77 106 63 77 106 63 77 106 63 77 106 63 77 106 63 77 106 63 77 106 63 77 106 53 67 96 53 67 96 53 67 96 53 67 96 53 67 96 53 67 96 53 67 96 55 66 94 57 64 92 58 64 90 58 64 90 58 64 90 58 64 90 58 64 90 58 64 90 58 64 90 58 64 90 58 64 90 58 64 90 58 64 90 58 64 90 58 64 90 58 64 90 58 63 93 61 61 99 61 60 100 61 60 102 61 60 100 61 60 102 61 60 100 61 60 102 61 60 100 59 58 100 59 58 98 59 58 100 59 58 98 59 58 100 59 58 98 59 58 100 59 59 95 62 60 84 62 61 79 62 61 79 62 61 79 62 61 79 62 61 79 62 61 79 62 61 79 62 61 79 62 61 79 62 61 79 62 61 79 62 61 79 62 61 79 62 61 79 60 62 77 57 59 71 58 62 71 63 63 73 66 66 76 72 69 80 77 71 83 80 72 85 85 73 87 78 61 77 81 60 77 82 59 77 83 58 77 86 57 77 86 57 77 89 56 77 86 57 77 74 51 69 71 53 69 71 53 69 71 53 69 71 53 69 71 53 69 71 53 69 71 53 69 67 49 65 67 49 65 67 49 65 67 49 65 67 49 65 67 49 65 67 49 65 67 49 65 71 50 65 71 50 65 71 50 65 71 50 65 71 50 65 71 50 65 71 50 65 71 50 65 73 52 67 73 52 67 73 52 67 73 52 67 73 52 67 73 52 67 73 52 67 73 52 67 76 56 68 76 56 68 76 56 68 76 56 68 76 56 68 76 56 68 76 56 68 76 56 68 78 58 70 78 58 70 78 58 70 78 58 70 78 58 70 78 58 70 78 58 70 78 58 70 82 60 73 82 60 73 82 60 73 82 60 73 82 60 73 82 60 73 82 60 73 82 60 73 77 55 68 77 55 68 77 55 68 77 55 68 77 55 68 77 55 68 77 55 68 80 53 68 88 54 70 90 53 70 91 52 70 90 53 70 91 52 70 90 53 70 91 52 70 90 53 70 93 54 72 92 55 72 93 54 72 92 55 72 93 54 72 92 55 72 93 54 72 89 57 72 81 57 70 79 59 70 79 59 70 79 59 70 79 59 70 79 59 70 79 59 70 79 59 70 89 69 80 89 69 80 89 69 80 89 69 80 89 69 80 89 69 80 89 69 80 87 70 80 85 73 85 84 74 85 84 74 85 84 74 85 84 74 85 84 74 85 84 74 85 84 74 85 83 73 84 83 73 84 83 73 84 83 73 84 83 73 84 83 73 84 83 73 84 80 74 84 68 68 80 65 69 80 65 69 80 65 69 80 65 69 80 65 69 80 65 69 80 65 69 80 44 48 59 44 48 59
80 96 129 81 96 129 80 96 129 81 96 129 81 96 129 64 79 112 64 79 112 64 79 112 64 79 112 64 79 112 64 79 112 64 79 112 64 79 112 52 67 100 52 67 100 52 67 100 52 67 100 52 67 100 52 67 100 52 67 100 52 67 98 54 65 95 54 65 93 55 64 93 54 65 93 55 64 93 54 65 93 55 64 93 54 65 93 55 64 93 54 65 93 55 64 93 54 65 93 55 64 93 54 65 93 55 64 93 55 64 95 57 62 100 58 61 102 58 61 102 58 61 102 58 61 102 58 61 102 58 61 102 58 61 102 56 59 100 56 59 100 56 59 100 56 59 100 56 59 100 56 59 100 56 59 100 56 60 97 57 61 88 57 62 82 59 61 84 57 62 82 59 61 84 57 62 82 59 61 84 57 62 82 57 59 82 55 60 80 57 59 82 55 60 80 57 59 82 55 60 80 57 59 82 55 60 80 54 60 76 58 61 76 60 63 78 64 66 81 70 69 85 74 71 88 77 73 90 81 74 92 74 62 82 75 62 82 76 61 82 78 60 82 79 60 82 81 59 82 81 59 82 81 59 82 71 52 74 70 53 72 71 52 74 70 53 72 71 52 74 70 53 72 71 52 74 70 53 72 67 48 70 66 49 68 67 48 70 66 49 68 67 48 70 66 49 68 67 48 70 66 49 68 68 51 70 66 52 69 66 51 70 66 52 69 66 51 70 66 52 69 66 51 70 66 52 69 68 53 72 68 54 71 68 53 72 68 54 71 68 53 72 68 54 71 68 53 72 70 53 71 76 55 72 76 55 70 77 54 72 76 55 70 77 54 72 76 55 70 77 54 72 76 55 70 79 56 74 78 57 72 79 56 74 78 57 72 79 56 74 78 57 72 79 56 74 79 56 72 83 59 75 83 59 75 83 59 75 83 59 75 83 59 75 83 59 75 83 59 75 83 59 75 76 52 68 76 52 68 76 52 68 76 52 68 76 52 68 76 52 68 76 52 68 79 50 68 86 52 69 89 50 69 89 50 69 89 50 69 89 50 69 89 50 69 89 50 69 89 50 69 87 48 67 87 48 67 87 48 67 87 48 67 87 48 67 87 48 67 87 48 67 84 50 67 75 51 64 73 53 64 73 53 64 73 53 64 73 53 64 73 53 64 73 53 64 73 53 64 86 66 77 86 66 77 86 66 77 86 66 77 86 66 77 86 66 77 86 66 77 84 66 78 90 74 85 88 74 87 88 74 87 88 74 87 88 74 87 88 74 87 88 74 87 88 74 87 93 79 92 93 79 92 93 79 92 93 79 92 93 79 92 93 79 92 93 79 92 92 80 92 80 74 86 77 75 86 78 75 86 77 75 86 78 75 86 77 75 86 78 75 86 77 75 86 51 48 59 50 48 59
81 103 140 88 108 145 90 112 149 95 115 152 97 117 154 88 107 147 88 107 147 88 107 147 88 107 147 88 107 147 88 107 147 88 107 147 88 107 147 64 83 123 64 83 123 64 83 123 64 83 123 64 83 123 64 83 123 64 83 123 64 84 121 56 76 109 56 77 108 57 76 108 56 77 108 57 76 108 56 77 108 57 76 108 56 77 108 55 74 106 54 75 106 55 74 106 54 75 106 55 74 106 54 75 106 55 74 106 55 74 107 48 62 99 48 62 101 48 62 101 48 62 101 48 62 101 48 62 101 48 62 101 48 62 101 51 65 104 51 65 104 51 65 104 51 65 104 51 65 104 51 65 104 51 65 104 52 65 100 51 64 96 51 65 92 53 64 94 51 65 92 53 64 94 51 65 92 53 64 94 51 65 92 51 62 92 49 63 90 51 62 92 49 63 90 51 62 92 49 63 90 51 62 92 51 62 90 52 59 87 53 59 85 53 59 85 53 59 85 54 58 85 54 58 85 54 58 85 56 57 85 58 59 87 59 59 87 59 59 87 59 59 87 61 58 87 61 58 87 61 58 87 63 56 87 68 53 84 69 53 82 71 52 84 69 53 82 71 52 84 69 53 82 71 52 84 69 53 82 70 51 83 68 52 81 70 51 83 68 52 81 70 51 83 68 52 81 70 51 83 67 52 81 64 55 82 62 57 80 62 56 82 62 57 80 62 56 82 62 57 80 62 56 82 62 57 80 63 57 83 63 58 81 63 57 83 63 58 81 63 57 83 63 58 81 63 57 83 66 56 80 74 54 79 77 53 75 78 52 77 77 53 75 78 52 77 77 53 75 78 52 77 77 53 75 79 53 78 78 54 76 79 53 78 78 54 76 79 53 78 78 54 76 79 53 78 79 54 76 84 55 77 86 54 77 86 54 77 86 54 77 86 54 77 86 54 77 86 54 77 86 54 77 88 56 79 88 56 79 88 56 79 88 56 79 88 56 79 88 56 79 88 56 79 89 55 79 90 55 77 92 54 77 92 54 77 92 54 77 92 54 77 92 54 77 92 54 77 92 54 77 90 52 75 90 52 75 90 52 75 90 52 75 90 52 75 90 52 75 90 52 75 87 54 73 81 54 69 78 56 69 78 56 69 78 56 69 78 56 69 78 56 69 78 56 69 78 56 69 78 56 69 78 56 69 78 56 69 78 56 69 78 56 69 78 56 69 78 56 69 78 56 69 79 57 70 79 57 70 79 57 70 79 57 70 79 57 70 79 57 70 79 57 70 79 57 70 82 60 73 82 60 73 82 60 73 82 60 73 82 60 73 82 60 73 82 60 73 81 61 73 90 72 86 89 73 86 90 72 86 89 73 86 90 72 86 89 73 86 90 72 86 89 73 86 95 77 91 94 78 91
77 101 137 81 105 143 85 109 145 88 112 150 89 113 151 86 108 149 86 108 149 86 107 150 86 108 149 86 107 150 86 108 149 86 107 150 86 108 149 69 90 133 69 91 132 69 90 133 69 91 132 69 90 133 69 91 132 69 90 133 69 91 132 55 79 115 55 79 113 55 79 113 55 79 113 55 79 113 55 79 113 55 79 113 55 79 113 48 72 106 48 72 106 48 72 106 48 72 106 48 72 106 48 72 106 48 72 106 49 72 106 46 66 103 47 65 103 47 65 103 47 65 103 47 65 103 47 65 103 47 65 103 47 65 103 48 66 104 48 66 104 48 66 104 48 66 104 48 66 104 48 66 104 48 66 104 48 66 102 49 65 99 49 65 98 49 65 98 49 65 98 49 65 98 49 65 98 49 65 98 49 65 98 47 63 96 47 63 96 47 63 96 47 63 96 47 63 96 47 63 96 47 63 96 48 63 94 50 59 92 52 58 90 52 58 90 52 58 90 52 58 90 52 58 90 52 58 90 52 58 90 54 60 92 54 60 92 54 60 92 54 60 92 54 60 92 54 60 92 54 60 92 58 59 90 65 53 89 68 52 88 69 52 88 68 52 88 69 52 88 68 52 88 69 52 88 68 52 88 68 51 87 67 51 87 68 51 87 67 51 87 68 51 87 67 51 87 68 51 87 66 52 87 61 56 86 58 58 86 58 58 86 58 58 86 58 58 86 58 58 86 58 58 86 58 58 86 59 59 87 59 59 87 59 59 87 59 59 87 59 59 87 59 59 87 59 59 87 63 57 85 73 55 81 77 53 79 78 52 79 77 53 79 78 52 79 77 53 79 78 52 79 77 53 79 79 53 80 78 54 80 79 53 80 78 54 80 79 53 80 78 54 80 79 53 80 79 53 78 86 53 80 86 54 78 87 53 78 86 54 78 87 53 78 86 54 78 87 53 78 86 54 78 89 55 80 88 56 80 89 55 80 88 56 80 89 55 80 88 56 80 89 55 80 89 55 80 90 55 79 90 55 79 92 54 79 90 55 79 92 54 79 90 55 79 92 54 79 90 55 79 90 52 77 88 53 77 90 52 77 88 53 77 90 52 77 88 53 77 90 52 77 87 54 75 81 54 71 78 56 69 78 56 69 78 56 69 78 56 69 78 56 69 78 56 69 78 56 69 78 56 69 78 56 69 78 56 69 78 56 69 78 56 69 78 56 69 78 56 69 78 56 69 82 55 70 82 55 70 82 55 70 82 55 70 82 55 70 82 55 70 82 55 70 82 55 70 85 58 73 85 58 73 85 58 73 85 58 73 85 58 73 85 58 73 85 58 73 85 58 73 92 68 82 92 68 82 92 68 82 92 68 82 92 68 82 92 68 82 92 68 82 92 68 82 97 73 87 97 73 87
75 99 133 78 102 138 80 104 138 82 106 142 83 107 143 86 108 147 86 108 147 86 108 149 86 108 147 86 108 149 86 108 147 86 108 149 86 108 147 79 101 142 79 101 140 79 101 142 79 101 140 79 101 142 79 101 140 79 101 142 79 101 140 60 84 120 60 84 118 60 84 118 60 84 118 60 84 118 60 84 118 60 84 118 60 84 118 45 69 103 45 69 103 45 69 103 45 69 103 45 69 103 45 69 103 45 69 103 46 69 103 48 68 105 49 67 105 49 67 105 49 67 105 49 67 105 49 67 105 49 67 105 49 67 105 48 66 104 48 66 104 48 66 104 48 66 104 48 66 104 48 66 104 48 66 104 48 66 102 49 65 99 49 65 98 49 65 98 49 65 98 49 65 98 49 65 98 49 65 98 49 65 98 47 63 96 47 63 96 47 63 96 47 63 96 47 63 96 47 63 96 47 63 96 48 63 94 50 59 92 52 58 90 52 58 90 52 58 90 52 58 90 52 58 90 52 58 90 52 58 90 54 60 92 54 60 92 54 60 92 54 60 92 54 60 92 54 60 92 54 60 92 58 59 90 64 54 89 67 53 88 68 52 88 67 53 88 68 52 88 67 53 88 68 52 88 67 53 88 67 51 87 66 52 87 67 51 87 66 52 87 67 51 87 66 52 87 67 51 87 64 53 87 61 56 86 58 58 86 58 58 86 58 58 86 58 58 86 58 58 86 58 58 86 58 58 86 59 59 87 59 59 87 59 59 87 59 59 87 59 59 87 59 59 87 59 59 87 63 57 85 73 55 81 76 53 79 77 53 79 76 53 79 77 53 79 76 53 79 77 53 79 76 53 79 78 54 80 77 54 80 78 54 80 77 54 80 78 54 80 77 54 80 78 54 80 78 54 78 84 54 80 84 54 78 86 54 78 84 54 78 86 54 78 84 54 78 86 54 78 84 54 78 88 56 80 86 56 80 88 56 80 86 56 80 88 56 80 86 56 80 88 56 80 88 56 80 89 55 79 89 55 79 90 55 79 89 55 79 90 55 79 89 55 79 90 55 79 89 55 79 88 53 77 87 53 77 88 53 77 87 53 77 88 53 77 87 53 77 88 53 77 86 54 75 79 55 71 78 56 69 78 56 69 78 56 69 78 56 69 78 56 69 78 56 69 78 56 69 78 56 69 78 56 69 78 56 69 78 56 69 78 56 69 78 56 69 78 56 69 78 56 69 82 55 70 82 55 70 82 55 70 82 55 70 82 55 70 82 55 70 82 55 70 82 55 70 85 58 73 85 58 73 85 58 73 85 58 73 85 58 73 85 58 73 85 58 73 85 58 73 90 66 80 90 66 80 90 66 80 90 66 80 90 66 80 90 66 80 90 66 80 90 66 80 92 68 82 92 68 82
76 101 132 77 101 135 78 103 134 79 103 137 79 103 137 86 108 145 86 108 145 86 108 147 86 108 145 86 108 147 86 108 145 86 108 147 86 108 145 88 110 149 88 110 147 88 110 149 88 110 147 88 110 149 88 110 147 88 110 149 88 110 147 67 91 125 67 91 125 67 91 125 67 91 125 67 91 125 67 91 125 67 91 125 67 91 125 46 70 104 46 70 104 46 70 104 46 70 104 46 70 104 46 70 104 46 70 104 47 70 104 51 71 108 52 70 108 52 70 108 52 70 108 52 70 108 52 70 108 52 70 108 52 70 108 48 66 104 48 66 104 48 66 104 48 66 104 48 66 104 48 66 104 48 66 104 48 66 102 49 65 99 49 65 98 49 65 98 49 65 98 49 65 98 49 65 98 49 65 98 49 65 98 47 63 96 47 63 96 47 63 96 47 63 96 47 63 96 47 63 96 47 63 96 48 63 94 50 59 92 52 58 90 52 58 90 52 58 90 52 58 90 52 58 90 52 58 90 52 58 90 54 60 92 54 60 92 54 60 92 54 60 92 54 60 92 54 60 92 54 60 92 56 59 90 62 55 89 65 54 88 67 53 88 65 54 88 67 53 88 65 54 88 67 53 88 65 54 88 66 52 87 64 53 87 66 52 87 64 53 87 66 52 87 64 53 87 66 52 87 63 53 87 60 57 86 58 58 86 58 58 86 58 58 86 58 58 86 58 58 86 58 58 86 58 58 86 59 59 87 59 59 87 59 59 87 59 59 87 59 59 87 59 59 87 59 59 87 63 57 85 71 55 81 74 54 79 76 53 79 74 54 79 76 53 79 74 54 79 76 53 79 74 54 79 77 54 80 75 55 80 77 54 80 75 55 80 77 54 80 75 55 80 77 54 80 77 55 78 83 55 80 83 55 78 84 54 78 83 55 78 84 54 78 83 55 78 84 54 78 83 55 78 86 56 80 85 57 80 86 56 80 85 57 80 86 56 80 85 57 80 86 56 80 86 56 80 88 56 79 88 56 79 89 55 79 88 56 79 89 55 79 88 56 79 89 55 79 88 56 79 87 53 77 86 54 77 87 53 77 86 54 77 87 53 77 86 54 77 87 53 77 84 55 75 79 55 71 78 56 69 78 56 69 78 56 69 78 56 69 78 56 69 78 56 69 78 56 69 78 56 69 78 56 69 78 56 69 78 56 69 78 56 69 78 56 69 78 56 69 78 56 69 82 55 70 82 55 70 82 55 70 82 55 70 82 55 70 82 55 70 82 55 70 82 55 70 85 58 73 85 58 73 85 58 73 85 58 73 85 58 73 85 58 73 85 58 73 85 58 73 87 63 77 87 63 77 87 63 77 87 63 77 87 63 77 87 63 77 87 63 77 87 63 77 85 61 75 85 61 75
84 109 139 83 108 139 82 107 137 82 107 138 81 106 137 86 109 143 86 109 143 86 108 145 86 109 143 86 108 145 86 109 143 86 108 145 86 109 143 91 113 150 91 114 148 91 113 150 91 114 148 91 113 150 91 114 148 91 113 150 91 114 148 73 97 131 73 97 131 73 97 131 73 97 131 73 97 131 73 97 131 73 97 131 73 97 131 53 77 111 53 77 111 53 77 111 53 77 111 53 77 111 53 77 111 53 77 111 54 77 111 55 75 112 56 74 112 56 74 112 56 74 112 56 74 112 56 74 112 56 74 112 56 74 112 48 66 104 48 66 104 48 66 104 48 66 104 48 66 104 48 66 104 48 66 104 48 66 102 49 65 99 49 65 98 49 65 98 49 65 98 49 65 98 49 65 98 49 65 98 49 65 98 47 63 96 47 63 96 47 63 96 47 63 96 47 63 96 47 63 96 47 63 96 48 63 94 50 59 92 52 58 90 52 58 90 52 58 90 52 58 90 52 58 90 52 58 90 52 58 90 54 60 92 54 60 92 54 60 92 54 60 92 54 60 92 54 60 92 54 60 92 56 59 90 61 55 89 64 54 88 65 54 88 64 54 88 65 54 88 64 54 88 65 54 88 64 54 88 64 53 87 63 53 87 64 53 87 63 53 87 64 53 87 63 53 87 64 53 87 61 54 87 60 57 86 58 58 86 58 58 86 58 58 86 58 58 86 58 58 86 58 58 86 58 58 86 59 59 87 59 59 87 59 59 87 59 59 87 59 59 87 59 59 87 59 59 87 62 58 85 70 56 81 73 55 79 74 54 79 73 55 79 74 54 79 73 55 79 74 54 79 73 55 79 75 55 80 74 56 80 75 55 80 74 56 80 75 55 80 74 56 80 75 55 80 75 56 78 81 55 80 81 56 78 83 55 78 81 56 78 83 55 78 81 56 78 83 55 78 81 56 78 85 57 80 83 58 80 85 57 80 83 58 80 85 57 80 83 58 80 85 57 80 85 57 80 86 57 79 86 57 79 88 56 79 86 57 79 88 56 79 86 57 79 88 56 79 86 57 79 86 54 77 84 55 77 86 54 77 84 55 77 86 54 77 84 55 77 86 54 77 84 55 75 79 55 71 78 56 69 78 56 69 78 56 69 78 56 69 78 56 69 78 56 69 78 56 69 78 56 69 78 56 69 78 56 69 78 56 69 78 56 69 78 56 69 78 56 69 78 56 69 82 55 70 82 55 70 82 55 70 82 55 70 82 55 70 82 55 70 82 55 70 82 55 70 85 58 73 85 58 73 85 58 73 85 58 73 85 58 73 85 58 73 85 58 73 85 58 73 83 59 73 83 59 73 83 59 73 83 59 73 83 59 73 83 59 73 83 59 73 83 59 73 79 55 69 79 55 69
97 123 150 94 120 147 92 118 145 90 116 143 89 114 144 86 109 141 86 109 141 86 109 141 86 109 141 86 109 141 86 109 141 86 109 141 86 109 141 89 112 144 89 112 144 89 112 144 89 112 144 89 112 144 89 112 144 89 112 144 89 112 144 80 104 138 80 104 138 80 104 138 80 104 138 80 104 138 80 104 138 80 104 138 80 104 138 65 89 123 65 89 123 65 89 123 65 89 123 65 89 123 65 89 123 65 89 123 66 89 123 58 78 115 59 77 115 59 77 115 59 77 115 59 77 115 59 77 115 59 77 115 59 77 115 48 66 104 48 66 104 48 66 104 48 66 104 48 66 104 48 66 104 48 66 104 48 66 102 49 65 99 49 65 98 49 65 98 49 65 98 49 65 98 49 65 98 49 65 98 49 65 98 47 63 96 47 63 96 47 63 96 47 63 96 47 63 96 47 63 96 47 63 96 48 63 94 50 59 92 52 58 90 52 58 90 52 58 90 52 58 90 52 58 90 52 58 90 52 58 90 54 60 92 54 60 92 54 60 92 54 60 92 54 60 92 54 60 92 54 60 92 56 59 90 60 56 89 62 55 88 62 55 88 62 55 88 62 55 88 62 55 88 62 55 88 62 55 88 61 54 87 61 54 87 61 54 87 61 54 87 61 54 87 61 54 87 61 54 87 60 55 87 60 57 86 58 58 86 58 58 86 58 58 86 58 58 86 58 58 86 58 58 86 58 58 86 59 59 87 59 59 87 59 59 87 59 59 87 59 59 87 59 59 87 59 59 87 62 58 85 69 57 81 71 56 79 71 56 79 71 56 79 71 56 79 71 56 79 71 56 79 71 56 79 72 57 80 72 57 80 72 57 80 72 57 80 72 57 80 72 57 80 72 57 80 74 56 78 79 57 80 80 56 78 80 56 78 80 56 78 80 56 78 80 56 78 80 56 78 80 56 78 82 58 80 82 58 80 82 58 80 82 58 80 82 58 80 82 58 80 82 58 80 83 58 80 85 57 79 85 57 79 85 57 79 85 57 79 85 57 79 85 57 79 85 57 79 85 57 79 83 55 77 83 55 77 83 55 77 83 55 77 83 55 77 83 55 77 83 55 77 83 56 75 79 55 71 78 56 69 78 56 69 78 56 69 78 56 69 78 56 69 78 56 69 78 56 69 78 56 69 78 56 69 78 56 69 78 56 69 78 56 69 78 56 69 78 56 69 78 56 69 82 55 70 82 55 70 82 55 70 82 55 70 82 55 70 82 55 70 82 55 70 82 55 70 85 58 73 85 58 73 85 58 73 85 58 73 85 58 73 85 58 73 85 58 73 85 58 73 80 56 70 80 56 70 80 56 70 80 56 70 80 56 70 80 56 70 80 56 70 80 56 70 72 48 62 72 48 62
111 137 162 107 133 158 103 129 154 100 126 151 99 125 150 86 110 138 86 109 140 86 109 140 86 109 140 86 109 140 86 109 140 86 109 140 86 109 140 83 106 137 83 106 137 83 106 137 83 106 137 83 106 137 83 106 137 83 106 137 83 106 137 85 110 141 85 109 143 85 109 143 85 109 143 85 109 143 85 109 143 85 109 143 85 109 143 78 102 136 78 102 136 78 102 136 78 102 136 78 102 136 78 102 136 78 102 136 79 102 136 60 80 117 61 79 117 61 79 117 61 79 117 61 79 117 61 79 117 61 79 117 61 79 117 48 66 104 48 66 104 48 66 104 48 66 104 48 66 104 48 66 104 48 66 104 48 66 102 49 65 99 49 65 98 49 65 98 49 65 98 49 65 98 49 65 98 49 65 98 49 65 98 47 63 96 47 63 96 47 63 96 47 63 96 47 63 96 47 63 96 47 63 96 48 63 94 50 59 92 52 58 90 52 58 90 52 58 90 52 58 90 52 58 90 52 58 90 52 58 90 54 60 92 54 60 92 54 60 92 54 60 92 54 60 92 54 60 92 54 60 92 55 60 90 58 57 89 61 56 88 61 56 88 61 56 88 61 56 88 61 56 88 61 56 88 61 56 88 60 55 87 60 55 87 60 55 87 60 55 87 60 55 87 60 55 87 60 55 87 59 56 87 58 58 86 58 58 86 58 58 86 58 58 86 58 58 86 58 58 86 58 58 86 58 58 86 59 59 87 59 59 87 59 59 87 59 59 87 59 59 87 59 59 87 59 59 87 62 58 85 67 57 81 70 56 79 70 56 79 70 56 79 70 56 79 70 56 79 70 56 79 70 56 79 71 57 80 71 57 80 71 57 80 71 57 80 71 57 80 71 57 80 71 57 80 72 57 78 77 58 80 79 57 78 79 57 78 79 57 78 79 57 78 79 57 78 79 57 78 79 57 78 81 59 80 81 59 80 81 59 80 81 59 80 81 59 80 81 59 80 81 59 80 81 59 80 82 59 79 83 58 79 83 58 79 83 58 79 83 58 79 83 58 79 83 58 79 83 58 79 81 56 77 81 56 77 81 56 77 81 56 77 81 56 77 81 56 77 81 56 77 81 56 75 78 55 71 78 56 69 78 56 69 78 56 69 78 56 69 78 56 69 78 56 69 78 56 69 78 56 69 78 56 69 78 56 69 78 56 69 78 56 69 78 56 69 78 56 69 78 56 69 82 55 70 82 55 70 82 55 70 82 55 70 82 55 70 82 55 70 82 55 70 82 55 70 85 58 73 85 58 73 85 58 73 85 58 73 85 58 73 85 58 73 85 58 73 85 58 73 78 54 68 78 54 68 78 54 68 78 54 68 78 54 68 78 54 68 78 54 68 78 54 68 67 43 57 67 43 57
119 146 167 115 142 163 110 137 158 107 134 155 105 132 153 86 110 136 86 110 136 86 110 136 86 110 136 86 110 136 86 110 136 86 110 136 86 110 136 79 103 129 79 103 129 79 103 129 79 103 129 79 103 129 79 103 129 79 103 129 79 103 131 87 112 143 87 111 145 87 111 145 87 111 145 87 111 145 87 111 145 87 111 145 87 111 145 86 110 144 86 110 144 86 110 144 86 110 144 86 110 144 86 110 144 86 110 144 87 110 144 62 82 119 63 81 119 63 81 119 63 81 119 63 81 119 63 81 119 63 81 119 63 81 119 48 66 104 48 66 104 48 66 104 48 66 104 48 66 104 48 66 104 48 66 104 48 66 102 49 65 99 49 65 98 49 65 98 49 65 98 49 65 98 49 65 98 49 65 98 49 65 98 47 63 96 47 63 96 47 63 96 47 63 96 47 63 96 47 63 96 47 63 96 48 63 94 50 59 92 52 58 90 52 58 90 52 58 90 52 58 90 52 58 90 52 58 90 52 58 90 54 60 92 54 60 92 54 60 92 54 60 92 54 60 92 54 60 92 54 60 92 55 60 90 57 58 89 58 57 88 58 57 88 58 57 88 58 57 88 58 57 88 58 57 88 58 57 88 57 56 87 57 56 87 57 56 87 57 56 87 57 56 87 57 56 87 57 56 87 57 56 87 58 58 86 58 58 86 58 58 86 58 58 86 58 58 86 58 58 86 58 58 86 58 58 86 59 59 87 59 59 87 59 59 87 59 59 87 59 59 87 59 59 87 59 59 87 61 58 85 66 58 81 67 58 79 67 58 79 67 58 79 67 58 79 67 58 79 67 58 79 67 58 79 68 59 80 68 59 80 68 59 80 68 59 80 68 59 80 68 59 80 68 59 80 70 58 78 74 59 80 76 59 78 76 59 78 76 59 78 76 59 78 76 59 78 76 59 78 76 59 78 78 61 80 78 61 80 78 61 80 78 61 80 78 61 80 78 61 80 78 61 80 78 61 80 81 60 79 81 60 79 81 60 79 81 60 79 81 60 79 81 60 79 81 60 79 81 60 79 79 58 77 79 58 77 79 58 77 79 58 77 79 58 77 79 58 77 79 58 77 79 58 75 78 55 71 78 56 69 78 56 69 78 56 69 78 56 69 78 56 69 78 56 69 78 56 69 78 56 69 78 56 69 78 56 69 78 56 69 78 56 69 78 56 69 78 56 69 78 56 69 82 55 70 82 55 70 82 55 70 82 55 70 82 55 70 82 55 70 82 55 70 82 55 70 85 58 73 85 58 73 85 58 73 85 58 73 85 58 73 85 58 73 85 58 73 85 58 73 76 52 66 76 52 66 76 52 66 76 52 66 76 52 66 76 52 66 76 52 66 76 52 66 65 41 55 65 41 55
