P3
172 37
255
3 2 10 3 2 10 3 2 10 3 2 10 3 2 10 3 2 10 3 2 10 3 2 10 3 2 10 3 2 10 3 2 10 3 2 10 2 1 7 2 1 7 2 1 7 2 1 7 2 1 7 2 1 7 2 1 7 2 1 7 4 3 9 4 3 9 4 3 9 4 3 9 4 3 9 4 3 9 4 3 9 4 3 9 6 5 11 6 5 11 6 5 11 6 5 11 6 5 11 6 5 11 6 5 11 6 5 11 6 5 11 6 5 11 6 5 11 6 5 11 6 5 11 6 5 11 6 5 11 5 6 11 5 6 11 3 6 11 3 6 11 3 6 11 3 6 11 3 6 11 3 6 11 3 6 11 7 10 15 7 10 15 7 10 15 7 10 15 7 10 15 7 10 15 7 10 15 6 11 15 9 14 18 7 15 18 7 15 18 7 15 18 7 15 18 7 15 18 7 15 18 7 15 18 8 16 19 8 16 19 8 16 19 8 16 19 8 16 19 8 16 19 8 16 19 8 16 19 8 16 19 8 16 19 8 16 19 8 16 19 8 16 19 8 16 19 8 16 19 8 16 19 14 22 25 14 22 25 14 22 25 14 22 25 14 22 25 14 22 25 14 22 25 14 22 24 24 29 32 22 28 28 20 26 26 17 23 23 13 19 19 10 16 16 8 14 14 6 12 12 2 8 8 2 8 8 2 8 8 2 8 8 2 8 8 2 8 8 2 8 8 2 8 8 11 17 17 13 19 19 15 21 21 18 24 24 22 28 28 25 31 31 27 33 33 29 35 35 47 53 53 49 55 55 51 57 57 54 60 60 58 64 64 61 67 67 63 69 69 65 71 69 75 79 78 76 81 77 79 84 80 82 87 83 85 90 86 89 94 90 91 96 92 92 97 93 93 98 94 98 103 99 104 109 105 107 112 108 104 109 105 96 101 97 86 91 87 81 83 80 43 43 41 44 43 41 44 43 41 44 43 41 44 43 41 44 43 41 44 43 41 44 43 41 43 42 40 43 42 40 43 42 40 43 42 40 43 42 40 43 42 40 43 42 40 43 42 40 40 38 39 40 38 39 40 38 39 40 38 39 40 38 39 40 38 39 40 38 39 40 38 39 44 42 43 44 42 43 44 42 43 44 42 43 44 42 43 44 42 43 44 42 43 44 42 43
3 2 10 3 2 10 3 2 10 3 2 10 3 2 10 3 2 10 3 2 10 3 2 10 3 2 10 3 2 10 3 2 10 3 2 10 2 1 9 2 1 7 2 1 9 2 1 7 2 1 9 2 1 7 2 1 9 2 1 7 4 3 11 4 3 9 4 3 11 4 3 9 4 3 11 4 3 9 4 3 11 4 3 11 6 5 13 5 5 13 6 5 13 5 5 13 6 5 13 5 5 13 6 5 13 5 5 13 6 5 13 5 5 13 6 5 13 5 5 13 6 5 13 5 5 13 6 5 13 5 5 13 3 6 13 3 6 11 3 6 13 3 6 11 3 6 13 3 6 11 3 6 13 3 6 11 7 10 17 7 10 15 7 10 17 7 10 15 7 10 17 7 10 15 7 10 17 6 11 15 7 15 18 7 15 18 7 15 18 7 15 18 7 15 18 7 15 18 7 15 18 7 15 18 8 16 19 8 16 19 8 16 19 8 16 19 8 16 19 8 16 19 8 16 19 8 16 19 8 16 19 8 16 19 8 16 19 8 16 19 8 16 19 8 16 19 8 16 19 8 16 19 14 22 25 14 22 25 14 22 25 14 22 25 14 22 25 14 22 25 14 22 25 14 22 25 24 29 32 22 28 28 20 26 26 17 23 23 13 19 19 10 16 16 8 14 14 6 12 12 2 8 8 2 8 8 2 8 8 2 8 8 2 8 8 2 8 8 2 8 8 2 8 8 11 17 17 13 19 19 15 21 21 18 24 24 22 28 28 25 31 31 27 33 33 29 35 35 47 53 53 49 55 55 51 57 57 54 60 60 58 64 64 61 67 67 63 69 69 65 71 69 74 79 75 75 80 76 77 82 78 81 86 82 84 89 85 87 92 88 90 95 91 91 96 92 90 95 91 95 100 96 101 106 102 105 110 106 103 108 104 95 100 96 86 91 87 81 83 80 43 43 41 44 43 41 44 43 41 44 43 41 44 43 41 44 43 41 44 43 41 44 43 41 43 42 40 43 42 40 43 42 40 43 42 40 43 42 40 43 42 40 43 42 40 43 42 40 40 38 39 40 38 39 40 38 39 40 38 39 40 38 39 40 38 39 40 38 39 40 38 39 44 42 43 44 42 43 44 42 43 44 42 43 44 42 43 44 42 43 44 42 43 44 42 43
2 0 11 2 0 11 2 0 11 2 0 11 4 2 13 4 2 13 4 2 13 4 2 13 4 2 13 4 2 13 4 2 13 4 2 13 3 1 12 3 2 10 3 1 12 3 2 10 3 1 12 3 2 10 3 1 12 3 2 10 4 2 13 4 3 11 4 2 13 4 3 11 4 2 13 4 3 11 4 2 13 4 2 13 4 4 14 2 5 14 4 4 14 2 5 14 4 4 14 2 5 14 4 4 14 2 5 14 6 6 16 4 7 16 6 6 16 4 7 16 6 6 16 4 7 16 6 6 16 4 7 16 6 9 18 5 10 16 5 9 18 5 10 16 5 9 18 5 10 16 5 9 18 5 10 16 6 10 19 6 11 17 6 10 19 6 11 17 6 10 19 6 11 17 6 10 19 6 11 17 5 12 18 4 13 18 4 13 18 4 13 18 4 13 18 4 13 18 4 13 18 4 13 18 7 16 21 7 16 21 7 16 21 7 16 21 7 16 21 7 16 21 7 16 21 7 16 21 11 18 24 11 18 24 11 18 24 11 18 24 11 18 24 11 18 24 11 18 24 11 18 24 12 19 25 12 19 25 12 19 25 12 19 25 12 19 25 12 19 25 12 19 25 12 20 23 12 17 20 12 18 18 12 18 18 12 18 18 12 18 18 12 18 18 12 18 18 12 18 18 1 7 7 1 7 7 1 7 7 1 7 7 1 7 7 1 7 7 1 7 7 1 7 7 5 11 11 7 13 13 9 15 15 12 18 18 16 22 22 19 25 25 21 27 27 23 29 29 37 43 43 39 45 45 41 47 47 44 50 50 48 54 54 51 57 57 53 59 59 55 61 59 73 78 74 74 79 73 77 82 76 80 85 79 83 88 82 87 92 86 89 94 88 90 95 89 93 98 92 97 102 96 103 108 102 105 110 104 102 107 101 93 98 92 82 87 81 77 79 74 43 43 41 44 43 41 44 43 41 44 43 41 44 43 41 44 43 41 44 43 41 44 43 41 41 40 38 41 40 38 41 40 38 41 40 38 41 40 38 41 40 38 41 40 38 41 40 38 39 38 36 39 38 36 39 38 36 39 38 36 39 38 36 39 38 36 39 38 36 39 38 36 38 37 35 38 37 35 38 37 35 38 37 35 38 37 35 38 37 35 38 37 35 38 37 35
2 0 11 2 0 11 2 0 11 2 0 11 4 2 13 4 2 13 4 2 13 4 2 13 4 2 13 4 2 13 4 2 13 4 2 13 3 1 12 3 1 12 3 1 12 3 1 12 3 1 12 3 1 12 3 1 12 3 1 12 4 2 13 4 2 13 4 2 13 4 2 13 4 2 13 4 2 13 4 2 13 3 3 13 4 4 16 2 4 16 2 4 16 2 4 16 2 4 16 2 4 16 2 4 16 2 4 16 4 6 18 4 6 18 4 6 18 4 6 18 4 6 18 4 6 18 4 6 18 4 6 18 5 9 18 5 9 18 5 9 18 5 9 18 5 9 18 5 9 18 5 9 18 5 9 18 6 10 19 6 10 19 6 10 19 6 10 19 6 10 19 6 10 19 6 10 19 4 11 19 5 12 18 4 13 18 4 13 18 4 13 18 4 13 18 4 13 18 4 13 18 4 13 18 7 16 21 7 16 21 7 16 21 7 16 21 7 16 21 7 16 21 7 16 21 7 16 21 11 18 24 11 18 24 11 18 24 11 18 24 11 18 24 11 18 24 11 18 24 11 18 24 12 19 25 12 19 25 12 19 25 12 19 25 12 19 25 12 19 25 12 19 25 12 20 23 12 17 20 12 18 18 12 18 18 12 18 18 12 18 18 12 18 18 12 18 18 12 18 18 1 7 7 1 7 7 1 7 7 1 7 7 1 7 7 1 7 7 1 7 7 1 7 7 5 11 11 7 13 13 9 15 15 12 18 18 16 22 22 19 25 25 21 27 27 23 29 29 37 43 43 39 45 45 41 47 47 44 50 50 48 54 54 51 57 57 53 59 59 55 61 59 72 77 73 73 78 72 75 80 74 79 84 78 82 87 81 85 90 84 88 93 87 89 94 88 91 96 90 96 101 95 101 106 100 104 109 103 100 105 99 91 96 90 81 86 80 76 78 73 43 43 41 44 43 41 44 43 41 44 43 41 44 43 41 44 43 41 44 43 41 44 43 41 41 40 38 41 40 38 41 40 38 41 40 38 41 40 38 41 40 38 41 40 38 41 40 38 39 38 36 39 38 36 39 38 36 39 38 36 39 38 36 39 38 36 39 38 36 39 38 36 38 37 35 38 37 35 38 37 35 38 37 35 38 37 35 38 37 35 38 37 35 38 37 35
2 0 11 2 0 11 2 0 11 2 0 11 4 2 13 4 2 13 4 2 13 4 2 13 4 2 13 4 2 13 4 2 13 4 2 13 3 1 12 3 1 12 3 1 12 3 1 12 3 1 12 3 1 12 3 1 12 3 1 12 4 2 13 4 2 13 4 2 13 4 2 13 4 2 13 4 2 13 4 2 13 3 3 13 4 4 16 2 4 16 2 4 16 2 4 16 2 4 16 2 4 16 2 4 16 2 4 16 4 6 18 4 6 18 4 6 18 4 6 18 4 6 18 4 6 18 4 6 18 4 6 18 5 9 18 5 9 18 5 9 18 5 9 18 5 9 18 5 9 18 5 9 18 5 9 18 6 10 19 6 10 19 6 10 19 6 10 19 6 10 19 6 10 19 6 10 19 4 11 19 5 12 18 4 13 18 4 13 18 4 13 18 4 13 18 4 13 18 4 13 18 4 13 18 7 16 21 7 16 21 7 16 21 7 16 21 7 16 21 7 16 21 7 16 21 7 16 21 11 18 24 11 18 24 11 18 24 11 18 24 11 18 24 11 18 24 11 18 24 11 18 24 12 19 25 12 19 25 12 19 25 12 19 25 12 19 25 12 19 25 12 19 25 12 20 23 12 17 20 12 18 18 12 18 18 12 18 18 12 18 18 12 18 18 12 18 18 12 18 18 1 7 7 1 7 7 1 7 7 1 7 7 1 7 7 1 7 7 1 7 7 1 7 7 5 11 11 7 13 13 9 15 15 12 18 18 16 22 22 19 25 25 21 27 27 23 29 29 37 43 43 39 45 45 41 47 47 44 50 50 48 54 54 51 57 57 53 59 59 55 61 59 69 74 70 71 76 70 73 78 72 76 81 75 80 85 79 83 88 82 85 90 84 87 92 86 89 94 88 93 98 92 99 104 98 101 106 100 98 103 97 89 94 88 79 84 78 74 76 71 43 43 41 44 43 41 44 43 41 44 43 41 44 43 41 44 43 41 44 43 41 44 43 41 41 40 38 41 40 38 41 40 38 41 40 38 41 40 38 41 40 38 41 40 38 41 40 38 39 38 36 39 38 36 39 38 36 39 38 36 39 38 36 39 38 36 39 38 36 39 38 36 38 37 35 38 37 35 38 37 35 38 37 35 38 37 35 38 37 35 38 37 35 38 37 35
2 0 11 2 0 11 2 0 11 2 0 11 4 2 13 4 2 13 4 2 13 4 2 13 4 2 13 4 2 13 4 2 13 4 2 13 3 1 12 3 1 12 3 1 12 3 1 12 3 1 12 3 1 12 3 1 12 3 1 12 4 2 13 4 2 13 4 2 13 4 2 13 4 2 13 4 2 13 4 2 13 3 3 13 4 4 16 2 4 16 2 4 16 2 4 16 2 4 16 2 4 16 2 4 16 2 4 16 4 6 18 4 6 18 4 6 18 4 6 18 4 6 18 4 6 18 4 6 18 4 6 18 5 9 18 5 9 18 5 9 18 5 9 18 5 9 18 5 9 18 5 9 18 5 9 18 6 10 19 6 10 19 6 10 19 6 10 19 6 10 19 6 10 19 6 10 19 4 11 19 5 12 18 4 13 18 4 13 18 4 13 18 4 13 18 4 13 18 4 13 18 4 13 18 7 16 21 7 16 21 7 16 21 7 16 21 7 16 21 7 16 21 7 16 21 7 16 21 11 18 24 11 18 24 11 18 24 11 18 24 11 18 24 11 18 24 11 18 24 11 18 24 12 19 25 12 19 25 12 19 25 12 19 25 12 19 25 12 19 25 12 19 25 12 20 23 12 17 20 12 18 18 12 18 18 12 18 18 12 18 18 12 18 18 12 18 18 12 18 18 1 7 7 1 7 7 1 7 7 1 7 7 1 7 7 1 7 7 1 7 7 1 7 7 5 11 11 7 13 13 9 15 15 12 18 18 16 22 22 19 25 25 21 27 27 23 29 29 37 43 43 39 45 45 41 47 47 44 50 50 48 54 54 51 57 57 53 59 59 55 61 59 66 71 67 67 72 66 70 75 69 73 78 72 76 81 75 80 85 79 82 87 81 83 88 82 86 91 85 90 95 89 96 101 95 98 103 97 95 100 94 86 91 85 75 80 74 70 72 67 43 43 41 44 43 41 44 43 41 44 43 41 44 43 41 44 43 41 44 43 41 44 43 41 41 40 38 41 40 38 41 40 38 41 40 38 41 40 38 41 40 38 41 40 38 41 40 38 39 38 36 39 38 36 39 38 36 39 38 36 39 38 36 39 38 36 39 38 36 39 38 36 38 37 35 38 37 35 38 37 35 38 37 35 38 37 35 38 37 35 38 37 35 38 37 35
2 0 11 2 0 11 2 0 11 2 0 11 4 2 13 4 2 13 4 2 13 4 2 13 4 2 13 4 2 13 4 2 13 4 2 13 3 1 12 3 1 12 3 1 12 3 1 12 3 1 12 3 1 12 3 1 12 3 1 12 4 2 13 4 2 13 4 2 13 4 2 13 4 2 13 4 2 13 4 2 13 3 3 13 4 4 16 2 4 16 2 4 16 2 4 16 2 4 16 2 4 16 2 4 16 2 4 16 4 6 18 4 6 18 4 6 18 4 6 18 4 6 18 4 6 18 4 6 18 4 6 18 5 9 18 5 9 18 5 9 18 5 9 18 5 9 18 5 9 18 5 9 18 5 9 18 6 10 19 6 10 19 6 10 19 6 10 19 6 10 19 6 10 19 6 10 19 4 11 19 5 12 18 4 13 18 4 13 18 4 13 18 4 13 18 4 13 18 4 13 18 4 13 18 7 16 21 7 16 21 7 16 21 7 16 21 7 16 21 7 16 21 7 16 21 7 16 21 11 18 24 11 18 24 11 18 24 11 18 24 11 18 24 11 18 24 11 18 24 11 18 24 12 19 25 12 19 25 12 19 25 12 19 25 12 19 25 12 19 25 12 19 25 12 20 23 12 17 20 12 18 18 12 18 18 12 18 18 12 18 18 12 18 18 12 18 18 12 18 18 1 7 7 1 7 7 1 7 7 1 7 7 1 7 7 1 7 7 1 7 7 1 7 7 5 11 11 7 13 13 9 15 15 12 18 18 16 22 22 19 25 25 21 27 27 23 29 29 37 43 43 39 45 45 41 47 47 44 50 50 48 54 54 51 57 57 53 59 59 55 61 59 63 68 64 64 69 63 66 71 65 70 75 69 73 78 72 76 81 75 79 84 78 80 85 79 82 87 81 87 92 86 92 97 91 95 100 94 91 96 90 82 87 81 72 77 71 67 69 64 43 43 41 44 43 41 44 43 41 44 43 41 44 43 41 44 43 41 44 43 41 44 43 41 41 40 38 41 40 38 41 40 38 41 40 38 41 40 38 41 40 38 41 40 38 41 40 38 39 38 36 39 38 36 39 38 36 39 38 36 39 38 36 39 38 36 39 38 36 39 38 36 38 37 35 38 37 35 38 37 35 38 37 35 38 37 35 38 37 35 38 37 35 38 37 35
2 0 11 2 0 11 2 0 11 2 0 11 4 2 13 4 2 13 4 2 13 4 2 13 4 2 13 4 2 13 4 2 13 4 2 13 3 1 12 3 1 12 3 1 12 3 1 12 3 1 12 3 1 12 3 1 12 3 1 12 4 2 13 4 2 13 4 2 13 4 2 13 4 2 13 4 2 13 4 2 13 3 3 13 4 4 16 2 4 16 2 4 16 2 4 16 2 4 16 2 4 16 2 4 16 2 4 16 4 6 18 4 6 18 4 6 18 4 6 18 4 6 18 4 6 18 4 6 18 4 6 18 5 9 18 5 9 18 5 9 18 5 9 18 5 9 18 5 9 18 5 9 18 5 9 18 6 10 19 6 10 19 6 10 19 6 10 19 6 10 19 6 10 19 6 10 19 4 11 19 5 12 18 4 13 18 4 13 18 4 13 18 4 13 18 4 13 18 4 13 18 4 13 18 7 16 21 7 16 21 7 16 21 7 16 21 7 16 21 7 16 21 7 16 21 7 16 21 11 18 24 11 18 24 11 18 24 11 18 24 11 18 24 11 18 24 11 18 24 11 18 24 12 19 25 12 19 25 12 19 25 12 19 25 12 19 25 12 19 25 12 19 25 12 20 23 12 17 20 12 18 18 12 18 18 12 18 18 12 18 18 12 18 18 12 18 18 12 18 18 1 7 7 1 7 7 1 7 7 1 7 7 1 7 7 1 7 7 1 7 7 1 7 7 5 11 11 7 13 13 9 15 15 12 18 18 16 22 22 19 25 25 21 27 27 23 29 29 37 43 43 39 45 45 41 47 47 44 50 50 48 54 54 51 57 57 53 59 59 55 61 59 59 64 60 61 66 60 63 68 62 66 71 65 70 75 69 73 78 72 75 80 74 77 82 76 79 84 78 83 88 82 89 94 88 91 96 90 88 93 87 79 84 78 69 74 68 64 66 61 43 43 41 44 43 41 44 43 41 44 43 41 44 43 41 44 43 41 44 43 41 44 43 41 41 40 38 41 40 38 41 40 38 41 40 38 41 40 38 41 40 38 41 40 38 41 40 38 39 38 36 39 38 36 39 38 36 39 38 36 39 38 36 39 38 36 39 38 36 39 38 36 38 37 35 38 37 35 38 37 35 38 37 35 38 37 35 38 37 35 38 37 35 38 37 35
2 0 11 2 0 11 2 0 11 2 0 11 4 2 13 4 2 13 4 2 13 4 2 13 4 2 13 4 2 13 4 2 13 4 2 13 3 1 12 3 1 12 3 1 12 3 1 12 3 1 12 3 1 12 3 1 12 3 1 12 4 2 13 4 2 13 4 2 13 4 2 13 4 2 13 4 2 13 4 2 13 3 3 13 4 4 16 2 4 16 2 4 16 2 4 16 2 4 16 2 4 16 2 4 16 2 4 16 4 6 18 4 6 18 4 6 18 4 6 18 4 6 18 4 6 18 4 6 18 4 6 18 5 9 18 5 9 18 5 9 18 5 9 18 5 9 18 5 9 18 5 9 18 5 9 18 6 10 19 6 10 19 6 10 19 6 10 19 6 10 19 6 10 19 6 10 19 4 11 19 5 12 18 4 13 18 4 13 18 4 13 18 4 13 18 4 13 18 4 13 18 4 13 18 7 16 21 7 16 21 7 16 21 7 16 21 7 16 21 7 16 21 7 16 21 7 16 21 11 18 24 11 18 24 11 18 24 11 18 24 11 18 24 11 18 24 11 18 24 11 18 24 12 19 25 12 19 25 12 19 25 12 19 25 12 19 25 12 19 25 12 19 25 12 20 23 12 17 20 12 18 18 12 18 18 12 18 18 12 18 18 12 18 18 12 18 18 12 18 18 1 7 7 1 7 7 1 7 7 1 7 7 1 7 7 1 7 7 1 7 7 1 7 7 5 11 11 7 13 13 9 15 15 12 18 18 16 22 22 19 25 25 21 27 27 23 29 29 37 43 43 39 45 45 41 47 47 44 50 50 48 54 54 51 57 57 53 59 59 55 61 59 57 62 58 58 63 57 61 66 60 64 69 63 67 72 66 71 76 70 73 78 72 74 79 73 77 82 76 81 86 80 87 92 86 89 94 88 86 91 85 77 82 76 66 71 65 61 63 58 43 43 41 44 43 41 44 43 41 44 43 41 44 43 41 44 43 41 44 43 41 44 43 41 41 40 38 41 40 38 41 40 38 41 40 38 41 40 38 41 40 38 41 40 38 41 40 38 39 38 36 39 38 36 39 38 36 39 38 36 39 38 36 39 38 36 39 38 36 39 38 36 38 37 35 38 37 35 38 37 35 38 37 35 38 37 35 38 37 35 38 37 35 38 37 35
2 0 11 2 0 11 2 0 11 2 0 11 4 2 13 4 2 13 4 2 13 4 2 13 4 2 13 4 2 13 4 2 13 4 2 13 3 1 12 3 1 12 3 1 12 3 1 12 3 1 12 3 1 12 3 1 12 3 1 12 4 2 13 4 2 13 4 2 13 4 2 13 4 2 13 4 2 13 4 2 13 3 3 13 4 4 16 2 4 16 2 4 16 2 4 16 2 4 16 2 4 16 2 4 16 2 4 16 4 6 18 4 6 18 4 6 18 4 6 18 4 6 18 4 6 18 4 6 18 4 6 18 5 9 18 5 9 18 5 9 18 5 9 18 5 9 18 5 9 18 5 9 18 5 9 18 6 10 19 6 10 19 6 10 19 6 10 19 6 10 19 6 10 19 6 10 19 4 11 19 5 12 18 4 13 18 4 13 18 4 13 18 4 13 18 4 13 18 4 13 18 4 13 18 7 16 21 7 16 21 7 16 21 7 16 21 7 16 21 7 16 21 7 16 21 7 16 21 11 18 24 11 18 24 11 18 24 11 18 24 11 18 24 11 18 24 11 18 24 11 18 24 12 19 25 12 19 25 12 19 25 12 19 25 12 19 25 12 19 25 12 19 25 12 20 23 12 17 20 12 18 18 12 18 18 12 18 18 12 18 18 12 18 18 12 18 18 12 18 18 1 7 7 1 7 7 1 7 7 1 7 7 1 7 7 1 7 7 1 7 7 1 7 7 5 11 11 7 13 13 9 15 15 12 18 18 16 22 22 19 25 25 21 27 27 23 29 29 37 43 43 39 45 45 41 47 47 44 50 50 48 54 54 51 57 57 53 59 59 55 61 59 56 61 57 57 62 56 59 64 58 63 68 62 66 71 65 69 74 68 72 77 71 73 78 72 75 80 74 80 85 79 85 90 84 88 93 87 84 89 83 75 80 74 65 70 64 60 62 57 43 43 41 44 43 41 44 43 41 44 43 41 44 43 41 44 43 41 44 43 41 44 43 41 41 40 38 41 40 38 41 40 38 41 40 38 41 40 38 41 40 38 41 40 38 41 40 38 39 38 36 39 38 36 39 38 36 39 38 36 39 38 36 39 38 36 39 38 36 39 38 36 38 37 35 38 37 35 38 37 35 38 37 35 38 37 35 38 37 35 38 37 35 38 37 35
3 1 12 3 1 12 3 1 12 3 1 12 3 1 12 3 1 12 3 1 12 3 1 12 3 1 12 3 1 12 3 1 12 3 1 12 3 1 12 3 1 12 3 1 12 3 1 12 3 1 12 3 1 12 3 1 12 3 1 12 5 3 14 5 3 14 5 3 14 5 3 14 5 3 14 5 3 14 5 3 14 4 4 14 5 5 17 3 5 17 3 5 17 3 5 17 3 5 17 3 5 17 3 5 17 3 5 17 4 6 18 4 6 18 4 6 18 4 6 18 4 6 18 4 6 18 4 6 18 4 6 18 5 9 18 5 9 18 5 9 18 5 9 18 5 9 18 5 9 18 5 9 18 5 9 18 7 11 20 7 11 20 7 11 20 7 11 20 7 11 20 7 11 20 7 11 20 5 12 20 7 14 20 6 15 20 6 15 20 6 15 20 6 15 20 6 15 20 6 15 20 6 15 20 8 17 22 8 17 22 8 17 22 8 17 22 8 17 22 8 17 22 8 17 22 8 17 22 11 18 24 11 18 24 11 18 24 11 18 24 11 18 24 11 18 24 11 18 24 11 18 24 10 17 23 10 17 23 10 17 23 10 17 23 10 17 23 10 17 23 10 17 23 10 18 21 12 17 20 12 18 18 12 18 18 12 18 18 12 18 18 12 18 18 12 18 18 12 18 18 5 11 11 5 11 11 5 11 11 5 11 11 5 11 11 5 11 11 5 11 11 5 11 11 3 9 9 5 11 11 7 13 13 10 16 16 14 20 20 17 23 23 19 25 25 21 27 27 29 35 35 31 37 37 33 39 39 36 42 42 40 46 46 43 49 49 45 51 51 47 53 51 56 61 57 57 62 56 60 65 59 63 68 62 66 71 65 70 75 69 72 77 71 73 78 72 74 79 73 74 79 73 74 79 73 74 79 73 74 79 73 74 79 73 74 79 73 76 78 73 47 47 45 46 45 43 44 43 41 41 40 38 37 36 34 34 33 31 32 31 29 30 29 27 35 34 32 35 34 32 35 34 32 35 34 32 35 34 32 35 34 32 35 34 32 35 34 32 35 34 32 35 34 32 35 34 32 35 34 32 35 34 32 35 34 32 35 34 32 35 34 32 38 37 35 38 37 35 38 37 35 38 37 35 38 37 35 38 37 35 38 37 35 38 37 35
3 1 12 3 1 12 3 1 12 3 1 12 3 1 12 3 1 12 3 1 12 3 1 12 3 1 12 3 1 12 3 1 12 3 1 12 3 1 12 3 1 12 3 1 12 3 1 12 3 1 12 3 1 12 3 1 12 3 1 12 5 3 14 5 3 14 5 3 14 5 3 14 5 3 14 5 3 14 5 3 14 4 4 14 5 5 17 3 5 17 3 5 17 3 5 17 3 5 17 3 5 17 3 5 17 3 5 17 4 6 18 4 6 18 4 6 18 4 6 18 4 6 18 4 6 18 4 6 18 4 6 18 5 9 18 5 9 18 5 9 18 5 9 18 5 9 18 5 9 18 5 9 18 5 9 18 7 11 20 7 11 20 7 11 20 7 11 20 7 11 20 7 11 20 7 11 20 5 12 20 7 14 20 6 15 20 6 15 20 6 15 20 6 15 20 6 15 20 6 15 20 6 15 20 8 17 22 8 17 22 8 17 22 8 17 22 8 17 22 8 17 22 8 17 22 8 17 22 11 18 24 11 18 24 11 18 24 11 18 24 11 18 24 11 18 24 11 18 24 11 18 24 10 17 23 10 17 23 10 17 23 10 17 23 10 17 23 10 17 23 10 17 23 10 18 21 12 17 20 12 18 18 12 18 18 12 18 18 12 18 18 12 18 18 12 18 18 12 18 18 5 11 11 5 11 11 5 11 11 5 11 11 5 11 11 5 11 11 5 11 11 5 11 11 3 9 9 5 11 11 7 13 13 10 16 16 14 20 20 17 23 23 19 25 25 21 27 27 29 35 35 31 37 37 33 39 39 36 42 42 40 46 46 43 49 49 45 51 51 47 53 51 55 60 56 56 61 55 58 63 57 62 67 61 65 70 64 68 73 67 71 76 70 72 77 71 72 77 71 72 77 71 72 77 71 72 77 71 72 77 71 72 77 71 72 77 71 74 76 71 47 47 45 46 45 43 44 43 41 41 40 38 37 36 34 34 33 31 32 31 29 30 29 27 35 34 32 35 34 32 35 34 32 35 34 32 35 34 32 35 34 32 35 34 32 35 34 32 35 34 32 35 34 32 35 34 32 35 34 32 35 34 32 35 34 32 35 34 32 35 34 32 38 37 35 38 37 35 38 37 35 38 37 35 38 37 35 38 37 35 38 37 35 38 37 35
3 1 12 3 1 12 3 1 12 3 1 12 3 1 12 3 1 12 3 1 12 3 1 12 3 1 12 3 1 12 3 1 12 3 1 12 3 1 12 3 1 12 3 1 12 3 1 12 3 1 12 3 1 12 3 1 12 3 1 12 5 3 14 5 3 14 5 3 14 5 3 14 5 3 14 5 3 14 5 3 14 4 4 14 5 5 17 3 5 17 3 5 17 3 5 17 3 5 17 3 5 17 3 5 17 3 5 17 4 6 18 4 6 18 4 6 18 4 6 18 4 6 18 4 6 18 4 6 18 4 6 18 5 9 18 5 9 18 5 9 18 5 9 18 5 9 18 5 9 18 5 9 18 5 9 18 7 11 20 7 11 20 7 11 20 7 11 20 7 11 20 7 11 20 7 11 20 5 12 20 7 14 20 6 15 20 6 15 20 6 15 20 6 15 20 6 15 20 6 15 20 6 15 20 8 17 22 8 17 22 8 17 22 8 17 22 8 17 22 8 17 22 8 17 22 8 17 22 11 18 24 11 18 24 11 18 24 11 18 24 11 18 24 11 18 24 11 18 24 11 18 24 10 17 23 10 17 23 10 17 23 10 17 23 10 17 23 10 17 23 10 17 23 10 18 21 12 17 20 12 18 18 12 18 18 12 18 18 12 18 18 12 18 18 12 18 18 12 18 18 5 11 11 5 11 11 5 11 11 5 11 11 5 11 11 5 11 11 5 11 11 5 11 11 3 9 9 5 11 11 7 13 13 10 16 16 14 20 20 17 23 23 19 25 25 21 27 27 29 35 35 31 37 37 33 39 39 36 42 42 40 46 46 43 49 49 45 51 51 47 53 51 52 57 53 54 59 53 56 61 55 59 64 58 63 68 62 66 71 65 68 73 67 70 75 69 70 75 69 70 75 69 70 75 69 70 75 69 70 75 69 70 75 69 70 75 69 72 74 69 47 47 45 46 45 43 44 43 41 41 40 38 37 36 34 34 33 31 32 31 29 30 29 27 35 34 32 35 34 32 35 34 32 35 34 32 35 34 32 35 34 32 35 34 32 35 34 32 35 34 32 35 34 32 35 34 32 35 34 32 35 34 32 35 34 32 35 34 32 35 34 32 38 37 35 38 37 35 38 37 35 38 37 35 38 37 35 38 37 35 38 37 35 38 37 35
3 1 12 3 1 12 3 1 12 3 1 12 3 1 12 3 1 12 3 1 12 3 1 12 3 1 12 3 1 12 3 1 12 3 1 12 3 1 12 3 1 12 3 1 12 3 1 12 3 1 12 3 1 12 3 1 12 3 1 12 5 3 14 5 3 14 5 3 14 5 3 14 5 3 14 5 3 14 5 3 14 4 4 14 5 5 17 3 5 17 3 5 17 3 5 17 3 5 17 3 5 17 3 5 17 3 5 17 4 6 18 4 6 18 4 6 18 4 6 18 4 6 18 4 6 18 4 6 18 4 6 18 5 9 18 5 9 18 5 9 18 5 9 18 5 9 18 5 9 18 5 9 18 5 9 18 7 11 20 7 11 20 7 11 20 7 11 20 7 11 20 7 11 20 7 11 20 5 12 20 7 14 20 6 15 20 6 15 20 6 15 20 6 15 20 6 15 20 6 15 20 6 15 20 8 17 22 8 17 22 8 17 22 8 17 22 8 17 22 8 17 22 8 17 22 8 17 22 11 18 24 11 18 24 11 18 24 11 18 24 11 18 24 11 18 24 11 18 24 11 18 24 10 17 23 10 17 23 10 17 23 10 17 23 10 17 23 10 17 23 10 17 23 10 18 21 12 17 20 12 18 18 12 18 18 12 18 18 12 18 18 12 18 18 12 18 18 12 18 18 5 11 11 5 11 11 5 11 11 5 11 11 5 11 11 5 11 11 5 11 11 5 11 11 3 9 9 5 11 11 7 13 13 10 16 16 14 20 20 17 23 23 19 25 25 21 27 27 29 35 35 31 37 37 33 39 39 36 42 42 40 46 46 43 49 49 45 51 51 47 53 51 49 54 50 50 55 49 53 58 52 56 61 55 59 64 58 63 68 62 65 70 64 66 71 65 67 72 66 67 72 66 67 72 66 67 72 66 67 72 66 67 72 66 67 72 66 69 71 66 47 47 45 46 45 43 44 43 41 41 40 38 37 36 34 34 33 31 32 31 29 30 29 27 35 34 32 35 34 32 35 34 32 35 34 32 35 34 32 35 34 32 35 34 32 35 34 32 35 34 32 35 34 32 35 34 32 35 34 32 35 34 32 35 34 32 35 34 32 35 34 32 38 37 35 38 37 35 38 37 35 38 37 35 38 37 35 38 37 35 38 37 35 38 37 35
3 1 12 3 1 12 3 1 12 3 1 12 3 1 12 3 1 12 3 1 12 3 1 12 3 1 12 3 1 12 3 1 12 3 1 12 3 1 12 3 1 12 3 1 12 3 1 12 3 1 12 3 1 12 3 1 12 3 1 12 5 3 14 5 3 14 5 3 14 5 3 14 5 3 14 5 3 14 5 3 14 4 4 14 5 5 17 3 5 17 3 5 17 3 5 17 3 5 17 3 5 17 3 5 17 3 5 17 4 6 18 4 6 18 4 6 18 4 6 18 4 6 18 4 6 18 4 6 18 4 6 18 5 9 18 5 9 18 5 9 18 5 9 18 5 9 18 5 9 18 5 9 18 5 9 18 7 11 20 7 11 20 7 11 20 7 11 20 7 11 20 7 11 20 7 11 20 5 12 20 7 14 20 6 15 20 6 15 20 6 15 20 6 15 20 6 15 20 6 15 20 6 15 20 8 17 22 8 17 22 8 17 22 8 17 22 8 17 22 8 17 22 8 17 22 8 17 22 11 18 24 11 18 24 11 18 24 11 18 24 11 18 24 11 18 24 11 18 24 11 18 24 10 17 23 10 17 23 10 17 23 10 17 23 10 17 23 10 17 23 10 17 23 10 18 21 12 17 20 12 18 18 12 18 18 12 18 18 12 18 18 12 18 18 12 18 18 12 18 18 5 11 11 5 11 11 5 11 11 5 11 11 5 11 11 5 11 11 5 11 11 5 11 11 3 9 9 5 11 11 7 13 13 10 16 16 14 20 20 17 23 23 19 25 25 21 27 27 29 35 35 31 37 37 33 39 39 36 42 42 40 46 46 43 49 49 45 51 51 47 53 51 46 51 47 47 52 46 49 54 48 53 58 52 56 61 55 59 64 58 62 67 61 63 68 62 63 68 62 63 68 62 63 68 62 63 68 62 63 68 62 63 68 62 63 68 62 65 67 62 47 47 45 46 45 43 44 43 41 41 40 38 37 36 34 34 33 31 32 31 29 30 29 27 35 34 32 35 34 32 35 34 32 35 34 32 35 34 32 35 34 32 35 34 32 35 34 32 35 34 32 35 34 32 35 34 32 35 34 32 35 34 32 35 34 32 35 34 32 35 34 32 38 37 35 38 37 35 38 37 35 38 37 35 38 37 35 38 37 35 38 37 35 38 37 35
3 1 12 3 1 12 3 1 12 3 1 12 3 1 12 3 1 12 3 1 12 3 1 12 3 1 12 3 1 12 3 1 12 3 1 12 3 1 12 3 1 12 3 1 12 3 1 12 3 1 12 3 1 12 3 1 12 3 1 12 5 3 14 5 3 14 5 3 14 5 3 14 5 3 14 5 3 14 5 3 14 4 4 14 5 5 17 3 5 17 3 5 17 3 5 17 3 5 17 3 5 17 3 5 17 3 5 17 4 6 18 4 6 18 4 6 18 4 6 18 4 6 18 4 6 18 4 6 18 4 6 18 5 9 18 5 9 18 5 9 18 5 9 18 5 9 18 5 9 18 5 9 18 5 9 18 7 11 20 7 11 20 7 11 20 7 11 20 7 11 20 7 11 20 7 11 20 5 12 20 7 14 20 6 15 20 6 15 20 6 15 20 6 15 20 6 15 20 6 15 20 6 15 20 8 17 22 8 17 22 8 17 22 8 17 22 8 17 22 8 17 22 8 17 22 8 17 22 11 18 24 11 18 24 11 18 24 11 18 24 11 18 24 11 18 24 11 18 24 11 18 24 10 17 23 10 17 23 10 17 23 10 17 23 10 17 23 10 17 23 10 17 23 10 18 21 12 17 20 12 18 18 12 18 18 12 18 18 12 18 18 12 18 18 12 18 18 12 18 18 5 11 11 5 11 11 5 11 11 5 11 11 5 11 11 5 11 11 5 11 11 5 11 11 3 9 9 5 11 11 7 13 13 10 16 16 14 20 20 17 23 23 19 25 25 21 27 27 29 35 35 31 37 37 33 39 39 36 42 42 40 46 46 43 49 49 45 51 51 47 53 51 42 47 43 44 49 43 46 51 45 49 54 48 53 58 52 56 61 55 58 63 57 60 65 59 60 65 59 60 65 59 60 65 59 60 65 59 60 65 59 60 65 59 60 65 59 62 64 59 47 47 45 46 45 43 44 43 41 41 40 38 37 36 34 34 33 31 32 31 29 30 29 27 35 34 32 35 34 32 35 34 32 35 34 32 35 34 32 35 34 32 35 34 32 35 34 32 35 34 32 35 34 32 35 34 32 35 34 32 35 34 32 35 34 32 35 34 32 35 34 32 38 37 35 38 37 35 38 37 35 38 37 35 38 37 35 38 37 35 38 37 35 38 37 35
3 1 12 3 1 12 3 1 12 3 1 12 3 1 12 3 1 12 3 1 12 3 1 12 3 1 12 3 1 12 3 1 12 3 1 12 3 1 12 3 1 12 3 1 12 3 1 12 3 1 12 3 1 12 3 1 12 3 1 12 5 3 14 5 3 14 5 3 14 5 3 14 5 3 14 5 3 14 5 3 14 4 4 14 5 5 17 3 5 17 3 5 17 3 5 17 3 5 17 3 5 17 3 5 17 3 5 17 4 6 18 4 6 18 4 6 18 4 6 18 4 6 18 4 6 18 4 6 18 4 6 18 5 9 18 5 9 18 5 9 18 5 9 18 5 9 18 5 9 18 5 9 18 5 9 18 7 11 20 7 11 20 7 11 20 7 11 20 7 11 20 7 11 20 7 11 20 5 12 20 7 14 20 6 15 20 6 15 20 6 15 20 6 15 20 6 15 20 6 15 20 6 15 20 8 17 22 8 17 22 8 17 22 8 17 22 8 17 22 8 17 22 8 17 22 8 17 22 11 18 24 11 18 24 11 18 24 11 18 24 11 18 24 11 18 24 11 18 24 11 18 24 10 17 23 10 17 23 10 17 23 10 17 23 10 17 23 10 17 23 10 17 23 10 18 21 12 17 20 12 18 18 12 18 18 12 18 18 12 18 18 12 18 18 12 18 18 12 18 18 5 11 11 5 11 11 5 11 11 5 11 11 5 11 11 5 11 11 5 11 11 5 11 11 3 9 9 5 11 11 7 13 13 10 16 16 14 20 20 17 23 23 19 25 25 21 27 27 29 35 35 31 37 37 33 39 39 36 42 42 40 46 46 43 49 49 45 51 51 47 53 51 40 45 41 41 46 40 44 49 43 47 52 46 50 55 49 54 59 53 56 61 55 57 62 56 58 63 57 58 63 57 58 63 57 58 63 57 58 63 57 58 63 57 58 63 57 60 62 57 47 47 45 46 45 43 44 43 41 41 40 38 37 36 34 34 33 31 32 31 29 30 29 27 35 34 32 35 34 32 35 34 32 35 34 32 35 34 32 35 34 32 35 34 32 35 34 32 35 34 32 35 34 32 35 34 32 35 34 32 35 34 32 35 34 32 35 34 32 35 34 32 38 37 35 38 37 35 38 37 35 38 37 35 38 37 35 38 37 35 38 37 35 38 37 35
3 1 12 3 1 12 3 1 12 3 1 12 3 1 12 3 1 12 3 1 12 3 1 12 3 1 12 3 1 12 3 1 12 3 1 12 3 1 12 3 1 12 3 1 12 3 1 12 3 1 12 3 1 12 3 1 12 3 1 12 5 3 14 5 3 14 5 3 14 5 3 14 5 3 14 5 3 14 5 3 14 4 4 14 5 5 17 3 5 17 3 5 17 3 5 17 3 5 17 3 5 17 3 5 17 3 5 17 4 6 18 4 6 18 4 6 18 4 6 18 4 6 18 4 6 18 4 6 18 4 7 16 5 9 18 5 9 18 5 9 18 5 9 18 5 9 18 5 9 18 5 9 18 5 9 18 7 11 20 7 11 20 7 11 20 7 11 20 7 11 20 7 11 20 7 11 20 5 12 18 7 14 20 6 15 20 6 15 20 6 15 20 6 15 20 6 15 20 6 15 20 6 15 20 8 17 22 8 17 22 8 17 22 8 17 22 8 17 22 8 17 22 8 17 22 8 17 22 11 18 24 11 19 22 11 18 24 11 19 22 11 18 24 11 19 22 11 18 24 11 19 22 10 17 23 10 18 21 10 17 23 10 18 21 10 17 23 10 18 21 10 17 23 10 18 21 12 17 20 12 18 18 12 17 20 12 18 18 12 17 20 12 18 18 12 17 20 12 18 18 5 10 13 5 11 11 5 10 13 5 11 11 5 10 13 5 11 11 5 10 13 5 11 11 3 9 9 5 11 11 7 13 13 10 16 16 14 20 20 17 23 23 19 25 25 21 27 27 29 35 35 31 37 37 33 39 39 36 42 42 40 46 46 43 49 49 45 51 51 47 53 51 39 44 40 40 45 39 42 47 43 46 51 45 49 54 50 52 57 51 55 60 56 56 61 55 56 61 57 56 61 55 56 61 57 56 61 55 56 61 57 56 61 55 56 61 57 58 60 57 48 47 45 46 45 43 46 42 41 41 40 38 39 35 34 34 33 31 34 30 29 30 29 27 37 33 32 35 34 32 37 33 32 35 34 32 37 33 32 35 34 32 37 33 32 35 34 32 37 33 32 35 34 30 37 33 32 35 34 30 37 33 32 35 34 30 37 33 32 35 34 30 40 36 35 38 37 33 40 36 35 38 37 33 40 36 35 38 37 33 40 36 35 38 37 35
3 2 10 3 2 10 3 2 10 3 2 10 3 2 10 3 2 10 3 2 10 3 2 10 3 2 10 3 2 10 3 2 10 3 2 10 3 1 12 3 1 12 3 1 12 3 1 12 3 1 12 3 1 12 3 1 12 3 1 12 6 4 15 6 4 15 6 4 15 6 4 15 6 4 15 6 4 15 6 4 15 5 5 15 6 6 16 4 7 16 4 7 16 4 7 16 4 7 16 4 7 16 4 7 16 4 7 16 3 6 15 3 6 15 3 6 15 3 6 15 3 6 15 3 6 15 3 6 15 3 6 15 6 10 19 6 11 17 6 11 17 6 11 17 6 11 17 6 11 17 6 11 17 6 11 17 8 13 19 8 13 19 8 13 19 8 13 19 8 13 19 8 13 19 8 13 19 6 13 19 9 16 22 8 18 20 8 18 20 8 18 20 8 18 20 8 18 20 8 18 20 8 18 20 12 22 24 12 22 24 12 22 24 12 22 24 12 22 24 12 22 24 12 22 24 12 22 24 0 3 6 0 4 7 4 9 13 9 14 17 16 21 25 22 27 30 26 31 35 28 33 36 8 13 17 9 14 17 11 16 20 14 19 22 16 21 25 19 24 27 21 26 30 22 27 30 24 32 35 25 33 35 25 33 36 27 35 37 28 36 39 29 37 39 30 38 41 31 39 41 9 17 20 9 17 19 9 17 20 9 17 19 9 17 20 9 17 19 9 17 20 9 17 19 2 11 10 4 13 12 6 15 14 9 18 17 13 22 21 16 25 24 18 27 26 20 29 28 28 37 36 28 37 36 28 37 36 28 37 36 28 37 36 28 37 36 28 37 36 28 37 36 41 47 45 41 47 43 41 47 45 41 47 43 41 47 45 41 47 43 41 47 45 41 47 43 52 58 56 52 58 54 52 58 56 52 58 54 52 58 56 52 58 54 52 58 56 55 57 54 34 33 31 36 32 31 37 31 31 36 32 31 37 31 31 36 32 31 37 31 31 36 32 31 37 31 31 36 32 31 37 31 31 36 32 31 37 31 31 36 32 31 37 31 31 36 32 31 38 33 30 37 34 29 38 33 30 37 34 29 38 33 30 37 34 29 38 33 30 37 34 29 38 33 30 37 34 29 38 33 30 37 34 29 38 33 30 37 34 29 38 33 30 37 33 30
3 2 10 3 2 10 3 2 10 3 2 10 3 2 10 3 2 10 3 2 10 3 2 10 3 2 10 3 2 10 3 2 10 3 2 10 3 1 12 3 1 12 3 1 12 3 1 12 3 1 12 3 1 12 3 1 12 3 1 12 6 4 15 6 4 15 6 4 15 6 4 15 6 4 15 6 4 15 6 4 15 5 5 15 6 6 16 4 7 16 4 7 16 4 7 16 4 7 16 4 7 16 4 7 16 4 7 16 3 6 15 3 6 15 3 6 15 3 6 15 3 6 15 3 6 15 3 6 15 3 6 15 6 11 17 6 11 17 6 11 17 6 11 17 6 11 17 6 11 17 6 11 17 6 11 17 8 13 19 8 13 19 8 13 19 8 13 19 8 13 19 8 13 19 8 13 19 6 13 19 9 17 20 8 18 20 8 18 20 8 18 20 8 18 20 8 18 20 8 18 20 8 18 20 12 22 24 12 22 24 12 22 24 12 22 24 12 22 24 12 22 24 12 22 24 12 22 24 13 18 21 13 18 21 14 19 22 14 19 22 15 20 23 16 21 24 17 22 25 17 22 25 24 29 32 25 30 33 26 31 34 27 32 35 28 33 36 29 34 37 30 35 38 30 35 38 27 35 38 27 35 38 28 36 39 28 36 39 29 37 40 30 38 41 30 38 41 30 38 41 9 17 20 9 17 20 9 17 20 9 17 20 9 17 20 9 17 20 9 17 20 9 17 19 2 10 12 4 13 12 6 15 14 9 18 17 13 22 21 16 25 24 18 27 26 20 29 28 28 37 36 28 37 36 28 37 36 28 37 36 28 37 36 28 37 36 28 37 36 28 37 36 41 47 45 41 47 45 41 47 45 41 47 45 41 47 45 41 47 45 41 47 45 41 47 45 50 56 54 50 56 54 50 56 54 50 56 54 50 56 54 50 56 54 50 56 54 51 55 54 36 32 31 37 31 31 37 31 31 37 31 31 37 31 31 37 31 31 37 31 31 37 31 31 37 31 31 37 31 31 37 31 31 37 31 31 37 31 31 37 31 31 37 31 31 37 32 29 38 33 30 38 33 29 38 33 29 38 33 29 38 33 29 38 33 29 38 33 29 38 33 29 38 33 29 38 33 29 38 33 29 38 33 29 38 33 29 38 33 29 38 33 29 38 33 29
3 2 10 3 2 10 3 2 10 3 2 10 3 2 10 3 2 10 3 2 10 3 2 10 3 2 10 3 2 10 3 2 10 3 2 10 3 1 12 3 1 12 3 1 12 3 1 12 3 1 12 3 1 12 3 1 12 3 1 12 6 4 15 6 4 15 6 4 15 6 4 15 6 4 15 6 4 15 6 4 15 5 5 15 6 6 16 4 7 16 4 7 16 4 7 16 4 7 16 4 7 16 4 7 16 4 7 16 3 6 15 3 6 15 3 6 15 3 6 15 3 6 15 3 6 15 3 6 15 3 6 15 6 11 17 6 11 17 6 11 17 6 11 17 6 11 17 6 11 17 6 11 17 6 11 17 8 13 19 8 13 19 8 13 19 8 13 19 8 13 19 8 13 19 8 13 19 6 13 19 9 17 20 8 18 20 8 18 20 8 18 20 8 18 20 8 18 20 8 18 20 8 18 20 12 22 24 12 22 24 12 22 24 12 22 24 12 22 24 12 22 24 12 22 24 12 22 24 26 31 34 25 30 33 24 29 32 22 27 30 21 26 29 19 24 27 18 23 26 18 23 26 51 56 59 51 56 59 50 55 58 48 53 56 47 52 55 45 50 53 44 49 52 44 49 52 33 41 44 33 41 44 32 40 43 31 39 42 31 39 42 30 38 41 30 38 41 29 37 40 9 17 20 9 17 20 9 17 20 9 17 20 9 17 20 9 17 20 9 17 20 9 17 19 2 10 12 4 13 12 6 15 14 9 18 17 13 22 21 16 25 24 18 27 26 20 29 28 28 37 36 28 37 36 28 37 36 28 37 36 28 37 36 28 37 36 28 37 36 28 37 36 41 47 45 41 47 45 41 47 45 41 47 45 41 47 45 41 47 45 41 47 45 41 47 45 48 54 52 48 54 52 48 54 52 48 54 52 48 54 52 48 54 52 48 54 52 49 53 52 36 32 31 37 31 31 37 31 31 37 31 31 37 31 31 37 31 31 37 31 31 37 31 31 37 31 31 37 31 31 37 31 31 37 31 31 37 31 31 37 31 31 37 31 31 37 32 29 38 33 30 38 33 29 38 33 29 38 33 29 38 33 29 38 33 29 38 33 29 38 33 29 38 33 29 38 33 29 38 33 29 38 33 29 38 33 29 38 33 29 38 33 29 38 33 29
3 2 10 3 2 10 3 2 10 3 2 10 3 2 10 3 2 10 3 2 10 3 2 10 3 2 10 3 2 10 3 2 10 3 2 10 3 1 12 3 1 12 3 1 12 3 1 12 3 1 12 3 1 12 3 1 12 3 1 12 6 4 15 6 4 15 6 4 15 6 4 15 6 4 15 6 4 15 6 4 15 5 5 15 6 6 16 4 7 16 4 7 16 4 7 16 4 7 16 4 7 16 4 7 16 4 7 16 3 6 15 3 6 15 3 6 15 3 6 15 3 6 15 3 6 15 3 6 15 3 6 15 6 11 17 6 11 17 6 11 17 6 11 17 6 11 17 6 11 17 6 11 17 6 11 17 8 13 19 8 13 19 8 13 19 8 13 19 8 13 19 8 13 19 8 13 19 6 13 19 9 17 20 8 18 20 8 18 20 8 18 20 8 18 20 8 18 20 8 18 20 8 18 20 12 22 24 12 22 24 12 22 24 12 22 24 12 22 24 12 22 24 12 22 24 12 22 24 23 28 31 25 30 33 28 33 36 33 38 41 37 42 45 42 47 50 45 50 53 47 52 55 82 87 90 80 85 88 76 81 84 72 77 80 66 71 74 62 67 70 58 63 66 56 61 64 41 49 52 40 48 51 38 46 49 36 44 47 33 41 44 31 39 42 29 37 40 28 36 39 9 17 20 9 17 20 9 17 20 9 17 20 9 17 20 9 17 20 9 17 20 9 17 19 2 10 12 4 13 12 6 15 14 9 18 17 13 22 21 16 25 24 18 27 26 20 29 28 28 37 36 28 37 36 28 37 36 28 37 36 28 37 36 28 37 36 28 37 36 28 37 36 41 47 45 41 47 45 41 47 45 41 47 45 41 47 45 41 47 45 41 47 45 41 47 45 45 51 49 45 51 49 45 51 49 45 51 49 45 51 49 45 51 49 45 51 49 46 50 49 36 32 31 37 31 31 37 31 31 37 31 31 37 31 31 37 31 31 37 31 31 37 31 31 37 31 31 37 31 31 37 31 31 37 31 31 37 31 31 37 31 31 37 31 31 37 32 29 38 33 30 38 33 29 38 33 29 38 33 29 38 33 29 38 33 29 38 33 29 38 33 29 38 33 29 38 33 29 38 33 29 38 33 29 38 33 29 38 33 29 38 33 29 38 33 29
3 2 10 3 2 10 3 2 10 3 2 10 3 2 10 3 2 10 3 2 10 3 2 10 3 2 10 3 2 10 3 2 10 3 2 10 3 1 12 3 1 12 3 1 12 3 1 12 3 1 12 3 1 12 3 1 12 3 1 12 6 4 15 6 4 15 6 4 15 6 4 15 6 4 15 6 4 15 6 4 15 5 5 15 6 6 16 4 7 16 4 7 16 4 7 16 4 7 16 4 7 16 4 7 16 4 7 16 3 6 15 3 6 15 3 6 15 3 6 15 3 6 15 3 6 15 3 6 15 3 6 15 6 11 17 6 11 17 6 11 17 6 11 17 6 11 17 6 11 17 6 11 17 6 11 17 8 13 19 8 13 19 8 13 19 8 13 19 8 13 19 8 13 19 8 13 19 6 13 19 9 17 20 8 18 20 8 18 20 8 18 20 8 18 20 8 18 20 8 18 20 8 18 20 12 22 24 12 22 24 12 22 24 12 22 24 12 22 24 12 22 24 12 22 24 12 22 24 16 21 24 22 27 30 33 38 41 48 53 56 64 69 72 78 83 86 90 95 98 96 101 104 108 113 116 105 110 113 99 104 107 91 96 99 82 87 90 74 79 82 68 73 76 64 69 72 49 57 60 47 55 58 44 52 55 40 48 51 36 44 47 31 39 42 28 36 39 27 35 38 9 17 20 9 17 20 9 17 20 9 17 20 9 17 20 9 17 20 9 17 20 9 17 19 2 10 12 4 13 12 6 15 14 9 18 17 13 22 21 16 25 24 18 27 26 20 29 28 28 37 36 28 37 36 28 37 36 28 37 36 28 37 36 28 37 36 28 37 36 28 37 36 41 47 45 41 47 45 41 47 45 41 47 45 41 47 45 41 47 45 41 47 45 41 47 45 41 47 45 41 47 45 41 47 45 41 47 45 41 47 45 41 47 45 41 47 45 42 46 45 36 32 31 37 31 31 37 31 31 37 31 31 37 31 31 37 31 31 37 31 31 37 31 31 37 31 31 37 31 31 37 31 31 37 31 31 37 31 31 37 31 31 37 31 31 37 32 29 38 33 30 38 33 29 38 33 29 38 33 29 38 33 29 38 33 29 38 33 29 38 33 29 38 33 29 38 33 29 38 33 29 38 33 29 38 33 29 38 33 29 38 33 29 38 33 29
3 2 10 3 2 10 3 2 10 3 2 10 3 2 10 3 2 10 3 2 10 3 2 10 3 2 10 3 2 10 3 2 10 3 2 10 3 1 12 3 1 12 3 1 12 3 1 12 3 1 12 3 1 12 3 1 12 3 1 12 6 4 15 6 4 15 6 4 15 6 4 15 6 4 15 6 4 15 6 4 15 5 5 15 6 6 16 4 7 16 4 7 16 4 7 16 4 7 16 4 7 16 4 7 16 4 7 16 3 6 15 3 6 15 3 6 15 3 6 15 3 6 15 3 6 15 3 6 15 3 6 15 6 11 17 6 11 17 6 11 17 6 11 17 6 11 17 6 11 17 6 11 17 6 11 17 8 13 19 8 13 19 8 13 19 8 13 19 8 13 19 8 13 19 8 13 19 6 13 19 9 17 20 8 18 20 8 18 20 8 18 20 8 18 20 8 18 20 8 18 20 8 18 20 12 22 24 12 22 24 12 22 24 12 22 24 12 22 24 12 22 24 12 22 24 12 22 24 24 29 32 33 38 41 49 54 57 69 74 77 92 97 100 112 117 120 128 133 136 136 141 144 127 132 135 123 128 131 114 119 122 103 108 111 90 95 98 79 84 87 70 75 78 66 71 74 56 64 67 54 62 65 50 58 61 44 52 55 38 46 49 32 40 43 28 36 39 25 33 36 9 17 20 9 17 20 9 17 20 9 17 20 9 17 20 9 17 20 9 17 20 9 17 19 2 10 12 4 13 12 6 15 14 9 18 17 13 22 21 16 25 24 18 27 26 20 29 28 28 37 36 28 37 36 28 37 36 28 37 36 28 37 36 28 37 36 28 37 36 28 37 36 41 47 45 41 47 45 41 47 45 41 47 45 41 47 45 41 47 45 41 47 45 41 47 45 38 44 42 38 44 42 38 44 42 38 44 42 38 44 42 38 44 42 38 44 42 39 43 42 36 32 31 37 31 31 37 31 31 37 31 31 37 31 31 37 31 31 37 31 31 37 31 31 37 31 31 37 31 31 37 31 31 37 31 31 37 31 31 37 31 31 37 31 31 37 32 29 38 33 30 38 33 29 38 33 29 38 33 29 38 33 29 38 33 29 38 33 29 38 33 29 38 33 29 38 33 29 38 33 29 38 33 29 38 33 29 38 33 29 38 33 29 38 33 29
3 2 10 3 2 10 3 2 10 3 2 10 3 2 10 3 2 10 3 2 10 3 2 10 3 2 10 3 2 10 3 2 10 3 2 10 3 1 12 3 1 12 3 1 12 3 1 12 3 1 12 3 1 12 3 1 12 3 1 12 6 4 15 6 4 15 6 4 15 6 4 15 6 4 15 6 4 15 6 4 15 5 5 15 6 6 16 4 7 16 4 7 16 4 7 16 4 7 16 4 7 16 4 7 16 4 7 16 3 6 15 3 6 15 3 6 15 3 6 15 3 6 15 3 6 15 3 6 15 3 6 15 6 11 17 6 11 17 6 11 17 6 11 17 6 11 17 6 11 17 6 11 17 6 11 17 8 13 19 8 13 19 8 13 19 8 13 19 8 13 19 8 13 19 8 13 19 6 13 19 9 17 20 8 18 20 8 18 20 8 18 20 8 18 20 8 18 20 8 18 20 8 18 20 12 22 24 12 22 24 12 22 24 12 22 24 12 22 24 12 22 24 12 22 24 12 22 24 53 58 61 61 66 69 75 80 83 93 98 101 113 118 121 131 136 139 145 150 153 153 158 161 138 143 146 133 138 141 122 127 130 108 113 116 93 98 101 79 84 87 69 74 77 63 68 71 62 70 73 59 67 70 54 62 65 47 55 58 40 48 51 33 41 44 27 35 38 24 32 35 9 17 20 9 17 20 9 17 20 9 17 20 9 17 20 9 17 20 9 17 20 9 17 19 2 10 12 4 13 12 6 15 14 9 18 17 13 22 21 16 25 24 18 27 26 20 29 28 28 37 36 28 37 36 28 37 36 28 37 36 28 37 36 28 37 36 28 37 36 28 37 36 41 47 45 41 47 45 41 47 45 41 47 45 41 47 45 41 47 45 41 47 45 41 47 45 36 42 40 36 42 40 36 42 40 36 42 40 36 42 40 36 42 40 36 42 40 37 41 40 36 32 31 37 31 31 37 31 31 37 31 31 37 31 31 37 31 31 37 31 31 37 31 31 37 31 31 37 31 31 37 31 31 37 31 31 37 31 31 37 31 31 37 31 31 37 32 29 38 33 30 38 33 29 38 33 29 38 33 29 38 33 29 38 33 29 38 33 29 38 33 29 38 33 29 38 33 29 38 33 29 38 33 29 38 33 29 38 33 29 38 33 29 38 33 29
3 2 10 3 2 10 3 2 10 3 2 10 3 2 10 3 2 10 3 2 10 3 2 10 3 2 10 3 2 10 3 2 10 3 2 10 3 1 12 3 1 12 3 1 12 3 1 12 3 1 12 3 1 12 3 1 12 3 1 12 6 4 15 6 4 15 6 4 15 6 4 15 6 4 15 6 4 15 6 4 15 5 5 15 6 6 16 4 7 16 4 7 16 4 7 16 4 7 16 4 7 16 4 7 16 4 7 16 3 6 15 3 6 15 3 6 15 3 6 15 3 6 15 3 6 15 3 6 15 3 6 15 6 11 17 6 11 17 6 11 17 6 11 17 6 11 17 6 11 17 6 11 17 6 11 17 8 13 19 8 13 19 8 13 19 8 13 19 8 13 19 8 13 19 8 13 19 6 13 19 9 17 20 8 18 20 8 18 20 8 18 20 8 18 20 8 18 20 8 18 20 8 18 20 12 22 24 12 22 24 12 22 24 12 22 24 12 22 24 12 22 24 12 22 24 12 22 24 80 85 88 86 91 94 96 101 104 109 114 117 124 129 132 137 142 145 147 152 155 153 158 161 143 148 151 137 142 145 125 130 133 110 115 118 93 98 101 78 83 86 67 72 75 60 65 68 65 73 76 62 70 73 56 64 67 49 57 60 41 49 52 33 41 44 27 35 38 24 32 35 9 17 20 9 17 20 9 17 20 9 17 20 9 17 20 9 17 20 9 17 20 9 17 19 2 10 12 4 13 12 6 15 14 9 18 17 13 22 21 16 25 24 18 27 26 20 29 28 28 37 36 28 37 36 28 37 36 28 37 36 28 37 36 28 37 36 28 37 36 28 37 36 41 47 45 41 47 45 41 47 45 41 47 45 41 47 45 41 47 45 41 47 45 41 47 45 34 40 38 34 40 38 34 40 38 34 40 38 34 40 38 34 40 38 34 40 38 35 39 38 36 32 31 37 31 31 37 31 31 37 31 31 37 31 31 37 31 31 37 31 31 37 31 31 37 31 31 37 31 31 37 31 31 37 31 31 37 31 31 37 31 31 37 31 31 37 32 29 38 33 30 38 33 29 38 33 29 38 33 29 38 33 29 38 33 29 38 33 29 38 33 29 38 33 29 38 33 29 38 33 29 38 33 29 38 33 29 38 33 29 38 33 29 38 33 29
3 2 10 3 2 10 3 2 10 3 2 10 2 1 9 2 1 9 2 1 9 2 1 9 2 1 9 2 1 9 2 1 9 2 1 9 4 2 13 4 2 13 4 2 13 4 2 13 4 2 13 4 2 13 4 2 13 4 2 13 5 3 14 5 3 14 5 3 14 5 3 14 5 3 14 5 3 14 5 3 14 4 4 14 6 6 16 4 7 16 4 7 16 4 7 16 4 7 16 4 7 16 4 7 16 4 7 16 3 6 15 3 6 15 3 6 15 3 6 15 3 6 15 3 6 15 3 6 15 3 6 15 6 11 17 6 11 17 6 11 17 6 11 17 6 11 17 6 11 17 6 11 17 6 11 17 10 15 21 10 15 21 10 15 21 10 15 21 10 15 21 10 15 21 10 15 21 8 15 21 16 24 27 14 24 26 13 23 25 12 22 24 11 21 23 9 19 21 8 18 20 8 18 20 0 7 9 2 12 14 13 23 25 27 37 39 42 52 54 56 66 68 67 77 79 73 83 85 129 134 137 129 134 137 129 134 137 129 134 137 129 134 137 129 134 137 129 134 137 129 134 137 121 126 129 123 128 131 122 127 130 117 122 125 105 110 113 89 94 97 73 78 81 63 68 71 58 66 69 55 63 66 50 58 61 44 52 55 37 45 48 31 39 42 26 34 37 23 31 34 9 17 20 9 17 20 9 17 20 9 17 20 9 17 20 9 17 20 9 17 20 9 17 19 4 12 14 6 15 14 8 17 16 11 20 19 15 24 23 18 27 26 20 29 28 22 31 30 24 33 32 24 33 32 24 33 32 24 33 32 24 33 32 24 33 32 24 33 32 24 33 32 30 36 34 30 36 34 30 36 34 30 36 34 30 36 34 30 36 34 30 36 34 30 36 34 29 35 33 29 35 33 29 35 33 29 35 33 29 35 33 29 35 33 29 35 33 30 34 33 34 30 29 35 29 29 35 29 29 35 29 29 35 29 29 35 29 29 35 29 29 35 29 29 36 30 30 36 30 30 36 30 30 36 30 30 36 30 30 36 30 30 36 30 30 36 31 28 38 33 30 38 33 29 38 33 29 38 33 29 38 33 29 38 33 29 38 33 29 38 33 29 38 33 29 38 33 29 38 33 29 38 33 29 38 33 29 38 33 29 38 33 29 38 33 29
3 2 10 3 2 10 3 2 10 3 2 10 2 1 9 2 1 9 2 1 9 2 1 9 2 1 9 2 1 9 2 1 9 2 1 9 4 2 13 4 2 13 4 2 13 4 2 13 4 2 13 4 2 13 4 2 13 4 2 13 5 3 14 5 3 14 5 3 14 5 3 14 5 3 14 5 3 14 5 3 14 4 4 14 6 6 16 4 7 16 4 7 16 4 7 16 4 7 16 4 7 16 4 7 16 4 7 16 3 6 15 3 6 15 3 6 15 3 6 15 3 6 15 3 6 15 3 6 15 3 6 15 6 11 17 6 11 17 6 11 17 6 11 17 6 11 17 6 11 17 6 11 17 6 11 17 10 15 21 10 15 21 10 15 21 10 15 21 10 15 21 10 15 21 10 15 21 8 15 21 11 19 22 10 20 22 9 19 21 9 19 21 8 18 20 7 17 19 7 17 19 7 17 19 9 19 21 15 25 27 25 35 37 38 48 50 53 63 65 66 76 78 76 86 88 82 92 94 129 134 137 129 134 137 129 134 137 129 134 137 129 134 137 129 134 137 129 134 137 129 134 137 127 132 135 128 133 136 128 133 136 124 129 132 113 118 121 97 102 105 81 86 89 71 76 79 59 67 70 56 64 67 51 59 62 45 53 56 38 46 49 32 40 43 27 35 38 24 32 35 9 17 20 9 17 20 9 17 20 9 17 20 9 17 20 9 17 20 9 17 20 9 17 19 4 12 14 6 15 14 8 17 16 11 20 19 15 24 23 18 27 26 20 29 28 22 31 30 24 33 32 24 33 32 24 33 32 24 33 32 24 33 32 24 33 32 24 33 32 24 33 32 30 36 34 30 36 34 30 36 34 30 36 34 30 36 34 30 36 34 30 36 34 30 36 34 29 35 33 29 35 33 29 35 33 29 35 33 29 35 33 29 35 33 29 35 33 30 34 33 34 30 29 35 29 29 35 29 29 35 29 29 35 29 29 35 29 29 35 29 29 35 29 29 36 30 30 36 30 30 36 30 30 36 30 30 36 30 30 36 30 30 36 30 30 36 31 28 38 33 30 38 33 29 38 33 29 38 33 29 38 33 29 38 33 29 38 33 29 38 33 29 38 33 29 38 33 29 38 33 29 38 33 29 38 33 29 38 33 29 38 33 29 38 33 29
3 2 10 3 2 10 3 2 10 3 2 10 2 1 9 2 1 9 2 1 9 2 1 9 2 1 9 2 1 9 2 1 9 2 1 9 4 2 13 4 2 13 4 2 13 4 2 13 4 2 13 4 2 13 4 2 13 4 2 13 5 3 14 5 3 14 5 3 14 5 3 14 5 3 14 5 3 14 5 3 14 4 4 14 6 6 16 4 7 16 4 7 16 4 7 16 4 7 16 4 7 16 4 7 16 4 7 16 3 6 15 3 6 15 3 6 15 3 6 15 3 6 15 3 6 15 3 6 15 3 6 15 6 11 17 6 11 17 6 11 17 6 11 17 6 11 17 6 11 17 6 11 17 6 11 17 10 15 21 10 15 21 10 15 21 10 15 21 10 15 21 10 15 21 10 15 21 8 15 21 4 12 15 4 14 16 4 14 16 5 15 17 6 16 18 6 16 18 7 17 19 7 17 19 31 41 43 36 46 48 45 55 57 57 67 69 70 80 82 82 92 94 91 101 103 96 106 108 129 134 137 129 134 137 129 134 137 129 134 137 129 134 137 129 134 137 129 134 137 129 134 137 134 139 142 136 141 144 137 142 145 134 139 142 124 129 132 109 114 117 95 100 103 85 90 93 61 69 72 59 67 70 54 62 65 48 56 59 41 49 52 34 42 45 29 37 40 27 35 38 9 17 20 9 17 20 9 17 20 9 17 20 9 17 20 9 17 20 9 17 20 9 17 19 4 12 14 6 15 14 8 17 16 11 20 19 15 24 23 18 27 26 20 29 28 22 31 30 24 33 32 24 33 32 24 33 32 24 33 32 24 33 32 24 33 32 24 33 32 24 33 32 30 36 34 30 36 34 30 36 34 30 36 34 30 36 34 30 36 34 30 36 34 30 36 34 29 35 33 29 35 33 29 35 33 29 35 33 29 35 33 29 35 33 29 35 33 30 34 33 34 30 29 35 29 29 35 29 29 35 29 29 35 29 29 35 29 29 35 29 29 35 29 29 36 30 30 36 30 30 36 30 30 36 30 30 36 30 30 36 30 30 36 30 30 36 31 28 38 33 30 38 33 29 38 33 29 38 33 29 38 33 29 38 33 29 38 33 29 38 33 29 38 33 29 38 33 29 38 33 29 38 33 29 38 33 29 38 33 29 38 33 29 38 33 29
3 2 10 3 2 10 3 2 10 3 2 10 2 1 9 2 1 9 2 1 9 2 1 9 2 1 9 2 1 9 2 1 9 2 1 9 4 2 13 4 2 13 4 2 13 4 2 13 4 2 13 4 2 13 4 2 13 4 2 13 5 3 14 5 3 14 5 3 14 5 3 14 5 3 14 5 3 14 5 3 14 4 4 14 6 6 16 4 7 16 4 7 16 4 7 16 4 7 16 4 7 16 4 7 16 4 7 16 3 6 15 3 6 15 3 6 15 3 6 15 3 6 15 3 6 15 3 6 15 3 6 15 6 11 17 6 11 17 6 11 17 6 11 17 6 11 17 6 11 17 6 11 17 6 11 17 10 15 21 10 15 21 10 15 21 10 15 21 10 15 21 10 15 21 10 15 21 8 15 21 1 9 12 1 11 13 2 12 14 5 15 17 7 17 19 9 19 21 11 21 23 12 22 24 53 63 65 58 68 70 66 76 78 76 86 88 87 97 99 98 108 110 106 116 118 110 120 122 129 134 137 129 134 137 129 134 137 129 134 137 129 134 137 129 134 137 129 134 137 129 134 137 138 143 146 141 146 149 143 148 151 141 146 149 134 139 142 121 126 129 107 112 115 99 104 107 65 73 76 62 70 73 57 65 68 51 59 62 44 52 55 37 45 48 33 41 44 30 38 41 9 17 20 9 17 20 9 17 20 9 17 20 9 17 20 9 17 20 9 17 20 9 17 19 4 12 14 6 15 14 8 17 16 11 20 19 15 24 23 18 27 26 20 29 28 22 31 30 24 33 32 24 33 32 24 33 32 24 33 32 24 33 32 24 33 32 24 33 32 24 33 32 30 36 34 30 36 34 30 36 34 30 36 34 30 36 34 30 36 34 30 36 34 30 36 34 29 35 33 29 35 33 29 35 33 29 35 33 29 35 33 29 35 33 29 35 33 30 34 33 34 30 29 35 29 29 35 29 29 35 29 29 35 29 29 35 29 29 35 29 29 35 29 29 36 30 30 36 30 30 36 30 30 36 30 30 36 30 30 36 30 30 36 30 30 36 31 28 38 33 30 38 33 29 38 33 29 38 33 29 38 33 29 38 33 29 38 33 29 38 33 29 38 33 29 38 33 29 38 33 29 38 33 29 38 33 29 38 33 29 38 33 29 38 33 29
3 2 10 3 2 10 3 2 10 3 2 10 2 1 9 2 1 9 2 1 9 2 1 9 2 1 9 2 1 9 2 1 9 2 1 9 4 2 13 4 2 13 4 2 13 4 2 13 4 2 13 4 2 13 4 2 13 4 2 13 5 3 14 5 3 14 5 3 14 5 3 14 5 3 14 5 3 14 5 3 14 4 4 14 6 6 16 4 7 16 4 7 16 4 7 16 4 7 16 4 7 16 4 7 16 4 7 16 3 6 15 3 6 15 3 6 15 3 6 15 3 6 15 3 6 15 3 6 15 3 6 15 6 11 17 6 11 17 6 11 17 6 11 17 6 11 17 6 11 17 6 11 17 6 11 17 10 15 21 10 15 21 10 15 21 10 15 21 10 15 21 10 15 21 10 15 21 8 15 21 3 11 14 3 13 15 7 17 19 11 21 23 15 25 27 19 29 31 22 32 34 24 34 36 72 82 84 76 86 88 82 92 94 91 101 103 100 110 112 109 119 121 116 126 128 119 129 131 129 134 137 129 134 137 129 134 137 129 134 137 129 134 137 129 134 137 129 134 137 129 134 137 137 142 145 140 145 148 144 149 152 144 149 152 138 143 146 127 132 135 115 120 123 107 112 115 68 76 79 65 73 76 61 69 72 54 62 65 47 55 58 41 49 52 36 44 47 33 41 44 9 17 20 9 17 20 9 17 20 9 17 20 9 17 20 9 17 20 9 17 20 9 17 19 4 12 14 6 15 14 8 17 16 11 20 19 15 24 23 18 27 26 20 29 28 22 31 30 24 33 32 24 33 32 24 33 32 24 33 32 24 33 32 24 33 32 24 33 32 24 33 32 30 36 34 30 36 34 30 36 34 30 36 34 30 36 34 30 36 34 30 36 34 30 36 34 29 35 33 29 35 33 29 35 33 29 35 33 29 35 33 29 35 33 29 35 33 30 34 33 34 30 29 35 29 29 35 29 29 35 29 29 35 29 29 35 29 29 35 29 29 35 29 29 36 30 30 36 30 30 36 30 30 36 30 30 36 30 30 36 30 30 36 30 30 36 31 28 38 33 30 38 33 29 38 33 29 38 33 29 38 33 29 38 33 29 38 33 29 38 33 29 38 33 29 38 33 29 38 33 29 38 33 29 38 33 29 38 33 29 38 33 29 38 33 29
3 2 10 3 2 10 3 2 10 3 2 10 2 1 9 2 1 9 2 1 9 2 1 9 2 1 9 2 1 9 2 1 9 2 1 9 4 2 13 4 2 13 4 2 13 4 2 13 4 2 13 4 2 13 4 2 13 4 2 13 5 3 14 5 3 14 5 3 14 5 3 14 5 3 14 5 3 14 5 3 14 4 4 14 6 6 16 4 7 16 4 7 16 4 7 16 4 7 16 4 7 16 4 7 16 4 7 16 3 6 15 3 6 15 3 6 15 3 6 15 3 6 15 3 6 15 3 6 15 3 6 15 6 11 17 6 11 17 6 11 17 6 11 17 6 11 17 6 11 17 6 11 17 6 11 17 10 15 21 10 15 21 10 15 21 10 15 21 10 15 21 10 15 21 10 15 21 8 15 21 10 18 21 12 22 24 16 26 28 22 32 34 28 38 40 34 44 46 38 48 50 40 50 52 83 93 95 86 96 98 92 102 104 99 109 111 106 116 118 114 124 126 119 129 131 122 132 134 129 134 137 129 134 137 129 134 137 129 134 137 129 134 137 129 134 137 129 134 137 129 134 137 130 135 138 134 139 142 139 144 147 141 146 149 136 141 144 127 132 135 116 121 124 109 114 117 71 79 82 69 77 80 64 72 75 57 65 68 50 58 61 44 52 55 39 47 50 37 45 48 9 17 20 9 17 20 9 17 20 9 17 20 9 17 20 9 17 20 9 17 20 9 17 19 4 12 14 6 15 14 8 17 16 11 20 19 15 24 23 18 27 26 20 29 28 22 31 30 24 33 32 24 33 32 24 33 32 24 33 32 24 33 32 24 33 32 24 33 32 24 33 32 30 36 34 30 36 34 30 36 34 30 36 34 30 36 34 30 36 34 30 36 34 30 36 34 29 35 33 29 35 33 29 35 33 29 35 33 29 35 33 29 35 33 29 35 33 30 34 33 34 30 29 35 29 29 35 29 29 35 29 29 35 29 29 35 29 29 35 29 29 35 29 29 36 30 30 36 30 30 36 30 30 36 30 30 36 30 30 36 30 30 36 30 30 36 31 28 38 33 30 38 33 29 38 33 29 38 33 29 38 33 29 38 33 29 38 33 29 38 33 29 38 33 29 38 33 29 38 33 29 38 33 29 38 33 29 38 33 29 38 33 29 38 33 29
3 2 10 3 2 10 3 2 10 3 2 10 2 1 9 2 1 9 2 1 9 2 1 9 2 1 9 2 1 9 2 1 9 2 1 9 4 2 13 4 2 13 4 2 13 4 2 13 4 2 13 4 2 13 4 2 13 4 2 13 5 3 14 5 3 14 5 3 14 5 3 14 5 3 14 5 3 14 5 3 14 4 4 14 6 6 16 4 7 16 4 7 16 4 7 16 4 7 16 4 7 16 4 7 16 4 7 16 3 6 15 3 6 15 3 6 15 3 6 15 3 6 15 3 6 15 3 6 15 3 6 15 6 11 17 6 11 17 6 11 17 6 11 17 6 11 17 6 11 17 6 11 17 6 11 17 10 15 21 10 15 21 10 15 21 10 15 21 10 15 21 10 15 21 10 15 21 8 15 21 20 28 31 22 32 34 27 37 39 34 44 46 41 51 53 48 58 60 54 64 66 57 67 69 89 99 101 91 101 103 95 105 107 101 111 113 108 118 120 113 123 125 118 128 130 120 130 132 129 134 137 129 134 137 129 134 137 129 134 137 129 134 137 129 134 137 129 134 137 129 134 137 121 126 129 125 130 133 131 136 139 134 139 142 132 137 140 123 128 131 113 118 121 107 112 115 74 82 85 71 79 82 66 74 77 60 68 71 53 61 64 47 55 58 42 50 53 39 47 50 9 17 20 9 17 20 9 17 20 9 17 20 9 17 20 9 17 20 9 17 20 9 17 19 4 12 14 6 15 14 8 17 16 11 20 19 15 24 23 18 27 26 20 29 28 22 31 30 24 33 32 24 33 32 24 33 32 24 33 32 24 33 32 24 33 32 24 33 32 24 33 32 30 36 34 30 36 34 30 36 34 30 36 34 30 36 34 30 36 34 30 36 34 30 36 34 29 35 33 29 35 33 29 35 33 29 35 33 29 35 33 29 35 33 29 35 33 30 34 33 34 30 29 35 29 29 35 29 29 35 29 29 35 29 29 35 29 29 35 29 29 35 29 29 36 30 30 36 30 30 36 30 30 36 30 30 36 30 30 36 30 30 36 30 30 36 31 28 38 33 30 38 33 29 38 33 29 38 33 29 38 33 29 38 33 29 38 33 29 38 33 29 38 33 29 38 33 29 38 33 29 38 33 29 38 33 29 38 33 29 38 33 29 38 33 29
3 2 8 3 2 8 3 2 8 3 2 8 2 1 7 2 1 7 2 1 7 2 1 7 2 1 7 2 1 7 2 1 7 2 1 9 4 3 11 4 3 11 4 2 13 4 3 11 4 2 13 4 3 11 4 2 13 4 3 11 5 3 14 5 4 12 5 3 14 5 4 12 5 3 14 5 4 12 5 3 14 4 4 14 4 7 16 4 7 16 4 7 16 4 7 16 4 7 16 4 7 16 4 7 16 4 7 16 3 6 15 3 6 15 3 6 15 3 6 15 3 6 15 3 6 15 3 6 15 2 7 13 6 11 17 6 11 17 6 11 17 6 11 17 6 11 17 6 11 17 6 11 17 6 11 17 10 15 21 10 15 21 10 15 21 10 15 21 10 15 21 10 15 21 10 15 21 8 16 19 26 34 37 28 38 40 35 43 46 42 52 54 51 59 62 58 68 70 64 72 75 67 77 79 91 99 102 92 102 104 97 105 108 101 111 113 108 116 119 112 122 124 117 125 128 119 127 129 129 134 137 129 134 137 129 134 137 129 134 137 129 134 137 129 134 137 129 134 137 129 134 137 115 120 123 120 125 128 126 131 134 130 135 138 128 133 136 120 125 128 111 116 119 104 109 112 75 83 86 72 80 83 67 75 78 61 69 72 54 62 65 48 56 59 43 51 54 40 48 51 9 17 20 9 17 20 9 17 20 9 17 20 9 17 20 9 17 20 9 17 20 9 17 20 4 12 14 6 15 14 8 16 18 11 20 19 15 23 25 18 27 26 20 28 30 22 31 30 24 32 34 24 33 32 24 32 34 24 33 32 24 32 34 24 33 32 24 32 34 24 33 32 30 36 36 30 36 34 30 36 34 30 36 34 30 36 34 30 36 34 30 36 34 30 36 34 29 35 33 29 35 33 29 35 33 29 35 33 29 35 33 29 35 33 29 35 33 30 34 33 34 30 29 35 30 27 35 29 29 35 30 27 35 29 29 35 30 27 35 29 29 35 30 27 36 30 30 36 31 28 36 30 30 36 31 28 36 30 30 36 31 28 36 30 30 36 31 28 38 33 29 38 33 29 38 33 29 38 33 29 38 33 29 38 33 29 38 33 29 38 33 29 38 33 29 38 33 29 38 33 29 38 33 29 38 33 29 38 33 29 38 33 29 38 33 29
1 0 5 1 0 5 1 0 5 1 0 5 1 0 5 1 0 5 1 0 5 1 0 5 1 0 5 1 0 5 1 0 5 1 0 5 2 1 7 2 1 7 2 1 9 2 1 7 2 1 9 2 1 7 2 1 9 2 1 7 3 2 10 3 2 8 3 2 10 3 2 8 3 2 10 3 2 8 3 2 10 2 2 10 2 5 12 1 6 12 1 6 12 1 6 12 1 6 12 1 6 12 1 6 12 1 6 12 3 8 14 3 8 14 3 8 14 3 8 14 3 8 14 3 8 14 3 8 14 3 8 14 17 22 28 14 22 25 13 21 24 12 20 23 11 19 22 9 17 20 8 16 19 8 16 19 11 19 22 13 21 24 15 23 26 18 26 29 22 30 33 25 33 36 27 35 38 29 37 40 62 70 73 63 71 73 67 72 75 69 77 79 74 79 82 75 83 85 80 85 88 79 87 89 105 110 113 105 113 115 109 114 117 110 118 120 116 121 124 117 125 127 121 126 129 123 128 131 137 142 145 138 142 143 138 142 143 138 142 143 138 142 143 138 142 143 138 142 143 138 142 143 124 128 129 122 126 127 120 124 125 117 121 122 113 117 118 110 114 115 108 112 113 105 110 113 79 87 90 75 83 86 68 76 79 58 66 69 48 56 59 38 46 49 31 39 42 27 35 38 11 19 22 11 19 22 11 19 22 11 19 22 11 19 22 11 19 22 11 19 22 11 19 22 14 24 26 14 24 25 14 24 26 14 24 25 14 24 26 14 24 25 14 24 26 14 24 25 25 35 37 25 35 36 25 35 37 25 35 36 25 35 37 25 35 36 25 35 37 26 34 36 30 36 36 30 36 36 30 36 36 30 36 36 30 36 36 30 36 36 30 36 36 30 36 36 20 26 26 20 26 26 20 26 26 20 26 26 20 26 26 20 26 26 20 26 26 21 25 24 33 29 26 34 29 25 34 29 26 34 29 25 34 29 26 34 29 25 34 29 26 34 29 25 37 32 29 37 32 28 37 32 29 37 32 28 37 32 29 37 32 28 37 32 29 37 32 28 39 31 28 39 31 28 39 31 28 39 31 28 39 31 28 39 31 28 39 31 28 39 31 28 39 31 28 39 31 28 39 31 28 39 31 28 39 31 28 39 31 28 39 31 28 39 31 28
1 1 3 1 1 3 1 1 3 1 1 3 1 1 3 1 1 3 1 1 3 1 1 3 1 1 3 1 1 3 1 1 3 1 1 3 2 1 7 2 1 7 2 1 7 2 1 7 2 1 7 2 1 7 2 1 7 2 1 7 3 2 8 3 2 8 3 2 8 3 2 8 3 2 8 3 2 8 3 2 8 2 3 8 2 5 12 1 6 12 1 6 12 1 6 12 1 6 12 1 6 12 1 6 12 1 6 12 3 8 14 3 8 14 3 8 14 3 8 14 3 8 14 3 8 14 3 8 14 3 8 14 10 18 21 10 18 21 9 17 20 9 17 20 8 16 19 7 15 18 7 15 18 7 15 18 15 23 26 17 25 28 19 27 30 22 30 33 26 34 37 29 37 40 31 39 42 33 41 44 65 70 73 66 71 74 69 74 77 72 77 80 75 80 83 79 84 87 81 86 89 82 87 90 105 110 113 107 112 115 109 114 117 112 117 120 116 121 124 119 124 127 121 126 129 123 128 131 136 140 141 136 140 141 136 140 141 136 140 141 136 140 141 136 140 141 136 140 141 136 140 141 124 128 129 122 126 127 120 124 125 117 121 122 113 117 118 110 114 115 108 112 113 105 111 111 81 86 90 75 83 86 68 76 79 58 66 69 48 56 59 38 46 49 31 39 42 27 35 38 11 19 22 11 19 22 11 19 22 11 19 22 11 19 22 11 19 22 11 19 22 11 19 22 14 24 26 14 24 26 14 24 26 14 24 26 14 24 26 14 24 26 14 24 26 14 24 26 23 33 35 23 33 35 23 33 35 23 33 35 23 33 35 23 33 35 23 33 35 23 33 34 28 33 36 28 34 34 28 34 34 28 34 34 28 34 34 28 34 34 28 34 34 28 34 34 20 26 26 20 26 26 20 26 26 20 26 26 20 26 26 20 26 26 20 26 26 21 25 24 33 29 26 34 29 25 34 29 25 34 29 25 34 29 25 34 29 25 34 29 25 34 29 25 37 32 28 37 32 28 37 32 28 37 32 28 37 32 28 37 32 28 37 32 28 37 32 28 39 31 28 39 31 28 39 31 28 39 31 28 39 31 28 39 31 28 39 31 28 39 31 28 39 31 28 39 31 28 39 31 28 39 31 28 39 31 28 39 31 28 39 31 28 39 31 28
1 1 3 1 1 3 1 1 3 1 1 3 1 1 3 1 1 3 1 1 3 1 1 3 1 1 3 1 1 3 1 1 3 1 1 3 2 1 7 2 1 7 2 1 7 2 1 7 2 1 7 2 1 7 2 1 7 2 1 7 3 2 8 3 2 8 3 2 8 3 2 8 3 2 8 3 2 8 3 2 8 2 3 8 2 5 12 1 6 12 1 6 12 1 6 12 1 6 12 1 6 12 1 6 12 1 6 12 3 8 14 3 8 14 3 8 14 3 8 14 3 8 14 3 8 14 3 8 14 3 8 14 3 11 14 4 12 15 4 12 15 5 13 16 6 14 17 6 14 17 7 15 18 7 15 18 23 31 34 24 32 35 26 34 37 30 38 41 33 41 44 36 44 47 39 47 50 40 48 51 67 72 75 69 74 77 71 76 79 74 79 82 78 83 86 81 86 89 83 88 91 85 90 93 105 110 113 107 112 115 109 114 117 112 117 120 116 121 124 119 124 127 121 126 129 123 128 131 134 138 139 134 138 139 134 138 139 134 138 139 134 138 139 134 138 139 134 138 139 134 138 139 124 128 129 122 126 127 120 124 125 117 121 122 113 117 118 110 114 115 108 112 113 105 111 111 81 86 90 75 83 86 68 76 79 58 66 69 48 56 59 38 46 49 31 39 42 27 35 38 11 19 22 11 19 22 11 19 22 11 19 22 11 19 22 11 19 22 11 19 22 11 19 22 14 24 26 14 24 26 14 24 26 14 24 26 14 24 26 14 24 26 14 24 26 14 24 26 21 31 33 21 31 33 21 31 33 21 31 33 21 31 33 21 31 33 21 31 33 21 31 32 26 31 34 26 32 32 26 32 32 26 32 32 26 32 32 26 32 32 26 32 32 26 32 32 20 26 26 20 26 26 20 26 26 20 26 26 20 26 26 20 26 26 20 26 26 21 25 24 33 29 26 34 29 25 34 29 25 34 29 25 34 29 25 34 29 25 34 29 25 34 29 25 37 32 28 37 32 28 37 32 28 37 32 28 37 32 28 37 32 28 37 32 28 37 32 28 39 31 28 39 31 28 39 31 28 39 31 28 39 31 28 39 31 28 39 31 28 39 31 28 39 31 28 39 31 28 39 31 28 39 31 28 39 31 28 39 31 28 39 31 28 39 31 28
