P3
172 37
255
133 124 129 133 124 129 133 124 129 133 124 129 138 129 134 138 129 134 138 129 134 137 128 133 136 127 132 136 127 132 135 126 131 133 126 134 131 122 141 131 121 145 131 121 146 131 121 145 131 121 146 131 121 145 131 121 146 131 121 145 129 119 144 129 119 143 129 119 144 129 119 143 129 119 144 129 119 143 129 119 144 128 120 143 136 128 151 131 126 146 128 120 143 119 114 134 113 105 128 104 99 119 101 93 116 96 91 111 85 77 100 82 77 97 82 74 97 76 71 91 75 67 90 70 65 85 69 61 84 66 61 81 47 44 63 45 44 60 43 40 59 39 38 54 37 34 53 32 31 47 31 28 47 29 28 44 8 5 24 7 6 22 8 5 24 7 6 22 8 5 24 7 6 22 8 5 24 4 7 24 0 8 21 0 10 21 0 9 23 0 10 21 0 9 23 0 10 21 0 9 23 0 10 21 0 9 23 0 10 21 0 9 23 0 10 21 0 9 23 0 10 21 0 9 23 0 10 17 0 20 17 0 20 14 0 20 14 0 20 14 0 20 14 0 20 14 0 20 14 0 20 14 0 20 14 0 20 14 0 20 14 0 20 14 0 20 14 0 20 14 0 20 14 0 19 14 0 15 10 3 14 10 3 14 10 3 14 10 3 14 10 3 14 10 3 14 10 3 14 10 0 6 2 0 6 2 0 6 2 0 6 2 0 6 2 0 6 2 0 6 2 0 6 2 0 10 6 0 10 6 0 10 6 0 10 6 0 10 6 0 10 6 0 10 6 0 10 6 10 22 18 10 22 18 10 22 18 10 22 18 10 22 18 10 22 18 10 22 18 10 22 18 22 31 26 24 33 28 29 38 33 36 45 40 42 51 46 49 58 53 54 63 58 56 65 60 73 82 77 76 85 80 81 90 85 87 96 91 94 103 98 100 109 104 105 114 109 106 119 112 96 113 105 82 103 94 65 86 77 46 67 58 32 53 44 25 46 37 24 45 36 24 45 36 27 48 39 27 48 39 27 48 39 27 48 39 27 48 39 27 48 39 27 48 39 27 48 39 24 45 36 24 45 36 24 45 36 24 45 36 24 45 36 24 45 36 24 45 36 24 45 36 28 49 40 28 49 40 28 49 40 28 49 40 28 49 40 28 49 40 28 49 40 28 49 40
134 129 136 134 129 135 134 129 136 134 129 135 134 129 136 134 129 135 133 128 135 131 126 132 130 125 132 129 124 130 128 123 130 127 121 131 130 123 141 130 122 145 130 122 145 130 122 145 130 122 145 130 122 145 130 122 145 130 122 145 128 120 143 128 120 143 128 120 143 128 120 143 128 120 143 128 120 143 128 120 143 125 122 143 132 133 151 126 132 148 120 126 142 112 118 134 104 110 126 96 102 118 90 96 112 87 93 109 75 81 97 74 80 96 71 77 93 68 74 90 65 71 87 61 67 83 59 65 81 57 64 80 36 46 58 33 45 57 31 43 55 27 39 51 24 36 48 21 33 45 18 30 42 17 29 41 0 6 18 0 6 18 0 6 18 0 6 18 0 6 18 0 6 18 0 6 18 0 7 18 0 8 17 0 10 17 0 9 19 0 10 17 0 9 19 0 10 17 0 9 19 0 10 17 0 9 19 0 10 17 0 9 19 0 10 17 0 9 19 0 10 17 0 9 19 0 10 15 0 20 17 0 21 16 0 20 16 0 21 16 0 20 16 0 21 16 0 20 16 0 21 16 0 20 16 0 21 16 0 20 16 0 21 16 0 20 16 0 21 16 0 20 16 0 20 14 2 14 12 3 13 12 4 13 12 3 13 12 4 13 12 3 13 12 4 13 12 3 13 12 0 5 4 0 5 4 0 5 4 0 5 4 0 5 4 0 5 4 0 5 4 0 5 4 0 9 8 0 9 8 0 9 8 0 9 8 0 9 8 0 9 8 0 9 8 0 9 8 11 21 20 11 21 20 11 21 20 11 21 20 11 21 20 11 21 20 11 21 20 11 22 18 22 31 28 24 33 28 29 38 33 36 45 40 42 51 46 49 58 53 54 63 58 56 65 60 72 81 76 75 84 79 80 89 84 86 95 90 93 102 97 99 108 103 104 113 108 106 117 111 96 113 105 82 103 94 65 86 77 46 67 58 32 53 44 25 46 37 24 45 36 24 45 36 27 48 39 27 48 39 27 48 39 27 48 39 27 48 39 27 48 39 27 48 39 27 48 39 24 45 36 24 45 36 25 45 36 24 45 36 25 45 36 24 45 36 25 45 36 24 45 36 29 49 40 28 49 40 29 49 40 28 49 40 29 49 40 28 49 40 29 49 40 28 49 40
144 131 148 144 132 146 144 131 148 144 132 146 136 123 140 136 124 138 136 123 140 136 124 138 136 123 140 136 124 138 136 123 140 136 123 140 128 115 133 128 115 135 128 115 135 128 115 135 128 115 135 128 115 135 128 115 135 128 115 135 124 111 131 124 111 131 124 111 131 124 111 131 124 111 131 124 111 131 124 111 131 123 111 131 118 111 127 113 109 124 108 104 119 102 98 113 95 91 106 89 85 100 84 80 95 81 77 92 91 87 102 87 83 98 79 75 90 68 64 79 56 52 67 45 41 56 37 33 48 31 30 44 9 13 25 7 13 25 7 13 25 7 13 25 7 13 25 7 13 25 7 13 25 7 13 25 3 9 21 3 9 21 3 9 21 3 9 21 3 9 21 3 9 21 3 9 21 2 11 20 1 11 20 1 12 18 1 11 20 1 12 18 1 11 20 1 12 18 1 11 20 1 12 18 4 14 23 4 15 21 4 14 23 4 15 21 4 14 23 4 15 21 4 14 23 2 15 21 3 17 20 2 18 18 3 17 18 2 18 18 3 17 18 2 18 18 3 17 18 2 18 18 3 17 18 2 18 18 3 17 18 2 18 18 3 17 18 2 18 18 3 17 18 3 17 18 7 15 18 7 15 17 9 14 17 7 15 17 9 14 17 7 15 17 9 14 17 7 15 17 17 22 25 13 21 23 13 18 21 8 16 18 6 11 14 1 9 11 1 6 9 0 5 7 0 6 8 0 6 8 0 6 8 0 6 8 0 6 8 0 6 8 0 6 8 0 6 8 5 13 15 7 15 17 9 17 19 12 20 22 16 24 26 19 27 29 21 29 31 23 31 33 32 38 36 34 40 38 39 45 43 46 52 50 52 58 56 59 65 63 64 70 68 66 72 70 81 87 85 82 88 86 85 91 89 88 94 92 91 97 95 95 101 99 97 103 101 98 104 100 91 97 93 81 88 81 66 73 66 51 58 51 40 47 40 36 43 36 37 44 37 39 46 39 36 43 36 36 43 36 36 43 36 36 43 36 36 43 36 36 43 36 36 43 36 36 42 38 33 39 35 33 39 37 34 38 37 33 39 37 34 38 37 33 39 37 34 38 37 33 39 37 35 39 38 34 40 38 35 39 38 34 40 38 35 39 38 34 40 38 35 39 38 34 40 38
143 128 147 143 128 147 143 128 147 143 128 147 135 120 139 135 120 139 135 120 139 135 120 139 135 120 139 135 120 139 135 120 139 135 120 139 129 112 131 129 112 131 129 112 131 129 112 131 129 112 131 129 112 131 129 112 131 129 112 131 125 108 127 125 108 127 125 108 127 125 108 127 125 108 127 125 108 127 125 108 127 123 108 127 118 107 123 113 105 120 109 101 116 102 94 109 95 87 102 89 81 96 84 76 91 81 73 88 89 81 96 84 76 91 77 69 84 67 59 74 56 48 63 45 37 52 38 30 45 31 27 41 12 12 24 9 13 24 9 13 24 9 13 24 9 13 24 9 13 24 9 13 24 9 13 24 5 9 20 5 9 20 5 9 20 5 9 20 5 9 20 5 9 20 5 9 20 5 9 18 5 9 18 5 10 16 5 10 16 5 10 16 5 10 16 5 10 16 5 10 16 5 10 16 8 13 19 8 13 19 8 13 19 8 13 19 8 13 19 8 13 19 8 13 19 6 13 19 7 14 20 6 15 20 6 15 20 6 15 20 6 15 20 6 15 20 6 15 20 6 15 20 6 15 20 6 15 20 6 15 20 6 15 20 6 15 20 6 15 20 6 15 20 6 15 20 9 14 18 9 14 18 9 14 18 9 14 18 9 14 18 9 14 18 9 14 18 9 14 18 17 22 26 15 20 24 13 18 22 10 15 19 6 11 15 3 8 12 1 6 10 0 4 8 0 5 9 0 5 9 0 5 9 0 5 9 0 5 9 0 5 9 0 5 9 0 5 9 7 12 16 9 14 18 11 16 20 14 19 23 18 23 27 21 26 30 23 28 32 25 30 33 32 38 38 34 40 38 39 45 43 46 52 50 52 58 56 59 65 63 64 70 68 66 72 70 80 86 84 81 87 85 83 89 87 87 93 91 90 96 94 93 99 97 96 102 100 98 103 99 94 96 93 85 86 81 70 71 66 55 56 51 44 45 40 40 41 36 41 42 37 43 44 39 40 41 36 40 41 36 40 41 36 40 41 36 40 41 36 40 41 36 40 41 36 40 41 36 38 36 37 38 36 37 38 36 37 38 36 37 38 36 37 38 36 37 38 36 37 38 36 37 39 37 38 39 37 38 39 37 38 39 37 38 39 37 38 39 37 38 39 37 38 39 37 38
141 126 145 141 126 145 141 126 145 141 126 145 133 118 137 133 118 137 133 118 137 133 118 137 133 118 137 133 118 137 133 118 137 133 118 137 127 110 129 127 110 129 127 110 129 127 110 129 127 110 129 127 110 129 127 110 129 127 110 129 123 106 125 123 106 125 123 106 125 123 106 125 123 106 125 123 106 125 123 106 125 121 106 125 113 102 118 109 101 116 104 96 111 97 89 104 90 82 97 84 76 91 79 71 86 76 68 83 78 70 85 74 66 81 67 59 74 59 51 66 49 41 56 40 32 47 33 25 40 27 23 37 12 12 24 9 13 24 9 13 24 9 13 24 9 13 24 9 13 24 9 13 24 9 13 24 5 9 20 5 9 20 5 9 20 5 9 20 5 9 20 5 9 20 5 9 20 5 9 18 5 9 18 5 10 16 5 10 16 5 10 16 5 10 16 5 10 16 5 10 16 5 10 16 8 13 19 8 13 19 8 13 19 8 13 19 8 13 19 8 13 19 8 13 19 6 13 19 7 14 20 6 15 20 6 15 20 6 15 20 6 15 20 6 15 20 6 15 20 6 15 20 6 15 20 6 15 20 6 15 20 6 15 20 6 15 20 6 15 20 6 15 20 6 15 20 9 14 18 9 14 18 9 14 18 9 14 18 9 14 18 9 14 18 9 14 18 9 14 18 17 22 26 15 20 24 13 18 22 10 15 19 6 11 15 3 8 12 1 6 10 0 4 8 0 5 9 0 5 9 0 5 9 0 5 9 0 5 9 0 5 9 0 5 9 0 5 9 7 12 16 9 14 18 11 16 20 14 19 23 18 23 27 21 26 30 23 28 32 25 30 33 32 38 38 34 40 38 39 45 43 46 52 50 52 58 56 59 65 63 64 70 68 66 72 70 77 83 81 79 85 83 81 87 85 84 90 88 88 94 92 91 97 95 93 99 97 96 101 97 94 96 93 85 86 81 70 71 66 55 56 51 44 45 40 40 41 36 41 42 37 43 44 39 40 41 36 40 41 36 40 41 36 40 41 36 40 41 36 40 41 36 40 41 36 40 41 36 38 36 37 38 36 37 38 36 37 38 36 37 38 36 37 38 36 37 38 36 37 38 36 37 39 37 38 39 37 38 39 37 38 39 37 38 39 37 38 39 37 38 39 37 38 39 37 38
138 123 142 138 123 142 138 123 142 138 123 142 130 115 134 130 115 134 130 115 134 130 115 134 130 115 134 130 115 134 130 115 134 130 115 134 124 107 126 124 107 126 124 107 126 124 107 126 124 107 126 124 107 126 124 107 126 124 107 126 120 103 122 120 103 122 120 103 122 120 103 122 120 103 122 120 103 122 120 103 122 118 103 122 107 96 112 102 94 109 97 89 104 91 83 98 84 76 91 78 70 85 73 65 80 70 62 77 64 56 71 61 53 68 55 47 62 48 40 55 40 32 47 33 25 40 27 19 34 21 17 31 12 12 24 9 13 24 9 13 24 9 13 24 9 13 24 9 13 24 9 13 24 9 13 24 5 9 20 5 9 20 5 9 20 5 9 20 5 9 20 5 9 20 5 9 20 5 9 18 5 9 18 5 10 16 5 10 16 5 10 16 5 10 16 5 10 16 5 10 16 5 10 16 8 13 19 8 13 19 8 13 19 8 13 19 8 13 19 8 13 19 8 13 19 6 13 19 7 14 20 6 15 20 6 15 20 6 15 20 6 15 20 6 15 20 6 15 20 6 15 20 6 15 20 6 15 20 6 15 20 6 15 20 6 15 20 6 15 20 6 15 20 6 15 20 9 14 18 9 14 18 9 14 18 9 14 18 9 14 18 9 14 18 9 14 18 9 14 18 17 22 26 15 20 24 13 18 22 10 15 19 6 11 15 3 8 12 1 6 10 0 4 8 0 5 9 0 5 9 0 5 9 0 5 9 0 5 9 0 5 9 0 5 9 0 5 9 7 12 16 9 14 18 11 16 20 14 19 23 18 23 27 21 26 30 23 28 32 25 30 33 32 38 38 34 40 38 39 45 43 46 52 50 52 58 56 59 65 63 64 70 68 66 72 70 74 80 78 75 81 79 78 84 82 81 87 85 84 90 88 88 94 92 90 96 94 92 97 93 94 96 93 85 86 81 70 71 66 55 56 51 44 45 40 40 41 36 41 42 37 43 44 39 40 41 36 40 41 36 40 41 36 40 41 36 40 41 36 40 41 36 40 41 36 40 41 36 38 36 37 38 36 37 38 36 37 38 36 37 38 36 37 38 36 37 38 36 37 38 36 37 39 37 38 39 37 38 39 37 38 39 37 38 39 37 38 39 37 38 39 37 38 39 37 38
134 119 138 134 119 138 134 119 138 134 119 138 126 111 130 126 111 130 126 111 130 126 111 130 126 111 130 126 111 130 126 111 130 126 111 130 120 103 122 120 103 122 120 103 122 120 103 122 120 103 122 120 103 122 120 103 122 120 103 122 116 99 118 116 99 118 116 99 118 116 99 118 116 99 118 116 99 118 116 99 118 114 99 118 100 89 105 95 87 102 90 82 97 84 76 91 77 69 84 71 63 78 66 58 73 63 55 70 49 41 56 46 38 53 42 34 49 37 29 44 31 23 38 25 17 32 21 13 28 16 12 26 12 12 24 9 13 24 9 13 24 9 13 24 9 13 24 9 13 24 9 13 24 9 13 24 5 9 20 5 9 20 5 9 20 5 9 20 5 9 20 5 9 20 5 9 20 5 9 18 5 9 18 5 10 16 5 10 16 5 10 16 5 10 16 5 10 16 5 10 16 5 10 16 8 13 19 8 13 19 8 13 19 8 13 19 8 13 19 8 13 19 8 13 19 6 13 19 7 14 20 6 15 20 6 15 20 6 15 20 6 15 20 6 15 20 6 15 20 6 15 20 6 15 20 6 15 20 6 15 20 6 15 20 6 15 20 6 15 20 6 15 20 6 15 20 9 14 18 9 14 18 9 14 18 9 14 18 9 14 18 9 14 18 9 14 18 9 14 18 17 22 26 15 20 24 13 18 22 10 15 19 6 11 15 3 8 12 1 6 10 0 4 8 0 5 9 0 5 9 0 5 9 0 5 9 0 5 9 0 5 9 0 5 9 0 5 9 7 12 16 9 14 18 11 16 20 14 19 23 18 23 27 21 26 30 23 28 32 25 30 33 32 38 38 34 40 38 39 45 43 46 52 50 52 58 56 59 65 63 64 70 68 66 72 70 71 77 75 72 78 76 74 80 78 78 84 82 81 87 85 84 90 88 87 93 91 89 94 90 94 96 93 85 86 81 70 71 66 55 56 51 44 45 40 40 41 36 41 42 37 43 44 39 40 41 36 40 41 36 40 41 36 40 41 36 40 41 36 40 41 36 40 41 36 40 41 36 38 36 37 38 36 37 38 36 37 38 36 37 38 36 37 38 36 37 38 36 37 38 36 37 39 37 38 39 37 38 39 37 38 39 37 38 39 37 38 39 37 38 39 37 38 39 37 38
131 116 135 131 116 135 131 116 135 131 116 135 123 108 127 123 108 127 123 108 127 123 108 127 123 108 127 123 108 127 123 108 127 123 108 127 117 100 119 117 100 119 117 100 119 117 100 119 117 100 119 117 100 119 117 100 119 117 100 119 113 96 115 113 96 115 113 96 115 113 96 115 113 96 115 113 96 115 113 96 115 111 96 115 94 83 99 89 81 96 84 76 91 78 70 85 71 63 78 64 56 71 59 51 66 57 49 64 35 27 42 33 25 40 30 22 37 26 18 33 22 14 29 18 10 25 15 7 22 11 7 21 12 12 24 9 13 24 9 13 24 9 13 24 9 13 24 9 13 24 9 13 24 9 13 24 5 9 20 5 9 20 5 9 20 5 9 20 5 9 20 5 9 20 5 9 20 5 9 18 5 9 18 5 10 16 5 10 16 5 10 16 5 10 16 5 10 16 5 10 16 5 10 16 8 13 19 8 13 19 8 13 19 8 13 19 8 13 19 8 13 19 8 13 19 6 13 19 7 14 20 6 15 20 6 15 20 6 15 20 6 15 20 6 15 20 6 15 20 6 15 20 6 15 20 6 15 20 6 15 20 6 15 20 6 15 20 6 15 20 6 15 20 6 15 20 9 14 18 9 14 18 9 14 18 9 14 18 9 14 18 9 14 18 9 14 18 9 14 18 17 22 26 15 20 24 13 18 22 10 15 19 6 11 15 3 8 12 1 6 10 0 4 8 0 5 9 0 5 9 0 5 9 0 5 9 0 5 9 0 5 9 0 5 9 0 5 9 7 12 16 9 14 18 11 16 20 14 19 23 18 23 27 21 26 30 23 28 32 25 30 33 32 38 38 34 40 38 39 45 43 46 52 50 52 58 56 59 65 63 64 70 68 66 72 70 67 73 71 69 75 73 71 77 75 74 80 78 78 84 82 81 87 85 83 89 87 86 91 87 94 96 93 85 86 81 70 71 66 55 56 51 44 45 40 40 41 36 41 42 37 43 44 39 40 41 36 40 41 36 40 41 36 40 41 36 40 41 36 40 41 36 40 41 36 40 41 36 38 36 37 38 36 37 38 36 37 38 36 37 38 36 37 38 36 37 38 36 37 38 36 37 39 37 38 39 37 38 39 37 38 39 37 38 39 37 38 39 37 38 39 37 38 39 37 38
129 114 133 129 114 133 129 114 133 129 114 133 121 106 125 121 106 125 121 106 125 121 106 125 121 106 125 121 106 125 121 106 125 121 106 125 115 98 117 115 98 117 115 98 117 115 98 117 115 98 117 115 98 117 115 98 117 115 98 117 111 94 113 111 94 113 111 94 113 111 94 113 111 94 113 111 94 113 111 94 113 109 94 113 89 78 94 84 76 91 79 71 86 73 65 80 66 58 73 59 51 66 55 47 62 52 44 59 24 16 31 23 15 30 21 13 28 18 10 25 16 8 23 13 5 20 11 3 18 7 3 17 12 12 24 9 13 24 9 13 24 9 13 24 9 13 24 9 13 24 9 13 24 9 13 24 5 9 20 5 9 20 5 9 20 5 9 20 5 9 20 5 9 20 5 9 20 5 9 18 5 9 18 5 10 16 5 10 16 5 10 16 5 10 16 5 10 16 5 10 16 5 10 16 8 13 19 8 13 19 8 13 19 8 13 19 8 13 19 8 13 19 8 13 19 6 13 19 7 14 20 6 15 20 6 15 20 6 15 20 6 15 20 6 15 20 6 15 20 6 15 20 6 15 20 6 15 20 6 15 20 6 15 20 6 15 20 6 15 20 6 15 20 6 15 20 9 14 18 9 14 18 9 14 18 9 14 18 9 14 18 9 14 18 9 14 18 9 14 18 17 22 26 15 20 24 13 18 22 10 15 19 6 11 15 3 8 12 1 6 10 0 4 8 0 5 9 0 5 9 0 5 9 0 5 9 0 5 9 0 5 9 0 5 9 0 5 9 7 12 16 9 14 18 11 16 20 14 19 23 18 23 27 21 26 30 23 28 32 25 30 33 32 38 38 34 40 38 39 45 43 46 52 50 52 58 56 59 65 63 64 70 68 66 72 70 65 71 69 66 72 70 69 75 73 72 78 76 75 81 79 79 85 83 81 87 85 83 88 84 94 96 93 85 86 81 70 71 66 55 56 51 44 45 40 40 41 36 41 42 37 43 44 39 40 41 36 40 41 36 40 41 36 40 41 36 40 41 36 40 41 36 40 41 36 40 41 36 38 36 37 38 36 37 38 36 37 38 36 37 38 36 37 38 36 37 38 36 37 38 36 37 39 37 38 39 37 38 39 37 38 39 37 38 39 37 38 39 37 38 39 37 38 39 37 38
127 112 131 127 112 131 127 112 131 127 112 131 119 104 123 119 104 123 119 104 123 119 104 123 119 104 123 119 104 123 119 104 123 119 104 123 113 96 115 113 96 115 113 96 115 113 96 115 113 96 115 113 96 115 113 96 115 113 96 115 109 92 111 109 92 111 109 92 111 109 92 111 109 92 111 109 92 111 109 92 111 107 92 111 86 75 91 81 73 88 76 68 83 70 62 77 63 55 70 57 49 64 52 44 59 49 41 56 18 10 25 18 10 25 16 8 23 14 6 21 12 4 19 10 2 17 8 0 15 5 1 15 12 12 24 9 13 24 9 13 24 9 13 24 9 13 24 9 13 24 9 13 24 9 13 24 5 9 20 5 9 20 5 9 20 5 9 20 5 9 20 5 9 20 5 9 20 5 9 18 5 9 18 5 10 16 5 10 16 5 10 16 5 10 16 5 10 16 5 10 16 5 10 16 8 13 19 8 13 19 8 13 19 8 13 19 8 13 19 8 13 19 8 13 19 6 13 19 7 14 20 6 15 20 6 15 20 6 15 20 6 15 20 6 15 20 6 15 20 6 15 20 6 15 20 6 15 20 6 15 20 6 15 20 6 15 20 6 15 20 6 15 20 6 15 20 9 14 18 9 14 18 9 14 18 9 14 18 9 14 18 9 14 18 9 14 18 9 14 18 17 22 26 15 20 24 13 18 22 10 15 19 6 11 15 3 8 12 1 6 10 0 4 8 0 5 9 0 5 9 0 5 9 0 5 9 0 5 9 0 5 9 0 5 9 0 5 9 7 12 16 9 14 18 11 16 20 14 19 23 18 23 27 21 26 30 23 28 32 25 30 33 32 38 38 34 40 38 39 45 43 46 52 50 52 58 56 59 65 63 64 70 68 66 72 70 64 70 68 65 71 69 67 73 71 71 77 75 74 80 78 77 83 81 80 86 84 82 87 83 94 96 93 85 86 81 70 71 66 55 56 51 44 45 40 40 41 36 41 42 37 43 44 39 40 41 36 40 41 36 40 41 36 40 41 36 40 41 36 40 41 36 40 41 36 40 41 36 38 36 37 38 36 37 38 36 37 38 36 37 38 36 37 38 36 37 38 36 37 38 36 37 39 37 38 39 37 38 39 37 38 39 37 38 39 37 38 39 37 38 39 37 38 39 37 38
127 112 131 127 112 131 127 112 131 127 112 131 116 101 120 117 102 121 118 103 122 119 104 123 120 105 124 122 107 126 123 108 127 123 108 127 124 107 126 122 105 124 120 103 122 117 100 119 113 96 115 110 93 112 108 91 110 106 89 108 120 103 122 117 100 119 112 95 114 106 89 108 99 82 101 93 76 95 88 71 90 83 68 87 70 59 75 64 56 71 59 51 66 51 43 58 43 35 50 35 27 42 29 21 36 26 18 33 11 3 18 11 3 18 11 3 18 11 3 18 11 3 18 11 3 18 11 3 18 8 4 18 9 9 21 6 10 21 6 10 21 6 10 21 6 10 21 6 10 21 6 10 21 6 10 21 6 10 21 6 10 21 6 10 21 6 10 21 6 10 21 6 10 21 6 10 21 6 10 19 7 11 20 7 12 18 7 12 18 7 12 18 7 12 18 7 12 18 7 12 18 7 12 18 7 12 18 7 12 18 7 12 18 7 12 18 7 12 18 7 12 18 7 12 18 5 12 18 6 13 19 5 14 19 5 14 19 5 14 19 5 14 19 5 14 19 5 14 19 5 14 19 8 17 22 8 17 22 8 17 22 8 17 22 8 17 22 8 17 22 8 17 22 8 17 22 18 23 27 18 23 27 18 23 27 18 23 27 18 23 27 18 23 27 18 23 27 18 23 27 20 25 29 18 23 27 16 21 25 13 18 22 9 14 18 6 11 15 4 9 13 2 7 11 1 6 10 1 6 10 1 6 10 1 6 10 1 6 10 1 6 10 1 6 10 1 6 10 8 13 17 10 15 19 12 17 21 15 20 24 19 24 28 22 27 31 24 29 33 26 31 34 36 42 42 38 44 42 40 46 44 43 49 47 47 53 51 50 56 54 52 58 56 54 60 58 70 76 74 70 76 74 70 76 74 70 76 74 70 76 74 70 76 74 70 76 74 71 76 72 65 67 64 64 65 60 59 60 55 52 53 48 46 47 42 39 40 35 34 35 30 32 33 28 33 34 29 33 34 29 33 34 29 33 34 29 33 34 29 33 34 29 33 34 29 33 34 29 35 33 34 35 33 34 35 33 34 35 33 34 35 33 34 35 33 34 35 33 34 35 33 34 38 36 37 38 36 37 38 36 37 38 36 37 38 36 37 38 36 37 38 36 37 38 36 37
125 110 129 125 110 129 125 110 129 125 110 129 113 98 117 113 98 117 114 99 118 114 99 118 115 100 119 116 101 120 116 101 120 116 101 120 124 107 126 123 106 125 120 103 122 117 100 119 114 97 116 110 93 112 108 91 110 107 90 109 113 96 115 110 93 112 106 89 108 99 82 101 92 75 94 86 69 88 81 64 83 76 61 80 60 49 65 55 47 62 49 41 56 42 34 49 35 27 42 28 20 35 23 15 30 20 12 27 11 3 18 11 3 18 11 3 18 11 3 18 11 3 18 11 3 18 11 3 18 8 4 18 9 9 21 6 10 21 6 10 21 6 10 21 6 10 21 6 10 21 6 10 21 6 10 21 6 10 21 6 10 21 6 10 21 6 10 21 6 10 21 6 10 21 6 10 21 6 10 19 7 11 20 7 12 18 7 12 18 7 12 18 7 12 18 7 12 18 7 12 18 7 12 18 7 12 18 7 12 18 7 12 18 7 12 18 7 12 18 7 12 18 7 12 18 5 12 18 6 13 19 5 14 19 5 14 19 5 14 19 5 14 19 5 14 19 5 14 19 5 14 19 8 17 22 8 17 22 8 17 22 8 17 22 8 17 22 8 17 22 8 17 22 8 17 22 20 25 29 20 25 29 20 25 29 20 25 29 20 25 29 20 25 29 20 25 29 20 25 29 20 25 29 18 23 27 16 21 25 13 18 22 9 14 18 6 11 15 4 9 13 2 7 11 1 6 10 1 6 10 1 6 10 1 6 10 1 6 10 1 6 10 1 6 10 1 6 10 8 13 17 10 15 19 12 17 21 15 20 24 19 24 28 22 27 31 24 29 33 26 31 34 36 42 42 38 44 42 40 46 44 43 49 47 47 53 51 50 56 54 52 58 56 54 60 58 68 74 72 68 74 72 68 74 72 68 74 72 68 74 72 68 74 72 68 74 72 69 74 70 65 67 64 64 65 60 59 60 55 52 53 48 46 47 42 39 40 35 34 35 30 32 33 28 33 34 29 33 34 29 33 34 29 33 34 29 33 34 29 33 34 29 33 34 29 33 34 29 35 33 34 35 33 34 35 33 34 35 33 34 35 33 34 35 33 34 35 33 34 35 33 34 38 36 37 38 36 37 38 36 37 38 36 37 38 36 37 38 36 37 38 36 37 38 36 37
123 108 127 123 108 127 123 108 127 123 108 127 116 101 120 116 101 120 115 100 119 114 99 118 114 99 118 113 98 117 112 97 116 112 97 116 122 105 124 121 104 123 119 102 121 115 98 117 112 95 114 109 92 111 106 89 108 105 88 107 101 84 103 98 81 100 93 76 95 87 70 89 80 63 82 74 57 76 69 52 71 64 49 68 43 32 48 39 31 46 35 27 42 29 21 36 23 15 30 17 9 24 13 5 20 10 2 17 11 3 18 11 3 18 11 3 18 11 3 18 11 3 18 11 3 18 11 3 18 8 4 18 9 9 21 6 10 21 6 10 21 6 10 21 6 10 21 6 10 21 6 10 21 6 10 21 6 10 21 6 10 21 6 10 21 6 10 21 6 10 21 6 10 21 6 10 21 6 10 19 7 11 20 7 12 18 7 12 18 7 12 18 7 12 18 7 12 18 7 12 18 7 12 18 7 12 18 7 12 18 7 12 18 7 12 18 7 12 18 7 12 18 7 12 18 5 12 18 6 13 19 5 14 19 5 14 19 5 14 19 5 14 19 5 14 19 5 14 19 5 14 19 8 17 22 8 17 22 8 17 22 8 17 22 8 17 22 8 17 22 8 17 22 8 17 22 22 27 31 22 27 31 22 27 31 22 27 31 22 27 31 22 27 31 22 27 31 22 27 31 20 25 29 18 23 27 16 21 25 13 18 22 9 14 18 6 11 15 4 9 13 2 7 11 1 6 10 1 6 10 1 6 10 1 6 10 1 6 10 1 6 10 1 6 10 1 6 10 8 13 17 10 15 19 12 17 21 15 20 24 19 24 28 22 27 31 24 29 33 26 31 34 36 42 42 38 44 42 40 46 44 43 49 47 47 53 51 50 56 54 52 58 56 54 60 58 66 72 70 66 72 70 66 72 70 66 72 70 66 72 70 66 72 70 66 72 70 67 72 68 65 67 64 64 65 60 59 60 55 52 53 48 46 47 42 39 40 35 34 35 30 32 33 28 33 34 29 33 34 29 33 34 29 33 34 29 33 34 29 33 34 29 33 34 29 33 34 29 35 33 34 35 33 34 35 33 34 35 33 34 35 33 34 35 33 34 35 33 34 35 33 34 38 36 37 38 36 37 38 36 37 38 36 37 38 36 37 38 36 37 38 36 37 38 36 37
120 105 124 120 105 124 120 105 124 120 105 124 127 112 131 126 111 130 124 109 128 122 107 126 120 105 124 117 102 121 115 100 119 114 99 118 115 98 117 114 97 116 111 94 113 108 91 110 105 88 107 102 85 104 99 82 101 98 81 100 85 68 87 82 65 84 77 60 79 71 54 73 64 47 66 58 41 60 53 36 55 48 33 52 27 16 32 23 15 30 20 12 27 16 8 23 12 4 19 8 0 15 4 0 11 4 0 11 11 3 18 11 3 18 11 3 18 11 3 18 11 3 18 11 3 18 11 3 18 8 4 18 9 9 21 6 10 21 6 10 21 6 10 21 6 10 21 6 10 21 6 10 21 6 10 21 6 10 21 6 10 21 6 10 21 6 10 21 6 10 21 6 10 21 6 10 21 6 10 19 7 11 20 7 12 18 7 12 18 7 12 18 7 12 18 7 12 18 7 12 18 7 12 18 7 12 18 7 12 18 7 12 18 7 12 18 7 12 18 7 12 18 7 12 18 5 12 18 6 13 19 5 14 19 5 14 19 5 14 19 5 14 19 5 14 19 5 14 19 5 14 19 8 17 22 8 17 22 8 17 22 8 17 22 8 17 22 8 17 22 8 17 22 8 17 22 25 30 34 25 30 34 25 30 34 25 30 34 25 30 34 25 30 34 25 30 34 25 30 34 20 25 29 18 23 27 16 21 25 13 18 22 9 14 18 6 11 15 4 9 13 2 7 11 1 6 10 1 6 10 1 6 10 1 6 10 1 6 10 1 6 10 1 6 10 1 6 10 8 13 17 10 15 19 12 17 21 15 20 24 19 24 28 22 27 31 24 29 33 26 31 34 36 42 42 38 44 42 40 46 44 43 49 47 47 53 51 50 56 54 52 58 56 54 60 58 63 69 67 63 69 67 63 69 67 63 69 67 63 69 67 63 69 67 63 69 67 64 69 65 65 67 64 64 65 60 59 60 55 52 53 48 46 47 42 39 40 35 34 35 30 32 33 28 33 34 29 33 34 29 33 34 29 33 34 29 33 34 29 33 34 29 33 34 29 33 34 29 35 33 34 35 33 34 35 33 34 35 33 34 35 33 34 35 33 34 35 33 34 35 33 34 38 36 37 38 36 37 38 36 37 38 36 37 38 36 37 38 36 37 38 36 37 38 36 37
116 101 120 116 101 120 116 101 120 116 101 120 135 120 139 133 118 137 130 115 134 126 111 130 122 107 126 118 103 122 114 99 118 113 98 117 101 84 103 100 83 102 98 81 100 94 77 96 91 74 93 88 71 90 85 68 87 84 67 86 68 51 70 65 48 67 60 43 62 54 37 56 47 30 49 41 24 43 36 19 38 31 16 35 15 4 20 12 4 19 10 2 17 8 0 15 6 0 13 4 0 11 4 0 11 4 0 11 11 3 18 11 3 18 11 3 18 11 3 18 11 3 18 11 3 18 11 3 18 8 4 18 9 9 21 6 10 21 6 10 21 6 10 21 6 10 21 6 10 21 6 10 21 6 10 21 6 10 21 6 10 21 6 10 21 6 10 21 6 10 21 6 10 21 6 10 21 6 10 19 7 11 20 7 12 18 7 12 18 7 12 18 7 12 18 7 12 18 7 12 18 7 12 18 7 12 18 7 12 18 7 12 18 7 12 18 7 12 18 7 12 18 7 12 18 5 12 18 6 13 19 5 14 19 5 14 19 5 14 19 5 14 19 5 14 19 5 14 19 5 14 19 8 17 22 8 17 22 8 17 22 8 17 22 8 17 22 8 17 22 8 17 22 8 17 22 29 34 38 29 34 38 29 34 38 29 34 38 29 34 38 29 34 38 29 34 38 29 34 38 20 25 29 18 23 27 16 21 25 13 18 22 9 14 18 6 11 15 4 9 13 2 7 11 1 6 10 1 6 10 1 6 10 1 6 10 1 6 10 1 6 10 1 6 10 1 6 10 8 13 17 10 15 19 12 17 21 15 20 24 19 24 28 22 27 31 24 29 33 26 31 34 36 42 42 38 44 42 40 46 44 43 49 47 47 53 51 50 56 54 52 58 56 54 60 58 59 65 63 59 65 63 59 65 63 59 65 63 59 65 63 59 65 63 59 65 63 60 65 61 65 67 64 64 65 60 59 60 55 52 53 48 46 47 42 39 40 35 34 35 30 32 33 28 33 34 29 33 34 29 33 34 29 33 34 29 33 34 29 33 34 29 33 34 29 33 34 29 35 33 34 35 33 34 35 33 34 35 33 34 35 33 34 35 33 34 35 33 34 35 33 34 38 36 37 38 36 37 38 36 37 38 36 37 38 36 37 38 36 37 38 36 37 38 36 37
113 98 117 113 98 117 113 98 117 113 98 117 124 109 128 121 106 125 117 102 121 111 96 115 105 90 109 99 84 103 95 80 99 93 78 97 83 66 85 82 65 84 79 62 81 76 59 78 73 56 75 69 52 71 67 50 69 66 49 68 52 35 54 49 32 51 44 27 46 38 21 40 31 14 33 25 8 27 20 3 22 15 0 19 10 0 15 8 0 15 7 0 14 7 0 14 6 0 13 5 0 12 5 0 12 4 0 11 11 3 18 11 3 18 11 3 18 11 3 18 11 3 18 11 3 18 11 3 18 8 4 18 9 9 21 6 10 21 6 10 21 6 10 21 6 10 21 6 10 21 6 10 21 6 10 21 6 10 21 6 10 21 6 10 21 6 10 21 6 10 21 6 10 21 6 10 21 6 10 19 7 11 20 7 12 18 7 12 18 7 12 18 7 12 18 7 12 18 7 12 18 7 12 18 7 12 18 7 12 18 7 12 18 7 12 18 7 12 18 7 12 18 7 12 18 5 12 18 6 13 19 5 14 19 5 14 19 5 14 19 5 14 19 5 14 19 5 14 19 5 14 19 8 17 22 8 17 22 8 17 22 8 17 22 8 17 22 8 17 22 8 17 22 8 17 22 32 37 41 32 37 41 32 37 41 32 37 41 32 37 41 32 37 41 32 37 41 32 37 41 20 25 29 18 23 27 16 21 25 13 18 22 9 14 18 6 11 15 4 9 13 2 7 11 1 6 10 1 6 10 1 6 10 1 6 10 1 6 10 1 6 10 1 6 10 1 6 10 8 13 17 10 15 19 12 17 21 15 20 24 19 24 28 22 27 31 24 29 33 26 31 34 36 42 42 38 44 42 40 46 44 43 49 47 47 53 51 50 56 54 52 58 56 54 60 58 56 62 60 56 62 60 56 62 60 56 62 60 56 62 60 56 62 60 56 62 60 57 62 58 65 67 64 64 65 60 59 60 55 52 53 48 46 47 42 39 40 35 34 35 30 32 33 28 33 34 29 33 34 29 33 34 29 33 34 29 33 34 29 33 34 29 33 34 29 33 34 29 35 33 34 35 33 34 35 33 34 35 33 34 35 33 34 35 33 34 35 33 34 35 33 34 38 36 37 38 36 37 38 36 37 38 36 37 38 36 37 38 36 37 38 36 37 38 36 37
111 96 115 111 96 115 111 96 115 111 96 115 94 79 98 91 76 95 86 71 90 79 64 83 72 57 76 65 50 69 59 44 63 56 41 60 65 48 67 64 47 66 62 45 64 58 41 60 55 38 57 52 35 54 49 32 51 48 31 50 40 23 42 37 20 39 32 15 34 26 9 28 19 2 21 12 0 14 10 0 12 8 0 12 10 0 15 8 0 15 8 0 15 9 1 16 10 2 17 10 2 17 11 3 18 11 3 18 11 3 18 11 3 18 11 3 18 11 3 18 11 3 18 11 3 18 11 3 18 8 4 18 9 9 21 6 10 21 6 10 21 6 10 21 6 10 21 6 10 21 6 10 21 6 10 21 6 10 21 6 10 21 6 10 21 6 10 21 6 10 21 6 10 21 6 10 21 6 10 19 7 11 20 7 12 18 7 12 18 7 12 18 7 12 18 7 12 18 7 12 18 7 12 18 7 12 18 7 12 18 7 12 18 7 12 18 7 12 18 7 12 18 7 12 18 5 12 18 6 13 19 5 14 19 5 14 19 5 14 19 5 14 19 5 14 19 5 14 19 5 14 19 8 17 22 8 17 22 8 17 22 8 17 22 8 17 22 8 17 22 8 17 22 8 17 22 34 39 43 34 39 43 34 39 43 34 39 43 34 39 43 34 39 43 34 39 43 34 39 43 20 25 29 18 23 27 16 21 25 13 18 22 9 14 18 6 11 15 4 9 13 2 7 11 1 6 10 1 6 10 1 6 10 1 6 10 1 6 10 1 6 10 1 6 10 1 6 10 8 13 17 10 15 19 12 17 21 15 20 24 19 24 28 22 27 31 24 29 33 26 31 34 36 42 42 38 44 42 40 46 44 43 49 47 47 53 51 50 56 54 52 58 56 54 60 58 54 60 58 54 60 58 54 60 58 54 60 58 54 60 58 54 60 58 54 60 58 55 60 56 65 67 64 64 65 60 59 60 55 52 53 48 46 47 42 39 40 35 34 35 30 32 33 28 33 34 29 33 34 29 33 34 29 33 34 29 33 34 29 33 34 29 33 34 29 33 34 29 35 33 34 35 33 34 35 33 34 35 33 34 35 33 34 35 33 34 35 33 34 35 33 34 38 36 37 38 36 37 38 36 37 38 36 37 38 36 37 38 36 37 38 36 37 38 36 37
108 95 115 108 95 113 108 95 115 108 95 113 67 54 74 64 51 69 58 45 65 51 38 56 43 30 50 35 22 40 29 16 36 26 13 31 51 38 56 50 37 55 48 35 53 44 31 49 41 28 46 38 25 43 35 22 40 34 21 39 30 17 35 27 14 32 22 9 27 16 3 21 9 0 14 7 0 12 7 0 12 6 0 12 9 1 16 8 2 16 9 3 17 11 5 19 12 6 20 13 7 21 14 8 22 15 9 23 10 4 18 10 4 18 10 4 18 10 4 18 10 4 18 10 4 18 10 4 18 8 4 18 7 9 21 6 10 19 6 10 21 6 10 19 6 10 21 6 10 19 6 10 21 6 10 19 6 10 21 6 10 19 6 10 21 6 10 19 6 10 21 6 10 19 6 10 21 6 10 19 7 12 18 7 12 18 7 12 18 7 12 18 7 12 18 7 12 18 7 12 18 7 12 18 7 12 18 7 12 18 7 12 18 7 12 18 7 12 18 7 12 18 7 12 18 7 12 18 6 13 19 5 14 19 5 14 19 5 14 19 5 14 19 5 14 19 5 14 19 5 14 19 8 17 22 8 17 22 8 17 22 8 17 22 8 17 22 8 17 22 8 17 22 9 16 22 34 42 45 36 41 45 36 41 45 36 41 45 36 41 45 36 41 45 36 41 45 36 41 45 20 25 29 18 23 27 16 21 25 13 18 22 9 14 18 6 11 15 4 9 13 2 7 11 1 6 10 1 6 10 1 6 10 1 6 10 1 6 10 1 6 10 1 6 10 1 6 10 8 13 17 10 15 19 12 17 21 15 20 24 19 24 28 22 27 31 24 29 33 26 31 34 36 42 42 38 44 42 40 46 44 43 49 47 47 53 51 50 56 54 52 58 56 54 60 58 52 58 56 52 58 56 52 58 56 52 58 56 52 58 56 52 58 56 52 58 56 53 57 56 66 66 64 64 65 60 59 59 57 52 53 48 46 46 44 39 40 35 34 34 32 32 33 28 33 33 31 33 34 29 33 33 31 33 34 29 33 33 31 33 34 29 33 33 31 34 33 31 35 34 32 37 33 32 37 33 34 37 33 32 37 33 34 37 33 32 37 33 34 37 33 32 40 36 37 40 36 35 40 36 37 40 36 35 40 36 37 40 36 35 40 36 37 40 36 37
74 66 87 67 60 78 61 53 74 58 51 69 10 2 23 10 3 21 10 2 23 10 3 21 10 2 23 10 3 21 10 2 23 10 3 21 7 3 18 7 3 18 7 3 18 7 3 18 7 3 18 7 3 18 7 3 18 7 3 18 9 5 20 9 5 20 9 5 20 9 5 20 9 5 20 9 5 20 9 5 20 9 5 20 7 5 18 7 5 18 7 5 18 7 5 18 7 5 18 7 5 18 7 5 18 7 5 18 6 4 17 6 4 17 6 4 17 6 4 17 6 4 17 6 4 17 6 4 17 5 5 17 7 10 19 6 11 17 6 10 19 6 11 17 6 10 19 6 11 17 6 10 19 6 11 17 8 12 21 8 13 19 8 12 21 8 13 19 8 12 21 8 13 19 8 12 21 8 13 19 8 13 19 8 13 19 8 13 19 8 13 19 8 13 19 8 13 19 8 13 19 8 13 19 9 14 20 9 14 20 9 14 20 9 14 20 9 14 20 9 14 20 9 14 20 9 14 20 10 18 21 9 17 20 8 16 19 7 15 18 6 14 17 4 12 15 4 12 15 3 11 14 0 4 7 0 8 11 5 13 16 13 21 24 21 29 32 29 37 40 35 43 46 38 46 49 51 59 62 49 57 60 47 55 58 44 52 55 40 48 51 37 45 48 35 43 46 33 41 44 32 40 43 30 38 41 25 33 36 18 26 29 12 20 23 5 13 16 0 8 11 0 6 9 2 10 12 2 10 12 2 10 12 2 10 12 2 10 12 2 10 12 2 10 12 2 10 12 8 16 18 10 18 20 12 20 22 15 23 25 19 27 29 22 30 32 24 32 34 28 33 36 36 42 42 37 41 40 37 41 40 37 41 40 37 41 40 37 41 40 37 41 40 37 41 40 52 56 55 52 56 55 52 56 55 52 56 55 52 56 55 52 56 55 52 56 55 52 56 55 47 47 47 46 45 43 44 42 43 41 40 38 37 35 36 34 33 31 32 30 31 30 29 27 33 31 32 33 32 30 33 31 32 33 32 30 33 31 32 33 32 30 33 31 32 33 32 30 36 30 30 36 31 28 36 30 30 36 31 28 36 30 30 36 31 28 36 30 30 36 31 28 38 32 32 38 33 30 38 32 32 38 33 30 38 32 32 38 33 30 38 32 32 38 32 32
45 40 60 38 33 53 33 28 48 30 25 45 8 3 23 8 3 23 8 3 23 8 3 23 8 3 23 8 3 23 8 3 23 7 4 21 6 3 20 5 4 18 5 4 18 5 4 18 5 4 18 5 4 18 5 4 18 5 4 18 7 6 20 7 6 20 7 6 20 7 6 20 7 6 20 7 6 20 7 6 20 7 6 20 6 6 18 6 6 18 6 6 18 6 6 18 6 6 18 6 6 18 6 6 18 6 6 18 5 5 17 5 5 17 5 5 17 5 5 17 5 5 17 5 5 17 5 5 17 3 6 15 7 10 19 6 11 17 6 11 17 6 11 17 6 11 17 6 11 17 6 11 17 6 11 17 8 13 19 8 13 19 8 13 19 8 13 19 8 13 19 8 13 19 8 13 19 8 13 19 8 13 19 8 13 19 8 13 19 8 13 19 8 13 19 8 13 19 8 13 19 8 13 19 9 14 20 9 14 20 9 14 20 9 14 20 9 14 20 9 14 20 9 14 20 9 14 20 9 17 20 9 17 20 9 17 20 8 16 19 7 15 18 7 15 18 6 14 17 6 14 17 6 14 17 9 17 20 15 23 26 22 30 33 29 37 40 36 44 47 41 49 52 44 52 55 51 59 62 49 57 60 47 55 58 44 52 55 40 48 51 37 45 48 35 43 46 33 41 44 32 40 43 30 38 41 25 33 36 18 26 29 12 20 23 5 13 16 0 8 11 0 6 9 2 10 12 2 10 12 2 10 12 2 10 12 2 10 12 2 10 12 2 10 12 2 10 12 8 16 18 10 18 20 12 20 22 15 23 25 19 27 29 22 30 32 24 32 34 26 35 34 37 41 42 37 41 40 37 41 40 37 41 40 37 41 40 37 41 40 37 41 40 37 41 40 50 54 53 50 54 53 50 54 53 50 54 53 50 54 53 50 54 53 50 54 53 52 54 53 47 47 47 46 44 45 44 42 43 41 39 40 37 35 36 34 32 33 32 30 31 30 28 29 33 31 32 33 31 32 33 31 32 33 31 32 33 31 32 33 31 32 33 31 32 35 31 30 36 30 30 38 30 28 38 30 28 38 30 28 38 30 28 38 30 28 38 30 28 38 30 28 40 32 30 40 32 30 40 32 30 40 32 30 40 32 30 40 32 30 40 32 30 38 33 30
13 8 28 7 2 22 3 0 18 1 0 16 8 3 23 8 3 23 8 3 23 8 3 23 8 3 23 8 3 23 8 3 23 7 4 21 6 3 20 5 4 18 5 4 18 5 4 18 5 4 18 5 4 18 5 4 18 5 4 18 7 6 20 7 6 20 7 6 20 7 6 20 7 6 20 7 6 20 7 6 20 7 6 20 6 6 18 6 6 18 6 6 18 6 6 18 6 6 18 6 6 18 6 6 18 6 6 18 5 5 17 5 5 17 5 5 17 5 5 17 5 5 17 5 5 17 5 5 17 3 6 15 7 10 19 6 11 17 6 11 17 6 11 17 6 11 17 6 11 17 6 11 17 6 11 17 8 13 19 8 13 19 8 13 19 8 13 19 8 13 19 8 13 19 8 13 19 8 13 19 8 13 19 8 13 19 8 13 19 8 13 19 8 13 19 8 13 19 8 13 19 8 13 19 9 14 20 9 14 20 9 14 20 9 14 20 9 14 20 9 14 20 9 14 20 9 14 20 8 16 19 9 17 20 9 17 20 10 18 21 10 18 21 11 19 22 12 20 23 12 20 23 23 31 34 25 33 36 29 37 40 35 43 46 41 49 52 47 55 58 51 59 62 54 62 65 51 59 62 49 57 60 47 55 58 44 52 55 40 48 51 37 45 48 35 43 46 33 41 44 32 40 43 30 38 41 25 33 36 18 26 29 12 20 23 5 13 16 0 8 11 0 6 9 2 10 12 2 10 12 2 10 12 2 10 12 2 10 12 2 10 12 2 10 12 2 10 12 8 16 18 10 18 20 12 20 22 15 23 25 19 27 29 22 30 32 24 32 34 26 35 34 37 41 42 37 41 40 37 41 40 37 41 40 37 41 40 37 41 40 37 41 40 37 41 40 48 52 51 48 52 51 48 52 51 48 52 51 48 52 51 48 52 51 48 52 51 50 52 51 47 47 47 46 44 45 44 42 43 41 39 40 37 35 36 34 32 33 32 30 31 30 28 29 33 31 32 33 31 32 33 31 32 33 31 32 33 31 32 33 31 32 33 31 32 35 31 30 36 30 30 38 30 28 38 30 28 38 30 28 38 30 28 38 30 28 38 30 28 38 30 28 40 32 30 40 32 30 40 32 30 40 32 30 40 32 30 40 32 30 40 32 30 38 33 30
1 0 16 1 0 16 1 0 16 1 0 16 8 3 23 8 3 23 8 3 23 8 3 23 8 3 23 8 3 23 8 3 23 7 4 21 6 3 20 5 4 18 5 4 18 5 4 18 5 4 18 5 4 18 5 4 18 5 4 18 7 6 20 7 6 20 7 6 20 7 6 20 7 6 20 7 6 20 7 6 20 7 6 20 6 6 18 6 6 18 6 6 18 6 6 18 6 6 18 6 6 18 6 6 18 6 6 18 5 5 17 5 5 17 5 5 17 5 5 17 5 5 17 5 5 17 5 5 17 3 6 15 7 10 19 6 11 17 6 11 17 6 11 17 6 11 17 6 11 17 6 11 17 6 11 17 8 13 19 8 13 19 8 13 19 8 13 19 8 13 19 8 13 19 8 13 19 8 13 19 8 13 19 8 13 19 8 13 19 8 13 19 8 13 19 8 13 19 8 13 19 8 13 19 9 14 20 9 14 20 9 14 20 9 14 20 9 14 20 9 14 20 9 14 20 9 14 20 7 15 18 8 16 19 10 18 21 12 20 23 15 23 26 17 25 28 19 27 30 20 28 31 39 47 50 41 49 52 44 52 55 48 56 59 52 60 63 56 64 67 60 68 71 61 69 72 51 59 62 49 57 60 47 55 58 44 52 55 40 48 51 37 45 48 35 43 46 33 41 44 32 40 43 30 38 41 25 33 36 18 26 29 12 20 23 5 13 16 0 8 11 0 6 9 2 10 12 2 10 12 2 10 12 2 10 12 2 10 12 2 10 12 2 10 12 2 10 12 8 16 18 10 18 20 12 20 22 15 23 25 19 27 29 22 30 32 24 32 34 26 35 34 37 41 42 37 41 40 37 41 40 37 41 40 37 41 40 37 41 40 37 41 40 37 41 40 45 49 48 45 49 48 45 49 48 45 49 48 45 49 48 45 49 48 45 49 48 47 49 48 47 47 47 46 44 45 44 42 43 41 39 40 37 35 36 34 32 33 32 30 31 30 28 29 33 31 32 33 31 32 33 31 32 33 31 32 33 31 32 33 31 32 33 31 32 35 31 30 36 30 30 38 30 28 38 30 28 38 30 28 38 30 28 38 30 28 38 30 28 38 30 28 40 32 30 40 32 30 40 32 30 40 32 30 40 32 30 40 32 30 40 32 30 38 33 30
2 0 17 1 0 16 1 0 16 1 0 16 8 3 23 8 3 23 8 3 23 8 3 23 8 3 23 8 3 23 8 3 23 7 4 21 6 3 20 5 4 18 5 4 18 5 4 18 5 4 18 5 4 18 5 4 18 5 4 18 7 6 20 7 6 20 7 6 20 7 6 20 7 6 20 7 6 20 7 6 20 7 6 20 6 6 18 6 6 18 6 6 18 6 6 18 6 6 18 6 6 18 6 6 18 6 6 18 5 5 17 5 5 17 5 5 17 5 5 17 5 5 17 5 5 17 5 5 17 3 6 15 7 10 19 6 11 17 6 11 17 6 11 17 6 11 17 6 11 17 6 11 17 6 11 17 8 13 19 8 13 19 8 13 19 8 13 19 8 13 19 8 13 19 8 13 19 8 13 19 8 13 19 8 13 19 8 13 19 8 13 19 8 13 19 8 13 19 8 13 19 8 13 19 9 14 20 9 14 20 9 14 20 9 14 20 9 14 20 9 14 20 9 14 20 9 14 20 6 14 17 7 15 18 10 18 21 15 23 26 19 27 30 23 31 34 26 34 37 28 36 39 51 59 62 52 60 63 54 62 65 56 64 67 58 66 69 61 69 72 62 70 73 63 71 74 51 59 62 49 57 60 47 55 58 44 52 55 40 48 51 37 45 48 35 43 46 33 41 44 32 40 43 30 38 41 25 33 36 18 26 29 12 20 23 5 13 16 0 8 11 0 6 9 2 10 12 2 10 12 2 10 12 2 10 12 2 10 12 2 10 12 2 10 12 2 10 12 8 16 18 10 18 20 12 20 22 15 23 25 19 27 29 22 30 32 24 32 34 26 35 34 37 41 42 37 41 40 37 41 40 37 41 40 37 41 40 37 41 40 37 41 40 37 41 40 41 45 44 41 45 44 41 45 44 41 45 44 41 45 44 41 45 44 41 45 44 43 45 44 47 47 47 46 44 45 44 42 43 41 39 40 37 35 36 34 32 33 32 30 31 30 28 29 33 31 32 33 31 32 33 31 32 33 31 32 33 31 32 33 31 32 33 31 32 35 31 30 36 30 30 38 30 28 38 30 28 38 30 28 38 30 28 38 30 28 38 30 28 38 30 28 40 32 30 40 32 30 40 32 30 40 32 30 40 32 30 40 32 30 40 32 30 38 33 30
10 5 25 9 4 24 8 3 23 8 3 23 8 3 23 8 3 23 8 3 23 8 3 23 8 3 23 8 3 23 8 3 23 7 4 21 6 3 20 5 4 18 5 4 18 5 4 18 5 4 18 5 4 18 5 4 18 5 4 18 7 6 20 7 6 20 7 6 20 7 6 20 7 6 20 7 6 20 7 6 20 7 6 20 6 6 18 6 6 18 6 6 18 6 6 18 6 6 18 6 6 18 6 6 18 6 6 18 5 5 17 5 5 17 5 5 17 5 5 17 5 5 17 5 5 17 5 5 17 3 6 15 7 10 19 6 11 17 6 11 17 6 11 17 6 11 17 6 11 17 6 11 17 6 11 17 8 13 19 8 13 19 8 13 19 8 13 19 8 13 19 8 13 19 8 13 19 8 13 19 8 13 19 8 13 19 8 13 19 8 13 19 8 13 19 8 13 19 8 13 19 8 13 19 9 14 20 9 14 20 9 14 20 9 14 20 9 14 20 9 14 20 9 14 20 9 14 20 4 12 15 7 15 18 11 19 22 17 25 28 23 31 34 29 37 40 33 41 44 35 43 46 56 64 67 56 64 67 57 65 68 57 65 68 58 66 69 59 67 70 59 67 70 60 68 71 51 59 62 49 57 60 47 55 58 44 52 55 40 48 51 37 45 48 35 43 46 33 41 44 32 40 43 30 38 41 25 33 36 18 26 29 12 20 23 5 13 16 0 8 11 0 6 9 2 10 12 2 10 12 2 10 12 2 10 12 2 10 12 2 10 12 2 10 12 2 10 12 8 16 18 10 18 20 12 20 22 15 23 25 19 27 29 22 30 32 24 32 34 26 35 34 37 41 42 37 41 40 37 41 40 37 41 40 37 41 40 37 41 40 37 41 40 37 41 40 38 42 41 38 42 41 38 42 41 38 42 41 38 42 41 38 42 41 38 42 41 40 42 41 47 47 47 46 44 45 44 42 43 41 39 40 37 35 36 34 32 33 32 30 31 30 28 29 33 31 32 33 31 32 33 31 32 33 31 32 33 31 32 33 31 32 33 31 32 35 31 30 36 30 30 38 30 28 38 30 28 38 30 28 38 30 28 38 30 28 38 30 28 38 30 28 40 32 30 40 32 30 40 32 30 40 32 30 40 32 30 40 32 30 40 32 30 38 33 30
10 5 25 10 5 25 11 6 26 11 6 26 8 3 23 8 3 23 8 3 23 8 3 23 8 3 23 8 3 23 8 3 23 7 4 21 6 3 20 5 4 18 5 4 18 5 4 18 5 4 18 5 4 18 5 4 18 5 4 18 7 6 20 7 6 20 7 6 20 7 6 20 7 6 20 7 6 20 7 6 20 7 6 20 6 6 18 6 6 18 6 6 18 6 6 18 6 6 18 6 6 18 6 6 18 6 6 18 5 5 17 5 5 17 5 5 17 5 5 17 5 5 17 5 5 17 5 5 17 3 6 15 7 10 19 6 11 17 6 11 17 6 11 17 6 11 17 6 11 17 6 11 17 6 11 17 8 13 19 8 13 19 8 13 19 8 13 19 8 13 19 8 13 19 8 13 19 8 13 19 8 13 19 8 13 19 8 13 19 8 13 19 8 13 19 8 13 19 8 13 19 8 13 19 9 14 20 9 14 20 9 14 20 9 14 20 9 14 20 9 14 20 9 14 20 9 14 20 3 11 14 6 14 17 12 20 23 19 27 30 26 34 37 33 41 44 38 46 49 41 49 52 56 64 67 56 64 67 56 64 67 55 63 66 54 62 65 54 62 65 53 61 64 53 61 64 51 59 62 49 57 60 47 55 58 44 52 55 40 48 51 37 45 48 35 43 46 33 41 44 32 40 43 30 38 41 25 33 36 18 26 29 12 20 23 5 13 16 0 8 11 0 6 9 2 10 12 2 10 12 2 10 12 2 10 12 2 10 12 2 10 12 2 10 12 2 10 12 8 16 18 10 18 20 12 20 22 15 23 25 19 27 29 22 30 32 24 32 34 26 35 34 37 41 42 37 41 40 37 41 40 37 41 40 37 41 40 37 41 40 37 41 40 37 41 40 36 40 39 36 40 39 36 40 39 36 40 39 36 40 39 36 40 39 36 40 39 38 40 39 47 47 47 46 44 45 44 42 43 41 39 40 37 35 36 34 32 33 32 30 31 30 28 29 33 31 32 33 31 32 33 31 32 33 31 32 33 31 32 33 31 32 33 31 32 35 31 30 36 30 30 38 30 28 38 30 28 38 30 28 38 30 28 38 30 28 38 30 28 38 30 28 40 32 30 40 32 30 40 32 30 40 32 30 40 32 30 40 32 30 40 32 30 38 33 30
5 0 20 6 1 21 7 2 22 8 3 23 8 3 23 8 3 23 8 3 23 8 3 23 8 3 23 8 3 23 8 3 23 7 4 21 6 3 20 5 4 18 5 4 18 5 4 18 5 4 18 5 4 18 5 4 18 5 4 18 7 6 20 7 6 20 7 6 20 7 6 20 7 6 20 7 6 20 7 6 20 7 6 20 6 6 18 6 6 18 6 6 18 6 6 18 6 6 18 6 6 18 6 6 18 6 6 18 5 5 17 5 5 17 5 5 17 5 5 17 5 5 17 5 5 17 5 5 17 3 6 15 7 10 19 6 11 17 6 11 17 6 11 17 6 11 17 6 11 17 6 11 17 6 11 17 8 13 19 8 13 19 8 13 19 8 13 19 8 13 19 8 13 19 8 13 19 8 13 19 8 13 19 8 13 19 8 13 19 8 13 19 8 13 19 8 13 19 8 13 19 8 13 19 9 14 20 9 14 20 9 14 20 9 14 20 9 14 20 9 14 20 9 14 20 9 14 20 3 11 14 6 14 17 12 20 23 20 28 31 28 36 39 35 43 46 41 49 52 44 52 55 55 63 66 55 63 66 54 62 65 52 60 63 51 59 62 50 58 61 49 57 60 48 56 59 51 59 62 49 57 60 47 55 58 44 52 55 40 48 51 37 45 48 35 43 46 33 41 44 32 40 43 30 38 41 25 33 36 18 26 29 12 20 23 5 13 16 0 8 11 0 6 9 2 10 12 2 10 12 2 10 12 2 10 12 2 10 12 2 10 12 2 10 12 2 10 12 8 16 18 10 18 20 12 20 22 15 23 25 19 27 29 22 30 32 24 32 34 26 35 34 37 41 42 37 41 40 37 41 40 37 41 40 37 41 40 37 41 40 37 41 40 37 41 40 34 38 37 34 38 37 34 38 37 34 38 37 34 38 37 34 38 37 34 38 37 36 38 37 47 47 47 46 44 45 44 42 43 41 39 40 37 35 36 34 32 33 32 30 31 30 28 29 33 31 32 33 31 32 33 31 32 33 31 32 33 31 32 33 31 32 33 31 32 35 31 30 36 30 30 38 30 28 38 30 28 38 30 28 38 30 28 38 30 28 38 30 28 38 30 28 40 32 30 40 32 30 40 32 30 40 32 30 40 32 30 40 32 30 40 32 30 38 33 30
6 1 21 6 1 21 6 1 21 6 1 21 6 1 21 6 1 21 6 1 21 6 1 21 6 1 21 6 1 21 6 1 21 5 2 19 5 2 19 4 3 17 4 3 17 4 3 17 4 3 17 4 3 17 4 3 17 4 3 17 6 5 19 6 5 19 6 5 19 6 5 19 6 5 19 6 5 19 6 5 19 6 5 19 5 5 17 5 5 17 5 5 17 5 5 17 5 5 17 5 5 17 5 5 17 5 5 17 5 5 17 5 5 17 5 5 17 5 5 17 5 5 17 5 5 17 5 5 17 3 6 15 4 7 16 3 8 14 3 8 14 3 8 14 3 8 14 3 8 14 3 8 14 3 8 14 5 10 16 5 10 16 5 10 16 5 10 16 5 10 16 5 10 16 5 10 16 5 10 16 8 13 19 8 13 19 8 13 19 8 13 19 8 13 19 8 13 19 8 13 19 8 13 19 11 16 22 10 15 21 10 15 21 8 13 19 7 12 18 6 11 17 5 10 16 4 9 15 35 43 46 36 44 47 38 46 49 42 50 53 45 53 56 48 56 59 51 59 62 52 60 63 59 67 70 59 67 70 59 67 70 59 67 70 59 67 70 59 67 70 59 67 70 59 67 70 56 64 67 54 62 65 52 60 63 49 57 60 45 53 56 42 50 53 40 48 51 38 46 49 24 32 35 22 30 33 20 28 31 17 25 28 13 21 24 10 18 21 8 16 19 6 14 17 8 16 18 8 16 18 8 16 18 8 16 18 8 16 18 8 16 18 8 16 18 8 16 18 10 18 20 12 20 22 14 22 24 17 25 27 21 29 31 24 32 34 26 34 36 28 37 36 29 33 34 29 33 32 29 33 32 29 33 32 29 33 32 29 33 32 29 33 32 29 33 32 30 34 33 30 34 33 30 34 33 30 34 33 30 34 33 30 34 33 30 34 33 32 34 33 30 30 30 31 29 30 31 29 30 31 29 30 31 29 30 31 29 30 31 29 30 31 29 30 32 30 31 32 30 31 32 30 31 32 30 31 32 30 31 32 30 31 32 30 31 34 30 29 35 29 29 37 29 27 37 29 27 37 29 27 37 29 27 37 29 27 37 29 27 37 29 27 39 31 29 39 31 29 39 31 29 39 31 29 39 31 29 39 31 29 39 31 29 37 32 29
6 1 21 6 1 21 6 1 21 6 1 21 6 1 21 6 1 21 6 1 21 6 1 21 6 1 21 6 1 21 6 1 21 5 2 19 5 2 19 4 3 17 4 3 17 4 3 17 4 3 17 4 3 17 4 3 17 4 3 17 6 5 19 6 5 19 6 5 19 6 5 19 6 5 19 6 5 19 6 5 19 6 5 19 5 5 17 5 5 17 5 5 17 5 5 17 5 5 17 5 5 17 5 5 17 5 5 17 5 5 17 5 5 17 5 5 17 5 5 17 5 5 17 5 5 17 5 5 17 3 6 15 4 7 16 3 8 14 3 8 14 3 8 14 3 8 14 3 8 14 3 8 14 3 8 14 5 10 16 5 10 16 5 10 16 5 10 16 5 10 16 5 10 16 5 10 16 5 10 16 8 13 19 8 13 19 8 13 19 8 13 19 8 13 19 8 13 19 8 13 19 8 13 19 12 17 23 12 17 23 11 16 22 11 16 22 10 15 21 9 14 20 9 14 20 9 14 20 36 44 47 37 45 48 40 48 51 43 51 54 46 54 57 50 58 61 52 60 63 53 61 64 59 67 70 59 67 70 59 67 70 59 67 70 59 67 70 59 67 70 59 67 70 59 67 70 56 64 67 54 62 65 52 60 63 49 57 60 45 53 56 42 50 53 40 48 51 38 46 49 24 32 35 22 30 33 20 28 31 17 25 28 13 21 24 10 18 21 8 16 19 6 14 17 8 16 18 8 16 18 8 16 18 8 16 18 8 16 18 8 16 18 8 16 18 8 16 18 10 18 20 12 20 22 14 22 24 17 25 27 21 29 31 24 32 34 26 34 36 28 37 36 29 33 34 29 33 32 29 33 32 29 33 32 29 33 32 29 33 32 29 33 32 29 33 32 30 34 33 30 34 33 30 34 33 30 34 33 30 34 33 30 34 33 30 34 33 32 34 33 30 30 30 31 29 30 31 29 30 31 29 30 31 29 30 31 29 30 31 29 30 31 29 30 32 30 31 32 30 31 32 30 31 32 30 31 32 30 31 32 30 31 32 30 31 34 30 29 35 29 29 37 29 27 37 29 27 37 29 27 37 29 27 37 29 27 37 29 27 37 29 27 39 31 29 39 31 29 39 31 29 39 31 29 39 31 29 39 31 29 39 31 29 37 32 29
6 1 21 6 1 21 6 1 21 6 1 21 6 1 21 6 1 21 6 1 21 6 1 21 6 1 21 6 1 21 6 1 21 5 2 19 5 2 19 4 3 17 4 3 17 4 3 17 4 3 17 4 3 17 4 3 17 4 3 17 6 5 19 6 5 19 6 5 19 6 5 19 6 5 19 6 5 19 6 5 19 6 5 19 5 5 17 5 5 17 5 5 17 5 5 17 5 5 17 5 5 17 5 5 17 5 5 17 5 5 17 5 5 17 5 5 17 5 5 17 5 5 17 5 5 17 5 5 17 3 6 15 4 7 16 3 8 14 3 8 14 3 8 14 3 8 14 3 8 14 3 8 14 3 8 14 5 10 16 5 10 16 5 10 16 5 10 16 5 10 16 5 10 16 5 10 16 5 10 16 8 13 19 8 13 19 8 13 19 8 13 19 8 13 19 8 13 19 8 13 19 8 13 19 13 18 24 14 19 25 14 19 25 15 20 26 16 21 27 16 21 27 17 22 28 17 22 28 38 46 49 40 48 51 42 50 53 45 53 56 49 57 60 52 60 63 54 62 65 56 64 67 59 67 70 59 67 70 59 67 70 59 67 70 59 67 70 59 67 70 59 67 70 59 67 70 56 64 67 54 62 65 52 60 63 49 57 60 45 53 56 42 50 53 40 48 51 38 46 49 24 32 35 22 30 33 20 28 31 17 25 28 13 21 24 10 18 21 8 16 19 6 14 17 8 16 18 8 16 18 8 16 18 8 16 18 8 16 18 8 16 18 8 16 18 8 16 18 10 18 20 12 20 22 14 22 24 17 25 27 21 29 31 24 32 34 26 34 36 28 37 36 29 33 34 29 33 32 29 33 32 29 33 32 29 33 32 29 33 32 29 33 32 29 33 32 30 34 33 30 34 33 30 34 33 30 34 33 30 34 33 30 34 33 30 34 33 32 34 33 30 30 30 31 29 30 31 29 30 31 29 30 31 29 30 31 29 30 31 29 30 31 29 30 32 30 31 32 30 31 32 30 31 32 30 31 32 30 31 32 30 31 32 30 31 34 30 29 35 29 29 37 29 27 37 29 27 37 29 27 37 29 27 37 29 27 37 29 27 37 29 27 39 31 29 39 31 29 39 31 29 39 31 29 39 31 29 39 31 29 39 31 29 37 32 29
6 1 21 6 1 21 6 1 21 6 1 21 6 1 21 6 1 21 6 1 21 6 1 21 6 1 21 6 1 21 6 1 21 5 2 19 5 2 19 4 3 17 4 3 17 4 3 17 4 3 17 4 3 17 4 3 17 4 3 17 6 5 19 6 5 19 6 5 19 6 5 19 6 5 19 6 5 19 6 5 19 6 5 19 5 5 17 5 5 17 5 5 17 5 5 17 5 5 17 5 5 17 5 5 17 5 5 17 5 5 17 5 5 17 5 5 17 5 5 17 5 5 17 5 5 17 5 5 17 3 6 15 4 7 16 3 8 14 3 8 14 3 8 14 3 8 14 3 8 14 3 8 14 3 8 14 5 10 16 5 10 16 5 10 16 5 10 16 5 10 16 5 10 16 5 10 16 5 10 16 8 13 19 8 13 19 8 13 19 8 13 19 8 13 19 8 13 19 8 13 19 8 13 19 15 20 26 16 21 27 18 23 29 20 25 31 23 28 34 25 30 36 27 32 38 28 33 39 42 50 53 43 51 54 45 53 56 49 57 60 52 60 63 55 63 66 58 66 69 59 67 70 59 67 70 59 67 70 59 67 70 59 67 70 59 67 70 59 67 70 59 67 70 59 67 70 56 64 67 54 62 65 52 60 63 49 57 60 45 53 56 42 50 53 40 48 51 38 46 49 24 32 35 22 30 33 20 28 31 17 25 28 13 21 24 10 18 21 8 16 19 6 14 17 8 16 18 8 16 18 8 16 18 8 16 18 8 16 18 8 16 18 8 16 18 8 16 18 10 18 20 12 20 22 14 22 24 17 25 27 21 29 31 24 32 34 26 34 36 28 37 36 29 33 34 29 33 32 29 33 32 29 33 32 29 33 32 29 33 32 29 33 32 29 33 32 30 34 33 30 34 33 30 34 33 30 34 33 30 34 33 30 34 33 30 34 33 32 34 33 30 30 30 31 29 30 31 29 30 31 29 30 31 29 30 31 29 30 31 29 30 31 29 30 32 30 31 32 30 31 32 30 31 32 30 31 32 30 31 32 30 31 32 30 31 34 30 29 35 29 29 37 29 27 37 29 27 37 29 27 37 29 27 37 29 27 37 29 27 37 29 27 39 31 29 39 31 29 39 31 29 39 31 29 39 31 29 39 31 29 39 31 29 37 32 29
6 1 21 6 1 21 6 1 21 6 1 21 6 1 21 6 1 21 6 1 21 6 1 21 6 1 21 6 1 21 6 1 21 5 2 19 5 2 19 4 3 17 4 3 17 4 3 17 4 3 17 4 3 17 4 3 17 4 3 17 6 5 19 6 5 19 6 5 19 6 5 19 6 5 19 6 5 19 6 5 19 6 5 19 5 5 17 5 5 17 5 5 17 5 5 17 5 5 17 5 5 17 5 5 17 5 5 17 5 5 17 5 5 17 5 5 17 5 5 17 5 5 17 5 5 17 5 5 17 3 6 15 4 7 16 3 8 14 3 8 14 3 8 14 3 8 14 3 8 14 3 8 14 3 8 14 5 10 16 5 10 16 5 10 16 5 10 16 5 10 16 5 10 16 5 10 16 5 10 16 8 13 19 8 13 19 8 13 19 8 13 19 8 13 19 8 13 19 8 13 19 8 13 19 17 22 28 19 24 30 22 27 33 26 31 37 31 36 42 35 40 46 38 43 49 39 44 50 45 53 56 46 54 57 49 57 60 52 60 63 55 63 66 59 67 70 61 69 72 62 70 73 59 67 70 59 67 70 59 67 70 59 67 70 59 67 70 59 67 70 59 67 70 59 67 70 56 64 67 54 62 65 52 60 63 49 57 60 45 53 56 42 50 53 40 48 51 38 46 49 24 32 35 22 30 33 20 28 31 17 25 28 13 21 24 10 18 21 8 16 19 6 14 17 8 16 18 8 16 18 8 16 18 8 16 18 8 16 18 8 16 18 8 16 18 8 16 18 10 18 20 12 20 22 14 22 24 17 25 27 21 29 31 24 32 34 26 34 36 28 37 36 29 33 34 29 33 32 29 33 32 29 33 32 29 33 32 29 33 32 29 33 32 29 33 32 30 34 33 30 34 33 30 34 33 30 34 33 30 34 33 30 34 33 30 34 33 32 34 33 30 30 30 31 29 30 31 29 30 31 29 30 31 29 30 31 29 30 31 29 30 31 29 30 32 30 31 32 30 31 32 30 31 32 30 31 32 30 31 32 30 31 32 30 31 34 30 29 35 29 29 37 29 27 37 29 27 37 29 27 37 29 27 37 29 27 37 29 27 37 29 27 39 31 29 39 31 29 39 31 29 39 31 29 39 31 29 39 31 29 39 31 29 37 32 29
6 1 21 6 1 21 6 1 21 6 1 21 6 1 21 6 1 21 6 1 21 6 1 21 6 1 21 6 1 21 6 1 21 5 2 19 5 2 19 4 3 17 4 3 17 4 3 17 4 3 17 4 3 17 4 3 17 4 3 17 6 5 19 6 5 19 6 5 19 6 5 19 6 5 19 6 5 19 6 5 19 6 5 19 5 5 17 5 5 17 5 5 17 5 5 17 5 5 17 5 5 17 5 5 17 5 5 17 5 5 17 5 5 17 5 5 17 5 5 17 5 5 17 5 5 17 5 5 17 3 6 15 4 7 16 3 8 14 3 8 14 3 8 14 3 8 14 3 8 14 3 8 14 3 8 14 5 10 16 5 10 16 5 10 16 5 10 16 5 10 16 5 10 16 5 10 16 5 10 16 8 13 19 8 13 19 8 13 19 8 13 19 8 13 19 8 13 19 8 13 19 8 13 19 19 24 30 22 27 33 26 31 37 32 37 43 38 43 49 44 49 55 48 53 59 50 55 61 48 56 59 50 58 61 52 60 63 55 63 66 59 67 70 62 70 73 64 72 75 66 74 77 59 67 70 59 67 70 59 67 70 59 67 70 59 67 70 59 67 70 59 67 70 59 67 70 56 64 67 54 62 65 52 60 63 49 57 60 45 53 56 42 50 53 40 48 51 38 46 49 24 32 35 22 30 33 20 28 31 17 25 28 13 21 24 10 18 21 8 16 19 6 14 17 8 16 18 8 16 18 8 16 18 8 16 18 8 16 18 8 16 18 8 16 18 8 16 18 10 18 20 12 20 22 14 22 24 17 25 27 21 29 31 24 32 34 26 34 36 28 37 36 29 33 34 29 33 32 29 33 32 29 33 32 29 33 32 29 33 32 29 33 32 29 33 32 30 34 33 30 34 33 30 34 33 30 34 33 30 34 33 30 34 33 30 34 33 32 34 33 30 30 30 31 29 30 31 29 30 31 29 30 31 29 30 31 29 30 31 29 30 31 29 30 32 30 31 32 30 31 32 30 31 32 30 31 32 30 31 32 30 31 32 30 31 34 30 29 35 29 29 37 29 27 37 29 27 37 29 27 37 29 27 37 29 27 37 29 27 37 29 27 39 31 29 39 31 29 39 31 29 39 31 29 39 31 29 39 31 29 39 31 29 37 32 29
6 1 21 6 1 21 6 1 21 6 1 21 6 1 21 6 1 21 6 1 21 6 1 21 6 1 21 6 1 21 6 1 21 5 2 19 5 2 19 4 3 17 4 3 17 4 3 17 4 3 17 4 3 17 4 3 17 4 3 17 6 5 19 6 5 19 6 5 19 6 5 19 6 5 19 6 5 19 6 5 19 6 5 19 5 5 17 5 5 17 5 5 17 5 5 17 5 5 17 5 5 17 5 5 17 5 5 17 5 5 17 5 5 17 5 5 17 5 5 17 5 5 17 5 5 17 5 5 17 3 6 15 4 7 16 3 8 14 3 8 14 3 8 14 3 8 14 3 8 14 3 8 14 3 8 14 5 10 16 5 10 16 5 10 16 5 10 16 5 10 16 5 10 16 5 10 16 5 10 16 8 13 19 8 13 19 8 13 19 8 13 19 8 13 19 8 13 19 8 13 19 8 13 19 21 26 32 24 29 35 29 34 40 36 41 47 43 48 54 50 55 61 56 61 67 59 64 70 51 59 62 52 60 63 54 62 65 58 66 69 61 69 72 64 72 75 67 75 78 68 76 79 59 67 70 59 67 70 59 67 70 59 67 70 59 67 70 59 67 70 59 67 70 59 67 70 56 64 67 54 62 65 52 60 63 49 57 60 45 53 56 42 50 53 40 48 51 38 46 49 24 32 35 22 30 33 20 28 31 17 25 28 13 21 24 10 18 21 8 16 19 6 14 17 8 16 18 8 16 18 8 16 18 8 16 18 8 16 18 8 16 18 8 16 18 8 16 18 10 18 20 12 20 22 14 22 24 17 25 27 21 29 31 24 32 34 26 34 36 28 37 36 29 33 34 29 33 32 29 33 32 29 33 32 29 33 32 29 33 32 29 33 32 29 33 32 30 34 33 30 34 33 30 34 33 30 34 33 30 34 33 30 34 33 30 34 33 32 34 33 30 30 30 31 29 30 31 29 30 31 29 30 31 29 30 31 29 30 31 29 30 31 29 30 32 30 31 32 30 31 32 30 31 32 30 31 32 30 31 32 30 31 32 30 31 34 30 29 35 29 29 37 29 27 37 29 27 37 29 27 37 29 27 37 29 27 37 29 27 37 29 27 39 31 29 39 31 29 39 31 29 39 31 29 39 31 29 39 31 29 39 31 29 37 32 29
6 2 19 6 2 19 6 2 19 6 2 19 6 2 19 6 2 19 6 2 19 6 2 19 6 2 19 6 2 19 6 2 19 6 2 19 5 3 17 4 4 16 4 3 17 4 4 16 4 3 17 4 4 16 4 3 17 4 4 16 6 5 19 6 6 18 6 5 19 6 6 18 6 5 19 6 6 18 6 5 19 6 6 18 5 5 17 5 5 17 5 5 17 5 5 17 5 5 17 5 5 17 5 5 17 5 5 17 5 5 17 5 5 17 5 5 17 5 5 17 5 5 17 5 5 17 5 5 17 3 6 15 3 8 14 3 8 14 3 8 14 3 8 14 3 8 14 3 8 14 3 8 14 3 8 14 5 10 16 5 10 16 5 10 16 5 10 16 5 10 16 5 10 16 5 10 16 5 10 16 8 13 19 8 13 19 8 13 19 8 13 19 8 13 19 8 13 19 8 13 19 8 13 19 22 27 33 25 30 36 31 36 42 38 43 49 46 51 57 54 59 65 60 65 71 63 68 74 52 60 63 53 61 64 56 64 67 59 67 70 62 70 73 66 74 77 68 76 79 69 77 80 59 67 70 59 67 70 59 67 70 59 67 70 59 67 70 59 67 70 59 67 70 59 67 70 56 64 67 54 62 65 52 60 63 49 57 60 45 53 56 42 50 53 40 48 51 38 46 49 24 32 35 22 30 33 20 28 31 17 25 28 13 21 24 10 18 21 8 16 19 6 14 17 8 16 18 8 16 18 8 16 18 8 16 18 8 16 18 8 16 18 8 16 18 8 16 18 10 18 20 12 20 22 14 22 24 17 25 27 21 29 31 24 32 34 26 34 36 28 36 38 28 34 34 29 33 32 29 33 34 29 33 32 29 33 34 29 33 32 29 33 34 29 33 32 30 34 35 30 34 33 30 34 35 30 34 33 30 34 35 30 34 33 30 34 35 32 34 33 31 29 30 31 30 28 33 29 30 31 30 28 33 29 30 31 30 28 33 29 30 31 30 28 34 30 31 32 31 29 34 30 31 32 31 29 34 30 31 32 31 29 34 30 31 34 30 29 37 29 27 37 29 27 37 29 27 37 29 27 37 29 27 37 29 27 37 29 27 37 29 27 39 31 29 39 31 29 39 31 29 39 31 29 39 31 29 39 31 29 39 31 29 39 31 29
4 0 14 4 0 14 4 0 14 4 0 14 6 2 16 6 2 16 6 2 16 6 2 16 6 2 16 6 2 16 6 2 16 6 2 16 6 4 17 6 4 15 6 4 17 6 4 15 6 4 17 6 4 15 6 4 17 6 4 15 3 1 14 3 1 12 3 1 14 3 1 12 3 1 14 3 1 12 3 1 14 3 1 12 3 3 13 3 3 13 3 3 13 3 3 13 3 3 13 3 3 13 3 3 13 3 3 13 6 6 16 6 6 16 6 6 16 6 6 16 6 6 16 6 6 16 6 6 16 4 7 16 4 9 15 2 9 15 2 9 15 2 9 15 2 9 15 2 9 15 2 9 15 2 9 15 9 16 22 8 15 21 7 14 20 6 13 19 5 12 18 3 10 16 3 10 16 2 9 15 9 16 22 10 17 23 13 20 26 16 23 29 19 26 32 23 30 36 25 32 38 26 33 39 44 51 57 44 51 57 44 51 57 44 51 57 44 51 57 44 51 57 44 51 57 44 51 57 65 70 74 65 70 74 65 70 74 65 70 74 65 70 74 65 70 74 65 70 74 65 70 74 62 67 71 62 67 71 62 67 71 62 67 71 62 67 71 62 67 71 62 67 71 62 67 71 65 70 74 65 70 74 65 70 74 65 70 74 65 70 74 65 70 74 65 70 74 65 70 74 46 51 55 40 45 49 30 35 39 23 28 32 21 26 30 24 29 33 31 36 40 36 41 45 21 29 32 20 28 31 17 25 28 14 22 25 11 19 22 7 15 18 5 13 16 4 12 15 14 22 25 14 22 25 14 22 25 14 22 25 14 22 25 14 22 25 14 22 25 14 22 24 29 34 37 29 35 35 29 34 37 29 35 35 29 34 37 29 35 35 29 34 37 29 35 35 20 25 28 20 26 26 20 25 28 20 26 26 20 25 28 20 26 26 20 25 28 23 24 26 29 28 26 31 27 24 32 26 26 31 27 24 32 26 26 31 27 24 32 26 26 31 27 24 34 28 28 33 29 26 34 28 28 33 29 26 34 28 28 33 29 26 34 28 28 34 29 26 37 29 27 38 28 27 38 28 27 38 28 27 38 28 27 38 28 27 38 28 27 38 28 27 38 28 27 38 28 27 38 28 27 38 28 27 38 28 27 38 28 27 38 28 27 37 29 27
4 1 12 4 1 12 4 1 12 4 1 12 6 3 14 6 3 14 6 3 14 6 3 14 6 3 14 6 3 14 6 3 14 6 3 14 6 4 15 6 4 15 6 4 15 6 4 15 6 4 15 6 4 15 6 4 15 6 4 15 3 1 12 3 1 12 3 1 12 3 1 12 3 1 12 3 1 12 3 1 12 3 1 12 3 3 13 3 3 13 3 3 13 3 3 13 3 3 13 3 3 13 3 3 13 3 3 13 6 6 16 6 6 16 6 6 16 6 6 16 6 6 16 6 6 16 6 6 16 4 7 16 4 9 15 2 9 15 2 9 15 2 9 15 2 9 15 2 9 15 2 9 15 2 9 15 8 15 21 8 15 21 8 15 21 7 14 20 6 13 19 6 13 19 5 12 18 5 12 18 12 19 25 13 20 26 15 22 28 19 26 32 22 29 35 25 32 38 28 35 41 29 36 42 46 53 59 46 53 59 46 53 59 46 53 59 46 53 59 46 53 59 46 53 59 46 53 59 65 70 74 65 70 74 65 70 74 65 70 74 65 70 74 65 70 74 65 70 74 65 70 74 64 69 73 64 69 73 64 69 73 64 69 73 64 69 73 64 69 73 64 69 73 64 69 73 67 72 76 67 72 76 67 72 76 67 72 76 67 72 76 67 72 76 67 72 76 67 72 76 49 54 58 43 48 52 33 38 42 24 29 33 22 27 31 25 30 34 31 36 40 35 40 44 22 30 33 21 29 32 19 27 30 15 23 26 12 20 23 9 17 20 6 14 17 5 13 16 14 22 25 14 22 25 14 22 25 14 22 25 14 22 25 14 22 25 14 22 25 14 22 25 27 32 35 27 32 35 27 32 35 27 32 35 27 32 35 27 32 35 27 32 35 27 32 35 20 25 28 20 25 28 20 25 28 20 25 28 20 25 28 20 25 28 20 25 28 21 25 26 31 27 26 32 27 24 32 27 24 32 27 24 32 27 24 32 27 24 32 27 24 32 27 24 34 29 26 34 29 26 34 29 26 34 29 26 34 29 26 34 29 26 34 29 26 34 29 26 38 28 27 38 28 27 38 28 27 38 28 27 38 28 27 38 28 27 38 28 27 38 28 27 38 28 27 38 28 27 38 28 27 38 28 27 38 28 27 38 28 27 38 28 27 37 29 27
4 1 12 4 1 12 4 1 12 4 1 12 6 3 14 6 3 14 6 3 14 6 3 14 6 3 14 6 3 14 6 3 14 6 3 14 6 4 15 6 4 15 6 4 15 6 4 15 6 4 15 6 4 15 6 4 15 6 4 15 3 1 12 3 1 12 3 1 12 3 1 12 3 1 12 3 1 12 3 1 12 3 1 12 3 3 13 3 3 13 3 3 13 3 3 13 3 3 13 3 3 13 3 3 13 3 3 13 6 6 16 6 6 16 6 6 16 6 6 16 6 6 16 6 6 16 6 6 16 4 7 16 4 9 15 2 9 15 2 9 15 2 9 15 2 9 15 2 9 15 2 9 15 2 9 15 7 14 20 8 15 21 8 15 21 9 16 22 9 16 22 10 17 23 11 18 24 11 18 24 17 24 30 18 25 31 20 27 33 23 30 36 27 34 40 30 37 43 33 40 46 34 41 47 48 55 61 48 55 61 48 55 61 48 55 61 48 55 61 48 55 61 48 55 61 48 55 61 65 70 74 65 70 74 65 70 74 65 70 74 65 70 74 65 70 74 65 70 74 65 70 74 66 71 75 66 71 75 66 71 75 66 71 75 66 71 75 66 71 75 66 71 75 66 71 75 69 74 78 69 74 78 69 74 78 69 74 78 69 74 78 69 74 78 69 74 78 69 74 78 55 60 64 48 53 57 37 42 46 28 33 37 23 28 32 25 30 34 30 35 39 34 39 43 25 33 36 23 31 34 21 29 32 18 26 29 14 22 25 11 19 22 9 17 20 7 15 18 14 22 25 14 22 25 14 22 25 14 22 25 14 22 25 14 22 25 14 22 25 14 22 25 25 30 33 25 30 33 25 30 33 25 30 33 25 30 33 25 30 33 25 30 33 25 30 33 20 25 28 20 25 28 20 25 28 20 25 28 20 25 28 20 25 28 20 25 28 21 25 26 31 27 26 32 27 24 32 27 24 32 27 24 32 27 24 32 27 24 32 27 24 32 27 24 34 29 26 34 29 26 34 29 26 34 29 26 34 29 26 34 29 26 34 29 26 34 29 26 38 28 27 38 28 27 38 28 27 38 28 27 38 28 27 38 28 27 38 28 27 38 28 27 38 28 27 38 28 27 38 28 27 38 28 27 38 28 27 38 28 27 38 28 27 37 29 27
