P3
172 37
255
122 105 121 122 105 121 122 105 121 122 105 121 117 100 116 117 100 116 117 100 116 117 100 116 117 100 116 117 100 116 117 100 116 117 100 116 119 102 118 117 100 116 115 98 114 112 95 111 108 91 107 105 88 104 103 86 102 101 84 100 91 74 90 90 73 89 88 71 87 84 67 83 81 64 80 78 61 77 75 58 74 72 58 73 46 32 47 43 31 45 38 26 40 31 19 33 24 12 26 18 6 20 13 1 15 11 0 13 12 0 14 12 0 14 12 0 14 12 0 14 12 0 14 12 0 14 12 0 14 11 0 14 7 1 13 5 2 13 5 2 13 5 2 13 5 2 13 5 2 13 5 2 13 5 2 13 10 7 18 10 7 18 10 7 18 10 7 18 10 7 18 10 7 18 10 7 18 9 8 16 11 10 18 10 11 16 10 11 16 10 11 16 10 11 16 10 11 16 10 11 16 10 11 16 9 10 15 9 10 15 9 10 15 9 10 15 9 10 15 9 10 15 9 10 15 9 10 15 7 10 17 7 10 17 7 10 17 7 10 17 7 10 17 7 10 17 7 10 17 7 10 17 8 11 18 8 11 18 8 11 18 8 11 18 8 11 18 8 11 18 8 11 18 8 11 16 0 0 5 0 1 4 2 6 9 9 13 16 17 21 24 24 28 31 29 33 36 32 36 39 14 18 21 13 17 20 10 14 17 6 10 13 2 6 9 0 2 5 0 1 4 0 1 4 0 3 4 1 5 6 3 7 8 6 10 11 10 14 15 13 17 18 15 19 20 17 21 22 22 26 27 24 28 29 29 33 34 36 40 41 42 46 47 49 53 54 54 58 59 56 60 61 61 65 64 62 66 65 65 69 68 68 72 71 71 75 74 75 79 78 77 81 80 78 82 81 93 97 96 94 98 97 97 101 100 100 104 103 103 107 106 107 111 110 109 113 112 112 114 113 82 82 82 75 73 74 62 60 61 50 48 49 43 41 42 42 40 41 45 43 44 48 46 47 42 40 41 42 40 41 42 40 41 42 40 41 42 40 41 42 40 41 42 40 41 42 40 41 39 37 38 39 37 38 39 37 38 39 37 38 39 37 38 39 37 38 39 37 38 39 37 38 43 41 42 43 41 42 43 41 42 43 41 42 43 41 42 43 41 42 43 41 42 43 41 42
120 103 121 120 103 121 120 103 121 120 103 121 115 98 116 115 98 116 115 98 116 115 98 116 115 98 116 115 98 116 115 98 116 115 98 116 117 103 120 115 101 116 113 99 116 110 96 111 106 92 109 103 89 104 101 87 104 99 85 100 88 74 91 87 73 88 84 70 87 81 67 82 78 64 81 74 60 75 72 58 75 71 57 72 41 28 45 38 27 41 33 22 38 26 15 29 20 9 25 13 2 16 8 0 13 6 0 9 13 2 18 13 2 16 13 2 18 13 2 16 13 2 18 13 2 16 13 2 18 11 3 16 3 0 11 2 0 11 2 0 11 2 0 11 2 0 11 2 0 11 2 0 11 2 0 11 9 7 18 9 7 18 9 7 18 9 7 18 9 7 18 9 7 18 9 7 18 9 7 18 10 10 18 8 11 16 8 11 18 8 11 16 8 11 18 8 11 16 8 11 18 8 11 16 7 10 17 7 10 15 7 10 17 7 10 15 7 10 17 7 10 15 7 10 17 7 10 17 7 10 17 6 11 17 7 10 17 6 11 17 7 10 17 6 11 17 7 10 17 6 11 17 8 11 18 7 12 18 8 11 18 7 12 18 8 11 18 7 12 18 8 11 18 8 11 18 0 0 5 0 1 4 1 5 8 9 13 16 17 21 24 25 29 32 31 35 38 34 38 41 16 20 23 14 18 21 11 15 18 6 10 13 2 6 9 0 1 4 0 1 4 0 1 4 0 3 6 1 5 6 3 7 10 6 10 11 10 14 17 13 17 18 15 19 22 17 21 22 22 26 29 24 28 29 29 33 36 36 40 41 42 46 49 49 53 54 54 58 61 56 60 61 60 64 63 61 65 64 63 67 66 67 71 70 70 74 73 73 77 76 76 80 79 77 81 80 92 96 95 93 97 96 95 99 98 99 103 102 102 106 105 105 109 108 108 112 111 111 113 112 82 82 82 75 73 74 62 60 61 50 48 49 43 41 42 42 40 41 45 43 44 48 46 47 42 40 41 42 40 41 42 40 41 42 40 41 42 40 41 42 40 41 42 40 41 42 40 41 39 37 38 39 37 38 39 37 38 39 37 38 39 37 38 39 37 38 39 37 38 39 37 38 43 41 42 43 41 42 43 41 42 43 41 42 43 41 42 43 41 42 43 41 42 43 41 42
125 107 129 125 107 129 125 107 129 125 107 129 135 117 139 134 116 138 132 114 136 128 110 132 125 107 129 122 104 126 119 101 123 116 101 122 122 109 127 119 106 123 114 101 119 108 95 112 101 88 106 95 82 99 90 77 95 87 74 91 95 82 100 91 78 95 83 70 88 72 59 76 60 47 65 49 36 53 41 28 46 36 25 41 9 0 17 8 2 16 8 1 17 8 2 16 8 1 17 8 2 16 8 1 17 8 2 16 9 2 18 9 3 17 9 2 18 9 3 17 9 2 18 9 3 17 9 2 18 7 3 17 6 6 18 4 6 18 4 6 18 4 6 18 4 6 18 4 6 18 4 6 18 4 6 18 7 9 21 7 9 21 7 9 21 7 9 21 7 9 21 7 9 21 7 9 21 7 10 19 8 12 21 8 13 19 8 12 21 8 13 19 8 12 21 8 13 19 8 12 21 8 13 19 9 13 22 9 14 20 9 13 22 9 14 20 9 13 22 9 14 20 9 13 22 9 14 20 9 14 20 7 14 20 9 14 20 7 14 20 9 14 20 7 14 20 9 14 20 7 14 20 3 8 14 1 8 14 3 8 14 1 8 14 3 8 14 1 8 14 3 8 14 3 8 14 0 3 7 0 5 9 4 9 13 8 13 17 13 18 22 17 22 26 21 26 30 22 27 31 37 42 46 29 34 38 16 21 25 4 9 13 0 2 6 0 1 5 0 4 8 2 7 11 3 6 11 3 7 10 3 6 11 3 7 10 3 6 11 3 7 10 3 6 11 3 7 10 16 19 24 18 22 25 23 26 31 30 34 37 36 39 44 43 47 50 48 51 56 50 54 57 55 59 60 57 61 60 59 63 62 62 66 65 66 70 69 69 73 72 71 75 74 73 77 76 84 88 87 85 89 88 88 92 91 91 95 94 94 98 97 98 102 101 100 104 103 103 105 104 81 81 79 74 73 71 61 60 58 49 48 46 42 41 39 41 40 38 44 43 41 47 46 44 42 41 39 42 41 39 42 41 39 42 41 39 42 41 39 42 41 39 42 41 39 42 41 39 42 38 39 42 38 39 42 38 39 42 38 39 42 38 39 42 38 39 42 38 39 42 38 39 40 36 37 40 36 37 40 36 37 40 36 37 40 36 37 40 36 37 40 36 37 40 36 37
125 107 131 125 107 131 125 107 131 125 107 131 134 116 140 133 115 139 130 112 136 127 109 133 124 106 130 120 102 126 118 100 124 115 100 121 119 106 126 115 104 121 111 100 117 104 93 110 97 86 103 91 80 97 86 75 92 83 72 89 89 78 95 84 73 90 77 66 83 67 56 73 56 45 62 45 34 51 38 27 44 32 23 40 8 1 17 6 2 17 6 2 17 6 2 17 6 2 17 6 2 17 6 2 17 6 2 17 7 3 18 7 3 18 7 3 18 7 3 18 7 3 18 7 3 18 7 3 18 6 4 18 4 6 18 3 7 18 3 7 18 3 7 18 3 7 18 3 7 18 3 7 18 3 7 18 6 10 21 6 10 21 6 10 21 6 10 21 6 10 21 6 10 21 6 10 21 6 10 21 6 13 21 6 13 21 6 13 21 6 13 21 6 13 21 6 13 21 6 13 21 6 13 21 7 14 22 7 14 22 7 14 22 7 14 22 7 14 22 7 14 22 7 14 22 7 14 22 7 14 20 7 14 20 7 14 20 7 14 20 7 14 20 7 14 20 7 14 20 7 14 20 3 10 16 3 10 16 3 10 16 3 10 16 3 10 16 3 10 16 3 10 16 3 10 16 1 6 10 3 8 12 6 11 15 10 15 19 14 19 23 17 22 26 20 25 29 22 27 31 37 42 46 29 34 38 16 21 25 4 9 13 0 2 6 0 1 5 0 4 8 2 7 11 3 6 11 3 6 11 3 6 11 3 6 11 3 6 11 3 6 11 3 6 11 3 6 11 16 19 24 18 21 26 23 26 31 30 33 38 36 39 44 43 46 51 48 51 56 50 54 57 55 59 60 57 61 60 59 63 62 62 66 65 66 70 69 69 73 72 71 75 74 73 77 76 83 87 86 84 88 87 86 90 89 90 94 93 93 97 96 96 100 99 99 103 102 102 104 103 81 81 79 74 73 71 61 60 58 49 48 46 42 41 39 41 40 38 44 43 41 47 46 44 42 41 39 42 41 39 42 41 39 42 41 39 42 41 39 42 41 39 42 41 39 42 41 39 42 38 39 42 38 39 42 38 39 42 38 39 42 38 39 42 38 39 42 38 39 42 38 39 40 36 37 40 36 37 40 36 37 40 36 37 40 36 37 40 36 37 40 36 37 40 36 37
125 107 131 125 107 131 125 107 131 125 107 131 132 114 138 130 112 136 128 110 134 125 107 131 121 103 127 118 100 124 116 98 122 112 97 118 114 101 121 111 100 117 106 95 112 99 88 105 92 81 98 86 75 92 81 70 87 78 67 84 78 67 84 74 63 80 67 56 73 59 48 65 49 38 55 40 29 46 33 22 39 28 19 36 8 1 17 6 2 17 6 2 17 6 2 17 6 2 17 6 2 17 6 2 17 6 2 17 7 3 18 7 3 18 7 3 18 7 3 18 7 3 18 7 3 18 7 3 18 6 4 18 4 6 18 3 7 18 3 7 18 3 7 18 3 7 18 3 7 18 3 7 18 3 7 18 6 10 21 6 10 21 6 10 21 6 10 21 6 10 21 6 10 21 6 10 21 6 10 21 6 13 21 6 13 21 6 13 21 6 13 21 6 13 21 6 13 21 6 13 21 6 13 21 7 14 22 7 14 22 7 14 22 7 14 22 7 14 22 7 14 22 7 14 22 7 14 22 7 14 20 7 14 20 7 14 20 7 14 20 7 14 20 7 14 20 7 14 20 7 14 20 5 12 18 5 12 18 5 12 18 5 12 18 5 12 18 5 12 18 5 12 18 5 12 18 7 12 16 8 13 17 10 15 19 13 18 22 15 20 24 18 23 27 20 25 29 21 26 30 37 42 46 29 34 38 16 21 25 4 9 13 0 2 6 0 1 5 0 4 8 2 7 11 3 6 11 3 6 11 3 6 11 3 6 11 3 6 11 3 6 11 3 6 11 3 6 11 16 19 24 18 21 26 23 26 31 30 33 38 36 39 44 43 46 51 48 51 56 50 54 57 55 59 60 57 61 60 59 63 62 62 66 65 66 70 69 69 73 72 71 75 74 73 77 76 80 84 83 82 86 85 84 88 87 87 91 90 91 95 94 94 98 97 96 100 99 100 102 101 81 81 79 74 73 71 61 60 58 49 48 46 42 41 39 41 40 38 44 43 41 47 46 44 42 41 39 42 41 39 42 41 39 42 41 39 42 41 39 42 41 39 42 41 39 42 41 39 42 38 39 42 38 39 42 38 39 42 38 39 42 38 39 42 38 39 42 38 39 42 38 39 40 36 37 40 36 37 40 36 37 40 36 37 40 36 37 40 36 37 40 36 37 40 36 37
125 107 131 125 107 131 125 107 131 125 107 131 128 110 134 127 109 133 125 107 131 121 103 127 118 100 124 115 97 121 112 94 118 109 94 115 108 95 115 104 93 110 99 88 105 93 82 99 86 75 92 80 69 86 75 64 81 72 61 78 64 53 70 61 50 67 55 44 61 48 37 54 40 29 46 33 22 39 27 16 33 22 13 30 8 1 17 6 2 17 6 2 17 6 2 17 6 2 17 6 2 17 6 2 17 6 2 17 7 3 18 7 3 18 7 3 18 7 3 18 7 3 18 7 3 18 7 3 18 6 4 18 4 6 18 3 7 18 3 7 18 3 7 18 3 7 18 3 7 18 3 7 18 3 7 18 6 10 21 6 10 21 6 10 21 6 10 21 6 10 21 6 10 21 6 10 21 6 10 21 6 13 21 6 13 21 6 13 21 6 13 21 6 13 21 6 13 21 6 13 21 6 13 21 7 14 22 7 14 22 7 14 22 7 14 22 7 14 22 7 14 22 7 14 22 7 14 22 7 14 20 7 14 20 7 14 20 7 14 20 7 14 20 7 14 20 7 14 20 7 14 20 8 15 21 8 15 21 8 15 21 8 15 21 8 15 21 8 15 21 8 15 21 8 15 21 15 20 24 15 20 24 16 21 25 17 22 26 18 23 27 19 24 28 19 24 28 20 25 29 37 42 46 29 34 38 16 21 25 4 9 13 0 2 6 0 1 5 0 4 8 2 7 11 3 6 11 3 6 11 3 6 11 3 6 11 3 6 11 3 6 11 3 6 11 3 6 11 16 19 24 18 21 26 23 26 31 30 33 38 36 39 44 43 46 51 48 51 56 50 54 57 55 59 60 57 61 60 59 63 62 62 66 65 66 70 69 69 73 72 71 75 74 73 77 76 77 81 80 78 82 81 81 85 84 84 88 87 87 91 90 91 95 94 93 97 96 96 98 97 81 81 79 74 73 71 61 60 58 49 48 46 42 41 39 41 40 38 44 43 41 47 46 44 42 41 39 42 41 39 42 41 39 42 41 39 42 41 39 42 41 39 42 41 39 42 41 39 42 38 39 42 38 39 42 38 39 42 38 39 42 38 39 42 38 39 42 38 39 42 38 39 40 36 37 40 36 37 40 36 37 40 36 37 40 36 37 40 36 37 40 36 37 40 36 37
125 107 131 125 107 131 125 107 131 125 107 131 125 107 131 124 106 130 121 103 127 118 100 124 115 97 121 111 93 117 109 91 115 106 91 112 101 88 108 97 86 103 92 81 98 86 75 92 79 68 85 73 62 79 68 57 74 65 54 71 49 38 55 46 35 52 42 31 48 37 26 43 31 20 37 25 14 31 21 10 27 17 8 25 8 1 17 6 2 17 6 2 17 6 2 17 6 2 17 6 2 17 6 2 17 6 2 17 7 3 18 7 3 18 7 3 18 7 3 18 7 3 18 7 3 18 7 3 18 6 4 18 4 6 18 3 7 18 3 7 18 3 7 18 3 7 18 3 7 18 3 7 18 3 7 18 6 10 21 6 10 21 6 10 21 6 10 21 6 10 21 6 10 21 6 10 21 6 10 21 6 13 21 6 13 21 6 13 21 6 13 21 6 13 21 6 13 21 6 13 21 6 13 21 7 14 22 7 14 22 7 14 22 7 14 22 7 14 22 7 14 22 7 14 22 7 14 22 7 14 20 7 14 20 7 14 20 7 14 20 7 14 20 7 14 20 7 14 20 7 14 20 12 19 25 12 19 25 12 19 25 12 19 25 12 19 25 12 19 25 12 19 25 12 19 25 23 28 32 23 28 32 22 27 31 21 26 30 20 25 29 19 24 28 19 24 28 18 23 27 37 42 46 29 34 38 16 21 25 4 9 13 0 2 6 0 1 5 0 4 8 2 7 11 3 6 11 3 6 11 3 6 11 3 6 11 3 6 11 3 6 11 3 6 11 3 6 11 16 19 24 18 21 26 23 26 31 30 33 38 36 39 44 43 46 51 48 51 56 50 54 57 55 59 60 57 61 60 59 63 62 62 66 65 66 70 69 69 73 72 71 75 74 73 77 76 74 78 77 75 79 78 77 81 80 81 85 84 84 88 87 87 91 90 90 94 93 93 95 94 81 81 79 74 73 71 61 60 58 49 48 46 42 41 39 41 40 38 44 43 41 47 46 44 42 41 39 42 41 39 42 41 39 42 41 39 42 41 39 42 41 39 42 41 39 42 41 39 42 38 39 42 38 39 42 38 39 42 38 39 42 38 39 42 38 39 42 38 39 42 38 39 40 36 37 40 36 37 40 36 37 40 36 37 40 36 37 40 36 37 40 36 37 40 36 37
125 107 131 125 107 131 125 107 131 125 107 131 122 104 128 120 102 126 118 100 124 115 97 121 111 93 117 108 90 114 106 88 112 102 87 108 95 82 102 91 80 97 86 75 92 80 69 86 73 62 79 66 55 72 61 50 67 59 48 65 35 24 41 33 22 39 30 19 36 26 15 32 22 11 28 18 7 24 15 4 21 12 3 20 8 1 17 6 2 17 6 2 17 6 2 17 6 2 17 6 2 17 6 2 17 6 2 17 7 3 18 7 3 18 7 3 18 7 3 18 7 3 18 7 3 18 7 3 18 6 4 18 4 6 18 3 7 18 3 7 18 3 7 18 3 7 18 3 7 18 3 7 18 3 7 18 6 10 21 6 10 21 6 10 21 6 10 21 6 10 21 6 10 21 6 10 21 6 10 21 6 13 21 6 13 21 6 13 21 6 13 21 6 13 21 6 13 21 6 13 21 6 13 21 7 14 22 7 14 22 7 14 22 7 14 22 7 14 22 7 14 22 7 14 22 7 14 22 7 14 20 7 14 20 7 14 20 7 14 20 7 14 20 7 14 20 7 14 20 7 14 20 15 22 28 15 22 28 15 22 28 15 22 28 15 22 28 15 22 28 15 22 28 15 22 28 31 36 40 30 35 39 28 33 37 25 30 34 23 28 32 20 25 29 18 23 27 17 22 26 37 42 46 29 34 38 16 21 25 4 9 13 0 2 6 0 1 5 0 4 8 2 7 11 3 6 11 3 6 11 3 6 11 3 6 11 3 6 11 3 6 11 3 6 11 3 6 11 16 19 24 18 21 26 23 26 31 30 33 38 36 39 44 43 46 51 48 51 56 50 54 57 55 59 60 57 61 60 59 63 62 62 66 65 66 70 69 69 73 72 71 75 74 73 77 76 70 74 73 72 76 75 74 78 77 77 81 80 81 85 84 84 88 87 86 90 89 90 92 91 81 81 79 74 73 71 61 60 58 49 48 46 42 41 39 41 40 38 44 43 41 47 46 44 42 41 39 42 41 39 42 41 39 42 41 39 42 41 39 42 41 39 42 41 39 42 41 39 42 38 39 42 38 39 42 38 39 42 38 39 42 38 39 42 38 39 42 38 39 42 38 39 40 36 37 40 36 37 40 36 37 40 36 37 40 36 37 40 36 37 40 36 37 40 36 37
125 107 131 125 107 131 125 107 131 125 107 131 119 101 125 118 100 124 116 98 122 112 94 118 109 91 115 106 88 112 103 85 109 100 85 106 90 77 97 86 75 92 81 70 87 75 64 81 68 57 74 61 50 67 57 46 63 54 43 60 24 13 30 23 12 29 21 10 27 18 7 24 16 5 22 13 2 19 11 0 17 8 0 16 8 1 17 6 2 17 6 2 17 6 2 17 6 2 17 6 2 17 6 2 17 6 2 17 7 3 18 7 3 18 7 3 18 7 3 18 7 3 18 7 3 18 7 3 18 6 4 18 4 6 18 3 7 18 3 7 18 3 7 18 3 7 18 3 7 18 3 7 18 3 7 18 6 10 21 6 10 21 6 10 21 6 10 21 6 10 21 6 10 21 6 10 21 6 10 21 6 13 21 6 13 21 6 13 21 6 13 21 6 13 21 6 13 21 6 13 21 6 13 21 7 14 22 7 14 22 7 14 22 7 14 22 7 14 22 7 14 22 7 14 22 7 14 22 7 14 20 7 14 20 7 14 20 7 14 20 7 14 20 7 14 20 7 14 20 7 14 20 17 24 30 17 24 30 17 24 30 17 24 30 17 24 30 17 24 30 17 24 30 17 24 30 37 42 46 35 40 44 32 37 41 28 33 37 24 29 33 21 26 30 18 23 27 16 21 25 37 42 46 29 34 38 16 21 25 4 9 13 0 2 6 0 1 5 0 4 8 2 7 11 3 6 11 3 6 11 3 6 11 3 6 11 3 6 11 3 6 11 3 6 11 3 6 11 16 19 24 18 21 26 23 26 31 30 33 38 36 39 44 43 46 51 48 51 56 50 54 57 55 59 60 57 61 60 59 63 62 62 66 65 66 70 69 69 73 72 71 75 74 73 77 76 68 72 71 69 73 72 72 76 75 75 79 78 78 82 81 82 86 85 84 88 87 87 89 88 81 81 79 74 73 71 61 60 58 49 48 46 42 41 39 41 40 38 44 43 41 47 46 44 42 41 39 42 41 39 42 41 39 42 41 39 42 41 39 42 41 39 42 41 39 42 41 39 42 38 39 42 38 39 42 38 39 42 38 39 42 38 39 42 38 39 42 38 39 42 38 39 40 36 37 40 36 37 40 36 37 40 36 37 40 36 37 40 36 37 40 36 37 40 36 37
125 107 131 125 107 131 125 107 131 125 107 131 118 100 124 117 99 123 114 96 120 111 93 117 108 90 114 104 86 110 102 84 108 99 84 105 87 74 94 83 72 89 78 67 84 72 61 78 65 54 71 59 48 65 54 43 60 51 40 57 18 7 24 18 7 24 16 5 22 14 3 20 12 1 18 10 0 16 8 0 14 6 0 14 8 1 17 6 2 17 6 2 17 6 2 17 6 2 17 6 2 17 6 2 17 6 2 17 7 3 18 7 3 18 7 3 18 7 3 18 7 3 18 7 3 18 7 3 18 6 4 18 4 6 18 3 7 18 3 7 18 3 7 18 3 7 18 3 7 18 3 7 18 3 7 18 6 10 21 6 10 21 6 10 21 6 10 21 6 10 21 6 10 21 6 10 21 6 10 21 6 13 21 6 13 21 6 13 21 6 13 21 6 13 21 6 13 21 6 13 21 6 13 21 7 14 22 7 14 22 7 14 22 7 14 22 7 14 22 7 14 22 7 14 22 7 14 22 7 14 20 7 14 20 7 14 20 7 14 20 7 14 20 7 14 20 7 14 20 7 14 20 19 26 32 19 26 32 19 26 32 19 26 32 19 26 32 19 26 32 19 26 32 19 26 32 40 45 49 38 43 47 34 39 43 30 35 39 25 30 34 21 26 30 17 22 26 16 21 25 37 42 46 29 34 38 16 21 25 4 9 13 0 2 6 0 1 5 0 4 8 2 7 11 3 6 11 3 6 11 3 6 11 3 6 11 3 6 11 3 6 11 3 6 11 3 6 11 16 19 24 18 21 26 23 26 31 30 33 38 36 39 44 43 46 51 48 51 56 50 54 57 55 59 60 57 61 60 59 63 62 62 66 65 66 70 69 69 73 72 71 75 74 73 77 76 67 71 70 68 72 71 70 74 73 74 78 77 77 81 80 80 84 83 83 87 86 86 88 87 81 81 79 74 73 71 61 60 58 49 48 46 42 41 39 41 40 38 44 43 41 47 46 44 42 41 39 42 41 39 42 41 39 42 41 39 42 41 39 42 41 39 42 41 39 42 41 39 42 38 39 42 38 39 42 38 39 42 38 39 42 38 39 42 38 39 42 38 39 42 38 39 40 36 37 40 36 37 40 36 37 40 36 37 40 36 37 40 36 37 40 36 37 40 36 37
112 94 118 109 91 115 107 89 113 105 87 111 120 102 126 117 99 123 112 94 118 106 88 112 99 81 105 93 75 99 88 70 94 83 68 89 71 58 78 66 55 72 61 50 67 53 42 59 45 34 51 37 26 43 31 20 37 28 17 34 11 0 17 11 0 17 11 0 17 11 0 17 11 0 17 11 0 17 11 0 17 9 0 17 8 1 17 6 2 17 6 2 17 6 2 17 6 2 17 6 2 17 6 2 17 6 2 17 6 2 17 6 2 17 6 2 17 6 2 17 6 2 17 6 2 17 6 2 17 5 3 17 3 5 17 2 6 17 2 6 17 2 6 17 2 6 17 2 6 17 2 6 17 2 6 17 4 8 19 4 8 19 4 8 19 4 8 19 4 8 19 4 8 19 4 8 19 4 8 19 5 12 20 5 12 20 5 12 20 5 12 20 5 12 20 5 12 20 5 12 20 5 12 20 7 14 22 7 14 22 7 14 22 7 14 22 7 14 22 7 14 22 7 14 22 7 14 22 6 13 19 5 12 18 4 11 17 3 10 16 2 9 15 0 7 13 0 7 13 0 6 12 10 17 23 11 18 24 15 22 28 19 26 32 24 31 37 28 35 41 32 39 45 34 41 47 41 46 50 39 44 48 37 42 46 34 39 43 30 35 39 27 32 36 25 30 34 23 28 32 15 20 24 13 18 22 11 16 20 8 13 17 4 9 13 1 6 10 0 4 8 0 2 6 3 6 11 3 6 11 3 6 11 3 6 11 3 6 11 3 6 11 3 6 11 3 6 11 18 21 26 20 23 28 22 25 30 25 28 33 29 32 37 32 35 40 34 37 42 36 40 43 43 47 48 45 49 48 47 51 50 50 54 53 54 58 57 57 61 60 59 63 62 61 65 64 73 77 76 73 77 76 73 77 76 73 77 76 73 77 76 73 77 76 73 77 76 75 77 76 65 65 63 64 63 61 59 58 56 52 51 49 46 45 43 39 38 36 34 33 31 32 31 29 34 33 31 34 33 31 34 33 31 34 33 31 34 33 31 34 33 31 34 33 31 34 33 31 37 33 34 37 33 34 37 33 34 37 33 34 37 33 34 37 33 34 37 33 34 37 33 34 39 35 36 39 35 36 39 35 36 39 35 36 39 35 36 39 35 36 39 35 36 39 35 36
113 95 119 109 91 115 107 89 113 106 88 112 113 95 119 110 92 116 106 88 112 99 81 105 92 74 98 86 68 92 81 63 87 76 61 82 61 48 68 57 46 63 51 40 57 44 33 50 37 26 43 30 19 36 25 14 31 22 11 28 11 0 17 11 0 17 11 0 17 11 0 17 11 0 17 11 0 17 11 0 17 9 0 17 8 1 17 6 2 17 6 2 17 6 2 17 6 2 17 6 2 17 6 2 17 6 2 17 6 2 17 6 2 17 6 2 17 6 2 17 6 2 17 6 2 17 6 2 17 5 3 17 3 5 17 2 6 17 2 6 17 2 6 17 2 6 17 2 6 17 2 6 17 2 6 17 4 8 19 4 8 19 4 8 19 4 8 19 4 8 19 4 8 19 4 8 19 4 8 19 5 12 20 5 12 20 5 12 20 5 12 20 5 12 20 5 12 20 5 12 20 5 12 20 7 14 22 7 14 22 7 14 22 7 14 22 7 14 22 7 14 22 7 14 22 7 14 22 5 12 18 5 12 18 5 12 18 4 11 17 3 10 16 3 10 16 2 9 15 2 9 15 14 21 27 16 23 29 19 26 32 22 29 35 26 33 39 30 37 43 33 40 46 34 41 47 41 46 50 39 44 48 37 42 46 34 39 43 30 35 39 27 32 36 25 30 34 23 28 32 15 20 24 13 18 22 11 16 20 8 13 17 4 9 13 1 6 10 0 4 8 0 2 6 3 6 11 3 6 11 3 6 11 3 6 11 3 6 11 3 6 11 3 6 11 3 6 11 18 21 26 20 23 28 22 25 30 25 28 33 29 32 37 32 35 40 34 37 42 36 40 43 43 47 48 45 49 48 47 51 50 50 54 53 54 58 57 57 61 60 59 63 62 61 65 64 71 75 74 71 75 74 71 75 74 71 75 74 71 75 74 71 75 74 71 75 74 73 75 74 65 65 63 64 63 61 59 58 56 52 51 49 46 45 43 39 38 36 34 33 31 32 31 29 34 33 31 34 33 31 34 33 31 34 33 31 34 33 31 34 33 31 34 33 31 34 33 31 37 33 34 37 33 34 37 33 34 37 33 34 37 33 34 37 33 34 37 33 34 37 33 34 39 35 36 39 35 36 39 35 36 39 35 36 39 35 36 39 35 36 39 35 36 39 35 36
111 93 117 108 90 114 105 87 111 104 86 110 101 83 107 98 80 104 93 75 99 87 69 93 80 62 86 74 56 80 69 51 75 64 49 70 44 31 51 41 30 47 37 26 43 31 20 37 25 14 31 19 8 25 15 4 21 12 1 18 11 0 17 11 0 17 11 0 17 11 0 17 11 0 17 11 0 17 11 0 17 9 0 17 8 1 17 6 2 17 6 2 17 6 2 17 6 2 17 6 2 17 6 2 17 6 2 17 6 2 17 6 2 17 6 2 17 6 2 17 6 2 17 6 2 17 6 2 17 5 3 17 3 5 17 2 6 17 2 6 17 2 6 17 2 6 17 2 6 17 2 6 17 2 6 17 4 8 19 4 8 19 4 8 19 4 8 19 4 8 19 4 8 19 4 8 19 4 8 19 5 12 20 5 12 20 5 12 20 5 12 20 5 12 20 5 12 20 5 12 20 5 12 20 7 14 22 7 14 22 7 14 22 7 14 22 7 14 22 7 14 22 7 14 22 7 14 22 4 11 17 5 12 18 5 12 18 6 13 19 6 13 19 7 14 20 8 15 21 8 15 21 22 29 35 23 30 36 25 32 38 28 35 41 31 38 44 33 40 46 35 42 48 36 43 49 41 46 50 39 44 48 37 42 46 34 39 43 30 35 39 27 32 36 25 30 34 23 28 32 15 20 24 13 18 22 11 16 20 8 13 17 4 9 13 1 6 10 0 4 8 0 2 6 3 6 11 3 6 11 3 6 11 3 6 11 3 6 11 3 6 11 3 6 11 3 6 11 18 21 26 20 23 28 22 25 30 25 28 33 29 32 37 32 35 40 34 37 42 36 40 43 43 47 48 45 49 48 47 51 50 50 54 53 54 58 57 57 61 60 59 63 62 61 65 64 69 73 72 69 73 72 69 73 72 69 73 72 69 73 72 69 73 72 69 73 72 71 73 72 65 65 63 64 63 61 59 58 56 52 51 49 46 45 43 39 38 36 34 33 31 32 31 29 34 33 31 34 33 31 34 33 31 34 33 31 34 33 31 34 33 31 34 33 31 34 33 31 37 33 34 37 33 34 37 33 34 37 33 34 37 33 34 37 33 34 37 33 34 37 33 34 39 35 36 39 35 36 39 35 36 39 35 36 39 35 36 39 35 36 39 35 36 39 35 36
104 86 110 101 83 107 98 80 104 97 79 103 85 67 91 82 64 88 77 59 83 71 53 77 64 46 70 58 40 64 53 35 59 48 33 54 28 15 35 25 14 31 22 11 28 18 7 24 14 3 20 10 0 16 6 0 12 6 0 12 11 0 17 11 0 17 11 0 17 11 0 17 11 0 17 11 0 17 11 0 17 9 0 17 8 1 17 6 2 17 6 2 17 6 2 17 6 2 17 6 2 17 6 2 17 6 2 17 6 2 17 6 2 17 6 2 17 6 2 17 6 2 17 6 2 17 6 2 17 5 3 17 3 5 17 2 6 17 2 6 17 2 6 17 2 6 17 2 6 17 2 6 17 2 6 17 4 8 19 4 8 19 4 8 19 4 8 19 4 8 19 4 8 19 4 8 19 4 8 19 5 12 20 5 12 20 5 12 20 5 12 20 5 12 20 5 12 20 5 12 20 5 12 20 7 14 22 7 14 22 7 14 22 7 14 22 7 14 22 7 14 22 7 14 22 7 14 22 3 10 16 4 11 17 6 13 19 8 15 21 11 18 24 13 20 26 15 22 28 16 23 29 33 40 46 34 41 47 34 41 47 35 42 48 36 43 49 37 44 50 38 45 51 38 45 51 41 46 50 39 44 48 37 42 46 34 39 43 30 35 39 27 32 36 25 30 34 23 28 32 15 20 24 13 18 22 11 16 20 8 13 17 4 9 13 1 6 10 0 4 8 0 2 6 3 6 11 3 6 11 3 6 11 3 6 11 3 6 11 3 6 11 3 6 11 3 6 11 18 21 26 20 23 28 22 25 30 25 28 33 29 32 37 32 35 40 34 37 42 36 40 43 43 47 48 45 49 48 47 51 50 50 54 53 54 58 57 57 61 60 59 63 62 61 65 64 66 70 69 66 70 69 66 70 69 66 70 69 66 70 69 66 70 69 66 70 69 68 70 69 65 65 63 64 63 61 59 58 56 52 51 49 46 45 43 39 38 36 34 33 31 32 31 29 34 33 31 34 33 31 34 33 31 34 33 31 34 33 31 34 33 31 34 33 31 34 33 31 37 33 34 37 33 34 37 33 34 37 33 34 37 33 34 37 33 34 37 33 34 37 33 34 39 35 36 39 35 36 39 35 36 39 35 36 39 35 36 39 35 36 39 35 36 39 35 36
90 72 96 87 69 93 84 66 90 83 65 89 68 50 74 65 47 71 60 42 66 54 36 60 47 29 53 41 23 47 36 18 42 31 16 37 16 3 23 14 3 20 12 1 18 10 0 16 8 0 14 6 0 12 6 0 12 6 0 12 11 0 17 11 0 17 11 0 17 11 0 17 11 0 17 11 0 17 11 0 17 9 0 17 8 1 17 6 2 17 6 2 17 6 2 17 6 2 17 6 2 17 6 2 17 6 2 17 6 2 17 6 2 17 6 2 17 6 2 17 6 2 17 6 2 17 6 2 17 5 3 17 3 5 17 2 6 17 2 6 17 2 6 17 2 6 17 2 6 17 2 6 17 2 6 17 4 8 19 4 8 19 4 8 19 4 8 19 4 8 19 4 8 19 4 8 19 4 8 19 5 12 20 5 12 20 5 12 20 5 12 20 5 12 20 5 12 20 5 12 20 5 12 20 7 14 22 7 14 22 7 14 22 7 14 22 7 14 22 7 14 22 7 14 22 7 14 22 2 9 15 3 10 16 6 13 19 11 18 24 15 22 28 19 26 32 22 29 35 24 31 37 45 52 58 44 51 57 44 51 57 43 50 56 42 49 55 41 48 54 40 47 53 40 47 53 41 46 50 39 44 48 37 42 46 34 39 43 30 35 39 27 32 36 25 30 34 23 28 32 15 20 24 13 18 22 11 16 20 8 13 17 4 9 13 1 6 10 0 4 8 0 2 6 3 6 11 3 6 11 3 6 11 3 6 11 3 6 11 3 6 11 3 6 11 3 6 11 18 21 26 20 23 28 22 25 30 25 28 33 29 32 37 32 35 40 34 37 42 36 40 43 43 47 48 45 49 48 47 51 50 50 54 53 54 58 57 57 61 60 59 63 62 61 65 64 62 66 65 62 66 65 62 66 65 62 66 65 62 66 65 62 66 65 62 66 65 64 66 65 65 65 63 64 63 61 59 58 56 52 51 49 46 45 43 39 38 36 34 33 31 32 31 29 34 33 31 34 33 31 34 33 31 34 33 31 34 33 31 34 33 31 34 33 31 34 33 31 37 33 34 37 33 34 37 33 34 37 33 34 37 33 34 37 33 34 37 33 34 37 33 34 39 35 36 39 35 36 39 35 36 39 35 36 39 35 36 39 35 36 39 35 36 39 35 36
72 54 78 68 50 74 66 48 72 65 47 71 52 34 58 49 31 55 44 26 50 38 20 44 31 13 37 25 7 31 20 2 26 15 0 21 11 0 18 10 0 16 9 0 15 9 0 15 8 0 14 7 0 13 7 0 13 6 0 12 11 0 17 11 0 17 11 0 17 11 0 17 11 0 17 11 0 17 11 0 17 9 0 17 8 1 17 6 2 17 6 2 17 6 2 17 6 2 17 6 2 17 6 2 17 6 2 17 6 2 17 6 2 17 6 2 17 6 2 17 6 2 17 6 2 17 6 2 17 5 3 17 3 5 17 2 6 17 2 6 17 2 6 17 2 6 17 2 6 17 2 6 17 2 6 17 4 8 19 4 8 19 4 8 19 4 8 19 4 8 19 4 8 19 4 8 19 4 8 19 5 12 20 5 12 20 5 12 20 5 12 20 5 12 20 5 12 20 5 12 20 5 12 20 7 14 22 7 14 22 7 14 22 7 14 22 7 14 22 7 14 22 7 14 22 7 14 22 0 7 13 3 10 16 7 14 20 13 20 26 19 26 32 25 32 38 29 36 42 31 38 44 56 63 69 55 62 68 53 60 66 50 57 63 47 54 60 45 52 58 43 50 56 42 49 55 41 46 50 39 44 48 37 42 46 34 39 43 30 35 39 27 32 36 25 30 34 23 28 32 15 20 24 13 18 22 11 16 20 8 13 17 4 9 13 1 6 10 0 4 8 0 2 6 3 6 11 3 6 11 3 6 11 3 6 11 3 6 11 3 6 11 3 6 11 3 6 11 18 21 26 20 23 28 22 25 30 25 28 33 29 32 37 32 35 40 34 37 42 36 40 43 43 47 48 45 49 48 47 51 50 50 54 53 54 58 57 57 61 60 59 63 62 61 65 64 59 63 62 59 63 62 59 63 62 59 63 62 59 63 62 59 63 62 59 63 62 61 63 62 65 65 63 64 63 61 59 58 56 52 51 49 46 45 43 39 38 36 34 33 31 32 31 29 34 33 31 34 33 31 34 33 31 34 33 31 34 33 31 34 33 31 34 33 31 34 33 31 37 33 34 37 33 34 37 33 34 37 33 34 37 33 34 37 33 34 37 33 34 37 33 34 39 35 36 39 35 36 39 35 36 39 35 36 39 35 36 39 35 36 39 35 36 39 35 36
54 36 60 51 33 57 48 30 54 47 29 53 40 22 46 37 19 43 32 14 38 26 8 32 19 1 25 12 0 18 10 0 16 8 0 14 11 0 18 10 0 16 10 0 16 11 0 17 12 1 18 12 1 18 13 2 19 13 2 19 11 0 17 11 0 17 11 0 17 11 0 17 11 0 17 11 0 17 11 0 17 9 0 17 8 1 17 6 2 17 6 2 17 6 2 17 6 2 17 6 2 17 6 2 17 6 2 17 6 2 17 6 2 17 6 2 17 6 2 17 6 2 17 6 2 17 6 2 17 5 3 17 3 5 17 2 6 17 2 6 17 2 6 17 2 6 17 2 6 17 2 6 17 2 6 17 4 8 19 4 8 19 4 8 19 4 8 19 4 8 19 4 8 19 4 8 19 4 8 19 5 12 20 5 12 20 5 12 20 5 12 20 5 12 20 5 12 20 5 12 20 5 12 20 7 14 22 7 14 22 7 14 22 7 14 22 7 14 22 7 14 22 7 14 22 7 14 22 0 6 12 2 9 15 8 15 21 15 22 28 22 29 35 29 36 42 34 41 47 37 44 50 64 71 77 62 69 75 59 66 72 56 63 69 52 59 65 48 55 61 45 52 58 44 51 57 41 46 50 39 44 48 37 42 46 34 39 43 30 35 39 27 32 36 25 30 34 23 28 32 15 20 24 13 18 22 11 16 20 8 13 17 4 9 13 1 6 10 0 4 8 0 2 6 3 6 11 3 6 11 3 6 11 3 6 11 3 6 11 3 6 11 3 6 11 3 6 11 18 21 26 20 23 28 22 25 30 25 28 33 29 32 37 32 35 40 34 37 42 36 40 43 43 47 48 45 49 48 47 51 50 50 54 53 54 58 57 57 61 60 59 63 62 61 65 64 57 61 60 57 61 60 57 61 60 57 61 60 57 61 60 57 61 60 57 61 60 59 61 60 65 65 63 64 63 61 59 58 56 52 51 49 46 45 43 39 38 36 34 33 31 32 31 29 34 33 31 34 33 31 34 33 31 34 33 31 34 33 31 34 33 31 34 33 31 34 33 31 37 33 34 37 33 34 37 33 34 37 33 34 37 33 34 37 33 34 37 33 34 37 33 34 39 35 36 39 35 36 39 35 36 39 35 36 39 35 36 39 35 36 39 35 36 39 35 36
40 26 49 37 24 44 34 20 43 33 20 40 30 16 39 27 14 34 22 8 31 16 3 23 9 0 18 7 0 14 7 0 16 7 0 14 11 0 17 9 0 17 10 1 18 12 3 20 13 4 21 14 5 22 15 6 23 16 7 24 9 0 17 9 0 17 9 0 17 9 0 17 9 0 17 9 0 17 9 0 17 8 1 17 8 1 17 6 2 17 6 2 17 6 2 17 6 2 17 6 2 17 6 2 17 6 2 17 6 2 17 6 2 17 6 2 17 6 2 17 6 2 17 6 2 17 6 2 17 5 3 17 3 5 17 2 6 17 2 6 17 2 6 17 2 6 17 2 6 17 2 6 17 2 6 17 4 8 19 4 8 19 4 8 19 4 8 19 4 8 19 4 8 19 4 8 19 4 8 19 5 12 20 5 12 20 5 12 20 5 12 20 5 12 20 5 12 20 5 12 20 5 12 20 7 14 22 7 14 22 7 14 22 7 14 22 7 14 22 7 14 22 7 14 22 7 14 20 0 6 12 2 9 15 8 15 21 16 23 29 24 31 37 31 38 44 37 44 50 40 47 53 68 75 81 67 74 80 63 70 76 59 66 72 54 61 67 50 57 63 46 53 59 44 51 57 41 46 50 39 44 48 37 42 46 34 39 43 30 35 39 27 32 36 25 30 34 23 28 32 15 20 24 13 18 22 11 16 20 8 13 17 4 9 13 1 6 10 0 4 8 0 2 6 2 7 11 2 7 11 3 6 11 2 7 11 3 6 11 2 7 11 3 6 11 2 7 11 18 21 26 19 24 28 22 25 30 24 29 33 29 32 37 31 36 40 34 37 42 36 40 43 43 47 48 45 49 48 47 51 50 50 54 53 54 58 57 57 61 60 59 63 62 61 65 64 55 59 58 55 59 58 55 59 58 55 59 58 55 59 58 55 59 58 55 59 58 57 59 58 65 65 63 64 63 61 59 58 56 52 51 49 46 45 43 39 38 36 34 33 31 32 31 29 34 33 31 34 33 31 34 33 31 34 33 31 34 33 31 34 33 31 34 33 31 34 33 31 37 33 32 37 33 32 37 33 34 37 33 32 37 33 34 37 33 32 37 33 34 37 33 32 39 35 36 39 35 34 39 35 36 39 35 34 39 35 36 39 35 34 39 35 36 39 35 36
9 2 20 9 2 18 9 2 20 9 2 18 8 1 19 8 1 17 8 1 19 8 1 17 8 1 19 8 1 17 8 1 19 8 1 17 6 2 17 6 2 16 6 2 16 6 2 16 6 2 16 6 2 16 6 2 16 6 2 16 6 2 16 6 2 16 6 2 16 6 2 16 6 2 16 6 2 16 6 2 16 6 2 16 7 3 17 7 3 17 7 3 17 7 3 17 7 3 17 7 3 17 7 3 17 7 3 17 7 3 17 7 3 17 7 3 17 7 3 17 7 3 17 7 3 17 7 3 17 6 4 17 4 4 16 2 4 16 2 4 16 2 4 16 2 4 16 2 4 16 2 4 16 2 4 16 5 7 19 5 7 19 5 7 19 5 7 19 5 7 19 5 7 19 5 7 19 4 8 19 7 14 22 7 14 20 7 14 20 7 14 20 7 14 20 7 14 20 7 14 20 7 14 20 2 9 15 2 9 15 2 9 15 2 9 15 2 9 15 2 9 15 2 9 15 2 9 15 2 7 13 7 12 16 18 23 27 32 37 41 47 52 56 61 66 70 72 77 81 78 83 87 84 89 93 82 87 91 77 82 86 70 75 79 64 69 73 57 62 66 52 57 61 50 55 59 47 52 58 45 50 56 43 48 54 40 45 51 36 41 47 33 38 44 31 36 42 29 34 40 16 21 27 14 19 25 12 17 23 9 14 20 5 10 16 2 7 13 0 5 11 0 3 9 6 11 15 4 12 15 6 11 15 4 12 15 6 11 15 4 12 15 6 11 15 4 12 15 14 19 23 14 22 25 18 23 27 19 27 30 25 30 34 26 34 37 30 35 39 32 37 40 40 44 45 40 44 45 40 44 45 40 44 45 40 44 45 40 44 45 40 44 45 40 44 45 54 58 59 54 58 59 54 58 59 54 58 59 54 58 59 54 58 59 54 58 59 56 58 57 49 48 46 49 45 44 47 43 42 44 40 39 40 36 35 37 33 32 35 31 30 33 29 28 36 32 31 36 32 31 36 32 31 36 32 31 36 32 31 36 32 31 36 32 31 36 32 31 38 32 32 38 33 30 38 32 32 38 33 30 38 32 32 38 33 30 38 32 32 38 33 30 39 33 33 39 34 31 39 33 33 39 34 31 39 33 33 39 34 31 39 33 33 39 33 33
6 4 18 6 4 18 6 4 18 6 4 18 5 3 17 5 3 17 5 3 17 5 3 17 5 3 17 5 3 17 5 3 17 5 3 17 5 3 16 5 3 16 5 3 16 5 3 16 5 3 16 5 3 16 5 3 16 5 3 16 5 3 16 5 3 16 5 3 16 5 3 16 5 3 16 5 3 16 5 3 16 5 3 16 7 3 17 7 3 17 7 3 17 7 3 17 7 3 17 7 3 17 7 3 17 7 3 17 7 3 17 7 3 17 7 3 17 7 3 17 7 3 17 7 3 17 7 3 17 6 4 17 4 4 16 2 4 16 2 4 16 2 4 16 2 4 16 2 4 16 2 4 16 2 4 16 5 7 19 5 7 19 5 7 19 5 7 19 5 7 19 5 7 19 5 7 19 4 8 17 9 13 22 7 14 20 7 14 20 7 14 20 7 14 20 7 14 20 7 14 20 7 14 20 4 11 17 4 11 17 4 11 17 4 11 17 4 11 17 4 11 17 4 11 17 4 11 17 6 11 15 12 17 21 22 27 31 35 40 44 50 55 59 63 68 72 73 78 82 79 84 88 84 89 93 82 87 91 77 82 86 70 75 79 64 69 73 57 62 66 52 57 61 50 55 59 47 52 58 45 50 56 43 48 54 40 45 51 36 41 47 33 38 44 31 36 42 29 34 40 16 21 27 14 19 25 12 17 23 9 14 20 5 10 16 2 7 13 0 5 11 0 3 9 4 12 15 4 12 15 4 12 15 4 12 15 4 12 15 4 12 15 4 12 15 4 12 15 12 20 23 14 22 25 16 24 27 19 27 30 23 31 34 26 34 37 28 36 39 30 38 40 40 44 47 40 44 45 40 44 45 40 44 45 40 44 45 40 44 45 40 44 45 40 44 45 52 56 57 52 56 57 52 56 57 52 56 57 52 56 57 52 56 57 52 56 57 54 56 55 49 47 48 49 45 44 47 43 42 44 40 39 40 36 35 37 33 32 35 31 30 33 29 28 36 32 31 36 32 31 36 32 31 36 32 31 36 32 31 36 32 31 36 32 31 36 32 31 38 33 30 38 33 30 38 33 30 38 33 30 38 33 30 38 33 30 38 33 30 38 33 30 39 34 31 39 34 31 39 34 31 39 34 31 39 34 31 39 34 31 39 34 31 39 34 31
6 4 18 6 4 18 6 4 18 6 4 18 5 3 17 5 3 17 5 3 17 5 3 17 5 3 17 5 3 17 5 3 17 5 3 17 5 3 16 5 3 16 5 3 16 5 3 16 5 3 16 5 3 16 5 3 16 5 3 16 5 3 16 5 3 16 5 3 16 5 3 16 5 3 16 5 3 16 5 3 16 5 3 16 7 3 17 7 3 17 7 3 17 7 3 17 7 3 17 7 3 17 7 3 17 7 3 17 7 3 17 7 3 17 7 3 17 7 3 17 7 3 17 7 3 17 7 3 17 6 4 17 4 4 16 2 4 16 2 4 16 2 4 16 2 4 16 2 4 16 2 4 16 2 4 16 5 7 19 5 7 19 5 7 19 5 7 19 5 7 19 5 7 19 5 7 19 4 8 17 9 13 22 7 14 20 7 14 20 7 14 20 7 14 20 7 14 20 7 14 20 7 14 20 6 13 19 6 13 19 6 13 19 6 13 19 6 13 19 6 13 19 6 13 19 6 13 19 14 19 23 19 24 28 29 34 38 41 46 50 54 59 63 66 71 75 75 80 84 80 85 89 84 89 93 82 87 91 77 82 86 70 75 79 64 69 73 57 62 66 52 57 61 50 55 59 47 52 58 45 50 56 43 48 54 40 45 51 36 41 47 33 38 44 31 36 42 29 34 40 16 21 27 14 19 25 12 17 23 9 14 20 5 10 16 2 7 13 0 5 11 0 3 9 4 12 15 4 12 15 4 12 15 4 12 15 4 12 15 4 12 15 4 12 15 4 12 15 12 20 23 14 22 25 16 24 27 19 27 30 23 31 34 26 34 37 28 36 39 30 38 40 40 44 47 40 44 45 40 44 45 40 44 45 40 44 45 40 44 45 40 44 45 40 44 45 50 54 55 50 54 55 50 54 55 50 54 55 50 54 55 50 54 55 50 54 55 52 54 53 49 47 48 49 45 44 47 43 42 44 40 39 40 36 35 37 33 32 35 31 30 33 29 28 36 32 31 36 32 31 36 32 31 36 32 31 36 32 31 36 32 31 36 32 31 36 32 31 38 33 30 38 33 30 38 33 30 38 33 30 38 33 30 38 33 30 38 33 30 38 33 30 39 34 31 39 34 31 39 34 31 39 34 31 39 34 31 39 34 31 39 34 31 39 34 31
6 4 18 6 4 18 6 4 18 6 4 18 5 3 17 5 3 17 5 3 17 5 3 17 5 3 17 5 3 17 5 3 17 5 3 17 5 3 16 5 3 16 5 3 16 5 3 16 5 3 16 5 3 16 5 3 16 5 3 16 5 3 16 5 3 16 5 3 16 5 3 16 5 3 16 5 3 16 5 3 16 5 3 16 7 3 17 7 3 17 7 3 17 7 3 17 7 3 17 7 3 17 7 3 17 7 3 17 7 3 17 7 3 17 7 3 17 7 3 17 7 3 17 7 3 17 7 3 17 6 4 17 4 4 16 2 4 16 2 4 16 2 4 16 2 4 16 2 4 16 2 4 16 2 4 16 5 7 19 5 7 19 5 7 19 5 7 19 5 7 19 5 7 19 5 7 19 4 8 17 9 13 22 7 14 20 7 14 20 7 14 20 7 14 20 7 14 20 7 14 20 7 14 20 9 16 22 9 16 22 9 16 22 9 16 22 9 16 22 9 16 22 9 16 22 9 16 22 25 30 34 29 34 38 37 42 46 48 53 57 59 64 68 70 75 79 78 83 87 82 87 91 84 89 93 82 87 91 77 82 86 70 75 79 64 69 73 57 62 66 52 57 61 50 55 59 47 52 58 45 50 56 43 48 54 40 45 51 36 41 47 33 38 44 31 36 42 29 34 40 16 21 27 14 19 25 12 17 23 9 14 20 5 10 16 2 7 13 0 5 11 0 3 9 4 12 15 4 12 15 4 12 15 4 12 15 4 12 15 4 12 15 4 12 15 4 12 15 12 20 23 14 22 25 16 24 27 19 27 30 23 31 34 26 34 37 28 36 39 30 38 40 40 44 47 40 44 45 40 44 45 40 44 45 40 44 45 40 44 45 40 44 45 40 44 45 47 51 52 47 51 52 47 51 52 47 51 52 47 51 52 47 51 52 47 51 52 49 51 50 49 47 48 49 45 44 47 43 42 44 40 39 40 36 35 37 33 32 35 31 30 33 29 28 36 32 31 36 32 31 36 32 31 36 32 31 36 32 31 36 32 31 36 32 31 36 32 31 38 33 30 38 33 30 38 33 30 38 33 30 38 33 30 38 33 30 38 33 30 38 33 30 39 34 31 39 34 31 39 34 31 39 34 31 39 34 31 39 34 31 39 34 31 39 34 31
6 4 18 6 4 18 6 4 18 6 4 18 5 3 17 5 3 17 5 3 17 5 3 17 5 3 17 5 3 17 5 3 17 5 3 17 5 3 16 5 3 16 5 3 16 5 3 16 5 3 16 5 3 16 5 3 16 5 3 16 5 3 16 5 3 16 5 3 16 5 3 16 5 3 16 5 3 16 5 3 16 5 3 16 7 3 17 7 3 17 7 3 17 7 3 17 7 3 17 7 3 17 7 3 17 7 3 17 7 3 17 7 3 17 7 3 17 7 3 17 7 3 17 7 3 17 7 3 17 6 4 17 4 4 16 2 4 16 2 4 16 2 4 16 2 4 16 2 4 16 2 4 16 2 4 16 5 7 19 5 7 19 5 7 19 5 7 19 5 7 19 5 7 19 5 7 19 4 8 17 9 13 22 7 14 20 7 14 20 7 14 20 7 14 20 7 14 20 7 14 20 7 14 20 13 20 26 13 20 26 13 20 26 13 20 26 13 20 26 13 20 26 13 20 26 13 20 26 37 42 46 40 45 49 47 52 56 56 61 65 65 70 74 74 79 83 80 85 89 84 89 93 84 89 93 82 87 91 77 82 86 70 75 79 64 69 73 57 62 66 52 57 61 50 55 59 47 52 58 45 50 56 43 48 54 40 45 51 36 41 47 33 38 44 31 36 42 29 34 40 16 21 27 14 19 25 12 17 23 9 14 20 5 10 16 2 7 13 0 5 11 0 3 9 4 12 15 4 12 15 4 12 15 4 12 15 4 12 15 4 12 15 4 12 15 4 12 15 12 20 23 14 22 25 16 24 27 19 27 30 23 31 34 26 34 37 28 36 39 30 38 40 40 44 47 40 44 45 40 44 45 40 44 45 40 44 45 40 44 45 40 44 45 40 44 45 43 47 48 43 47 48 43 47 48 43 47 48 43 47 48 43 47 48 43 47 48 45 47 46 49 47 48 49 45 44 47 43 42 44 40 39 40 36 35 37 33 32 35 31 30 33 29 28 36 32 31 36 32 31 36 32 31 36 32 31 36 32 31 36 32 31 36 32 31 36 32 31 38 33 30 38 33 30 38 33 30 38 33 30 38 33 30 38 33 30 38 33 30 38 33 30 39 34 31 39 34 31 39 34 31 39 34 31 39 34 31 39 34 31 39 34 31 39 34 31
6 4 18 6 4 18 6 4 18 6 4 18 5 3 17 5 3 17 5 3 17 5 3 17 5 3 17 5 3 17 5 3 17 5 3 17 5 3 16 5 3 16 5 3 16 5 3 16 5 3 16 5 3 16 5 3 16 5 3 16 5 3 16 5 3 16 5 3 16 5 3 16 5 3 16 5 3 16 5 3 16 5 3 16 7 3 17 7 3 17 7 3 17 7 3 17 7 3 17 7 3 17 7 3 17 7 3 17 7 3 17 7 3 17 7 3 17 7 3 17 7 3 17 7 3 17 7 3 17 6 4 17 4 4 16 2 4 16 2 4 16 2 4 16 2 4 16 2 4 16 2 4 16 2 4 16 5 7 19 5 7 19 5 7 19 5 7 19 5 7 19 5 7 19 5 7 19 4 8 17 9 13 22 7 14 20 7 14 20 7 14 20 7 14 20 7 14 20 7 14 20 7 14 20 16 23 29 16 23 29 16 23 29 16 23 29 16 23 29 16 23 29 16 23 29 16 23 29 48 53 57 51 56 60 56 61 65 63 68 72 71 76 80 78 83 87 83 88 92 86 91 95 84 89 93 82 87 91 77 82 86 70 75 79 64 69 73 57 62 66 52 57 61 50 55 59 47 52 58 45 50 56 43 48 54 40 45 51 36 41 47 33 38 44 31 36 42 29 34 40 16 21 27 14 19 25 12 17 23 9 14 20 5 10 16 2 7 13 0 5 11 0 3 9 4 12 15 4 12 15 4 12 15 4 12 15 4 12 15 4 12 15 4 12 15 4 12 15 12 20 23 14 22 25 16 24 27 19 27 30 23 31 34 26 34 37 28 36 39 30 38 40 40 44 47 40 44 45 40 44 45 40 44 45 40 44 45 40 44 45 40 44 45 40 44 45 40 44 45 40 44 45 40 44 45 40 44 45 40 44 45 40 44 45 40 44 45 42 44 43 49 47 48 49 45 44 47 43 42 44 40 39 40 36 35 37 33 32 35 31 30 33 29 28 36 32 31 36 32 31 36 32 31 36 32 31 36 32 31 36 32 31 36 32 31 36 32 31 38 33 30 38 33 30 38 33 30 38 33 30 38 33 30 38 33 30 38 33 30 38 33 30 39 34 31 39 34 31 39 34 31 39 34 31 39 34 31 39 34 31 39 34 31 39 34 31
6 4 18 6 4 18 6 4 18 6 4 18 5 3 17 5 3 17 5 3 17 5 3 17 5 3 17 5 3 17 5 3 17 5 3 17 5 3 16 5 3 16 5 3 16 5 3 16 5 3 16 5 3 16 5 3 16 5 3 16 5 3 16 5 3 16 5 3 16 5 3 16 5 3 16 5 3 16 5 3 16 5 3 16 7 3 17 7 3 17 7 3 17 7 3 17 7 3 17 7 3 17 7 3 17 7 3 17 7 3 17 7 3 17 7 3 17 7 3 17 7 3 17 7 3 17 7 3 17 6 4 17 4 4 16 2 4 16 2 4 16 2 4 16 2 4 16 2 4 16 2 4 16 2 4 16 5 7 19 5 7 19 5 7 19 5 7 19 5 7 19 5 7 19 5 7 19 4 8 17 9 13 22 7 14 20 7 14 20 7 14 20 7 14 20 7 14 20 7 14 20 7 14 20 18 25 31 18 25 31 18 25 31 18 25 31 18 25 31 18 25 31 18 25 31 18 25 31 56 61 65 58 63 67 63 68 72 69 74 78 75 80 84 81 86 90 85 90 94 88 93 97 84 89 93 82 87 91 77 82 86 70 75 79 64 69 73 57 62 66 52 57 61 50 55 59 47 52 58 45 50 56 43 48 54 40 45 51 36 41 47 33 38 44 31 36 42 29 34 40 16 21 27 14 19 25 12 17 23 9 14 20 5 10 16 2 7 13 0 5 11 0 3 9 4 12 15 4 12 15 4 12 15 4 12 15 4 12 15 4 12 15 4 12 15 4 12 15 12 20 23 14 22 25 16 24 27 19 27 30 23 31 34 26 34 37 28 36 39 30 38 40 40 44 47 40 44 45 40 44 45 40 44 45 40 44 45 40 44 45 40 44 45 40 44 45 38 42 43 38 42 43 38 42 43 38 42 43 38 42 43 38 42 43 38 42 43 40 42 41 49 47 48 49 45 44 47 43 42 44 40 39 40 36 35 37 33 32 35 31 30 33 29 28 36 32 31 36 32 31 36 32 31 36 32 31 36 32 31 36 32 31 36 32 31 36 32 31 38 33 30 38 33 30 38 33 30 38 33 30 38 33 30 38 33 30 38 33 30 38 33 30 39 34 31 39 34 31 39 34 31 39 34 31 39 34 31 39 34 31 39 34 31 39 34 31
6 4 18 6 4 18 6 4 18 6 4 18 5 3 17 5 3 17 5 3 17 5 3 17 5 3 17 5 3 17 5 3 17 5 3 17 5 3 16 5 3 16 5 3 16 5 3 16 5 3 16 5 3 16 5 3 16 5 3 16 5 3 16 5 3 16 5 3 16 5 3 16 5 3 16 5 3 16 5 3 16 5 3 16 7 3 17 7 3 17 7 3 17 7 3 17 7 3 17 7 3 17 7 3 17 7 3 17 7 3 17 7 3 17 7 3 17 7 3 17 7 3 17 7 3 17 7 3 17 6 4 17 4 4 16 2 4 16 2 4 16 2 4 16 2 4 16 2 4 16 2 4 16 2 4 16 5 7 19 5 7 19 5 7 19 5 7 19 5 7 19 5 7 19 5 7 19 4 8 17 9 13 22 7 14 20 7 14 20 7 14 20 7 14 20 7 14 20 7 14 20 7 14 20 20 27 33 20 27 33 20 27 33 20 27 33 20 27 33 20 27 33 20 27 33 20 27 33 60 65 69 62 67 71 66 71 75 72 77 81 77 82 86 82 87 91 86 91 95 88 93 97 84 89 93 82 87 91 77 82 86 70 75 79 64 69 73 57 62 66 52 57 61 50 55 59 47 52 58 45 50 56 43 48 54 40 45 51 36 41 47 33 38 44 31 36 42 29 34 40 16 21 27 14 19 25 12 17 23 9 14 20 5 10 16 2 7 13 0 5 11 0 3 9 4 12 15 4 12 15 4 12 15 4 12 15 4 12 15 4 12 15 4 12 15 4 12 15 12 20 23 14 22 25 16 24 27 19 27 30 23 31 34 26 34 37 28 36 39 30 38 40 40 44 47 40 44 45 40 44 45 40 44 45 40 44 45 40 44 45 40 44 45 40 44 45 36 40 41 36 40 41 36 40 41 36 40 41 36 40 41 36 40 41 36 40 41 38 40 39 49 47 48 49 45 44 47 43 42 44 40 39 40 36 35 37 33 32 35 31 30 33 29 28 36 32 31 36 32 31 36 32 31 36 32 31 36 32 31 36 32 31 36 32 31 36 32 31 38 33 30 38 33 30 38 33 30 38 33 30 38 33 30 38 33 30 38 33 30 38 33 30 39 34 31 39 34 31 39 34 31 39 34 31 39 34 31 39 34 31 39 34 31 39 34 31
4 2 16 4 2 16 4 2 16 4 2 16 4 2 16 4 2 16 4 2 16 4 2 16 4 2 16 4 2 16 4 2 16 4 2 16 3 1 14 3 1 14 3 1 14 3 1 14 3 1 14 3 1 14 3 1 14 3 1 14 3 1 14 3 1 14 3 1 14 3 1 14 3 1 14 3 1 14 3 1 14 3 1 14 6 2 16 6 2 16 6 2 16 6 2 16 6 2 16 6 2 16 6 2 16 6 2 16 8 4 18 8 4 18 8 4 18 8 4 18 8 4 18 8 4 18 8 4 18 7 5 18 6 6 18 4 6 18 4 6 18 4 6 18 4 6 18 4 6 18 4 6 18 4 6 18 6 8 20 6 8 20 6 8 20 6 8 20 6 8 20 6 8 20 6 8 20 5 9 18 13 17 26 10 17 23 9 16 22 8 15 21 7 14 20 5 12 18 5 12 18 4 11 17 19 26 32 22 29 35 28 35 41 35 42 48 43 50 56 51 58 64 57 64 70 60 67 73 66 71 75 68 73 77 70 75 79 73 78 82 77 82 86 80 85 89 82 87 91 84 89 93 98 103 107 93 98 102 85 90 94 74 79 83 63 68 72 52 57 61 43 48 52 39 44 48 40 45 51 39 44 50 36 41 47 33 38 44 30 35 41 26 31 37 24 29 35 23 28 34 20 25 31 18 23 29 16 21 27 13 18 24 9 14 20 6 11 17 4 9 15 2 7 13 6 14 17 6 14 17 6 14 17 6 14 17 6 14 17 6 14 17 6 14 17 6 14 17 19 27 30 19 27 30 19 27 30 19 27 30 19 27 30 19 27 30 19 27 30 19 27 29 30 34 37 30 34 35 30 34 35 30 34 35 30 34 35 30 34 35 30 34 35 30 34 35 32 36 37 32 36 37 32 36 37 32 36 37 32 36 37 32 36 37 32 36 37 34 36 35 32 30 31 34 30 29 34 30 29 34 30 29 34 30 29 34 30 29 34 30 29 34 30 29 34 30 29 34 30 29 34 30 29 34 30 29 34 30 29 34 30 29 34 30 29 34 30 29 37 32 29 37 32 29 37 32 29 37 32 29 37 32 29 37 32 29 37 32 29 37 32 29 37 32 29 37 32 29 37 32 29 37 32 29 37 32 29 37 32 29 37 32 29 37 32 29
4 2 16 4 2 16 4 2 16 4 2 16 4 2 16 4 2 16 4 2 16 4 2 16 4 2 16 4 2 16 4 2 16 4 2 16 3 1 14 3 1 14 3 1 14 3 1 14 3 1 14 3 1 14 3 1 14 3 1 14 3 1 14 3 1 14 3 1 14 3 1 14 3 1 14 3 1 14 3 1 14 3 1 14 6 2 16 6 2 16 6 2 16 6 2 16 6 2 16 6 2 16 6 2 16 6 2 16 8 4 18 8 4 18 8 4 18 8 4 18 8 4 18 8 4 18 8 4 18 7 5 18 6 6 18 4 6 18 4 6 18 4 6 18 4 6 18 4 6 18 4 6 18 4 6 18 6 8 20 6 8 20 6 8 20 6 8 20 6 8 20 6 8 20 6 8 20 5 9 18 12 16 25 10 17 23 10 17 23 9 16 22 8 15 21 8 15 21 7 14 20 7 14 20 22 29 35 25 32 38 30 37 43 37 44 50 44 51 57 51 58 64 57 64 70 60 67 73 66 71 75 68 73 77 70 75 79 73 78 82 77 82 86 80 85 89 82 87 91 84 89 93 97 102 106 93 98 102 85 90 94 75 80 84 64 69 73 54 59 63 46 51 55 42 47 51 41 46 52 40 45 51 38 43 49 34 39 45 31 36 42 28 33 39 25 30 36 24 29 35 20 25 31 18 23 29 16 21 27 13 18 24 9 14 20 6 11 17 4 9 15 2 7 13 6 14 17 6 14 17 6 14 17 6 14 17 6 14 17 6 14 17 6 14 17 6 14 17 19 27 30 19 27 30 19 27 30 19 27 30 19 27 30 19 27 30 19 27 30 19 27 29 30 34 37 30 34 35 30 34 35 30 34 35 30 34 35 30 34 35 30 34 35 30 34 35 32 36 37 32 36 37 32 36 37 32 36 37 32 36 37 32 36 37 32 36 37 34 36 35 32 30 31 34 30 29 34 30 29 34 30 29 34 30 29 34 30 29 34 30 29 34 30 29 34 30 29 34 30 29 34 30 29 34 30 29 34 30 29 34 30 29 34 30 29 34 30 29 37 32 29 37 32 29 37 32 29 37 32 29 37 32 29 37 32 29 37 32 29 37 32 29 37 32 29 37 32 29 37 32 29 37 32 29 37 32 29 37 32 29 37 32 29 37 32 29
4 2 16 4 2 16 4 2 16 4 2 16 4 2 16 4 2 16 4 2 16 4 2 16 4 2 16 4 2 16 4 2 16 4 2 16 3 1 14 3 1 14 3 1 14 3 1 14 3 1 14 3 1 14 3 1 14 3 1 14 3 1 14 3 1 14 3 1 14 3 1 14 3 1 14 3 1 14 3 1 14 3 1 14 6 2 16 6 2 16 6 2 16 6 2 16 6 2 16 6 2 16 6 2 16 6 2 16 8 4 18 8 4 18 8 4 18 8 4 18 8 4 18 8 4 18 8 4 18 7 5 18 6 6 18 4 6 18 4 6 18 4 6 18 4 6 18 4 6 18 4 6 18 4 6 18 6 8 20 6 8 20 6 8 20 6 8 20 6 8 20 6 8 20 6 8 20 5 9 18 11 15 24 10 17 23 10 17 23 11 18 24 11 18 24 12 19 25 13 20 26 13 20 26 28 35 41 30 37 43 34 41 47 40 47 53 46 53 59 52 59 65 56 63 69 59 66 72 66 71 75 68 73 77 70 75 79 73 78 82 77 82 86 80 85 89 82 87 91 84 89 93 96 101 105 93 98 102 86 91 95 77 82 86 67 72 76 58 63 67 52 57 61 48 53 57 44 49 55 42 47 53 40 45 51 37 42 48 33 38 44 30 35 41 28 33 39 26 31 37 20 25 31 18 23 29 16 21 27 13 18 24 9 14 20 6 11 17 4 9 15 2 7 13 6 14 17 6 14 17 6 14 17 6 14 17 6 14 17 6 14 17 6 14 17 6 14 17 19 27 30 19 27 30 19 27 30 19 27 30 19 27 30 19 27 30 19 27 30 19 27 29 30 34 37 30 34 35 30 34 35 30 34 35 30 34 35 30 34 35 30 34 35 30 34 35 32 36 37 32 36 37 32 36 37 32 36 37 32 36 37 32 36 37 32 36 37 34 36 35 32 30 31 34 30 29 34 30 29 34 30 29 34 30 29 34 30 29 34 30 29 34 30 29 34 30 29 34 30 29 34 30 29 34 30 29 34 30 29 34 30 29 34 30 29 34 30 29 37 32 29 37 32 29 37 32 29 37 32 29 37 32 29 37 32 29 37 32 29 37 32 29 37 32 29 37 32 29 37 32 29 37 32 29 37 32 29 37 32 29 37 32 29 37 32 29
4 2 16 4 2 16 4 2 16 4 2 16 4 2 16 4 2 16 4 2 16 4 2 16 4 2 16 4 2 16 4 2 16 4 2 16 3 1 14 3 1 14 3 1 14 3 1 14 3 1 14 3 1 14 3 1 14 3 1 14 3 1 14 3 1 14 3 1 14 3 1 14 3 1 14 3 1 14 3 1 14 3 1 14 6 2 16 6 2 16 6 2 16 6 2 16 6 2 16 6 2 16 6 2 16 6 2 16 8 4 18 8 4 18 8 4 18 8 4 18 8 4 18 8 4 18 8 4 18 7 5 18 6 6 18 4 6 18 4 6 18 4 6 18 4 6 18 4 6 18 4 6 18 4 6 18 6 8 20 6 8 20 6 8 20 6 8 20 6 8 20 6 8 20 6 8 20 5 9 18 10 14 23 9 16 22 11 18 24 13 20 26 16 23 29 18 25 31 20 27 33 21 28 34 35 42 48 37 44 50 40 47 53 44 51 57 48 55 61 53 60 66 56 63 69 57 64 70 66 71 75 68 73 77 70 75 79 73 78 82 77 82 86 80 85 89 82 87 91 84 89 93 95 100 104 92 97 101 86 91 95 79 84 88 71 76 80 64 69 73 59 64 68 56 61 65 47 52 58 46 51 57 43 48 54 40 45 51 37 42 48 33 38 44 31 36 42 30 35 41 20 25 31 18 23 29 16 21 27 13 18 24 9 14 20 6 11 17 4 9 15 2 7 13 6 14 17 6 14 17 6 14 17 6 14 17 6 14 17 6 14 17 6 14 17 6 14 17 19 27 30 19 27 30 19 27 30 19 27 30 19 27 30 19 27 30 19 27 30 19 27 29 30 34 37 30 34 35 30 34 35 30 34 35 30 34 35 30 34 35 30 34 35 30 34 35 32 36 37 32 36 37 32 36 37 32 36 37 32 36 37 32 36 37 32 36 37 34 36 35 32 30 31 34 30 29 34 30 29 34 30 29 34 30 29 34 30 29 34 30 29 34 30 29 34 30 29 34 30 29 34 30 29 34 30 29 34 30 29 34 30 29 34 30 29 34 30 29 37 32 29 37 32 29 37 32 29 37 32 29 37 32 29 37 32 29 37 32 29 37 32 29 37 32 29 37 32 29 37 32 29 37 32 29 37 32 29 37 32 29 37 32 29 37 32 29
4 2 16 4 2 16 4 2 16 4 2 16 4 2 16 4 2 16 4 2 16 4 2 16 4 2 16 4 2 16 4 2 16 4 2 16 3 1 14 3 1 14 3 1 14 3 1 14 3 1 14 3 1 14 3 1 14 3 1 14 3 1 14 3 1 14 3 1 14 3 1 14 3 1 14 3 1 14 3 1 14 3 1 14 6 2 16 6 2 16 6 2 16 6 2 16 6 2 16 6 2 16 6 2 16 6 2 16 8 4 18 8 4 18 8 4 18 8 4 18 8 4 18 8 4 18 8 4 18 7 5 18 6 6 18 4 6 18 4 6 18 4 6 18 4 6 18 4 6 18 4 6 18 4 6 18 6 8 20 6 8 20 6 8 20 6 8 20 6 8 20 6 8 20 6 8 20 5 9 18 9 13 22 8 15 21 11 18 24 16 23 29 20 27 33 24 31 37 27 34 40 29 36 42 43 50 56 44 51 57 46 53 59 48 55 61 51 58 64 53 60 66 55 62 68 56 63 69 66 71 75 68 73 77 70 75 79 73 78 82 77 82 86 80 85 89 82 87 91 84 89 93 94 99 103 91 96 100 87 92 96 82 87 91 76 81 85 70 75 79 66 71 75 64 69 73 50 55 61 49 54 60 47 52 58 43 48 54 40 45 51 37 42 48 34 39 45 33 38 44 20 25 31 18 23 29 16 21 27 13 18 24 9 14 20 6 11 17 4 9 15 2 7 13 6 14 17 6 14 17 6 14 17 6 14 17 6 14 17 6 14 17 6 14 17 6 14 17 19 27 30 19 27 30 19 27 30 19 27 30 19 27 30 19 27 30 19 27 30 19 27 29 30 34 37 30 34 35 30 34 35 30 34 35 30 34 35 30 34 35 30 34 35 30 34 35 32 36 37 32 36 37 32 36 37 32 36 37 32 36 37 32 36 37 32 36 37 34 36 35 32 30 31 34 30 29 34 30 29 34 30 29 34 30 29 34 30 29 34 30 29 34 30 29 34 30 29 34 30 29 34 30 29 34 30 29 34 30 29 34 30 29 34 30 29 34 30 29 37 32 29 37 32 29 37 32 29 37 32 29 37 32 29 37 32 29 37 32 29 37 32 29 37 32 29 37 32 29 37 32 29 37 32 29 37 32 29 37 32 29 37 32 29 37 32 29
4 2 16 4 2 16 4 2 16 4 2 16 4 2 16 4 2 16 4 2 16 4 2 16 4 2 16 4 2 16 4 2 16 4 2 16 3 1 14 3 1 14 3 1 14 3 1 14 3 1 14 3 1 14 3 1 14 3 1 14 3 1 14 3 1 14 3 1 14 3 1 14 3 1 14 3 1 14 3 1 14 3 1 14 6 2 16 6 2 16 6 2 16 6 2 16 6 2 16 6 2 16 6 2 16 6 2 16 8 4 18 8 4 18 8 4 18 8 4 18 8 4 18 8 4 18 8 4 18 7 5 18 6 6 18 4 6 18 4 6 18 4 6 18 4 6 18 4 6 18 4 6 18 4 6 18 6 8 20 6 8 20 6 8 20 6 8 20 6 8 20 6 8 20 6 8 20 5 9 18 7 11 20 8 15 21 12 19 25 18 25 31 24 31 37 30 37 43 34 41 47 36 43 49 51 58 64 51 58 64 52 59 65 53 60 66 53 60 66 54 61 67 54 61 67 55 62 68 66 71 75 68 73 77 70 75 79 73 78 82 77 82 86 80 85 89 82 87 91 84 89 93 92 97 101 91 96 100 88 93 97 84 89 93 80 85 89 76 81 85 73 78 82 71 76 80 54 59 65 52 57 63 50 55 61 47 52 58 43 48 54 40 45 51 38 43 49 36 41 47 20 25 31 18 23 29 16 21 27 13 18 24 9 14 20 6 11 17 4 9 15 2 7 13 6 14 17 6 14 17 6 14 17 6 14 17 6 14 17 6 14 17 6 14 17 6 14 17 19 27 30 19 27 30 19 27 30 19 27 30 19 27 30 19 27 30 19 27 30 19 27 29 30 34 37 30 34 35 30 34 35 30 34 35 30 34 35 30 34 35 30 34 35 30 34 35 32 36 37 32 36 37 32 36 37 32 36 37 32 36 37 32 36 37 32 36 37 34 36 35 32 30 31 34 30 29 34 30 29 34 30 29 34 30 29 34 30 29 34 30 29 34 30 29 34 30 29 34 30 29 34 30 29 34 30 29 34 30 29 34 30 29 34 30 29 34 30 29 37 32 29 37 32 29 37 32 29 37 32 29 37 32 29 37 32 29 37 32 29 37 32 29 37 32 29 37 32 29 37 32 29 37 32 29 37 32 29 37 32 29 37 32 29 37 32 29
4 2 16 4 2 16 4 2 16 4 2 16 4 2 16 4 2 16 4 2 16 4 2 16 4 2 16 4 2 16 4 2 16 4 2 16 3 1 14 3 1 14 3 1 14 3 1 14 3 1 14 3 1 14 3 1 14 3 1 14 3 1 14 3 1 14 3 1 14 3 1 14 3 1 14 3 1 14 3 1 14 3 1 14 6 2 16 6 2 16 6 2 16 6 2 16 6 2 16 6 2 16 6 2 16 6 2 16 8 4 18 8 4 18 8 4 18 8 4 18 8 4 18 8 4 18 8 4 18 7 5 18 6 6 18 4 6 18 4 6 18 4 6 18 4 6 18 4 6 18 4 6 18 4 6 18 6 8 20 6 8 20 6 8 20 6 8 20 6 8 20 6 8 20 6 8 20 5 9 18 6 10 19 7 14 20 13 20 26 20 27 33 27 34 40 34 41 47 39 46 52 42 49 55 57 64 70 57 64 70 56 63 69 56 63 69 55 62 68 54 61 67 54 61 67 54 61 67 66 71 75 68 73 77 70 75 79 73 78 82 77 82 86 80 85 89 82 87 91 84 89 93 91 96 100 90 95 99 88 93 97 86 91 95 83 88 92 80 85 89 78 83 87 77 82 86 56 61 67 55 60 66 52 57 63 49 54 60 46 51 57 42 47 53 40 45 51 39 44 50 20 25 31 18 23 29 16 21 27 13 18 24 9 14 20 6 11 17 4 9 15 2 7 13 6 14 17 6 14 17 6 14 17 6 14 17 6 14 17 6 14 17 6 14 17 6 14 17 19 27 30 19 27 30 19 27 30 19 27 30 19 27 30 19 27 30 19 27 30 19 27 29 30 34 37 30 34 35 30 34 35 30 34 35 30 34 35 30 34 35 30 34 35 30 34 35 32 36 37 32 36 37 32 36 37 32 36 37 32 36 37 32 36 37 32 36 37 34 36 35 32 30 31 34 30 29 34 30 29 34 30 29 34 30 29 34 30 29 34 30 29 34 30 29 34 30 29 34 30 29 34 30 29 34 30 29 34 30 29 34 30 29 34 30 29 34 30 29 37 32 29 37 32 29 37 32 29 37 32 29 37 32 29 37 32 29 37 32 29 37 32 29 37 32 29 37 32 29 37 32 29 37 32 29 37 32 29 37 32 29 37 32 29 37 32 29
4 2 16 4 2 15 4 2 16 4 2 15 4 2 16 4 2 15 4 2 16 4 2 15 4 2 16 4 2 15 4 2 16 4 2 15 3 1 14 3 1 12 3 1 14 3 1 12 3 1 14 3 1 12 3 1 14 3 1 12 3 1 14 3 1 12 3 1 14 3 1 12 3 1 14 3 1 12 3 1 14 3 1 14 6 2 16 6 2 16 6 2 16 6 2 16 6 2 16 6 2 16 6 2 16 6 2 16 8 4 18 8 4 18 8 4 18 8 4 18 8 4 18 8 4 18 8 4 18 7 5 18 4 6 18 3 7 16 4 6 18 3 7 16 4 6 18 3 7 16 4 6 18 3 7 16 6 8 20 5 9 18 6 8 20 5 9 18 6 8 20 5 9 18 6 8 20 5 9 18 4 11 17 7 14 20 13 20 26 21 28 34 29 36 42 36 43 49 42 49 55 45 52 58 60 67 73 59 66 72 59 66 72 57 64 70 56 63 69 55 62 68 54 61 67 53 60 66 66 71 75 68 73 77 70 75 79 73 78 82 77 82 86 80 85 89 82 87 91 84 89 93 91 96 100 90 95 99 89 94 98 87 92 96 85 90 94 83 88 92 81 86 90 80 85 89 57 62 68 56 61 67 54 59 65 50 55 61 47 52 58 44 49 55 41 46 52 40 45 51 20 25 31 18 23 29 16 21 27 13 18 24 9 14 20 6 11 17 4 9 15 0 7 13 6 14 17 6 14 17 6 14 17 6 14 17 6 14 17 6 14 17 6 14 17 6 14 17 19 27 30 19 27 30 19 27 30 19 27 30 19 27 30 19 27 30 19 27 30 19 27 30 29 34 37 29 35 35 30 34 37 29 35 35 30 34 37 29 35 35 30 34 37 29 35 35 32 36 39 31 37 37 32 36 39 31 37 37 32 36 39 31 37 37 32 36 39 34 35 37 32 31 29 34 30 29 34 30 29 34 30 29 34 30 29 34 30 29 34 30 29 34 30 29 34 30 29 34 30 29 34 30 29 34 30 29 34 30 29 34 30 29 34 30 29 34 30 29 37 32 29 37 32 29 37 32 29 37 32 29 37 32 29 37 32 29 37 32 29 37 32 29 37 32 29 37 32 29 37 32 29 37 32 29 37 32 29 37 32 29 37 32 29 37 32 29
3 1 14 3 1 12 3 1 14 3 1 12 4 2 15 4 2 13 4 2 15 4 2 13 4 2 15 4 2 13 4 2 15 4 2 13 2 0 11 2 1 9 2 0 11 2 1 9 2 0 11 2 1 9 2 0 11 2 1 9 2 0 11 2 1 9 2 0 11 2 1 9 2 0 11 2 1 9 2 0 11 2 0 11 5 3 16 5 3 16 5 3 16 5 3 16 5 3 16 5 3 16 5 3 16 5 3 16 6 4 17 6 4 17 6 4 17 6 4 17 6 4 17 6 4 17 6 4 17 5 5 17 5 9 18 3 10 16 5 9 18 3 10 16 5 9 18 3 10 16 5 9 18 3 10 16 0 2 11 0 4 10 2 6 15 3 10 16 8 12 21 10 17 23 14 18 27 13 20 26 40 47 53 42 49 55 44 51 57 47 54 60 51 58 64 54 61 67 56 63 69 58 65 71 62 69 75 62 69 75 62 69 75 62 69 75 62 69 75 62 69 75 62 69 75 62 69 75 73 81 84 73 81 83 73 81 83 73 81 83 73 81 83 73 81 83 73 81 83 73 81 83 88 96 98 90 98 100 92 100 102 95 103 105 99 107 109 102 110 112 104 112 114 106 114 116 79 87 90 76 84 87 71 79 82 65 73 76 58 66 69 52 60 63 47 55 58 44 52 55 6 14 17 8 16 19 12 20 23 16 24 27 21 29 32 25 33 36 29 37 40 30 38 41 4 11 17 4 13 18 4 13 18 6 15 20 7 16 21 8 17 22 9 18 23 10 19 24 14 23 28 14 23 28 14 23 28 14 23 28 14 23 28 14 23 28 14 23 28 15 23 26 29 37 40 29 37 39 31 36 40 29 37 39 31 36 40 29 37 39 31 36 40 29 37 39 29 34 38 27 35 37 29 34 38 27 35 37 29 34 38 27 35 37 29 34 38 30 34 35 29 28 26 31 27 24 31 27 24 31 27 24 31 27 24 31 27 24 31 27 24 31 27 24 34 30 27 34 30 27 34 30 27 34 30 27 34 30 27 34 30 27 34 30 27 34 30 27 37 32 29 39 31 29 39 31 29 39 31 29 39 31 29 39 31 29 39 31 29 39 31 29 39 31 29 39 31 29 39 31 29 39 31 29 39 31 29 39 31 29 39 31 29 39 31 29
3 1 12 3 1 12 3 1 12 3 1 12 4 2 13 4 2 13 4 2 13 4 2 13 4 2 13 4 2 13 4 2 13 4 2 13 2 1 9 2 1 9 2 1 9 2 1 9 2 1 9 2 1 9 2 1 9 2 1 9 2 1 9 2 1 9 2 1 9 2 1 9 2 1 9 2 1 9 2 1 9 2 1 9 5 3 16 5 3 16 5 3 16 5 3 16 5 3 16 5 3 16 5 3 16 5 3 16 6 4 17 6 4 17 6 4 17 6 4 17 6 4 17 6 4 17 6 4 17 5 5 15 5 9 18 3 10 16 3 10 16 3 10 16 3 10 16 3 10 16 3 10 16 3 10 16 0 6 12 0 7 13 2 9 15 6 13 19 9 16 22 12 19 25 15 22 28 16 23 29 40 47 53 42 49 55 44 51 57 47 54 60 51 58 64 54 61 67 56 63 69 58 65 71 62 69 75 62 69 75 62 69 75 62 69 75 62 69 75 62 69 75 62 69 75 62 70 73 73 81 84 73 81 83 73 81 83 73 81 83 73 81 83 73 81 83 73 81 83 73 81 83 88 96 98 90 98 100 92 100 102 95 103 105 99 107 109 102 110 112 104 112 114 106 114 116 82 90 93 79 87 90 74 82 85 68 76 79 61 69 72 54 62 65 50 58 61 47 55 58 9 17 20 11 19 22 14 22 25 18 26 29 22 30 33 25 33 36 28 36 39 30 38 41 6 15 20 6 15 20 7 16 21 7 16 21 8 17 22 9 18 23 9 18 23 9 18 23 14 23 28 14 23 28 14 23 28 14 23 28 14 23 28 14 23 28 14 23 28 14 23 28 27 35 38 27 35 38 27 35 38 27 35 38 27 35 38 27 35 38 27 35 38 27 35 38 25 33 36 25 33 36 25 33 36 25 33 36 25 33 36 25 33 36 25 33 36 27 32 35 29 28 26 31 27 24 31 27 24 31 27 24 31 27 24 31 27 24 31 27 24 31 27 24 34 30 27 34 30 27 34 30 27 34 30 27 34 30 27 34 30 27 34 30 27 34 30 27 39 31 29 39 31 29 39 31 29 39 31 29 39 31 29 39 31 29 39 31 29 39 31 29 39 31 29 39 31 29 39 31 29 39 31 29 39 31 29 39 31 29 39 31 29 39 31 29
3 1 12 3 1 12 3 1 12 3 1 12 4 2 13 4 2 13 4 2 13 4 2 13 4 2 13 4 2 13 4 2 13 4 2 13 2 1 9 2 1 9 2 1 9 2 1 9 2 1 9 2 1 9 2 1 9 2 1 9 2 1 9 2 1 9 2 1 9 2 1 9 2 1 9 2 1 9 2 1 9 2 1 9 5 3 16 5 3 16 5 3 16 5 3 16 5 3 16 5 3 16 5 3 16 5 3 16 6 4 17 6 4 17 6 4 17 6 4 17 6 4 17 6 4 17 6 4 17 5 5 15 5 9 18 3 10 16 3 10 16 3 10 16 3 10 16 3 10 16 3 10 16 3 10 16 4 11 17 5 12 18 7 14 20 10 17 23 14 21 27 17 24 30 20 27 33 21 28 34 40 47 53 42 49 55 44 51 57 47 54 60 51 58 64 54 61 67 56 63 69 58 65 71 62 69 75 62 69 75 62 69 75 62 69 75 62 69 75 62 69 75 62 69 75 62 70 73 73 81 84 73 81 83 73 81 83 73 81 83 73 81 83 73 81 83 73 81 83 73 81 83 88 96 98 90 98 100 92 100 102 95 103 105 99 107 109 102 110 112 104 112 114 106 114 116 87 95 98 84 92 95 79 87 90 73 81 84 66 74 77 59 67 70 54 62 65 52 60 63 15 23 26 16 24 27 18 26 29 21 29 32 23 31 34 26 34 37 28 36 39 29 37 40 12 21 26 12 21 26 11 20 25 10 19 24 10 19 24 9 18 23 9 18 23 8 17 22 14 23 28 14 23 28 14 23 28 14 23 28 14 23 28 14 23 28 14 23 28 14 23 28 25 33 36 25 33 36 25 33 36 25 33 36 25 33 36 25 33 36 25 33 36 25 33 36 23 31 34 23 31 34 23 31 34 23 31 34 23 31 34 23 31 34 23 31 34 25 30 33 29 28 26 31 27 24 31 27 24 31 27 24 31 27 24 31 27 24 31 27 24 31 27 24 34 30 27 34 30 27 34 30 27 34 30 27 34 30 27 34 30 27 34 30 27 34 30 27 39 31 29 39 31 29 39 31 29 39 31 29 39 31 29 39 31 29 39 31 29 39 31 29 39 31 29 39 31 29 39 31 29 39 31 29 39 31 29 39 31 29 39 31 29 39 31 29
