P3
172 37
255
122 104 146 122 104 144 122 104 146 122 104 144 121 103 145 121 103 143 121 103 145 121 103 143 121 103 145 121 103 143 121 103 145 121 103 143 120 102 144 120 102 142 120 102 144 120 102 142 120 102 144 120 102 142 120 102 144 120 102 142 113 95 137 109 91 131 101 83 125 91 73 113 80 62 104 70 52 92 62 44 86 57 41 80 31 19 57 27 17 52 23 13 50 17 7 42 11 1 38 5 0 30 3 0 30 3 0 28 9 0 36 9 0 34 9 0 36 9 0 34 9 0 36 9 0 34 9 0 36 7 0 31 7 4 21 6 6 16 6 6 16 6 6 16 6 6 16 6 6 16 6 6 16 6 6 16 7 7 17 7 7 17 7 7 17 7 7 17 7 7 17 7 7 17 7 7 17 7 7 17 5 8 15 5 8 15 5 8 15 5 8 15 5 8 15 5 8 15 5 8 15 5 8 15 6 9 16 6 9 16 6 9 16 6 9 16 6 9 16 6 9 16 6 9 16 6 9 16 7 12 18 7 12 18 7 12 18 7 12 18 7 12 18 7 12 18 7 12 18 7 12 18 8 13 19 8 13 19 8 13 19 8 13 19 8 13 19 8 13 19 8 13 19 8 13 19 6 9 14 8 11 16 10 13 18 13 16 21 17 20 25 20 23 28 22 25 30 24 27 32 14 17 22 13 16 21 10 13 18 6 9 14 2 5 10 0 1 6 0 0 5 0 0 5 0 3 6 0 5 8 2 7 10 5 10 13 9 14 17 12 17 20 14 19 22 16 21 24 21 26 29 23 28 31 28 33 36 35 40 43 41 46 49 48 53 56 53 58 61 56 60 61 55 56 58 59 59 59 64 64 64 70 70 70 77 77 77 83 83 83 88 88 88 91 91 91 105 105 105 105 105 105 105 105 105 105 105 105 105 105 105 105 105 105 105 105 105 105 105 105 83 81 84 75 73 76 62 60 63 50 48 51 43 41 44 42 40 43 45 43 46 48 46 49 41 39 42 41 39 42 41 39 42 41 39 42 41 39 42 41 39 42 41 39 42 41 39 42 39 37 40 39 37 40 39 37 40 39 37 40 39 37 40 39 37 40 39 37 40 39 37 40 43 41 44 43 41 44 43 41 44 43 41 44 43 41 44 43 41 44 43 41 44 43 41 44
121 105 142 121 105 142 121 105 142 121 105 142 120 104 141 120 104 141 120 104 141 120 104 141 120 104 141 120 104 141 120 104 141 120 104 141 119 103 140 119 103 140 119 103 140 119 103 140 119 103 140 119 103 140 119 103 140 119 103 140 111 95 132 107 91 128 98 82 119 87 71 108 76 60 97 65 49 86 57 41 78 51 37 73 24 14 48 20 13 44 16 9 42 11 4 35 5 0 31 1 0 25 1 0 27 1 0 25 7 0 33 7 0 31 7 0 33 7 0 31 7 0 33 7 0 31 7 0 33 7 1 27 6 5 21 6 6 16 6 6 16 6 6 16 6 6 16 6 6 16 6 6 16 6 6 16 7 7 17 7 7 17 7 7 17 7 7 17 7 7 17 7 7 17 7 7 17 5 8 17 5 8 17 5 8 15 5 8 15 5 8 15 5 8 15 5 8 15 5 8 15 5 8 15 6 9 16 6 9 16 6 9 16 6 9 16 6 9 16 6 9 16 6 9 16 5 10 16 7 12 18 5 12 18 7 12 18 5 12 18 7 12 18 5 12 18 7 12 18 5 12 18 8 13 19 6 13 19 8 13 19 6 13 19 8 13 19 6 13 19 8 13 19 8 13 19 5 10 16 7 12 16 10 13 20 12 17 21 17 20 27 19 24 28 22 25 32 23 28 32 16 19 26 13 18 22 11 14 21 5 10 14 2 5 12 0 1 5 0 0 7 0 1 5 0 3 7 0 5 8 2 7 10 5 10 13 9 14 17 12 17 20 14 19 22 16 21 24 21 26 29 23 28 31 28 33 36 35 40 43 41 46 49 48 53 56 53 58 61 56 60 63 54 55 57 57 59 58 63 63 63 68 70 69 76 76 76 81 83 82 87 87 87 89 91 90 103 103 103 102 104 103 103 103 103 102 104 103 103 103 103 102 104 103 103 103 103 103 103 103 83 81 84 75 73 76 62 60 63 50 48 51 43 41 44 42 40 43 45 43 46 48 46 49 41 39 42 41 39 42 41 39 42 41 39 42 41 39 42 41 39 42 41 39 42 41 39 42 39 37 40 39 37 40 39 37 40 39 37 40 39 37 40 39 37 40 39 37 40 39 37 40 43 41 44 43 41 44 43 41 44 43 41 44 43 41 44 43 41 44 43 41 44 43 41 44
113 100 130 113 100 130 113 100 130 113 100 130 120 107 137 120 107 137 120 107 137 120 107 137 120 107 137 120 107 137 120 107 137 120 107 137 116 103 131 115 102 130 112 99 127 109 96 124 106 93 121 102 89 117 100 87 115 99 86 114 96 83 111 92 79 107 83 70 98 72 59 87 61 48 76 50 37 65 42 29 57 35 25 50 7 2 24 6 3 22 6 3 24 6 3 22 6 3 24 6 3 22 6 3 24 6 3 22 8 5 26 8 5 24 8 5 26 8 5 24 8 5 26 8 5 24 8 5 26 7 6 24 7 6 20 5 7 19 5 7 19 5 7 19 5 7 19 5 7 19 5 7 19 5 7 19 6 8 20 6 8 20 6 8 20 6 8 20 6 8 20 6 8 20 6 8 20 6 9 18 5 8 17 4 8 17 4 8 17 4 8 17 4 8 17 4 8 17 4 8 17 4 8 17 6 10 19 6 10 19 6 10 19 6 10 19 6 10 19 6 10 19 6 10 19 6 10 19 6 13 21 5 14 21 6 13 21 5 14 21 6 13 21 5 14 21 6 13 21 5 14 21 1 8 16 0 9 16 1 8 16 0 9 16 1 8 16 0 9 16 1 8 16 1 8 16 0 3 11 0 5 11 4 8 17 6 13 19 13 17 26 15 22 28 21 25 34 20 27 33 37 41 50 27 34 40 16 20 29 2 9 15 0 1 10 0 1 7 0 3 12 2 7 13 2 7 11 3 6 11 3 6 11 3 6 11 3 6 11 3 6 11 3 6 11 3 6 11 16 19 24 18 21 26 23 26 31 30 33 38 36 39 44 43 46 51 48 51 56 50 54 57 55 59 60 57 61 62 61 62 64 62 66 67 68 69 71 69 73 74 73 74 76 73 77 78 86 87 89 85 89 90 90 91 93 91 95 96 96 97 99 98 102 103 102 103 105 103 104 106 81 81 81 74 72 73 61 59 60 49 47 48 42 40 41 41 39 40 44 42 43 47 45 46 41 39 40 41 39 40 41 39 40 41 39 40 41 39 40 41 39 40 41 39 40 41 39 40 38 36 37 38 36 37 38 36 37 38 36 37 38 36 37 38 36 37 38 36 37 38 36 37 37 35 36 37 35 36 37 35 36 37 35 36 37 35 36 37 35 36 37 35 36 37 35 36
111 101 126 111 101 126 111 101 126 111 101 126 117 107 132 117 107 132 117 107 132 117 107 132 117 107 132 117 107 132 117 107 132 117 107 132 107 97 121 106 96 120 104 94 118 100 90 114 97 87 111 94 84 108 91 81 105 90 80 104 83 73 97 78 68 92 71 61 85 61 51 75 50 40 64 39 29 53 32 22 46 27 19 40 6 3 20 5 4 18 5 4 18 5 4 18 5 4 18 5 4 18 5 4 18 5 4 18 7 6 20 7 6 20 7 6 20 7 6 20 7 6 20 7 6 20 7 6 20 7 6 20 5 7 19 5 7 19 5 7 19 5 7 19 5 7 19 5 7 19 5 7 19 5 7 19 6 8 20 6 8 20 6 8 20 6 8 20 6 8 20 6 8 20 6 8 20 6 8 20 4 8 17 4 8 17 4 8 17 4 8 17 4 8 17 4 8 17 4 8 17 4 8 17 6 10 19 6 10 19 6 10 19 6 10 19 6 10 19 6 10 19 6 10 19 4 11 19 6 13 21 5 14 21 5 14 21 5 14 21 5 14 21 5 14 21 5 14 21 5 14 21 2 11 18 2 11 18 2 11 18 2 11 18 2 11 18 2 11 18 2 11 18 2 11 18 0 6 14 1 8 16 4 11 19 8 15 23 12 19 27 15 22 30 18 25 33 20 27 35 35 42 50 27 34 42 14 21 29 2 9 17 0 2 10 0 1 9 0 4 12 0 7 13 3 6 13 3 6 11 3 6 11 3 6 11 3 6 11 3 6 11 3 6 11 3 6 11 16 19 24 18 21 26 23 26 31 30 33 38 36 39 44 43 46 51 48 51 56 50 54 57 55 59 62 57 61 62 59 63 64 62 66 67 66 70 71 69 73 74 71 75 76 73 77 78 83 87 88 84 88 89 86 90 91 90 94 95 93 97 98 96 100 101 99 103 104 102 103 105 81 81 81 74 72 73 61 59 60 49 47 48 42 40 41 41 39 40 44 42 43 47 45 46 41 39 40 41 39 40 41 39 40 41 39 40 41 39 40 41 39 40 41 39 40 41 39 40 38 36 37 38 36 37 38 36 37 38 36 37 38 36 37 38 36 37 38 36 37 38 36 37 37 35 36 37 35 36 37 35 36 37 35 36 37 35 36 37 35 36 37 35 36 37 35 36
110 100 125 110 100 125 110 100 125 110 100 125 113 103 128 113 103 128 113 103 128 113 103 128 113 103 128 113 103 128 113 103 128 113 103 128 95 85 109 94 84 108 91 81 105 88 78 102 85 75 99 82 72 96 79 69 93 78 68 92 64 54 78 60 50 74 53 43 67 45 35 59 35 25 49 26 16 40 19 9 33 15 7 28 6 3 20 5 4 18 5 4 18 5 4 18 5 4 18 5 4 18 5 4 18 5 4 18 7 6 20 7 6 20 7 6 20 7 6 20 7 6 20 7 6 20 7 6 20 7 6 20 5 7 19 5 7 19 5 7 19 5 7 19 5 7 19 5 7 19 5 7 19 5 7 19 6 8 20 6 8 20 6 8 20 6 8 20 6 8 20 6 8 20 6 8 20 6 8 20 4 8 17 4 8 17 4 8 17 4 8 17 4 8 17 4 8 17 4 8 17 4 8 17 6 10 19 6 10 19 6 10 19 6 10 19 6 10 19 6 10 19 6 10 19 4 11 19 6 13 21 5 14 21 5 14 21 5 14 21 5 14 21 5 14 21 5 14 21 5 14 21 4 13 20 4 13 20 4 13 20 4 13 20 4 13 20 4 13 20 4 13 20 4 13 20 5 12 20 6 13 21 8 15 23 11 18 26 13 20 28 16 23 31 18 25 33 19 26 34 35 42 50 27 34 42 14 21 29 2 9 17 0 2 10 0 1 9 0 4 12 0 7 13 3 6 13 3 6 11 3 6 11 3 6 11 3 6 11 3 6 11 3 6 11 3 6 11 16 19 24 18 21 26 23 26 31 30 33 38 36 39 44 43 46 51 48 51 56 50 54 57 55 59 62 57 61 62 59 63 64 62 66 67 66 70 71 69 73 74 71 75 76 73 77 78 80 84 85 82 86 87 84 88 89 87 91 92 91 95 96 94 98 99 96 100 101 100 101 103 81 81 81 74 72 73 61 59 60 49 47 48 42 40 41 41 39 40 44 42 43 47 45 46 41 39 40 41 39 40 41 39 40 41 39 40 41 39 40 41 39 40 41 39 40 41 39 40 38 36 37 38 36 37 38 36 37 38 36 37 38 36 37 38 36 37 38 36 37 38 36 37 37 35 36 37 35 36 37 35 36 37 35 36 37 35 36 37 35 36 37 35 36 37 35 36
103 93 118 103 93 118 103 93 118 103 93 118 102 92 117 102 92 117 102 92 117 102 92 117 102 92 117 102 92 117 102 92 117 102 92 117 79 69 93 78 68 92 76 66 90 72 62 86 69 59 83 66 56 80 63 53 77 62 52 76 44 34 58 41 31 55 36 26 50 28 18 42 21 11 35 13 3 27 8 0 22 4 0 17 6 3 20 5 4 18 5 4 18 5 4 18 5 4 18 5 4 18 5 4 18 5 4 18 7 6 20 7 6 20 7 6 20 7 6 20 7 6 20 7 6 20 7 6 20 7 6 20 5 7 19 5 7 19 5 7 19 5 7 19 5 7 19 5 7 19 5 7 19 5 7 19 6 8 20 6 8 20 6 8 20 6 8 20 6 8 20 6 8 20 6 8 20 6 8 20 4 8 17 4 8 17 4 8 17 4 8 17 4 8 17 4 8 17 4 8 17 4 8 17 6 10 19 6 10 19 6 10 19 6 10 19 6 10 19 6 10 19 6 10 19 4 11 19 6 13 21 5 14 21 5 14 21 5 14 21 5 14 21 5 14 21 5 14 21 5 14 21 7 16 23 7 16 23 7 16 23 7 16 23 7 16 23 7 16 23 7 16 23 7 16 23 13 20 28 13 20 28 14 21 29 15 22 30 16 23 31 17 24 32 17 24 32 18 25 33 35 42 50 27 34 42 14 21 29 2 9 17 0 2 10 0 1 9 0 4 12 0 7 13 3 6 13 3 6 11 3 6 11 3 6 11 3 6 11 3 6 11 3 6 11 3 6 11 16 19 24 18 21 26 23 26 31 30 33 38 36 39 44 43 46 51 48 51 56 50 54 57 55 59 62 57 61 62 59 63 64 62 66 67 66 70 71 69 73 74 71 75 76 73 77 78 77 81 82 78 82 83 81 85 86 84 88 89 87 91 92 91 95 96 93 97 98 96 97 99 81 81 81 74 72 73 61 59 60 49 47 48 42 40 41 41 39 40 44 42 43 47 45 46 41 39 40 41 39 40 41 39 40 41 39 40 41 39 40 41 39 40 41 39 40 41 39 40 38 36 37 38 36 37 38 36 37 38 36 37 38 36 37 38 36 37 38 36 37 38 36 37 37 35 36 37 35 36 37 35 36 37 35 36 37 35 36 37 35 36 37 35 36 37 35 36
89 79 104 89 79 104 89 79 104 89 79 104 85 75 100 85 75 100 85 75 100 85 75 100 85 75 100 85 75 100 85 75 100 85 75 100 62 52 76 61 51 75 58 48 72 55 45 69 52 42 66 48 38 62 46 36 60 45 35 59 29 19 43 27 17 41 23 13 37 17 7 31 11 1 25 6 0 20 4 0 18 3 0 16 6 3 20 5 4 18 5 4 18 5 4 18 5 4 18 5 4 18 5 4 18 5 4 18 7 6 20 7 6 20 7 6 20 7 6 20 7 6 20 7 6 20 7 6 20 7 6 20 5 7 19 5 7 19 5 7 19 5 7 19 5 7 19 5 7 19 5 7 19 5 7 19 6 8 20 6 8 20 6 8 20 6 8 20 6 8 20 6 8 20 6 8 20 6 8 20 4 8 17 4 8 17 4 8 17 4 8 17 4 8 17 4 8 17 4 8 17 4 8 17 6 10 19 6 10 19 6 10 19 6 10 19 6 10 19 6 10 19 6 10 19 4 11 19 6 13 21 5 14 21 5 14 21 5 14 21 5 14 21 5 14 21 5 14 21 5 14 21 11 20 27 11 20 27 11 20 27 11 20 27 11 20 27 11 20 27 11 20 27 11 20 27 21 28 36 21 28 36 20 27 35 19 26 34 18 25 33 17 24 32 17 24 32 16 23 31 35 42 50 27 34 42 14 21 29 2 9 17 0 2 10 0 1 9 0 4 12 0 7 13 3 6 13 3 6 11 3 6 11 3 6 11 3 6 11 3 6 11 3 6 11 3 6 11 16 19 24 18 21 26 23 26 31 30 33 38 36 39 44 43 46 51 48 51 56 50 54 57 55 59 62 57 61 62 59 63 64 62 66 67 66 70 71 69 73 74 71 75 76 73 77 78 74 78 79 75 79 80 77 81 82 81 85 86 84 88 89 87 91 92 90 94 95 93 94 96 81 81 81 74 72 73 61 59 60 49 47 48 42 40 41 41 39 40 44 42 43 47 45 46 41 39 40 41 39 40 41 39 40 41 39 40 41 39 40 41 39 40 41 39 40 41 39 40 38 36 37 38 36 37 38 36 37 38 36 37 38 36 37 38 36 37 38 36 37 38 36 37 37 35 36 37 35 36 37 35 36 37 35 36 37 35 36 37 35 36 37 35 36 37 35 36
70 60 85 70 60 85 70 60 85 70 60 85 63 53 78 63 53 78 63 53 78 63 53 78 63 53 78 63 53 78 63 53 78 63 53 78 46 36 60 45 35 59 42 32 56 39 29 53 36 26 50 33 23 47 30 20 44 29 19 43 21 11 35 19 9 33 16 6 30 12 2 26 8 0 22 4 0 18 4 0 18 3 0 16 6 3 20 5 4 18 5 4 18 5 4 18 5 4 18 5 4 18 5 4 18 5 4 18 7 6 20 7 6 20 7 6 20 7 6 20 7 6 20 7 6 20 7 6 20 7 6 20 5 7 19 5 7 19 5 7 19 5 7 19 5 7 19 5 7 19 5 7 19 5 7 19 6 8 20 6 8 20 6 8 20 6 8 20 6 8 20 6 8 20 6 8 20 6 8 20 4 8 17 4 8 17 4 8 17 4 8 17 4 8 17 4 8 17 4 8 17 4 8 17 6 10 19 6 10 19 6 10 19 6 10 19 6 10 19 6 10 19 6 10 19 4 11 19 6 13 21 5 14 21 5 14 21 5 14 21 5 14 21 5 14 21 5 14 21 5 14 21 14 23 30 14 23 30 14 23 30 14 23 30 14 23 30 14 23 30 14 23 30 14 23 30 29 36 44 28 35 43 26 33 41 23 30 38 21 28 36 18 25 33 16 23 31 15 22 30 35 42 50 27 34 42 14 21 29 2 9 17 0 2 10 0 1 9 0 4 12 0 7 13 3 6 13 3 6 11 3 6 11 3 6 11 3 6 11 3 6 11 3 6 11 3 6 11 16 19 24 18 21 26 23 26 31 30 33 38 36 39 44 43 46 51 48 51 56 50 54 57 55 59 62 57 61 62 59 63 64 62 66 67 66 70 71 69 73 74 71 75 76 73 77 78 70 74 75 72 76 77 74 78 79 77 81 82 81 85 86 84 88 89 86 90 91 90 91 93 81 81 81 74 72 73 61 59 60 49 47 48 42 40 41 41 39 40 44 42 43 47 45 46 41 39 40 41 39 40 41 39 40 41 39 40 41 39 40 41 39 40 41 39 40 41 39 40 38 36 37 38 36 37 38 36 37 38 36 37 38 36 37 38 36 37 38 36 37 38 36 37 37 35 36 37 35 36 37 35 36 37 35 36 37 35 36 37 35 36 37 35 36 37 35 36
53 43 68 53 43 68 53 43 68 53 43 68 43 33 58 43 33 58 43 33 58 43 33 58 43 33 58 43 33 58 43 33 58 43 33 58 34 24 48 33 23 47 30 20 44 27 17 41 24 14 38 20 10 34 18 8 32 17 7 31 18 8 32 17 7 31 15 5 29 12 2 26 10 0 24 7 0 21 5 0 19 3 0 16 6 3 20 5 4 18 5 4 18 5 4 18 5 4 18 5 4 18 5 4 18 5 4 18 7 6 20 7 6 20 7 6 20 7 6 20 7 6 20 7 6 20 7 6 20 7 6 20 5 7 19 5 7 19 5 7 19 5 7 19 5 7 19 5 7 19 5 7 19 5 7 19 6 8 20 6 8 20 6 8 20 6 8 20 6 8 20 6 8 20 6 8 20 6 8 20 4 8 17 4 8 17 4 8 17 4 8 17 4 8 17 4 8 17 4 8 17 4 8 17 6 10 19 6 10 19 6 10 19 6 10 19 6 10 19 6 10 19 6 10 19 4 11 19 6 13 21 5 14 21 5 14 21 5 14 21 5 14 21 5 14 21 5 14 21 5 14 21 16 25 32 16 25 32 16 25 32 16 25 32 16 25 32 16 25 32 16 25 32 16 25 32 35 42 50 33 40 48 30 37 45 26 33 41 22 29 37 19 26 34 16 23 31 14 21 29 35 42 50 27 34 42 14 21 29 2 9 17 0 2 10 0 1 9 0 4 12 0 7 13 3 6 13 3 6 11 3 6 11 3 6 11 3 6 11 3 6 11 3 6 11 3 6 11 16 19 24 18 21 26 23 26 31 30 33 38 36 39 44 43 46 51 48 51 56 50 54 57 55 59 62 57 61 62 59 63 64 62 66 67 66 70 71 69 73 74 71 75 76 73 77 78 68 72 73 69 73 74 72 76 77 75 79 80 78 82 83 82 86 87 84 88 89 87 88 90 81 81 81 74 72 73 61 59 60 49 47 48 42 40 41 41 39 40 44 42 43 47 45 46 41 39 40 41 39 40 41 39 40 41 39 40 41 39 40 41 39 40 41 39 40 41 39 40 38 36 37 38 36 37 38 36 37 38 36 37 38 36 37 38 36 37 38 36 37 38 36 37 37 35 36 37 35 36 37 35 36 37 35 36 37 35 36 37 35 36 37 35 36 37 35 36
42 32 57 42 32 57 42 32 57 42 32 57 31 21 46 31 21 46 31 21 46 31 21 46 31 21 46 31 21 46 31 21 46 31 21 46 27 17 41 26 16 40 24 14 38 20 10 34 17 7 31 14 4 28 11 1 25 10 0 24 18 8 32 17 7 31 16 6 30 14 4 28 12 2 26 10 0 24 8 0 22 6 0 19 6 3 20 5 4 18 5 4 18 5 4 18 5 4 18 5 4 18 5 4 18 5 4 18 7 6 20 7 6 20 7 6 20 7 6 20 7 6 20 7 6 20 7 6 20 7 6 20 5 7 19 5 7 19 5 7 19 5 7 19 5 7 19 5 7 19 5 7 19 5 7 19 6 8 20 6 8 20 6 8 20 6 8 20 6 8 20 6 8 20 6 8 20 6 8 20 4 8 17 4 8 17 4 8 17 4 8 17 4 8 17 4 8 17 4 8 17 4 8 17 6 10 19 6 10 19 6 10 19 6 10 19 6 10 19 6 10 19 6 10 19 4 11 19 6 13 21 5 14 21 5 14 21 5 14 21 5 14 21 5 14 21 5 14 21 5 14 21 18 27 34 18 27 34 18 27 34 18 27 34 18 27 34 18 27 34 18 27 34 18 27 34 38 45 53 36 43 51 32 39 47 28 35 43 23 30 38 19 26 34 15 22 30 14 21 29 35 42 50 27 34 42 14 21 29 2 9 17 0 2 10 0 1 9 0 4 12 0 7 13 3 6 13 3 6 11 3 6 11 3 6 11 3 6 11 3 6 11 3 6 11 3 6 11 16 19 24 18 21 26 23 26 31 30 33 38 36 39 44 43 46 51 48 51 56 50 54 57 55 59 62 57 61 62 59 63 64 62 66 67 66 70 71 69 73 74 71 75 76 73 77 78 67 71 72 68 72 73 70 74 75 74 78 79 77 81 82 80 84 85 83 87 88 86 87 89 81 81 81 74 72 73 61 59 60 49 47 48 42 40 41 41 39 40 44 42 43 47 45 46 41 39 40 41 39 40 41 39 40 41 39 40 41 39 40 41 39 40 41 39 40 41 39 40 38 36 37 38 36 37 38 36 37 38 36 37 38 36 37 38 36 37 38 36 37 38 36 37 37 35 36 37 35 36 37 35 36 37 35 36 37 35 36 37 35 36 37 35 36 37 35 36
12 2 27 12 2 27 12 2 27 12 2 27 10 0 25 10 0 25 10 0 25 10 0 25 10 0 25 10 0 25 10 0 25 10 0 25 9 0 23 9 0 23 9 0 23 9 0 23 9 0 23 9 0 23 9 0 23 9 0 23 9 0 23 9 0 23 9 0 23 9 0 23 9 0 23 9 0 23 9 0 23 8 0 21 5 2 19 4 3 17 4 3 17 4 3 17 4 3 17 4 3 17 4 3 17 4 3 17 4 3 17 4 3 17 4 3 17 4 3 17 4 3 17 4 3 17 4 3 17 4 3 17 4 6 18 4 6 18 4 6 18 4 6 18 4 6 18 4 6 18 4 6 18 4 6 18 5 7 19 5 7 19 5 7 19 5 7 19 5 7 19 5 7 19 5 7 19 5 7 19 6 10 19 6 10 19 6 10 19 6 10 19 6 10 19 6 10 19 6 10 19 6 10 19 6 10 19 6 10 19 6 10 19 6 10 19 6 10 19 6 10 19 6 10 19 4 11 19 7 14 22 5 14 21 4 13 20 3 12 19 2 11 18 0 9 16 0 9 16 0 8 15 15 24 31 17 26 33 21 30 37 25 34 41 30 39 46 34 43 50 38 47 54 39 48 55 38 45 53 36 43 51 34 41 49 31 38 46 27 34 42 24 31 39 22 29 37 20 27 35 5 12 20 5 12 20 5 12 20 5 12 20 5 12 20 5 12 20 5 12 20 5 12 18 5 8 15 5 8 13 5 8 13 5 8 13 5 8 13 5 8 13 5 8 13 5 8 13 17 20 25 19 22 27 21 24 29 24 27 32 28 31 36 31 34 39 33 36 41 35 39 42 52 56 59 53 57 58 56 60 61 59 63 64 62 66 67 66 70 71 68 72 73 69 73 74 72 76 77 72 76 77 72 76 77 72 76 77 72 76 77 72 76 77 72 76 77 74 75 77 65 65 65 64 62 63 59 57 58 52 50 51 46 44 45 39 37 38 34 32 33 32 30 31 34 32 33 34 32 33 34 32 33 34 32 33 34 32 33 34 32 33 34 32 33 34 32 33 33 31 32 33 31 32 33 31 32 33 31 32 33 31 32 33 31 32 33 31 32 33 31 32 37 35 36 37 35 36 37 35 36 37 35 36 37 35 36 37 35 36 37 35 36 37 35 36
12 2 27 12 2 27 12 2 27 12 2 27 10 0 25 10 0 25 10 0 25 10 0 25 10 0 25 10 0 25 10 0 25 10 0 25 9 0 23 9 0 23 9 0 23 9 0 23 9 0 23 9 0 23 9 0 23 9 0 23 9 0 23 9 0 23 9 0 23 9 0 23 9 0 23 9 0 23 9 0 23 8 0 21 5 2 19 4 3 17 4 3 17 4 3 17 4 3 17 4 3 17 4 3 17 4 3 17 4 3 17 4 3 17 4 3 17 4 3 17 4 3 17 4 3 17 4 3 17 4 3 17 4 6 18 4 6 18 4 6 18 4 6 18 4 6 18 4 6 18 4 6 18 4 6 18 5 7 19 5 7 19 5 7 19 5 7 19 5 7 19 5 7 19 5 7 19 5 7 19 6 10 19 6 10 19 6 10 19 6 10 19 6 10 19 6 10 19 6 10 19 6 10 19 6 10 19 6 10 19 6 10 19 6 10 19 6 10 19 6 10 19 6 10 19 4 11 19 6 13 21 5 14 21 5 14 21 4 13 20 3 12 19 3 12 19 2 11 18 2 11 18 18 27 34 20 29 36 23 32 39 27 36 43 31 40 47 34 43 50 37 46 53 39 48 55 38 45 53 36 43 51 34 41 49 31 38 46 27 34 42 24 31 39 22 29 37 20 27 35 5 12 20 5 12 20 5 12 20 5 12 20 5 12 20 5 12 20 5 12 20 5 12 18 5 8 15 5 8 13 5 8 13 5 8 13 5 8 13 5 8 13 5 8 13 5 8 13 17 20 25 19 22 27 21 24 29 24 27 32 28 31 36 31 34 39 33 36 41 35 39 42 51 55 58 52 56 57 54 58 59 58 62 63 61 65 66 64 68 69 67 71 72 68 72 73 70 74 75 70 74 75 70 74 75 70 74 75 70 74 75 70 74 75 70 74 75 72 73 75 65 65 65 64 62 63 59 57 58 52 50 51 46 44 45 39 37 38 34 32 33 32 30 31 34 32 33 34 32 33 34 32 33 34 32 33 34 32 33 34 32 33 34 32 33 34 32 33 33 31 32 33 31 32 33 31 32 33 31 32 33 31 32 33 31 32 33 31 32 33 31 32 37 35 36 37 35 36 37 35 36 37 35 36 37 35 36 37 35 36 37 35 36 37 35 36
12 2 27 12 2 27 12 2 27 12 2 27 10 0 25 10 0 25 10 0 25 10 0 25 10 0 25 10 0 25 10 0 25 10 0 25 9 0 23 9 0 23 9 0 23 9 0 23 9 0 23 9 0 23 9 0 23 9 0 23 9 0 23 9 0 23 9 0 23 9 0 23 9 0 23 9 0 23 9 0 23 8 0 21 5 2 19 4 3 17 4 3 17 4 3 17 4 3 17 4 3 17 4 3 17 4 3 17 4 3 17 4 3 17 4 3 17 4 3 17 4 3 17 4 3 17 4 3 17 4 3 17 4 6 18 4 6 18 4 6 18 4 6 18 4 6 18 4 6 18 4 6 18 4 6 18 5 7 19 5 7 19 5 7 19 5 7 19 5 7 19 5 7 19 5 7 19 5 7 19 6 10 19 6 10 19 6 10 19 6 10 19 6 10 19 6 10 19 6 10 19 6 10 19 6 10 19 6 10 19 6 10 19 6 10 19 6 10 19 6 10 19 6 10 19 4 11 19 5 12 20 5 14 21 5 14 21 6 15 22 6 15 22 7 16 23 8 17 24 8 17 24 24 33 40 25 34 41 27 36 43 30 39 46 32 41 48 35 44 51 37 46 53 38 47 54 38 45 53 36 43 51 34 41 49 31 38 46 27 34 42 24 31 39 22 29 37 20 27 35 5 12 20 5 12 20 5 12 20 5 12 20 5 12 20 5 12 20 5 12 20 5 12 18 5 8 15 5 8 13 5 8 13 5 8 13 5 8 13 5 8 13 5 8 13 5 8 13 17 20 25 19 22 27 21 24 29 24 27 32 28 31 36 31 34 39 33 36 41 35 39 42 48 52 55 50 54 55 52 56 57 55 59 60 59 63 64 62 66 67 64 68 69 66 70 71 68 72 73 68 72 73 68 72 73 68 72 73 68 72 73 68 72 73 68 72 73 70 71 73 65 65 65 64 62 63 59 57 58 52 50 51 46 44 45 39 37 38 34 32 33 32 30 31 34 32 33 34 32 33 34 32 33 34 32 33 34 32 33 34 32 33 34 32 33 34 32 33 33 31 32 33 31 32 33 31 32 33 31 32 33 31 32 33 31 32 33 31 32 33 31 32 37 35 36 37 35 36 37 35 36 37 35 36 37 35 36 37 35 36 37 35 36 37 35 36
12 2 27 12 2 27 12 2 27 12 2 27 10 0 25 10 0 25 10 0 25 10 0 25 10 0 25 10 0 25 10 0 25 10 0 25 9 0 23 9 0 23 9 0 23 9 0 23 9 0 23 9 0 23 9 0 23 9 0 23 9 0 23 9 0 23 9 0 23 9 0 23 9 0 23 9 0 23 9 0 23 8 0 21 5 2 19 4 3 17 4 3 17 4 3 17 4 3 17 4 3 17 4 3 17 4 3 17 4 3 17 4 3 17 4 3 17 4 3 17 4 3 17 4 3 17 4 3 17 4 3 17 4 6 18 4 6 18 4 6 18 4 6 18 4 6 18 4 6 18 4 6 18 4 6 18 5 7 19 5 7 19 5 7 19 5 7 19 5 7 19 5 7 19 5 7 19 5 7 19 6 10 19 6 10 19 6 10 19 6 10 19 6 10 19 6 10 19 6 10 19 6 10 19 6 10 19 6 10 19 6 10 19 6 10 19 6 10 19 6 10 19 6 10 19 4 11 19 4 11 19 4 13 20 6 15 22 8 17 24 11 20 27 13 22 29 15 24 31 16 25 32 32 41 48 32 41 48 33 42 49 34 43 50 35 44 51 36 45 52 36 45 52 37 46 53 38 45 53 36 43 51 34 41 49 31 38 46 27 34 42 24 31 39 22 29 37 20 27 35 5 12 20 5 12 20 5 12 20 5 12 20 5 12 20 5 12 20 5 12 20 5 12 18 5 8 15 5 8 13 5 8 13 5 8 13 5 8 13 5 8 13 5 8 13 5 8 13 17 20 25 19 22 27 21 24 29 24 27 32 28 31 36 31 34 39 33 36 41 35 39 42 45 49 52 46 50 51 49 53 54 52 56 57 55 59 60 59 63 64 61 65 66 62 66 67 65 69 70 65 69 70 65 69 70 65 69 70 65 69 70 65 69 70 65 69 70 67 68 70 65 65 65 64 62 63 59 57 58 52 50 51 46 44 45 39 37 38 34 32 33 32 30 31 34 32 33 34 32 33 34 32 33 34 32 33 34 32 33 34 32 33 34 32 33 34 32 33 33 31 32 33 31 32 33 31 32 33 31 32 33 31 32 33 31 32 33 31 32 33 31 32 37 35 36 37 35 36 37 35 36 37 35 36 37 35 36 37 35 36 37 35 36 37 35 36
12 2 27 12 2 27 12 2 27 12 2 27 10 0 25 10 0 25 10 0 25 10 0 25 10 0 25 10 0 25 10 0 25 10 0 25 9 0 23 9 0 23 9 0 23 9 0 23 9 0 23 9 0 23 9 0 23 9 0 23 9 0 23 9 0 23 9 0 23 9 0 23 9 0 23 9 0 23 9 0 23 8 0 21 5 2 19 4 3 17 4 3 17 4 3 17 4 3 17 4 3 17 4 3 17 4 3 17 4 3 17 4 3 17 4 3 17 4 3 17 4 3 17 4 3 17 4 3 17 4 3 17 4 6 18 4 6 18 4 6 18 4 6 18 4 6 18 4 6 18 4 6 18 4 6 18 5 7 19 5 7 19 5 7 19 5 7 19 5 7 19 5 7 19 5 7 19 5 7 19 6 10 19 6 10 19 6 10 19 6 10 19 6 10 19 6 10 19 6 10 19 6 10 19 6 10 19 6 10 19 6 10 19 6 10 19 6 10 19 6 10 19 6 10 19 4 11 19 3 10 18 3 12 19 6 15 22 11 20 27 15 24 31 19 28 35 22 31 38 24 33 40 40 49 56 40 49 56 39 48 55 38 47 54 37 46 53 36 45 52 36 45 52 35 44 51 38 45 53 36 43 51 34 41 49 31 38 46 27 34 42 24 31 39 22 29 37 20 27 35 5 12 20 5 12 20 5 12 20 5 12 20 5 12 20 5 12 20 5 12 20 5 12 18 5 8 15 5 8 13 5 8 13 5 8 13 5 8 13 5 8 13 5 8 13 5 8 13 17 20 25 19 22 27 21 24 29 24 27 32 28 31 36 31 34 39 33 36 41 35 39 42 42 46 49 43 47 48 45 49 50 49 53 54 52 56 57 55 59 60 58 62 63 59 63 64 61 65 66 61 65 66 61 65 66 61 65 66 61 65 66 61 65 66 61 65 66 63 64 66 65 65 65 64 62 63 59 57 58 52 50 51 46 44 45 39 37 38 34 32 33 32 30 31 34 32 33 34 32 33 34 32 33 34 32 33 34 32 33 34 32 33 34 32 33 34 32 33 33 31 32 33 31 32 33 31 32 33 31 32 33 31 32 33 31 32 33 31 32 33 31 32 37 35 36 37 35 36 37 35 36 37 35 36 37 35 36 37 35 36 37 35 36 37 35 36
12 2 27 12 2 27 12 2 27 12 2 27 10 0 25 10 0 25 10 0 25 10 0 25 10 0 25 10 0 25 10 0 25 10 0 25 9 0 23 9 0 23 9 0 23 9 0 23 9 0 23 9 0 23 9 0 23 9 0 23 9 0 23 9 0 23 9 0 23 9 0 23 9 0 23 9 0 23 9 0 23 8 0 21 5 2 19 4 3 17 4 3 17 4 3 17 4 3 17 4 3 17 4 3 17 4 3 17 4 3 17 4 3 17 4 3 17 4 3 17 4 3 17 4 3 17 4 3 17 4 3 17 4 6 18 4 6 18 4 6 18 4 6 18 4 6 18 4 6 18 4 6 18 4 6 18 5 7 19 5 7 19 5 7 19 5 7 19 5 7 19 5 7 19 5 7 19 5 7 19 6 10 19 6 10 19 6 10 19 6 10 19 6 10 19 6 10 19 6 10 19 6 10 19 6 10 19 6 10 19 6 10 19 6 10 19 6 10 19 6 10 19 6 10 19 4 11 19 1 8 16 3 12 19 7 16 23 13 22 29 19 28 35 25 34 41 29 38 45 31 40 47 48 57 64 47 56 63 45 54 61 42 51 58 40 49 56 37 46 53 35 44 51 34 43 50 38 45 53 36 43 51 34 41 49 31 38 46 27 34 42 24 31 39 22 29 37 20 27 35 5 12 20 5 12 20 5 12 20 5 12 20 5 12 20 5 12 20 5 12 20 5 12 18 5 8 15 5 8 13 5 8 13 5 8 13 5 8 13 5 8 13 5 8 13 5 8 13 17 20 25 19 22 27 21 24 29 24 27 32 28 31 36 31 34 39 33 36 41 35 39 42 38 42 45 40 44 45 42 46 47 45 49 50 49 53 54 52 56 57 54 58 59 56 60 61 58 62 63 58 62 63 58 62 63 58 62 63 58 62 63 58 62 63 58 62 63 60 61 63 65 65 65 64 62 63 59 57 58 52 50 51 46 44 45 39 37 38 34 32 33 32 30 31 34 32 33 34 32 33 34 32 33 34 32 33 34 32 33 34 32 33 34 32 33 34 32 33 33 31 32 33 31 32 33 31 32 33 31 32 33 31 32 33 31 32 33 31 32 33 31 32 37 35 36 37 35 36 37 35 36 37 35 36 37 35 36 37 35 36 37 35 36 37 35 36
12 2 27 12 2 27 12 2 27 12 2 27 10 0 25 10 0 25 10 0 25 10 0 25 10 0 25 10 0 25 10 0 25 10 0 25 9 0 23 9 0 23 9 0 23 9 0 23 9 0 23 9 0 23 9 0 23 9 0 23 9 0 23 9 0 23 9 0 23 9 0 23 9 0 23 9 0 23 9 0 23 8 0 21 5 2 19 4 3 17 4 3 17 4 3 17 4 3 17 4 3 17 4 3 17 4 3 17 4 3 17 4 3 17 4 3 17 4 3 17 4 3 17 4 3 17 4 3 17 4 3 17 4 6 18 4 6 18 4 6 18 4 6 18 4 6 18 4 6 18 4 6 18 4 6 18 5 7 19 5 7 19 5 7 19 5 7 19 5 7 19 5 7 19 5 7 19 5 7 19 6 10 19 6 10 19 6 10 19 6 10 19 6 10 19 6 10 19 6 10 19 6 10 19 6 10 19 6 10 19 6 10 19 6 10 19 6 10 19 6 10 19 6 10 19 4 11 19 0 7 15 2 11 18 8 17 24 15 24 31 22 31 38 29 38 45 34 43 50 37 46 53 54 63 70 52 61 68 49 58 65 45 54 61 41 50 57 38 47 54 35 44 51 33 42 49 38 45 53 36 43 51 34 41 49 31 38 46 27 34 42 24 31 39 22 29 37 20 27 35 5 12 20 5 12 20 5 12 20 5 12 20 5 12 20 5 12 20 5 12 20 5 12 18 5 8 15 5 8 13 5 8 13 5 8 13 5 8 13 5 8 13 5 8 13 5 8 13 17 20 25 19 22 27 21 24 29 24 27 32 28 31 36 31 34 39 33 36 41 35 39 42 36 40 43 37 41 42 40 44 45 43 47 48 46 50 51 50 54 55 52 56 57 53 57 58 56 60 61 56 60 61 56 60 61 56 60 61 56 60 61 56 60 61 56 60 61 58 59 61 65 65 65 64 62 63 59 57 58 52 50 51 46 44 45 39 37 38 34 32 33 32 30 31 34 32 33 34 32 33 34 32 33 34 32 33 34 32 33 34 32 33 34 32 33 34 32 33 33 31 32 33 31 32 33 31 32 33 31 32 33 31 32 33 31 32 33 31 32 33 31 32 37 35 36 37 35 36 37 35 36 37 35 36 37 35 36 37 35 36 37 35 36 37 35 36
11 3 26 11 3 26 11 3 26 11 3 26 9 1 24 9 1 24 9 1 24 9 1 24 9 1 24 9 1 24 9 1 24 9 1 24 8 0 21 8 0 21 8 0 21 8 0 21 8 0 21 8 0 21 8 0 21 8 0 21 8 0 21 8 0 21 8 0 21 8 0 21 8 0 21 8 0 21 8 0 21 6 1 21 5 2 19 4 3 17 4 3 17 4 3 17 4 3 17 4 3 17 4 3 17 4 3 17 4 3 17 4 3 17 4 3 17 4 3 17 4 3 17 4 3 17 4 3 17 4 3 17 4 6 18 4 6 18 4 6 18 4 6 18 4 6 18 4 6 18 4 6 18 4 6 18 5 7 19 5 7 19 5 7 19 5 7 19 5 7 19 5 7 19 5 7 19 5 7 19 6 10 19 6 10 19 6 10 19 6 10 19 6 10 19 6 10 19 6 10 19 6 10 19 6 10 19 6 10 19 6 10 19 6 10 19 6 10 19 6 10 19 6 10 19 4 11 19 0 7 15 2 11 18 8 17 24 16 25 32 24 33 40 31 40 47 37 46 53 40 49 56 57 66 73 55 64 71 51 60 67 47 56 63 42 51 58 38 47 54 34 43 50 33 42 49 38 45 53 36 43 51 34 41 49 31 38 46 27 34 42 24 31 39 22 29 37 20 27 35 5 12 20 5 12 20 5 12 20 5 12 20 5 12 20 5 12 20 5 12 20 5 12 18 4 9 15 4 9 13 5 8 15 4 9 13 5 8 15 4 9 13 5 8 15 4 9 13 17 20 27 18 23 27 21 24 31 23 28 32 28 31 38 30 35 39 33 36 43 35 38 43 35 39 42 36 40 41 38 42 43 42 46 47 45 49 50 48 52 53 51 55 56 52 56 57 54 58 59 54 58 59 54 58 59 54 58 59 54 58 59 54 58 59 54 58 59 56 57 59 65 65 65 64 62 63 59 57 58 52 50 51 46 44 45 39 37 38 34 32 33 32 30 31 34 32 33 34 32 33 34 32 33 34 32 33 34 32 33 34 32 33 34 32 33 34 32 33 33 31 32 33 31 32 35 31 32 33 31 32 35 31 32 33 31 32 35 31 32 33 31 32 39 35 36 37 35 36 39 35 36 37 35 36 39 35 36 37 35 36 39 35 36 37 35 36
5 1 16 5 1 16 5 1 16 5 1 16 4 0 15 4 0 15 4 0 15 4 0 15 4 0 15 4 0 15 4 0 15 4 0 15 5 1 18 5 1 18 5 1 18 5 1 18 5 1 18 5 1 18 5 1 18 5 1 18 5 1 18 5 1 18 5 1 18 5 1 18 5 1 18 5 1 18 5 1 18 4 1 18 5 3 17 5 3 17 5 3 17 5 3 17 5 3 17 5 3 17 5 3 17 5 3 17 5 3 17 5 3 17 5 3 17 5 3 17 5 3 17 5 3 17 5 3 17 4 3 17 3 5 17 3 5 17 3 5 17 3 5 17 3 5 17 3 5 17 3 5 17 3 5 17 4 6 18 4 6 18 4 6 18 4 6 18 4 6 18 4 6 18 4 6 18 4 6 18 5 9 20 3 10 20 3 10 20 3 10 20 3 10 20 3 10 20 3 10 20 3 10 20 8 15 25 7 14 24 6 13 23 5 12 22 4 11 21 2 9 19 2 9 19 1 8 18 8 15 23 13 20 28 21 28 36 32 39 47 43 50 58 54 61 69 63 70 78 67 74 82 69 76 84 67 74 82 65 72 80 62 69 77 58 65 73 55 62 70 53 60 68 51 58 66 45 52 58 43 50 56 41 48 54 38 45 51 34 41 47 31 38 44 29 36 42 27 34 40 7 14 20 7 14 20 7 14 20 7 14 20 7 14 20 7 14 20 7 14 20 7 14 20 3 10 16 3 10 16 5 9 18 3 10 16 5 9 18 3 10 16 5 9 18 3 10 16 12 16 25 12 19 25 16 20 29 17 24 30 23 27 36 24 31 37 28 32 41 30 35 41 38 43 46 38 43 46 38 43 46 38 43 46 38 43 46 38 43 46 38 43 46 38 43 46 53 58 61 53 58 61 53 58 61 53 58 61 53 58 61 53 58 61 53 58 61 54 58 59 49 47 48 49 45 46 47 43 44 44 40 41 40 36 37 37 33 34 35 31 32 33 29 30 34 30 31 34 30 31 34 30 31 34 30 31 34 30 31 34 30 31 34 30 31 34 30 31 35 31 30 35 31 30 36 30 30 35 31 30 36 30 30 35 31 30 36 30 30 35 31 30 37 31 31 36 32 31 37 31 31 36 32 31 37 31 31 36 32 31 37 31 31 36 32 31
4 2 15 4 2 15 4 2 15 4 2 15 3 1 14 3 1 14 3 1 14 3 1 14 3 1 14 3 1 14 3 1 14 3 1 14 4 2 16 4 2 16 4 2 16 4 2 16 4 2 16 4 2 16 4 2 16 4 2 16 4 2 16 4 2 16 4 2 16 4 2 16 4 2 16 4 2 16 4 2 16 4 2 16 5 3 17 5 3 17 5 3 17 5 3 17 5 3 17 5 3 17 5 3 17 5 3 17 5 3 17 5 3 17 5 3 17 5 3 17 5 3 17 5 3 17 5 3 17 4 3 17 5 5 17 3 5 17 3 5 17 3 5 17 3 5 17 3 5 17 3 5 17 3 5 17 4 6 18 4 6 18 4 6 18 4 6 18 4 6 18 4 6 18 4 6 18 3 7 18 5 9 20 3 10 20 3 10 20 3 10 20 3 10 20 3 10 20 3 10 20 3 10 20 7 14 24 7 14 24 7 14 24 6 13 23 5 12 22 5 12 22 4 11 21 4 11 21 13 20 28 17 24 32 25 32 40 35 42 50 46 53 61 56 63 71 64 71 79 68 75 83 69 76 84 67 74 82 65 72 80 62 69 77 58 65 73 55 62 70 53 60 68 51 58 66 45 52 58 43 50 56 41 48 54 38 45 51 34 41 47 31 38 44 29 36 42 27 34 40 7 14 20 7 14 20 7 14 20 7 14 20 7 14 20 7 14 20 7 14 20 7 14 20 3 10 18 3 10 18 3 10 18 3 10 18 3 10 18 3 10 18 3 10 18 3 10 18 10 17 25 12 19 27 14 21 29 17 24 32 21 28 36 24 31 39 26 33 41 28 35 41 38 43 47 38 43 46 38 43 46 38 43 46 38 43 46 38 43 46 38 43 46 38 43 46 51 56 59 51 56 59 51 56 59 51 56 59 51 56 59 51 56 59 51 56 59 52 56 57 49 47 50 49 45 46 47 43 44 44 40 41 40 36 37 37 33 34 35 31 32 33 29 30 34 30 31 34 30 31 34 30 31 34 30 31 34 30 31 34 30 31 34 30 31 34 30 31 36 30 30 36 30 30 36 30 30 36 30 30 36 30 30 36 30 30 36 30 30 36 30 30 37 31 31 37 31 31 37 31 31 37 31 31 37 31 31 37 31 31 37 31 31 37 31 31
4 2 15 4 2 15 4 2 15 4 2 15 3 1 14 3 1 14 3 1 14 3 1 14 3 1 14 3 1 14 3 1 14 3 1 14 4 2 16 4 2 16 4 2 16 4 2 16 4 2 16 4 2 16 4 2 16 4 2 16 4 2 16 4 2 16 4 2 16 4 2 16 4 2 16 4 2 16 4 2 16 4 2 16 5 3 17 5 3 17 5 3 17 5 3 17 5 3 17 5 3 17 5 3 17 5 3 17 5 3 17 5 3 17 5 3 17 5 3 17 5 3 17 5 3 17 5 3 17 4 3 17 5 5 17 3 5 17 3 5 17 3 5 17 3 5 17 3 5 17 3 5 17 3 5 17 4 6 18 4 6 18 4 6 18 4 6 18 4 6 18 4 6 18 4 6 18 3 7 18 5 9 20 3 10 20 3 10 20 3 10 20 3 10 20 3 10 20 3 10 20 3 10 20 6 13 23 7 14 24 7 14 24 8 15 25 8 15 25 9 16 26 10 17 27 10 17 27 21 28 36 25 32 40 32 39 47 40 47 55 50 57 65 59 66 74 66 73 81 69 76 84 69 76 84 67 74 82 65 72 80 62 69 77 58 65 73 55 62 70 53 60 68 51 58 66 45 52 58 43 50 56 41 48 54 38 45 51 34 41 47 31 38 44 29 36 42 27 34 40 7 14 20 7 14 20 7 14 20 7 14 20 7 14 20 7 14 20 7 14 20 7 14 20 3 10 18 3 10 18 3 10 18 3 10 18 3 10 18 3 10 18 3 10 18 3 10 18 10 17 25 12 19 27 14 21 29 17 24 32 21 28 36 24 31 39 26 33 41 28 35 41 38 43 47 38 43 46 38 43 46 38 43 46 38 43 46 38 43 46 38 43 46 38 43 46 49 54 57 49 54 57 49 54 57 49 54 57 49 54 57 49 54 57 49 54 57 50 54 55 49 47 50 49 45 46 47 43 44 44 40 41 40 36 37 37 33 34 35 31 32 33 29 30 34 30 31 34 30 31 34 30 31 34 30 31 34 30 31 34 30 31 34 30 31 34 30 31 36 30 30 36 30 30 36 30 30 36 30 30 36 30 30 36 30 30 36 30 30 36 30 30 37 31 31 37 31 31 37 31 31 37 31 31 37 31 31 37 31 31 37 31 31 37 31 31
4 2 15 4 2 15 4 2 15 4 2 15 3 1 14 3 1 14 3 1 14 3 1 14 3 1 14 3 1 14 3 1 14 3 1 14 4 2 16 4 2 16 4 2 16 4 2 16 4 2 16 4 2 16 4 2 16 4 2 16 4 2 16 4 2 16 4 2 16 4 2 16 4 2 16 4 2 16 4 2 16 4 2 16 5 3 17 5 3 17 5 3 17 5 3 17 5 3 17 5 3 17 5 3 17 5 3 17 5 3 17 5 3 17 5 3 17 5 3 17 5 3 17 5 3 17 5 3 17 4 3 17 5 5 17 3 5 17 3 5 17 3 5 17 3 5 17 3 5 17 3 5 17 3 5 17 4 6 18 4 6 18 4 6 18 4 6 18 4 6 18 4 6 18 4 6 18 3 7 18 5 9 20 3 10 20 3 10 20 3 10 20 3 10 20 3 10 20 3 10 20 3 10 20 5 12 22 6 13 23 8 15 25 10 17 27 13 20 30 15 22 32 17 24 34 18 25 35 32 39 47 35 42 50 40 47 55 48 55 63 55 62 70 63 70 78 68 75 83 71 78 86 69 76 84 67 74 82 65 72 80 62 69 77 58 65 73 55 62 70 53 60 68 51 58 66 45 52 58 43 50 56 41 48 54 38 45 51 34 41 47 31 38 44 29 36 42 27 34 40 7 14 20 7 14 20 7 14 20 7 14 20 7 14 20 7 14 20 7 14 20 7 14 20 3 10 18 3 10 18 3 10 18 3 10 18 3 10 18 3 10 18 3 10 18 3 10 18 10 17 25 12 19 27 14 21 29 17 24 32 21 28 36 24 31 39 26 33 41 28 35 41 38 43 47 38 43 46 38 43 46 38 43 46 38 43 46 38 43 46 38 43 46 38 43 46 46 51 54 46 51 54 46 51 54 46 51 54 46 51 54 46 51 54 46 51 54 47 51 52 49 47 50 49 45 46 47 43 44 44 40 41 40 36 37 37 33 34 35 31 32 33 29 30 34 30 31 34 30 31 34 30 31 34 30 31 34 30 31 34 30 31 34 30 31 34 30 31 36 30 30 36 30 30 36 30 30 36 30 30 36 30 30 36 30 30 36 30 30 36 30 30 37 31 31 37 31 31 37 31 31 37 31 31 37 31 31 37 31 31 37 31 31 37 31 31
4 2 15 4 2 15 4 2 15 4 2 15 3 1 14 3 1 14 3 1 14 3 1 14 3 1 14 3 1 14 3 1 14 3 1 14 4 2 16 4 2 16 4 2 16 4 2 16 4 2 16 4 2 16 4 2 16 4 2 16 4 2 16 4 2 16 4 2 16 4 2 16 4 2 16 4 2 16 4 2 16 4 2 16 5 3 17 5 3 17 5 3 17 5 3 17 5 3 17 5 3 17 5 3 17 5 3 17 5 3 17 5 3 17 5 3 17 5 3 17 5 3 17 5 3 17 5 3 17 4 3 17 5 5 17 3 5 17 3 5 17 3 5 17 3 5 17 3 5 17 3 5 17 3 5 17 4 6 18 4 6 18 4 6 18 4 6 18 4 6 18 4 6 18 4 6 18 3 7 18 5 9 20 3 10 20 3 10 20 3 10 20 3 10 20 3 10 20 3 10 20 3 10 20 4 11 21 5 12 22 8 15 25 13 20 30 17 24 34 21 28 38 24 31 41 26 33 43 43 50 58 46 53 61 50 57 65 55 62 70 61 68 76 67 74 82 71 78 86 73 80 88 69 76 84 67 74 82 65 72 80 62 69 77 58 65 73 55 62 70 53 60 68 51 58 66 45 52 58 43 50 56 41 48 54 38 45 51 34 41 47 31 38 44 29 36 42 27 34 40 7 14 20 7 14 20 7 14 20 7 14 20 7 14 20 7 14 20 7 14 20 7 14 20 3 10 18 3 10 18 3 10 18 3 10 18 3 10 18 3 10 18 3 10 18 3 10 18 10 17 25 12 19 27 14 21 29 17 24 32 21 28 36 24 31 39 26 33 41 28 35 41 38 43 47 38 43 46 38 43 46 38 43 46 38 43 46 38 43 46 38 43 46 38 43 46 42 47 50 42 47 50 42 47 50 42 47 50 42 47 50 42 47 50 42 47 50 43 47 48 49 47 50 49 45 46 47 43 44 44 40 41 40 36 37 37 33 34 35 31 32 33 29 30 34 30 31 34 30 31 34 30 31 34 30 31 34 30 31 34 30 31 34 30 31 34 30 31 36 30 30 36 30 30 36 30 30 36 30 30 36 30 30 36 30 30 36 30 30 36 30 30 37 31 31 37 31 31 37 31 31 37 31 31 37 31 31 37 31 31 37 31 31 37 31 31
4 2 15 4 2 15 4 2 15 4 2 15 3 1 14 3 1 14 3 1 14 3 1 14 3 1 14 3 1 14 3 1 14 3 1 14 4 2 16 4 2 16 4 2 16 4 2 16 4 2 16 4 2 16 4 2 16 4 2 16 4 2 16 4 2 16 4 2 16 4 2 16 4 2 16 4 2 16 4 2 16 4 2 16 5 3 17 5 3 17 5 3 17 5 3 17 5 3 17 5 3 17 5 3 17 5 3 17 5 3 17 5 3 17 5 3 17 5 3 17 5 3 17 5 3 17 5 3 17 4 3 17 5 5 17 3 5 17 3 5 17 3 5 17 3 5 17 3 5 17 3 5 17 3 5 17 4 6 18 4 6 18 4 6 18 4 6 18 4 6 18 4 6 18 4 6 18 3 7 18 5 9 20 3 10 20 3 10 20 3 10 20 3 10 20 3 10 20 3 10 20 3 10 20 2 9 19 5 12 22 9 16 26 15 22 32 21 28 38 27 34 44 31 38 48 33 40 50 54 61 69 56 63 71 59 66 74 63 70 78 67 74 82 71 78 86 74 81 89 75 82 90 69 76 84 67 74 82 65 72 80 62 69 77 58 65 73 55 62 70 53 60 68 51 58 66 45 52 58 43 50 56 41 48 54 38 45 51 34 41 47 31 38 44 29 36 42 27 34 40 7 14 20 7 14 20 7 14 20 7 14 20 7 14 20 7 14 20 7 14 20 7 14 20 3 10 18 3 10 18 3 10 18 3 10 18 3 10 18 3 10 18 3 10 18 3 10 18 10 17 25 12 19 27 14 21 29 17 24 32 21 28 36 24 31 39 26 33 41 28 35 41 38 43 47 38 43 46 38 43 46 38 43 46 38 43 46 38 43 46 38 43 46 38 43 46 39 44 47 39 44 47 39 44 47 39 44 47 39 44 47 39 44 47 39 44 47 40 44 45 49 47 50 49 45 46 47 43 44 44 40 41 40 36 37 37 33 34 35 31 32 33 29 30 34 30 31 34 30 31 34 30 31 34 30 31 34 30 31 34 30 31 34 30 31 34 30 31 36 30 30 36 30 30 36 30 30 36 30 30 36 30 30 36 30 30 36 30 30 36 30 30 37 31 31 37 31 31 37 31 31 37 31 31 37 31 31 37 31 31 37 31 31 37 31 31
4 2 15 4 2 15 4 2 15 4 2 15 3 1 14 3 1 14 3 1 14 3 1 14 3 1 14 3 1 14 3 1 14 3 1 14 4 2 16 4 2 16 4 2 16 4 2 16 4 2 16 4 2 16 4 2 16 4 2 16 4 2 16 4 2 16 4 2 16 4 2 16 4 2 16 4 2 16 4 2 16 4 2 16 5 3 17 5 3 17 5 3 17 5 3 17 5 3 17 5 3 17 5 3 17 5 3 17 5 3 17 5 3 17 5 3 17 5 3 17 5 3 17 5 3 17 5 3 17 4 3 17 5 5 17 3 5 17 3 5 17 3 5 17 3 5 17 3 5 17 3 5 17 3 5 17 4 6 18 4 6 18 4 6 18 4 6 18 4 6 18 4 6 18 4 6 18 3 7 18 5 9 20 3 10 20 3 10 20 3 10 20 3 10 20 3 10 20 3 10 20 3 10 20 1 8 18 4 11 21 10 17 27 17 24 34 24 31 41 31 38 48 36 43 53 39 46 56 63 70 78 64 71 79 66 73 81 68 75 83 71 78 86 74 81 89 76 83 91 77 84 92 69 76 84 67 74 82 65 72 80 62 69 77 58 65 73 55 62 70 53 60 68 51 58 66 45 52 58 43 50 56 41 48 54 38 45 51 34 41 47 31 38 44 29 36 42 27 34 40 7 14 20 7 14 20 7 14 20 7 14 20 7 14 20 7 14 20 7 14 20 7 14 20 3 10 18 3 10 18 3 10 18 3 10 18 3 10 18 3 10 18 3 10 18 3 10 18 10 17 25 12 19 27 14 21 29 17 24 32 21 28 36 24 31 39 26 33 41 28 35 41 38 43 47 38 43 46 38 43 46 38 43 46 38 43 46 38 43 46 38 43 46 38 43 46 37 42 45 37 42 45 37 42 45 37 42 45 37 42 45 37 42 45 37 42 45 38 42 43 49 47 50 49 45 46 47 43 44 44 40 41 40 36 37 37 33 34 35 31 32 33 29 30 34 30 31 34 30 31 34 30 31 34 30 31 34 30 31 34 30 31 34 30 31 34 30 31 36 30 30 36 30 30 36 30 30 36 30 30 36 30 30 36 30 30 36 30 30 36 30 30 37 31 31 37 31 31 37 31 31 37 31 31 37 31 31 37 31 31 37 31 31 37 31 31
4 2 15 4 2 15 4 2 15 4 2 15 3 1 14 3 1 14 3 1 14 3 1 14 3 1 14 3 1 14 3 1 14 3 1 14 4 2 16 4 2 16 4 2 16 4 2 16 4 2 16 4 2 16 4 2 16 4 2 16 4 2 16 4 2 16 4 2 16 4 2 16 4 2 16 4 2 16 4 2 16 4 2 16 5 3 17 5 3 17 5 3 17 5 3 17 5 3 17 5 3 17 5 3 17 5 3 17 5 3 17 5 3 17 5 3 17 5 3 17 5 3 17 5 3 17 5 3 17 4 3 17 5 5 17 3 5 17 3 5 17 3 5 17 3 5 17 3 5 17 3 5 17 3 5 17 4 6 18 4 6 18 4 6 18 4 6 18 4 6 18 4 6 18 4 6 18 3 7 18 5 9 20 3 10 20 3 10 20 3 10 20 3 10 20 3 10 20 3 10 20 3 10 20 1 8 18 4 11 21 10 17 27 18 25 35 26 33 43 33 40 50 39 46 56 42 49 59 67 74 82 68 75 83 69 76 84 71 78 86 73 80 88 75 82 90 77 84 92 78 85 93 69 76 84 67 74 82 65 72 80 62 69 77 58 65 73 55 62 70 53 60 68 51 58 66 45 52 58 43 50 56 41 48 54 38 45 51 34 41 47 31 38 44 29 36 42 27 34 40 7 14 20 7 14 20 7 14 20 7 14 20 7 14 20 7 14 20 7 14 20 7 14 20 3 10 18 3 10 18 3 10 18 3 10 18 3 10 18 3 10 18 3 10 18 3 10 18 10 17 25 12 19 27 14 21 29 17 24 32 21 28 36 24 31 39 26 33 41 28 35 41 38 43 47 38 43 46 38 43 46 38 43 46 38 43 46 38 43 46 38 43 46 38 43 46 35 40 43 35 40 43 35 40 43 35 40 43 35 40 43 35 40 43 35 40 43 36 40 41 49 47 50 49 45 46 47 43 44 44 40 41 40 36 37 37 33 34 35 31 32 33 29 30 34 30 31 34 30 31 34 30 31 34 30 31 34 30 31 34 30 31 34 30 31 34 30 31 36 30 30 36 30 30 36 30 30 36 30 30 36 30 30 36 30 30 36 30 30 36 30 30 37 31 31 37 31 31 37 31 31 37 31 31 37 31 31 37 31 31 37 31 31 37 31 31
4 2 15 4 2 15 4 2 15 4 2 15 3 1 14 3 1 14 3 1 14 3 1 14 3 1 14 3 1 14 3 1 14 3 1 14 3 1 15 3 1 15 3 1 15 3 1 15 3 1 15 3 1 15 3 1 15 3 1 15 3 1 15 3 1 15 3 1 15 3 1 15 3 1 15 3 1 15 3 1 15 3 1 15 5 3 17 5 3 17 5 3 17 5 3 17 5 3 17 5 3 17 5 3 17 5 3 17 5 3 17 5 3 17 5 3 17 5 3 17 5 3 17 5 3 17 5 3 17 4 3 17 5 5 17 3 5 17 3 5 17 3 5 17 3 5 17 3 5 17 3 5 17 3 5 17 6 8 20 6 8 20 6 8 20 6 8 20 6 8 20 6 8 20 6 8 20 5 9 20 5 9 20 2 9 19 2 9 19 0 7 17 0 6 16 0 5 15 0 4 14 0 3 13 23 30 40 26 33 43 32 39 49 39 46 56 47 54 64 55 62 72 61 68 78 64 71 81 61 68 76 63 70 78 65 72 80 68 75 83 72 79 87 75 82 90 77 84 92 79 86 94 80 87 95 77 84 92 72 79 87 66 73 81 59 66 74 53 60 68 48 55 63 45 52 60 46 53 59 44 51 57 42 49 55 39 46 52 35 42 48 32 39 45 30 37 43 28 35 41 19 26 32 17 24 30 15 22 28 12 19 25 8 15 21 5 12 18 3 10 16 1 8 14 6 13 21 6 13 21 6 13 21 6 13 21 6 13 21 6 13 21 6 13 21 6 13 21 18 25 33 18 25 33 18 25 33 18 25 33 18 25 33 18 25 33 18 25 33 18 25 31 29 34 38 29 34 37 29 34 37 29 34 37 29 34 37 29 34 37 29 34 37 29 34 37 30 35 38 30 35 38 30 35 38 30 35 38 30 35 38 30 35 38 30 35 38 31 35 36 31 29 32 33 29 30 33 29 30 33 29 30 33 29 30 33 29 30 33 29 30 33 29 30 33 29 30 33 29 30 33 29 30 33 29 30 33 29 30 33 29 30 33 29 30 33 29 30 34 28 28 34 28 28 34 28 28 34 28 28 34 28 28 34 28 28 34 28 28 34 28 28 36 30 30 36 30 30 36 30 30 36 30 30 36 30 30 36 30 30 36 30 30 36 30 30
4 2 15 4 2 15 4 2 15 4 2 15 3 1 14 3 1 14 3 1 14 3 1 14 3 1 14 3 1 14 3 1 14 3 1 14 3 1 15 3 1 15 3 1 15 3 1 15 3 1 15 3 1 15 3 1 15 3 1 15 3 1 15 3 1 15 3 1 15 3 1 15 3 1 15 3 1 15 3 1 15 3 1 15 5 3 17 5 3 17 5 3 17 5 3 17 5 3 17 5 3 17 5 3 17 5 3 17 5 3 17 5 3 17 5 3 17 5 3 17 5 3 17 5 3 17 5 3 17 4 3 17 5 5 17 3 5 17 3 5 17 3 5 17 3 5 17 3 5 17 3 5 17 3 5 17 6 8 20 6 8 20 6 8 20 6 8 20 6 8 20 6 8 20 6 8 20 5 9 20 6 10 21 4 11 21 3 10 20 3 10 20 2 9 19 1 8 18 1 8 18 1 8 18 26 33 43 29 36 46 34 41 51 41 48 58 48 55 65 55 62 72 61 68 78 64 71 81 61 68 76 63 70 78 65 72 80 68 75 83 72 79 87 75 82 90 77 84 92 79 86 94 81 88 96 78 85 93 73 80 88 67 74 82 60 67 75 54 61 69 49 56 64 46 53 61 46 53 59 44 51 57 42 49 55 39 46 52 35 42 48 32 39 45 30 37 43 28 35 41 19 26 32 17 24 30 15 22 28 12 19 25 8 15 21 5 12 18 3 10 16 1 8 14 6 13 21 6 13 21 6 13 21 6 13 21 6 13 21 6 13 21 6 13 21 6 13 21 18 25 33 18 25 33 18 25 33 18 25 33 18 25 33 18 25 33 18 25 33 18 25 31 29 34 38 29 34 37 29 34 37 29 34 37 29 34 37 29 34 37 29 34 37 29 34 37 30 35 38 30 35 38 30 35 38 30 35 38 30 35 38 30 35 38 30 35 38 31 35 36 31 29 32 33 29 30 33 29 30 33 29 30 33 29 30 33 29 30 33 29 30 33 29 30 33 29 30 33 29 30 33 29 30 33 29 30 33 29 30 33 29 30 33 29 30 33 29 30 34 28 28 34 28 28 34 28 28 34 28 28 34 28 28 34 28 28 34 28 28 34 28 28 36 30 30 36 30 30 36 30 30 36 30 30 36 30 30 36 30 30 36 30 30 36 30 30
4 2 15 4 2 15 4 2 15 4 2 15 3 1 14 3 1 14 3 1 14 3 1 14 3 1 14 3 1 14 3 1 14 3 1 14 3 1 15 3 1 15 3 1 15 3 1 15 3 1 15 3 1 15 3 1 15 3 1 15 3 1 15 3 1 15 3 1 15 3 1 15 3 1 15 3 1 15 3 1 15 3 1 15 5 3 17 5 3 17 5 3 17 5 3 17 5 3 17 5 3 17 5 3 17 5 3 17 5 3 17 5 3 17 5 3 17 5 3 17 5 3 17 5 3 17 5 3 17 4 3 17 5 5 17 3 5 17 3 5 17 3 5 17 3 5 17 3 5 17 3 5 17 3 5 17 6 8 20 6 8 20 6 8 20 6 8 20 6 8 20 6 8 20 6 8 20 5 9 20 7 11 22 6 13 23 6 13 23 7 14 24 8 15 25 8 15 25 9 16 26 9 16 26 32 39 49 34 41 51 38 45 55 44 51 61 50 57 67 56 63 73 60 67 77 63 70 80 61 68 76 63 70 78 65 72 80 68 75 83 72 79 87 75 82 90 77 84 92 79 86 94 83 90 98 81 88 96 76 83 91 70 77 85 63 70 78 56 63 71 51 58 66 49 56 64 46 53 59 44 51 57 42 49 55 39 46 52 35 42 48 32 39 45 30 37 43 28 35 41 19 26 32 17 24 30 15 22 28 12 19 25 8 15 21 5 12 18 3 10 16 1 8 14 6 13 21 6 13 21 6 13 21 6 13 21 6 13 21 6 13 21 6 13 21 6 13 21 18 25 33 18 25 33 18 25 33 18 25 33 18 25 33 18 25 33 18 25 33 18 25 31 29 34 38 29 34 37 29 34 37 29 34 37 29 34 37 29 34 37 29 34 37 29 34 37 30 35 38 30 35 38 30 35 38 30 35 38 30 35 38 30 35 38 30 35 38 31 35 36 31 29 32 33 29 30 33 29 30 33 29 30 33 29 30 33 29 30 33 29 30 33 29 30 33 29 30 33 29 30 33 29 30 33 29 30 33 29 30 33 29 30 33 29 30 33 29 30 34 28 28 34 28 28 34 28 28 34 28 28 34 28 28 34 28 28 34 28 28 34 28 28 36 30 30 36 30 30 36 30 30 36 30 30 36 30 30 36 30 30 36 30 30 36 30 30
4 2 15 4 2 15 4 2 15 4 2 15 3 1 14 3 1 14 3 1 14 3 1 14 3 1 14 3 1 14 3 1 14 3 1 14 3 1 15 3 1 15 3 1 15 3 1 15 3 1 15 3 1 15 3 1 15 3 1 15 3 1 15 3 1 15 3 1 15 3 1 15 3 1 15 3 1 15 3 1 15 3 1 15 5 3 17 5 3 17 5 3 17 5 3 17 5 3 17 5 3 17 5 3 17 5 3 17 5 3 17 5 3 17 5 3 17 5 3 17 5 3 17 5 3 17 5 3 17 4 3 17 5 5 17 3 5 17 3 5 17 3 5 17 3 5 17 3 5 17 3 5 17 3 5 17 6 8 20 6 8 20 6 8 20 6 8 20 6 8 20 6 8 20 6 8 20 5 9 20 9 13 24 8 15 25 10 17 27 12 19 29 15 22 32 17 24 34 19 26 36 20 27 37 39 46 56 41 48 58 44 51 61 48 55 65 52 59 69 57 64 74 60 67 77 61 68 78 61 68 76 63 70 78 65 72 80 68 75 83 72 79 87 75 82 90 77 84 92 79 86 94 87 94 102 84 91 99 79 86 94 73 80 88 66 73 81 59 66 74 55 62 70 52 59 67 46 53 59 44 51 57 42 49 55 39 46 52 35 42 48 32 39 45 30 37 43 28 35 41 19 26 32 17 24 30 15 22 28 12 19 25 8 15 21 5 12 18 3 10 16 1 8 14 6 13 21 6 13 21 6 13 21 6 13 21 6 13 21 6 13 21 6 13 21 6 13 21 18 25 33 18 25 33 18 25 33 18 25 33 18 25 33 18 25 33 18 25 33 18 25 31 29 34 38 29 34 37 29 34 37 29 34 37 29 34 37 29 34 37 29 34 37 29 34 37 30 35 38 30 35 38 30 35 38 30 35 38 30 35 38 30 35 38 30 35 38 31 35 36 31 29 32 33 29 30 33 29 30 33 29 30 33 29 30 33 29 30 33 29 30 33 29 30 33 29 30 33 29 30 33 29 30 33 29 30 33 29 30 33 29 30 33 29 30 33 29 30 34 28 28 34 28 28 34 28 28 34 28 28 34 28 28 34 28 28 34 28 28 34 28 28 36 30 30 36 30 30 36 30 30 36 30 30 36 30 30 36 30 30 36 30 30 36 30 30
4 2 15 4 2 15 4 2 15 4 2 15 3 1 14 3 1 14 3 1 14 3 1 14 3 1 14 3 1 14 3 1 14 3 1 14 3 1 15 3 1 15 3 1 15 3 1 15 3 1 15 3 1 15 3 1 15 3 1 15 3 1 15 3 1 15 3 1 15 3 1 15 3 1 15 3 1 15 3 1 15 3 1 15 5 3 17 5 3 17 5 3 17 5 3 17 5 3 17 5 3 17 5 3 17 5 3 17 5 3 17 5 3 17 5 3 17 5 3 17 5 3 17 5 3 17 5 3 17 4 3 17 5 5 17 3 5 17 3 5 17 3 5 17 3 5 17 3 5 17 3 5 17 3 5 17 6 8 20 6 8 20 6 8 20 6 8 20 6 8 20 6 8 20 6 8 20 5 9 20 11 15 26 11 18 28 14 21 31 18 25 35 23 30 40 27 34 44 30 37 47 31 38 48 47 54 64 48 55 65 50 57 67 52 59 69 55 62 72 57 64 74 59 66 76 60 67 77 61 68 76 63 70 78 65 72 80 68 75 83 72 79 87 75 82 90 77 84 92 79 86 94 90 97 105 87 94 102 83 90 98 76 83 91 69 76 84 63 70 78 58 65 73 55 62 70 46 53 59 44 51 57 42 49 55 39 46 52 35 42 48 32 39 45 30 37 43 28 35 41 19 26 32 17 24 30 15 22 28 12 19 25 8 15 21 5 12 18 3 10 16 1 8 14 6 13 21 6 13 21 6 13 21 6 13 21 6 13 21 6 13 21 6 13 21 6 13 21 18 25 33 18 25 33 18 25 33 18 25 33 18 25 33 18 25 33 18 25 33 18 25 31 29 34 38 29 34 37 29 34 37 29 34 37 29 34 37 29 34 37 29 34 37 29 34 37 30 35 38 30 35 38 30 35 38 30 35 38 30 35 38 30 35 38 30 35 38 31 35 36 31 29 32 33 29 30 33 29 30 33 29 30 33 29 30 33 29 30 33 29 30 33 29 30 33 29 30 33 29 30 33 29 30 33 29 30 33 29 30 33 29 30 33 29 30 33 29 30 34 28 28 34 28 28 34 28 28 34 28 28 34 28 28 34 28 28 34 28 28 34 28 28 36 30 30 36 30 30 36 30 30 36 30 30 36 30 30 36 30 30 36 30 30 36 30 30
4 2 15 4 2 15 4 2 15 4 2 15 3 1 14 3 1 14 3 1 14 3 1 14 3 1 14 3 1 14 3 1 14 3 1 14 3 1 15 3 1 15 3 1 15 3 1 15 3 1 15 3 1 15 3 1 15 3 1 15 3 1 15 3 1 15 3 1 15 3 1 15 3 1 15 3 1 15 3 1 15 3 1 15 5 3 17 5 3 17 5 3 17 5 3 17 5 3 17 5 3 17 5 3 17 5 3 17 5 3 17 5 3 17 5 3 17 5 3 17 5 3 17 5 3 17 5 3 17 4 3 17 5 5 17 3 5 17 3 5 17 3 5 17 3 5 17 3 5 17 3 5 17 3 5 17 6 8 20 6 8 20 6 8 20 6 8 20 6 8 20 6 8 20 6 8 20 5 9 20 13 17 28 14 21 31 18 25 35 24 31 41 30 37 47 36 43 53 40 47 57 42 49 59 55 62 72 55 62 72 56 63 73 57 64 74 57 64 74 58 65 75 58 65 75 59 66 76 61 68 76 63 70 78 65 72 80 68 75 83 72 79 87 75 82 90 77 84 92 79 86 94 93 100 108 91 98 106 86 93 101 79 86 94 72 79 87 66 73 81 61 68 76 59 66 74 46 53 59 44 51 57 42 49 55 39 46 52 35 42 48 32 39 45 30 37 43 28 35 41 19 26 32 17 24 30 15 22 28 12 19 25 8 15 21 5 12 18 3 10 16 1 8 14 6 13 21 6 13 21 6 13 21 6 13 21 6 13 21 6 13 21 6 13 21 6 13 21 18 25 33 18 25 33 18 25 33 18 25 33 18 25 33 18 25 33 18 25 33 18 25 31 29 34 38 29 34 37 29 34 37 29 34 37 29 34 37 29 34 37 29 34 37 29 34 37 30 35 38 30 35 38 30 35 38 30 35 38 30 35 38 30 35 38 30 35 38 31 35 36 31 29 32 33 29 30 33 29 30 33 29 30 33 29 30 33 29 30 33 29 30 33 29 30 33 29 30 33 29 30 33 29 30 33 29 30 33 29 30 33 29 30 33 29 30 33 29 30 34 28 28 34 28 28 34 28 28 34 28 28 34 28 28 34 28 28 34 28 28 34 28 28 36 30 30 36 30 30 36 30 30 36 30 30 36 30 30 36 30 30 36 30 30 36 30 30
4 2 15 4 2 15 4 2 15 4 2 15 3 1 14 3 1 14 3 1 14 3 1 14 3 1 14 3 1 14 3 1 14 3 1 14 3 1 15 3 1 15 3 1 15 3 1 15 3 1 15 3 1 15 3 1 15 3 1 15 3 1 15 3 1 15 3 1 15 3 1 15 3 1 15 3 1 15 3 1 15 3 1 15 5 3 17 5 3 17 5 3 17 5 3 17 5 3 17 5 3 17 5 3 17 5 3 17 5 3 17 5 3 17 5 3 17 5 3 17 5 3 17 5 3 17 5 3 17 4 3 17 5 5 17 3 5 17 3 5 17 3 5 17 3 5 17 3 5 17 3 5 17 3 5 17 6 8 20 6 8 20 6 8 20 6 8 20 6 8 20 6 8 20 6 8 20 5 9 20 15 19 30 16 23 33 21 28 38 28 35 45 35 42 52 42 49 59 48 55 65 51 58 68 61 68 78 61 68 78 60 67 77 60 67 77 59 66 76 58 65 75 58 65 75 58 65 75 61 68 76 63 70 78 65 72 80 68 75 83 72 79 87 75 82 90 77 84 92 79 86 94 96 103 111 93 100 108 88 95 103 82 89 97 75 82 90 69 76 84 64 71 79 61 68 76 46 53 59 44 51 57 42 49 55 39 46 52 35 42 48 32 39 45 30 37 43 28 35 41 19 26 32 17 24 30 15 22 28 12 19 25 8 15 21 5 12 18 3 10 16 1 8 14 6 13 21 6 13 21 6 13 21 6 13 21 6 13 21 6 13 21 6 13 21 6 13 21 18 25 33 18 25 33 18 25 33 18 25 33 18 25 33 18 25 33 18 25 33 18 25 31 29 34 38 29 34 37 29 34 37 29 34 37 29 34 37 29 34 37 29 34 37 29 34 37 30 35 38 30 35 38 30 35 38 30 35 38 30 35 38 30 35 38 30 35 38 31 35 36 31 29 32 33 29 30 33 29 30 33 29 30 33 29 30 33 29 30 33 29 30 33 29 30 33 29 30 33 29 30 33 29 30 33 29 30 33 29 30 33 29 30 33 29 30 33 29 30 34 28 28 34 28 28 34 28 28 34 28 28 34 28 28 34 28 28 34 28 28 34 28 28 36 30 30 36 30 30 36 30 30 36 30 30 36 30 30 36 30 30 36 30 30 36 30 30
4 2 15 4 2 15 4 2 15 4 2 15 3 1 14 3 1 14 3 1 14 3 1 14 3 1 14 3 1 14 3 1 14 3 1 14 3 1 14 3 1 14 3 1 14 3 1 14 3 1 14 3 1 14 3 1 14 3 1 14 3 1 14 3 1 14 3 1 14 3 1 14 3 1 14 3 1 14 3 1 14 3 1 14 5 3 17 5 3 17 5 3 17 5 3 17 5 3 17 5 3 17 5 3 17 5 3 17 5 3 17 5 3 17 5 3 17 5 3 17 5 3 17 5 3 17 5 3 17 4 4 16 3 5 17 2 6 17 3 5 17 2 6 17 3 5 17 2 6 17 3 5 17 2 6 17 6 8 20 5 9 20 6 8 20 5 9 20 6 8 20 5 9 20 6 8 20 5 9 20 14 21 31 17 24 34 23 30 40 30 37 47 38 45 55 46 53 63 52 59 69 55 62 72 64 71 81 63 70 80 63 70 80 61 68 78 60 67 77 59 66 76 58 65 75 57 64 72 61 68 76 63 70 76 65 72 80 68 75 81 72 79 87 75 82 88 77 84 92 79 86 92 97 104 112 94 101 107 89 96 104 83 90 96 76 83 91 70 77 83 65 72 80 62 69 75 46 53 59 44 51 57 42 49 55 39 46 52 35 42 48 32 39 45 30 37 43 28 35 41 19 26 32 17 24 30 15 22 28 12 19 25 8 15 21 5 12 18 3 10 16 1 8 14 6 13 21 6 13 21 6 13 21 6 13 21 6 13 21 6 13 21 6 13 21 6 13 21 18 25 33 18 25 33 18 25 33 18 25 33 18 25 33 18 25 33 18 25 33 18 25 31 29 34 38 29 34 37 29 34 38 29 34 37 29 34 38 29 34 37 29 34 38 29 34 37 30 35 39 30 35 38 30 35 39 30 35 38 30 35 39 30 35 38 30 35 39 31 35 38 31 29 30 33 29 30 33 29 30 33 29 30 33 29 30 33 29 30 33 29 30 33 29 30 33 29 30 33 29 30 33 29 30 33 29 30 33 29 30 33 29 30 33 29 30 33 29 30 34 28 28 34 28 28 34 28 28 34 28 28 34 28 28 34 28 28 34 28 28 34 28 28 36 30 30 36 30 30 36 30 30 36 30 30 36 30 30 36 30 30 36 30 30 36 30 30
3 1 14 3 1 14 3 1 14 3 1 14 3 1 14 3 1 14 3 1 14 3 1 14 3 1 14 3 1 14 3 1 14 3 1 14 2 0 11 2 0 11 2 0 11 2 0 11 2 0 11 2 0 11 2 0 11 2 0 11 3 1 12 3 1 12 3 1 12 3 1 12 3 1 12 3 1 12 3 1 12 3 1 12 4 2 15 4 2 15 4 2 15 4 2 15 4 2 15 4 2 15 4 2 15 4 2 15 4 2 15 4 2 15 4 2 15 4 2 15 4 2 15 4 2 15 4 2 15 3 3 15 3 7 18 1 8 16 3 7 16 1 8 16 3 7 16 1 8 16 3 7 16 1 8 16 1 5 14 0 7 15 5 9 18 6 13 21 11 15 24 13 20 28 17 21 30 16 23 31 42 49 57 44 51 59 46 53 61 49 56 64 53 60 68 56 63 71 58 65 73 60 67 75 64 71 79 64 71 79 64 71 79 64 71 79 64 71 79 64 71 79 64 71 79 64 71 79 74 79 85 74 79 83 74 79 85 74 79 83 74 79 85 74 79 83 74 79 85 74 79 83 87 92 98 89 94 98 91 96 102 94 99 103 98 103 109 101 106 110 103 108 114 105 110 116 76 83 89 73 80 86 68 75 81 62 69 75 55 62 68 49 56 62 44 51 57 41 48 54 15 22 28 17 24 30 20 27 33 25 32 38 29 36 42 34 41 47 37 44 50 39 46 52 15 24 31 14 23 30 11 20 27 8 17 24 5 14 21 1 10 17 0 8 15 0 7 14 4 13 20 6 15 22 8 17 24 11 20 27 15 24 31 18 27 34 20 29 36 22 31 38 21 28 34 21 29 32 21 28 34 21 29 32 21 28 34 21 29 32 21 28 34 21 29 32 19 26 32 19 27 30 19 26 32 19 27 30 19 26 32 19 27 30 19 26 32 22 26 29 29 27 28 32 26 26 32 26 26 32 26 26 32 26 26 32 26 26 32 26 26 32 26 26 34 28 28 34 28 28 34 28 28 34 28 28 34 28 28 34 28 28 34 28 28 34 28 28 37 28 29 37 28 29 37 28 29 37 28 29 37 28 29 37 28 29 37 28 29 37 28 29 37 28 29 37 28 29 37 28 29 37 28 29 37 28 29 37 28 29 37 28 29 35 29 29
3 1 14 3 1 14 3 1 14 3 1 14 3 1 14 3 1 14 3 1 14 3 1 14 3 1 14 3 1 14 3 1 14 3 1 12 2 0 11 2 1 9 2 1 9 2 1 9 2 1 9 2 1 9 2 1 9 2 1 9 3 2 10 3 2 10 3 2 10 3 2 10 3 2 10 3 2 10 3 2 10 3 2 10 4 2 15 4 2 15 4 2 15 4 2 15 4 2 15 4 2 15 4 2 15 4 2 15 4 2 15 4 2 15 4 2 15 4 2 15 4 2 15 4 2 15 4 2 15 3 3 15 3 7 16 1 8 16 1 8 16 1 8 16 1 8 16 1 8 16 1 8 16 1 8 16 2 9 17 3 10 18 5 12 20 9 16 24 12 19 27 15 22 30 18 25 33 19 26 34 42 49 57 44 51 59 46 53 61 49 56 64 53 60 68 56 63 71 58 65 73 60 67 75 64 71 79 64 71 79 64 71 79 64 71 79 64 71 79 64 71 79 64 71 79 64 71 77 74 79 85 74 79 83 74 79 83 74 79 83 74 79 83 74 79 83 74 79 83 74 79 83 87 92 96 89 94 98 91 96 100 94 99 103 98 103 107 101 106 110 103 108 112 105 110 114 79 86 92 76 83 89 71 78 84 65 72 78 58 65 71 51 58 64 47 54 60 44 51 57 17 24 30 18 25 31 21 28 34 25 32 38 29 36 42 33 40 46 36 43 49 37 44 50 16 25 32 15 24 31 13 22 29 9 18 25 6 15 22 3 12 19 0 9 16 0 8 15 4 13 20 6 15 22 8 17 24 11 20 27 15 24 31 18 27 34 20 29 36 22 31 38 21 28 34 21 28 34 21 28 34 21 28 34 21 28 34 21 28 34 21 28 34 21 28 34 19 26 32 19 26 32 19 26 32 19 26 32 19 26 32 19 26 32 19 26 32 22 25 30 29 27 28 32 26 26 32 26 26 32 26 26 32 26 26 32 26 26 32 26 26 32 26 26 34 28 28 34 28 28 34 28 28 34 28 28 34 28 28 34 28 28 34 28 28 34 28 28 37 28 29 37 28 29 37 28 29 37 28 29 37 28 29 37 28 29 37 28 29 37 28 29 37 28 29 37 28 29 37 28 29 37 28 29 37 28 29 37 28 29 37 28 29 37 28 29
3 1 14 3 1 14 3 1 14 3 1 14 3 1 14 3 1 14 3 1 14 3 1 14 3 1 14 3 1 14 3 1 14 3 1 12 2 0 11 2 1 9 2 1 9 2 1 9 2 1 9 2 1 9 2 1 9 2 1 9 3 2 10 3 2 10 3 2 10 3 2 10 3 2 10 3 2 10 3 2 10 3 2 10 4 2 15 4 2 15 4 2 15 4 2 15 4 2 15 4 2 15 4 2 15 4 2 15 4 2 15 4 2 15 4 2 15 4 2 15 4 2 15 4 2 15 4 2 15 3 3 15 3 7 16 1 8 16 1 8 16 1 8 16 1 8 16 1 8 16 1 8 16 1 8 16 7 14 22 8 15 23 10 17 25 13 20 28 17 24 32 20 27 35 23 30 38 24 31 39 42 49 57 44 51 59 46 53 61 49 56 64 53 60 68 56 63 71 58 65 73 60 67 75 64 71 79 64 71 79 64 71 79 64 71 79 64 71 79 64 71 79 64 71 79 64 71 77 74 79 85 74 79 83 74 79 83 74 79 83 74 79 83 74 79 83 74 79 83 74 79 83 87 92 96 89 94 98 91 96 100 94 99 103 98 103 107 101 106 110 103 108 112 105 110 114 84 91 97 81 88 94 76 83 89 70 77 83 63 70 76 56 63 69 51 58 64 49 56 62 20 27 33 21 28 34 23 30 36 26 33 39 28 35 41 31 38 44 33 40 46 34 41 47 19 28 35 17 26 33 15 24 31 12 21 28 8 17 24 5 14 21 3 12 19 1 10 17 4 13 20 6 15 22 8 17 24 11 20 27 15 24 31 18 27 34 20 29 36 22 31 38 21 28 34 21 28 34 21 28 34 21 28 34 21 28 34 21 28 34 21 28 34 21 28 34 19 26 32 19 26 32 19 26 32 19 26 32 19 26 32 19 26 32 19 26 32 22 25 30 29 27 28 32 26 26 32 26 26 32 26 26 32 26 26 32 26 26 32 26 26 32 26 26 34 28 28 34 28 28 34 28 28 34 28 28 34 28 28 34 28 28 34 28 28 34 28 28 37 28 29 37 28 29 37 28 29 37 28 29 37 28 29 37 28 29 37 28 29 37 28 29 37 28 29 37 28 29 37 28 29 37 28 29 37 28 29 37 28 29 37 28 29 37 28 29
