P3
172 37
255
0 0 0 0 0 0 0 0 0 0 0 0 1 1 1 1 1 1 1 1 1 1 1 1 1 1 1 1 1 1 1 1 1 1 1 1 3 2 7 3 2 7 3 2 7 3 2 7 3 2 7 3 2 7 3 2 7 3 2 7 2 1 6 2 1 6 2 1 6 2 1 6 2 1 6 2 1 6 2 1 6 2 1 6 1 1 3 1 1 3 1 1 3 1 1 3 1 1 3 1 1 3 1 1 3 1 1 3 3 3 5 3 3 5 3 3 5 3 3 5 3 3 5 3 3 5 3 3 5 3 3 5 7 8 13 7 8 13 7 8 13 7 8 13 7 8 13 7 8 13 7 8 13 7 8 13 7 8 13 7 8 13 7 8 13 7 8 13 7 8 13 7 8 13 7 8 13 7 8 13 4 7 12 4 7 12 4 7 12 4 7 12 4 7 12 4 7 12 4 7 12 4 7 12 5 8 13 5 8 13 5 8 13 5 8 13 5 8 13 5 8 13 5 8 13 5 8 13 7 12 16 7 12 16 7 12 16 7 12 16 7 12 16 7 12 16 7 12 16 7 12 16 7 12 16 7 12 16 7 12 16 7 12 16 7 12 16 7 12 16 7 12 16 7 12 15 8 9 13 8 9 11 8 9 11 8 9 11 8 9 11 8 9 11 8 9 11 8 9 11 0 1 3 0 1 3 0 1 3 0 1 3 0 1 3 0 1 3 0 1 3 0 1 3 1 5 4 3 7 6 5 9 8 8 12 11 12 16 15 15 19 18 17 21 20 19 23 22 28 32 31 30 34 33 35 39 38 42 46 45 48 52 51 55 59 58 60 64 63 62 67 63 63 65 62 66 68 63 71 73 68 77 79 74 84 86 81 90 92 87 95 97 92 98 100 95 101 103 98 105 107 102 111 113 108 113 115 110 110 112 107 101 103 98 90 92 87 83 85 80 52 52 50 50 50 48 48 48 46 45 45 43 41 41 39 38 38 36 36 36 34 34 34 32 39 39 37 39 39 37 39 39 37 39 39 37 39 39 37 39 39 37 39 39 37 39 39 37 37 35 38 37 35 38 37 35 38 37 35 38 37 35 38 37 35 38 37 35 38 37 35 38 40 38 41 40 38 41 40 38 41 40 38 41 40 38 41 40 38 41 40 38 41 40 38 41
0 0 2 0 0 2 0 0 2 0 0 2 1 1 3 1 1 3 1 1 3 1 1 3 1 1 3 1 1 3 1 1 3 1 1 3 3 2 7 3 2 7 3 2 8 3 2 7 3 2 8 3 2 7 3 2 8 3 2 7 2 1 7 2 1 6 2 1 7 2 1 6 2 1 7 2 1 6 2 1 7 2 1 6 1 0 5 1 1 3 1 0 5 1 1 3 1 0 5 1 1 3 1 0 5 1 1 3 3 2 7 3 3 5 3 2 7 3 3 5 3 2 7 3 3 5 3 2 7 3 2 7 7 8 13 7 8 13 7 8 13 7 8 13 7 8 13 7 8 13 7 8 13 7 8 13 7 8 13 7 8 13 7 8 13 7 8 13 7 8 13 7 8 13 7 8 13 7 8 13 4 7 12 4 7 12 4 7 12 4 7 12 4 7 12 4 7 12 4 7 12 4 7 12 5 8 13 5 8 13 5 8 13 5 8 13 5 8 13 5 8 13 5 8 13 4 9 13 7 12 16 7 12 16 7 12 16 7 12 16 7 12 16 7 12 16 7 12 16 7 12 16 7 12 16 7 12 16 7 12 16 7 12 16 7 12 16 7 12 16 7 12 16 7 12 15 6 10 11 6 10 11 8 9 11 6 10 11 8 9 11 6 10 11 8 9 11 6 10 11 0 1 3 0 2 3 0 1 3 0 2 3 0 1 3 0 2 3 0 1 3 0 2 3 1 5 4 3 7 6 5 9 8 8 12 11 12 16 15 15 19 18 17 21 20 19 23 22 28 32 31 30 34 33 35 39 38 42 46 45 48 52 51 55 59 58 60 64 63 62 67 63 60 65 59 63 68 62 70 72 67 74 79 73 83 85 80 87 92 86 94 96 91 95 100 94 99 101 96 102 107 101 109 111 106 110 115 109 108 110 105 97 102 96 89 91 86 82 84 79 52 52 50 50 50 48 48 48 46 45 45 43 41 41 39 38 38 36 36 36 34 34 34 32 39 39 37 39 39 37 39 39 37 39 39 37 39 39 37 39 39 37 39 39 37 39 39 37 37 35 36 37 35 36 37 35 36 37 35 36 37 35 36 37 35 36 37 35 36 37 35 36 40 38 39 40 38 39 40 38 39 40 38 39 40 38 39 40 38 39 40 38 39 40 38 39
1 0 5 1 0 5 1 0 5 1 0 5 1 0 5 1 0 5 1 0 5 1 0 5 1 0 5 1 0 5 1 0 5 1 0 6 2 1 7 2 1 7 2 1 9 2 1 7 2 1 9 2 1 7 2 1 9 2 1 7 1 0 8 1 0 6 1 0 8 1 0 6 1 0 8 1 0 6 1 0 8 1 0 6 3 2 8 3 2 7 3 2 8 3 2 7 3 2 8 3 2 7 3 2 8 3 2 7 5 4 10 5 4 9 5 4 10 5 4 9 5 4 10 5 4 9 5 4 10 5 4 10 7 8 13 7 7 15 7 7 15 7 7 15 7 7 15 7 7 15 7 7 15 7 7 15 6 6 14 6 6 14 6 6 14 6 6 14 6 6 14 6 6 14 6 6 14 6 7 12 6 9 14 5 10 13 5 10 13 5 10 13 5 10 13 5 10 13 5 10 13 5 10 13 5 10 13 5 10 13 5 10 13 5 10 13 5 10 13 5 10 13 5 10 13 5 10 13 8 13 16 6 14 16 6 14 16 6 14 16 6 14 16 6 14 16 6 14 16 6 14 16 7 15 17 7 15 17 7 15 17 7 15 17 7 15 17 7 15 17 7 15 17 9 14 17 13 19 19 12 18 16 9 13 12 4 10 8 0 4 3 0 2 0 0 1 0 0 2 0 0 3 2 0 4 2 0 3 2 0 4 2 0 3 2 0 4 2 0 3 2 0 4 2 0 3 1 0 5 3 1 7 5 4 10 8 8 14 12 11 17 15 13 19 17 15 21 19 30 36 34 32 38 36 34 40 38 37 43 41 41 47 45 44 50 48 46 52 50 48 54 50 69 76 69 70 77 69 74 79 72 76 83 75 80 85 78 83 90 82 86 91 84 86 93 85 96 101 94 95 102 94 96 101 94 95 102 94 96 101 94 95 102 94 96 101 94 96 101 94 52 53 48 51 50 46 49 48 44 46 45 41 42 41 37 39 38 34 37 36 32 35 34 30 39 38 34 39 38 34 39 38 34 39 38 34 39 38 34 39 38 34 39 38 34 39 38 34 38 37 35 38 37 35 38 37 35 38 37 35 38 37 35 38 37 35 38 37 35 38 37 35 36 35 33 36 35 33 36 35 33 36 35 33 36 35 33 36 35 33 36 35 33 36 35 33
1 0 6 1 0 6 1 0 6 1 0 6 1 0 6 1 0 6 1 0 6 1 0 6 1 0 6 1 0 6 1 0 6 1 0 6 2 1 9 2 1 9 2 1 9 2 1 9 2 1 9 2 1 9 2 1 9 2 1 9 1 0 8 1 0 8 1 0 8 1 0 8 1 0 8 1 0 8 1 0 8 1 0 8 3 2 8 3 2 8 3 2 8 3 2 8 3 2 8 3 2 8 3 2 8 3 2 8 5 4 10 5 4 10 5 4 10 5 4 10 5 4 10 5 4 10 5 4 10 5 4 10 7 7 15 7 7 15 7 7 15 7 7 15 7 7 15 7 7 15 7 7 15 7 7 15 6 6 14 6 6 14 6 6 14 6 6 14 6 6 14 6 6 14 6 6 14 4 7 12 6 9 14 5 10 13 5 10 13 5 10 13 5 10 13 5 10 13 5 10 13 5 10 13 5 10 13 5 10 13 5 10 13 5 10 13 5 10 13 5 10 13 5 10 13 5 10 13 6 14 16 6 14 16 6 14 16 6 14 16 6 14 16 6 14 16 6 14 16 6 14 16 7 15 17 7 15 17 7 15 17 7 15 17 7 15 17 7 15 17 7 15 17 7 16 15 13 19 19 11 17 15 8 14 12 5 11 9 1 7 5 0 3 1 0 2 0 0 2 0 0 4 2 0 4 2 0 4 2 0 4 2 0 4 2 0 4 2 0 4 2 0 4 2 0 3 1 0 5 3 1 7 5 4 10 8 8 14 12 11 17 15 13 19 17 15 21 19 30 36 34 32 38 36 34 40 38 37 43 41 41 47 45 44 50 48 46 52 50 48 54 50 68 75 68 69 76 68 71 78 70 75 82 74 78 85 77 81 88 80 84 91 83 85 92 84 93 100 92 93 100 92 93 100 92 93 100 92 93 100 92 93 100 92 93 100 92 94 99 92 52 53 48 51 50 46 49 48 44 46 45 41 42 41 37 39 38 34 37 36 32 35 34 30 39 38 34 39 38 34 39 38 34 39 38 34 39 38 34 39 38 34 39 38 34 39 38 34 38 37 33 38 37 33 38 37 33 38 37 33 38 37 33 38 37 33 38 37 33 38 37 33 36 35 31 36 35 31 36 35 31 36 35 31 36 35 31 36 35 31 36 35 31 36 35 31
1 0 6 1 0 6 1 0 6 1 0 6 1 0 6 1 0 6 1 0 6 1 0 6 1 0 6 1 0 6 1 0 6 1 0 6 2 1 9 2 1 9 2 1 9 2 1 9 2 1 9 2 1 9 2 1 9 2 1 9 1 0 8 1 0 8 1 0 8 1 0 8 1 0 8 1 0 8 1 0 8 1 0 8 3 2 8 3 2 8 3 2 8 3 2 8 3 2 8 3 2 8 3 2 8 3 2 8 5 4 10 5 4 10 5 4 10 5 4 10 5 4 10 5 4 10 5 4 10 5 4 10 7 7 15 7 7 15 7 7 15 7 7 15 7 7 15 7 7 15 7 7 15 7 7 15 6 6 14 6 6 14 6 6 14 6 6 14 6 6 14 6 6 14 6 6 14 4 7 12 6 9 14 5 10 13 5 10 13 5 10 13 5 10 13 5 10 13 5 10 13 5 10 13 5 10 13 5 10 13 5 10 13 5 10 13 5 10 13 5 10 13 5 10 13 5 10 13 6 14 16 6 14 16 6 14 16 6 14 16 6 14 16 6 14 16 6 14 16 6 14 16 7 15 17 7 15 17 7 15 17 7 15 17 7 15 17 7 15 17 7 15 17 7 16 15 12 18 18 11 17 15 9 15 13 6 12 10 4 10 8 1 7 5 0 5 3 0 4 2 0 4 2 0 4 2 0 4 2 0 4 2 0 4 2 0 4 2 0 4 2 0 4 2 0 3 1 0 5 3 1 7 5 4 10 8 8 14 12 11 17 15 13 19 17 15 21 19 30 36 34 32 38 36 34 40 38 37 43 41 41 47 45 44 50 48 46 52 50 48 54 50 65 72 65 67 74 66 69 76 68 72 79 71 76 83 75 79 86 78 81 88 80 83 90 82 91 98 90 91 98 90 91 98 90 91 98 90 91 98 90 91 98 90 91 98 90 92 97 90 52 53 48 51 50 46 49 48 44 46 45 41 42 41 37 39 38 34 37 36 32 35 34 30 39 38 34 39 38 34 39 38 34 39 38 34 39 38 34 39 38 34 39 38 34 39 38 34 38 37 33 38 37 33 38 37 33 38 37 33 38 37 33 38 37 33 38 37 33 38 37 33 36 35 31 36 35 31 36 35 31 36 35 31 36 35 31 36 35 31 36 35 31 36 35 31
1 0 6 1 0 6 1 0 6 1 0 6 1 0 6 1 0 6 1 0 6 1 0 6 1 0 6 1 0 6 1 0 6 1 0 6 2 1 9 2 1 9 2 1 9 2 1 9 2 1 9 2 1 9 2 1 9 2 1 9 1 0 8 1 0 8 1 0 8 1 0 8 1 0 8 1 0 8 1 0 8 1 0 8 3 2 8 3 2 8 3 2 8 3 2 8 3 2 8 3 2 8 3 2 8 3 2 8 5 4 10 5 4 10 5 4 10 5 4 10 5 4 10 5 4 10 5 4 10 5 4 10 7 7 15 7 7 15 7 7 15 7 7 15 7 7 15 7 7 15 7 7 15 7 7 15 6 6 14 6 6 14 6 6 14 6 6 14 6 6 14 6 6 14 6 6 14 4 7 12 6 9 14 5 10 13 5 10 13 5 10 13 5 10 13 5 10 13 5 10 13 5 10 13 5 10 13 5 10 13 5 10 13 5 10 13 5 10 13 5 10 13 5 10 13 5 10 13 6 14 16 6 14 16 6 14 16 6 14 16 6 14 16 6 14 16 6 14 16 6 14 16 7 15 17 7 15 17 7 15 17 7 15 17 7 15 17 7 15 17 7 15 17 7 16 15 11 17 17 10 16 14 10 16 14 9 15 13 8 14 12 7 13 11 6 12 10 6 12 10 0 4 2 0 4 2 0 4 2 0 4 2 0 4 2 0 4 2 0 4 2 0 4 2 0 3 1 0 5 3 1 7 5 4 10 8 8 14 12 11 17 15 13 19 17 15 21 19 30 36 34 32 38 36 34 40 38 37 43 41 41 47 45 44 50 48 46 52 50 48 54 50 62 69 62 63 70 62 66 73 65 69 76 68 72 79 71 76 83 75 78 85 77 79 86 78 88 95 87 88 95 87 88 95 87 88 95 87 88 95 87 88 95 87 88 95 87 89 94 87 52 53 48 51 50 46 49 48 44 46 45 41 42 41 37 39 38 34 37 36 32 35 34 30 39 38 34 39 38 34 39 38 34 39 38 34 39 38 34 39 38 34 39 38 34 39 38 34 38 37 33 38 37 33 38 37 33 38 37 33 38 37 33 38 37 33 38 37 33 38 37 33 36 35 31 36 35 31 36 35 31 36 35 31 36 35 31 36 35 31 36 35 31 36 35 31
1 0 6 1 0 6 1 0 6 1 0 6 1 0 6 1 0 6 1 0 6 1 0 6 1 0 6 1 0 6 1 0 6 1 0 6 2 1 9 2 1 9 2 1 9 2 1 9 2 1 9 2 1 9 2 1 9 2 1 9 1 0 8 1 0 8 1 0 8 1 0 8 1 0 8 1 0 8 1 0 8 1 0 8 3 2 8 3 2 8 3 2 8 3 2 8 3 2 8 3 2 8 3 2 8 3 2 8 5 4 10 5 4 10 5 4 10 5 4 10 5 4 10 5 4 10 5 4 10 5 4 10 7 7 15 7 7 15 7 7 15 7 7 15 7 7 15 7 7 15 7 7 15 7 7 15 6 6 14 6 6 14 6 6 14 6 6 14 6 6 14 6 6 14 6 6 14 4 7 12 6 9 14 5 10 13 5 10 13 5 10 13 5 10 13 5 10 13 5 10 13 5 10 13 5 10 13 5 10 13 5 10 13 5 10 13 5 10 13 5 10 13 5 10 13 5 10 13 6 14 16 6 14 16 6 14 16 6 14 16 6 14 16 6 14 16 6 14 16 6 14 16 7 15 17 7 15 17 7 15 17 7 15 17 7 15 17 7 15 17 7 15 17 7 16 15 9 15 15 10 16 14 10 16 14 11 17 15 12 18 16 13 19 17 14 20 18 14 20 18 0 4 2 0 4 2 0 4 2 0 4 2 0 4 2 0 4 2 0 4 2 0 4 2 0 3 1 0 5 3 1 7 5 4 10 8 8 14 12 11 17 15 13 19 17 15 21 19 30 36 34 32 38 36 34 40 38 37 43 41 41 47 45 44 50 48 46 52 50 48 54 50 59 66 59 60 67 59 62 69 61 66 73 65 69 76 68 72 79 71 75 82 74 76 83 75 84 91 83 84 91 83 84 91 83 84 91 83 84 91 83 84 91 83 84 91 83 85 90 83 52 53 48 51 50 46 49 48 44 46 45 41 42 41 37 39 38 34 37 36 32 35 34 30 39 38 34 39 38 34 39 38 34 39 38 34 39 38 34 39 38 34 39 38 34 39 38 34 38 37 33 38 37 33 38 37 33 38 37 33 38 37 33 38 37 33 38 37 33 38 37 33 36 35 31 36 35 31 36 35 31 36 35 31 36 35 31 36 35 31 36 35 31 36 35 31
1 0 6 1 0 6 1 0 6 1 0 6 1 0 6 1 0 6 1 0 6 1 0 6 1 0 6 1 0 6 1 0 6 1 0 6 2 1 9 2 1 9 2 1 9 2 1 9 2 1 9 2 1 9 2 1 9 2 1 9 1 0 8 1 0 8 1 0 8 1 0 8 1 0 8 1 0 8 1 0 8 1 0 8 3 2 8 3 2 8 3 2 8 3 2 8 3 2 8 3 2 8 3 2 8 3 2 8 5 4 10 5 4 10 5 4 10 5 4 10 5 4 10 5 4 10 5 4 10 5 4 10 7 7 15 7 7 15 7 7 15 7 7 15 7 7 15 7 7 15 7 7 15 7 7 15 6 6 14 6 6 14 6 6 14 6 6 14 6 6 14 6 6 14 6 6 14 4 7 12 6 9 14 5 10 13 5 10 13 5 10 13 5 10 13 5 10 13 5 10 13 5 10 13 5 10 13 5 10 13 5 10 13 5 10 13 5 10 13 5 10 13 5 10 13 5 10 13 6 14 16 6 14 16 6 14 16 6 14 16 6 14 16 6 14 16 6 14 16 6 14 16 7 15 17 7 15 17 7 15 17 7 15 17 7 15 17 7 15 17 7 15 17 7 16 15 8 14 14 9 15 13 11 17 15 14 20 18 16 22 20 19 25 23 21 27 25 22 28 26 0 4 2 0 4 2 0 4 2 0 4 2 0 4 2 0 4 2 0 4 2 0 4 2 0 3 1 0 5 3 1 7 5 4 10 8 8 14 12 11 17 15 13 19 17 15 21 19 30 36 34 32 38 36 34 40 38 37 43 41 41 47 45 44 50 48 46 52 50 48 54 50 55 62 55 57 64 56 59 66 58 62 69 61 66 73 65 69 76 68 71 78 70 73 80 72 81 88 80 81 88 80 81 88 80 81 88 80 81 88 80 81 88 80 81 88 80 82 87 80 52 53 48 51 50 46 49 48 44 46 45 41 42 41 37 39 38 34 37 36 32 35 34 30 39 38 34 39 38 34 39 38 34 39 38 34 39 38 34 39 38 34 39 38 34 39 38 34 38 37 33 38 37 33 38 37 33 38 37 33 38 37 33 38 37 33 38 37 33 38 37 33 36 35 31 36 35 31 36 35 31 36 35 31 36 35 31 36 35 31 36 35 31 36 35 31
1 0 6 1 0 6 1 0 6 1 0 6 1 0 6 1 0 6 1 0 6 1 0 6 1 0 6 1 0 6 1 0 6 1 0 6 2 1 9 2 1 9 2 1 9 2 1 9 2 1 9 2 1 9 2 1 9 2 1 9 1 0 8 1 0 8 1 0 8 1 0 8 1 0 8 1 0 8 1 0 8 1 0 8 3 2 8 3 2 8 3 2 8 3 2 8 3 2 8 3 2 8 3 2 8 3 2 8 5 4 10 5 4 10 5 4 10 5 4 10 5 4 10 5 4 10 5 4 10 5 4 10 7 7 15 7 7 15 7 7 15 7 7 15 7 7 15 7 7 15 7 7 15 7 7 15 6 6 14 6 6 14 6 6 14 6 6 14 6 6 14 6 6 14 6 6 14 4 7 12 6 9 14 5 10 13 5 10 13 5 10 13 5 10 13 5 10 13 5 10 13 5 10 13 5 10 13 5 10 13 5 10 13 5 10 13 5 10 13 5 10 13 5 10 13 5 10 13 6 14 16 6 14 16 6 14 16 6 14 16 6 14 16 6 14 16 6 14 16 6 14 16 7 15 17 7 15 17 7 15 17 7 15 17 7 15 17 7 15 17 7 15 17 7 16 15 7 13 13 9 15 13 12 18 16 15 21 19 19 25 23 23 29 27 26 32 30 28 34 32 0 4 2 0 4 2 0 4 2 0 4 2 0 4 2 0 4 2 0 4 2 0 4 2 0 3 1 0 5 3 1 7 5 4 10 8 8 14 12 11 17 15 13 19 17 15 21 19 30 36 34 32 38 36 34 40 38 37 43 41 41 47 45 44 50 48 46 52 50 48 54 50 53 60 53 54 61 53 57 64 56 60 67 59 63 70 62 67 74 66 69 76 68 70 77 69 79 86 78 79 86 78 79 86 78 79 86 78 79 86 78 79 86 78 79 86 78 80 85 78 52 53 48 51 50 46 49 48 44 46 45 41 42 41 37 39 38 34 37 36 32 35 34 30 39 38 34 39 38 34 39 38 34 39 38 34 39 38 34 39 38 34 39 38 34 39 38 34 38 37 33 38 37 33 38 37 33 38 37 33 38 37 33 38 37 33 38 37 33 38 37 33 36 35 31 36 35 31 36 35 31 36 35 31 36 35 31 36 35 31 36 35 31 36 35 31
1 0 6 1 0 6 1 0 6 1 0 6 1 0 6 1 0 6 1 0 6 1 0 6 1 0 6 1 0 6 1 0 6 1 0 6 2 1 9 2 1 9 2 1 9 2 1 9 2 1 9 2 1 9 2 1 9 2 1 9 1 0 8 1 0 8 1 0 8 1 0 8 1 0 8 1 0 8 1 0 8 1 0 8 3 2 8 3 2 8 3 2 8 3 2 8 3 2 8 3 2 8 3 2 8 3 2 8 5 4 10 5 4 10 5 4 10 5 4 10 5 4 10 5 4 10 5 4 10 5 4 10 7 7 15 7 7 15 7 7 15 7 7 15 7 7 15 7 7 15 7 7 15 7 7 15 6 6 14 6 6 14 6 6 14 6 6 14 6 6 14 6 6 14 6 6 14 4 7 12 6 9 14 5 10 13 5 10 13 5 10 13 5 10 13 5 10 13 5 10 13 5 10 13 5 10 13 5 10 13 5 10 13 5 10 13 5 10 13 5 10 13 5 10 13 5 10 13 6 14 16 6 14 16 6 14 16 6 14 16 6 14 16 6 14 16 6 14 16 6 14 16 7 15 17 7 15 17 7 15 17 7 15 17 7 15 17 7 15 17 7 15 17 7 16 15 7 13 13 8 14 12 12 18 16 16 22 20 21 27 25 25 31 29 29 35 33 31 37 35 0 4 2 0 4 2 0 4 2 0 4 2 0 4 2 0 4 2 0 4 2 0 4 2 0 3 1 0 5 3 1 7 5 4 10 8 8 14 12 11 17 15 13 19 17 15 21 19 30 36 34 32 38 36 34 40 38 37 43 41 41 47 45 44 50 48 46 52 50 48 54 50 52 59 52 53 60 52 55 62 54 59 66 58 62 69 61 65 72 64 68 75 67 69 76 68 77 84 76 77 84 76 77 84 76 77 84 76 77 84 76 77 84 76 77 84 76 78 83 76 52 53 48 51 50 46 49 48 44 46 45 41 42 41 37 39 38 34 37 36 32 35 34 30 39 38 34 39 38 34 39 38 34 39 38 34 39 38 34 39 38 34 39 38 34 39 38 34 38 37 33 38 37 33 38 37 33 38 37 33 38 37 33 38 37 33 38 37 33 38 37 33 36 35 31 36 35 31 36 35 31 36 35 31 36 35 31 36 35 31 36 35 31 36 35 31
2 1 7 2 1 7 2 1 7 2 1 7 2 1 7 2 1 7 2 1 7 2 1 7 2 1 7 2 1 7 2 1 7 2 1 7 2 1 9 2 1 9 2 1 9 2 1 9 2 1 9 2 1 9 2 1 9 2 1 9 3 2 10 3 2 10 3 2 10 3 2 10 3 2 10 3 2 10 3 2 10 3 2 10 2 1 7 2 1 7 2 1 7 2 1 7 2 1 7 2 1 7 2 1 7 2 1 7 5 4 10 5 4 10 5 4 10 5 4 10 5 4 10 5 4 10 5 4 10 5 4 10 4 4 12 4 4 12 4 4 12 4 4 12 4 4 12 4 4 12 4 4 12 4 4 12 3 3 11 3 3 11 3 3 11 3 3 11 3 3 11 3 3 11 3 3 11 1 4 9 5 8 13 4 9 12 4 9 12 4 9 12 4 9 12 4 9 12 4 9 12 4 9 12 7 12 15 7 12 15 7 12 15 7 12 15 7 12 15 7 12 15 7 12 15 7 12 15 7 15 17 7 15 17 7 15 17 7 15 17 7 15 17 7 15 17 7 15 17 7 15 17 1 9 11 1 9 11 1 9 11 1 9 11 1 9 11 1 9 11 1 9 11 1 10 9 1 7 7 3 9 7 7 13 11 11 17 15 16 22 20 20 26 24 24 30 28 25 31 29 0 6 4 0 6 4 0 6 4 0 6 4 0 6 4 0 6 4 0 6 4 0 6 4 0 2 0 0 3 1 0 5 3 2 8 6 6 12 10 9 15 13 11 17 15 13 19 17 23 29 27 25 31 29 27 33 31 30 36 34 34 40 38 37 43 41 39 45 43 41 47 43 53 60 53 54 61 53 57 64 56 60 67 59 63 70 62 67 74 66 69 76 68 70 77 69 71 78 70 71 78 70 71 78 70 71 78 70 71 78 70 71 78 70 71 78 70 72 77 70 47 48 43 46 45 41 44 43 39 41 40 36 37 36 32 34 33 29 32 31 27 30 29 25 33 32 28 33 32 28 33 32 28 33 32 28 33 32 28 33 32 28 33 32 28 33 32 28 34 33 29 34 33 29 34 33 29 34 33 29 34 33 29 34 33 29 34 33 29 34 33 29 36 35 31 36 35 31 36 35 31 36 35 31 36 35 31 36 35 31 36 35 31 36 35 31
2 1 7 2 1 7 2 1 7 2 1 7 2 1 7 2 1 7 2 1 7 2 1 7 2 1 7 2 1 7 2 1 7 2 1 7 2 1 9 2 1 9 2 1 9 2 1 9 2 1 9 2 1 9 2 1 9 2 1 9 3 2 10 3 2 10 3 2 10 3 2 10 3 2 10 3 2 10 3 2 10 3 2 10 2 1 7 2 1 7 2 1 7 2 1 7 2 1 7 2 1 7 2 1 7 2 1 7 5 4 10 5 4 10 5 4 10 5 4 10 5 4 10 5 4 10 5 4 10 5 4 10 4 4 12 4 4 12 4 4 12 4 4 12 4 4 12 4 4 12 4 4 12 4 4 12 3 3 11 3 3 11 3 3 11 3 3 11 3 3 11 3 3 11 3 3 11 1 4 9 5 8 13 4 9 12 4 9 12 4 9 12 4 9 12 4 9 12 4 9 12 4 9 12 7 12 15 7 12 15 7 12 15 7 12 15 7 12 15 7 12 15 7 12 15 7 12 15 7 15 17 7 15 17 7 15 17 7 15 17 7 15 17 7 15 17 7 15 17 7 15 17 3 11 13 3 11 13 3 11 13 3 11 13 3 11 13 3 11 13 3 11 13 3 12 11 4 10 10 6 12 10 9 15 13 13 19 17 17 23 21 20 26 24 23 29 27 25 31 29 0 6 4 0 6 4 0 6 4 0 6 4 0 6 4 0 6 4 0 6 4 0 6 4 0 2 0 0 3 1 0 5 3 2 8 6 6 12 10 9 15 13 11 17 15 13 19 17 23 29 27 25 31 29 27 33 31 30 36 34 34 40 38 37 43 41 39 45 43 41 47 43 52 59 52 53 60 52 55 62 54 59 66 58 62 69 61 65 72 64 68 75 67 69 76 68 69 76 68 69 76 68 69 76 68 69 76 68 69 76 68 69 76 68 69 76 68 70 75 68 47 48 43 46 45 41 44 43 39 41 40 36 37 36 32 34 33 29 32 31 27 30 29 25 33 32 28 33 32 28 33 32 28 33 32 28 33 32 28 33 32 28 33 32 28 33 32 28 34 33 29 34 33 29 34 33 29 34 33 29 34 33 29 34 33 29 34 33 29 34 33 29 36 35 31 36 35 31 36 35 31 36 35 31 36 35 31 36 35 31 36 35 31 36 35 31
2 1 7 2 1 7 2 1 7 2 1 7 2 1 7 2 1 7 2 1 7 2 1 7 2 1 7 2 1 7 2 1 7 2 1 7 2 1 9 2 1 9 2 1 9 2 1 9 2 1 9 2 1 9 2 1 9 2 1 9 3 2 10 3 2 10 3 2 10 3 2 10 3 2 10 3 2 10 3 2 10 3 2 10 2 1 7 2 1 7 2 1 7 2 1 7 2 1 7 2 1 7 2 1 7 2 1 7 5 4 10 5 4 10 5 4 10 5 4 10 5 4 10 5 4 10 5 4 10 5 4 10 4 4 12 4 4 12 4 4 12 4 4 12 4 4 12 4 4 12 4 4 12 4 4 12 3 3 11 3 3 11 3 3 11 3 3 11 3 3 11 3 3 11 3 3 11 1 4 9 5 8 13 4 9 12 4 9 12 4 9 12 4 9 12 4 9 12 4 9 12 4 9 12 7 12 15 7 12 15 7 12 15 7 12 15 7 12 15 7 12 15 7 12 15 7 12 15 7 15 17 7 15 17 7 15 17 7 15 17 7 15 17 7 15 17 7 15 17 7 15 17 5 13 15 5 13 15 5 13 15 5 13 15 5 13 15 5 13 15 5 13 15 5 14 13 10 16 16 11 17 15 13 19 17 16 22 20 18 24 22 21 27 25 23 29 27 24 30 28 0 6 4 0 6 4 0 6 4 0 6 4 0 6 4 0 6 4 0 6 4 0 6 4 0 2 0 0 3 1 0 5 3 2 8 6 6 12 10 9 15 13 11 17 15 13 19 17 23 29 27 25 31 29 27 33 31 30 36 34 34 40 38 37 43 41 39 45 43 41 47 43 49 56 49 51 58 50 53 60 52 56 63 55 60 67 59 63 70 62 65 72 64 67 74 66 67 74 66 67 74 66 67 74 66 67 74 66 67 74 66 67 74 66 67 74 66 68 73 66 47 48 43 46 45 41 44 43 39 41 40 36 37 36 32 34 33 29 32 31 27 30 29 25 33 32 28 33 32 28 33 32 28 33 32 28 33 32 28 33 32 28 33 32 28 33 32 28 34 33 29 34 33 29 34 33 29 34 33 29 34 33 29 34 33 29 34 33 29 34 33 29 36 35 31 36 35 31 36 35 31 36 35 31 36 35 31 36 35 31 36 35 31 36 35 31
2 1 7 2 1 7 2 1 7 2 1 7 2 1 7 2 1 7 2 1 7 2 1 7 2 1 7 2 1 7 2 1 7 2 1 7 2 1 9 2 1 9 2 1 9 2 1 9 2 1 9 2 1 9 2 1 9 2 1 9 3 2 10 3 2 10 3 2 10 3 2 10 3 2 10 3 2 10 3 2 10 3 2 10 2 1 7 2 1 7 2 1 7 2 1 7 2 1 7 2 1 7 2 1 7 2 1 7 5 4 10 5 4 10 5 4 10 5 4 10 5 4 10 5 4 10 5 4 10 5 4 10 4 4 12 4 4 12 4 4 12 4 4 12 4 4 12 4 4 12 4 4 12 4 4 12 3 3 11 3 3 11 3 3 11 3 3 11 3 3 11 3 3 11 3 3 11 1 4 9 5 8 13 4 9 12 4 9 12 4 9 12 4 9 12 4 9 12 4 9 12 4 9 12 7 12 15 7 12 15 7 12 15 7 12 15 7 12 15 7 12 15 7 12 15 7 12 15 7 15 17 7 15 17 7 15 17 7 15 17 7 15 17 7 15 17 7 15 17 7 15 17 8 16 18 8 16 18 8 16 18 8 16 18 8 16 18 8 16 18 8 16 18 8 17 16 18 24 24 18 24 22 19 25 23 20 26 24 21 27 25 22 28 26 22 28 26 23 29 27 0 6 4 0 6 4 0 6 4 0 6 4 0 6 4 0 6 4 0 6 4 0 6 4 0 2 0 0 3 1 0 5 3 2 8 6 6 12 10 9 15 13 11 17 15 13 19 17 23 29 27 25 31 29 27 33 31 30 36 34 34 40 38 37 43 41 39 45 43 41 47 43 46 53 46 47 54 46 50 57 49 53 60 52 56 63 55 60 67 59 62 69 61 63 70 62 64 71 63 64 71 63 64 71 63 64 71 63 64 71 63 64 71 63 64 71 63 65 70 63 47 48 43 46 45 41 44 43 39 41 40 36 37 36 32 34 33 29 32 31 27 30 29 25 33 32 28 33 32 28 33 32 28 33 32 28 33 32 28 33 32 28 33 32 28 33 32 28 34 33 29 34 33 29 34 33 29 34 33 29 34 33 29 34 33 29 34 33 29 34 33 29 36 35 31 36 35 31 36 35 31 36 35 31 36 35 31 36 35 31 36 35 31 36 35 31
2 1 7 2 1 7 2 1 7 2 1 7 2 1 7 2 1 7 2 1 7 2 1 7 2 1 7 2 1 7 2 1 7 2 1 7 2 1 9 2 1 9 2 1 9 2 1 9 2 1 9 2 1 9 2 1 9 2 1 9 3 2 10 3 2 10 3 2 10 3 2 10 3 2 10 3 2 10 3 2 10 3 2 10 2 1 7 2 1 7 2 1 7 2 1 7 2 1 7 2 1 7 2 1 7 2 1 7 5 4 10 5 4 10 5 4 10 5 4 10 5 4 10 5 4 10 5 4 10 5 4 10 4 4 12 4 4 12 4 4 12 4 4 12 4 4 12 4 4 12 4 4 12 4 4 12 3 3 11 3 3 11 3 3 11 3 3 11 3 3 11 3 3 11 3 3 11 1 4 9 5 8 13 4 9 12 4 9 12 4 9 12 4 9 12 4 9 12 4 9 12 4 9 12 7 12 15 7 12 15 7 12 15 7 12 15 7 12 15 7 12 15 7 12 15 7 12 15 7 15 17 7 15 17 7 15 17 7 15 17 7 15 17 7 15 17 7 15 17 7 15 17 12 20 22 12 20 22 12 20 22 12 20 22 12 20 22 12 20 22 12 20 22 12 21 20 26 32 32 26 32 30 25 31 29 24 30 28 23 29 27 22 28 26 22 28 26 21 27 25 0 6 4 0 6 4 0 6 4 0 6 4 0 6 4 0 6 4 0 6 4 0 6 4 0 2 0 0 3 1 0 5 3 2 8 6 6 12 10 9 15 13 11 17 15 13 19 17 23 29 27 25 31 29 27 33 31 30 36 34 34 40 38 37 43 41 39 45 43 41 47 43 43 50 43 44 51 43 46 53 45 50 57 49 53 60 52 56 63 55 59 66 58 60 67 59 60 67 59 60 67 59 60 67 59 60 67 59 60 67 59 60 67 59 60 67 59 61 66 59 47 48 43 46 45 41 44 43 39 41 40 36 37 36 32 34 33 29 32 31 27 30 29 25 33 32 28 33 32 28 33 32 28 33 32 28 33 32 28 33 32 28 33 32 28 33 32 28 34 33 29 34 33 29 34 33 29 34 33 29 34 33 29 34 33 29 34 33 29 34 33 29 36 35 31 36 35 31 36 35 31 36 35 31 36 35 31 36 35 31 36 35 31 36 35 31
2 1 7 2 1 7 2 1 7 2 1 7 2 1 7 2 1 7 2 1 7 2 1 7 2 1 7 2 1 7 2 1 7 2 1 7 2 1 9 2 1 9 2 1 9 2 1 9 2 1 9 2 1 9 2 1 9 2 1 9 3 2 10 3 2 10 3 2 10 3 2 10 3 2 10 3 2 10 3 2 10 3 2 10 2 1 7 2 1 7 2 1 7 2 1 7 2 1 7 2 1 7 2 1 7 2 1 7 5 4 10 5 4 10 5 4 10 5 4 10 5 4 10 5 4 10 5 4 10 5 4 10 4 4 12 4 4 12 4 4 12 4 4 12 4 4 12 4 4 12 4 4 12 4 4 12 3 3 11 3 3 11 3 3 11 3 3 11 3 3 11 3 3 11 3 3 11 1 4 9 5 8 13 4 9 12 4 9 12 4 9 12 4 9 12 4 9 12 4 9 12 4 9 12 7 12 15 7 12 15 7 12 15 7 12 15 7 12 15 7 12 15 7 12 15 7 12 15 7 15 17 7 15 17 7 15 17 7 15 17 7 15 17 7 15 17 7 15 17 7 15 17 15 23 25 15 23 25 15 23 25 15 23 25 15 23 25 15 23 25 15 23 25 15 24 23 34 40 40 33 39 37 31 37 35 28 34 32 26 32 30 23 29 27 21 27 25 20 26 24 0 6 4 0 6 4 0 6 4 0 6 4 0 6 4 0 6 4 0 6 4 0 6 4 0 2 0 0 3 1 0 5 3 2 8 6 6 12 10 9 15 13 11 17 15 13 19 17 23 29 27 25 31 29 27 33 31 30 36 34 34 40 38 37 43 41 39 45 43 41 47 43 39 46 39 41 48 40 43 50 42 46 53 45 50 57 49 53 60 52 55 62 54 57 64 56 57 64 56 57 64 56 57 64 56 57 64 56 57 64 56 57 64 56 57 64 56 58 63 56 47 48 43 46 45 41 44 43 39 41 40 36 37 36 32 34 33 29 32 31 27 30 29 25 33 32 28 33 32 28 33 32 28 33 32 28 33 32 28 33 32 28 33 32 28 33 32 28 34 33 29 34 33 29 34 33 29 34 33 29 34 33 29 34 33 29 34 33 29 34 33 29 36 35 31 36 35 31 36 35 31 36 35 31 36 35 31 36 35 31 36 35 31 36 35 31
2 1 7 2 1 7 2 1 7 2 1 7 2 1 7 2 1 7 2 1 7 2 1 7 2 1 7 2 1 7 2 1 7 2 1 7 2 1 9 2 1 9 2 1 9 2 1 9 2 1 9 2 1 9 2 1 9 2 1 9 3 2 10 3 2 10 3 2 10 3 2 10 3 2 10 3 2 10 3 2 10 3 2 10 2 1 7 2 1 7 2 1 7 2 1 7 2 1 7 2 1 7 2 1 7 2 1 7 5 4 10 5 4 10 5 4 10 5 4 10 5 4 10 5 4 10 5 4 10 5 4 10 4 4 12 4 4 12 4 4 12 4 4 12 4 4 12 4 4 12 4 4 12 4 4 12 3 3 11 3 3 11 3 3 11 3 3 11 3 3 11 3 3 11 3 3 11 1 4 9 5 8 13 4 9 12 4 9 12 4 9 12 4 9 12 4 9 12 4 9 12 4 9 12 7 12 15 7 12 15 7 12 15 7 12 15 7 12 15 7 12 15 7 12 15 7 12 15 7 15 17 7 15 17 7 15 17 7 15 17 7 15 17 7 15 17 7 15 17 7 15 17 17 25 27 17 25 27 17 25 27 17 25 27 17 25 27 17 25 27 17 25 27 17 26 25 40 46 46 38 44 42 35 41 39 31 37 35 27 33 31 24 30 28 21 27 25 19 25 23 0 6 4 0 6 4 0 6 4 0 6 4 0 6 4 0 6 4 0 6 4 0 6 4 0 2 0 0 3 1 0 5 3 2 8 6 6 12 10 9 15 13 11 17 15 13 19 17 23 29 27 25 31 29 27 33 31 30 36 34 34 40 38 37 43 41 39 45 43 41 47 43 37 44 37 38 45 37 41 48 40 44 51 43 47 54 46 51 58 50 53 60 52 54 61 53 55 62 54 55 62 54 55 62 54 55 62 54 55 62 54 55 62 54 55 62 54 56 61 54 47 48 43 46 45 41 44 43 39 41 40 36 37 36 32 34 33 29 32 31 27 30 29 25 33 32 28 33 32 28 33 32 28 33 32 28 33 32 28 33 32 28 33 32 28 33 32 28 34 33 29 34 33 29 34 33 29 34 33 29 34 33 29 34 33 29 34 33 29 34 33 29 36 35 31 36 35 31 36 35 31 36 35 31 36 35 31 36 35 31 36 35 31 36 35 31
2 1 7 2 1 7 2 1 7 2 1 7 2 1 7 2 1 7 2 1 7 2 1 7 2 1 7 2 1 7 2 1 7 2 1 7 2 1 9 2 1 9 2 1 9 2 1 9 2 1 9 2 1 9 2 1 9 2 1 9 3 2 10 3 2 10 3 2 10 3 2 10 3 2 10 3 2 10 3 2 10 3 2 8 2 1 7 2 1 7 2 1 7 2 1 7 2 1 7 2 1 7 2 1 7 2 1 7 5 4 10 5 4 10 5 4 10 5 4 10 5 4 10 5 4 10 5 4 10 5 4 10 4 4 12 4 4 12 4 4 12 4 4 12 4 4 12 4 4 12 4 4 12 4 4 12 3 3 11 3 3 11 3 3 11 3 3 11 3 3 11 3 3 11 3 3 11 3 4 9 5 8 13 4 9 12 4 9 13 4 9 12 4 9 13 4 9 12 4 9 13 4 9 12 7 12 16 7 12 15 7 12 16 7 12 15 7 12 16 7 12 15 7 12 16 7 12 15 7 15 17 7 15 17 7 15 17 7 15 17 7 15 17 7 15 17 7 15 17 7 15 17 19 27 29 19 27 29 19 27 29 19 27 29 19 27 29 19 27 29 19 27 29 19 28 27 43 49 49 41 47 45 37 43 41 33 39 37 28 34 32 24 30 28 20 26 24 19 25 23 0 6 4 0 6 4 0 6 4 0 6 4 0 6 4 0 6 4 0 6 4 0 6 4 0 2 0 0 3 1 0 5 3 2 8 6 6 12 10 9 15 13 11 17 15 13 19 17 23 29 27 25 31 29 27 33 31 30 36 34 34 40 38 37 43 41 39 45 43 41 47 45 36 43 36 37 44 37 39 46 39 43 50 43 46 53 46 49 56 49 52 59 52 53 60 53 53 60 53 53 60 53 53 60 53 53 60 53 53 60 53 53 60 53 53 60 53 54 59 53 47 48 43 46 45 41 44 43 39 41 40 36 37 36 32 34 33 29 32 31 27 30 29 25 33 32 28 33 32 28 33 32 28 33 32 28 33 32 28 33 32 28 33 32 28 33 32 28 34 33 29 34 33 29 36 32 29 34 33 29 36 32 29 34 33 29 36 32 29 34 33 29 38 34 31 36 35 31 38 34 31 36 35 31 38 34 31 36 35 31 38 34 31 36 35 31
2 1 7 2 1 7 2 1 7 2 1 7 1 0 6 1 0 6 1 0 6 1 0 6 1 0 6 1 0 6 1 0 6 1 0 6 1 0 6 1 0 6 1 0 6 1 0 6 1 0 6 1 0 6 1 0 6 1 0 6 2 1 7 2 1 7 2 1 7 2 1 7 2 1 7 2 1 7 2 1 7 2 1 7 4 3 9 4 3 8 4 3 8 4 3 8 4 3 8 4 3 8 4 3 8 4 3 8 2 1 6 2 1 6 2 1 6 2 1 6 2 1 6 2 1 6 2 1 6 2 1 6 3 2 8 3 2 8 3 2 8 3 2 8 3 2 8 3 2 8 3 2 8 3 2 8 5 4 10 5 4 10 5 4 10 5 4 10 5 4 10 5 4 10 5 4 10 4 5 10 5 8 13 4 9 13 4 9 15 4 9 13 4 9 15 4 9 13 4 9 15 4 9 13 6 11 17 6 11 15 6 11 17 6 11 15 6 11 17 6 11 15 6 11 17 6 11 15 10 18 20 9 18 17 8 17 16 7 16 15 6 15 14 4 13 12 4 13 12 3 12 11 32 41 40 32 41 40 32 41 40 32 41 40 32 41 40 32 41 40 32 41 40 32 41 40 45 51 51 43 49 49 41 47 47 38 44 44 34 40 40 31 37 37 29 35 35 27 33 33 7 13 13 7 13 13 7 13 13 7 13 13 7 13 13 7 13 13 7 13 13 7 13 13 0 4 3 0 6 5 0 8 7 2 11 10 6 15 14 9 18 17 11 20 19 13 22 21 24 33 32 24 33 32 24 33 32 24 33 32 24 33 32 24 33 32 24 33 32 26 32 30 38 44 42 39 44 40 39 44 40 39 44 40 39 44 40 39 44 40 39 44 40 39 44 40 50 55 51 50 55 51 50 55 51 50 55 51 50 55 51 50 55 51 50 55 51 52 54 51 32 31 29 34 30 29 34 30 29 34 30 29 34 30 29 34 30 29 34 30 29 34 30 29 33 29 28 33 29 28 33 29 28 33 29 28 33 29 28 33 29 28 33 29 28 33 29 28 36 32 29 36 32 29 37 32 29 36 32 29 37 32 29 36 32 29 37 32 29 36 32 29 38 33 30 37 33 30 38 33 30 37 33 30 38 33 30 37 33 30 38 33 30 37 33 30
2 1 7 2 1 7 2 1 7 2 1 7 1 0 6 1 0 6 1 0 6 1 0 6 1 0 6 1 0 6 1 0 6 1 0 6 1 0 6 1 0 6 1 0 6 1 0 6 1 0 6 1 0 6 1 0 6 1 0 6 2 1 7 2 1 7 2 1 7 2 1 7 2 1 7 2 1 7 2 1 7 2 1 7 4 3 8 4 3 8 4 3 8 4 3 8 4 3 8 4 3 8 4 3 8 4 3 8 2 1 6 2 1 6 2 1 6 2 1 6 2 1 6 2 1 6 2 1 6 2 1 6 3 2 8 3 2 8 3 2 8 3 2 8 3 2 8 3 2 8 3 2 8 3 2 8 5 4 10 5 4 10 5 4 10 5 4 10 5 4 10 5 4 10 5 4 10 4 5 10 5 8 15 4 9 15 4 9 15 4 9 15 4 9 15 4 9 15 4 9 15 4 9 15 6 11 17 6 11 17 6 11 17 6 11 17 6 11 17 6 11 17 6 11 17 6 11 15 9 17 19 9 18 17 9 18 17 8 17 16 7 16 15 7 16 15 6 15 14 6 15 14 34 43 42 34 43 42 34 43 42 34 43 42 34 43 42 34 43 42 34 43 42 34 43 42 45 51 51 43 49 49 41 47 47 38 44 44 34 40 40 31 37 37 29 35 35 27 33 33 7 13 13 7 13 13 7 13 13 7 13 13 7 13 13 7 13 13 7 13 13 7 13 13 0 4 3 0 6 5 0 8 7 2 11 10 6 15 14 9 18 17 11 20 19 13 22 21 24 33 32 24 33 32 24 33 32 24 33 32 24 33 32 24 33 32 24 33 32 24 33 32 39 43 42 39 43 42 39 43 42 39 43 42 39 43 42 39 43 42 39 43 42 39 43 42 48 52 51 48 52 51 48 52 51 48 52 51 48 52 51 48 52 51 48 52 51 50 52 51 32 31 29 34 30 29 34 30 29 34 30 29 34 30 29 34 30 29 34 30 29 34 30 29 33 29 28 33 29 28 33 29 28 33 29 28 33 29 28 33 29 28 33 29 28 33 29 28 37 32 29 37 32 29 37 32 29 37 32 29 37 32 29 37 32 29 37 32 29 37 32 29 38 33 30 38 33 30 38 33 30 38 33 30 38 33 30 38 33 30 38 33 30 38 33 30
2 1 7 2 1 7 2 1 7 2 1 7 1 0 6 1 0 6 1 0 6 1 0 6 1 0 6 1 0 6 1 0 6 1 0 6 1 0 6 1 0 6 1 0 6 1 0 6 1 0 6 1 0 6 1 0 6 1 0 6 2 1 7 2 1 7 2 1 7 2 1 7 2 1 7 2 1 7 2 1 7 2 1 7 4 3 8 4 3 8 4 3 8 4 3 8 4 3 8 4 3 8 4 3 8 4 3 8 2 1 6 2 1 6 2 1 6 2 1 6 2 1 6 2 1 6 2 1 6 2 1 6 3 2 8 3 2 8 3 2 8 3 2 8 3 2 8 3 2 8 3 2 8 3 2 8 5 4 10 5 4 10 5 4 10 5 4 10 5 4 10 5 4 10 5 4 10 4 5 10 5 8 15 4 9 15 4 9 15 4 9 15 4 9 15 4 9 15 4 9 15 4 9 15 6 11 17 6 11 17 6 11 17 6 11 17 6 11 17 6 11 17 6 11 17 6 11 15 8 16 18 9 18 17 9 18 17 10 19 18 10 19 18 11 20 19 12 21 20 12 21 20 36 45 44 36 45 44 36 45 44 36 45 44 36 45 44 36 45 44 36 45 44 36 45 44 45 51 51 43 49 49 41 47 47 38 44 44 34 40 40 31 37 37 29 35 35 27 33 33 7 13 13 7 13 13 7 13 13 7 13 13 7 13 13 7 13 13 7 13 13 7 13 13 0 4 3 0 6 5 0 8 7 2 11 10 6 15 14 9 18 17 11 20 19 13 22 21 24 33 32 24 33 32 24 33 32 24 33 32 24 33 32 24 33 32 24 33 32 24 33 32 39 43 42 39 43 42 39 43 42 39 43 42 39 43 42 39 43 42 39 43 42 39 43 42 46 50 49 46 50 49 46 50 49 46 50 49 46 50 49 46 50 49 46 50 49 48 50 49 32 31 29 34 30 29 34 30 29 34 30 29 34 30 29 34 30 29 34 30 29 34 30 29 33 29 28 33 29 28 33 29 28 33 29 28 33 29 28 33 29 28 33 29 28 33 29 28 37 32 29 37 32 29 37 32 29 37 32 29 37 32 29 37 32 29 37 32 29 37 32 29 38 33 30 38 33 30 38 33 30 38 33 30 38 33 30 38 33 30 38 33 30 38 33 30
2 1 7 2 1 7 2 1 7 2 1 7 1 0 6 1 0 6 1 0 6 1 0 6 1 0 6 1 0 6 1 0 6 1 0 6 1 0 6 1 0 6 1 0 6 1 0 6 1 0 6 1 0 6 1 0 6 1 0 6 2 1 7 2 1 7 2 1 7 2 1 7 2 1 7 2 1 7 2 1 7 2 1 7 4 3 8 4 3 8 4 3 8 4 3 8 4 3 8 4 3 8 4 3 8 4 3 8 2 1 6 2 1 6 2 1 6 2 1 6 2 1 6 2 1 6 2 1 6 2 1 6 3 2 8 3 2 8 3 2 8 3 2 8 3 2 8 3 2 8 3 2 8 3 2 8 5 4 10 5 4 10 5 4 10 5 4 10 5 4 10 5 4 10 5 4 10 4 5 10 5 8 15 4 9 15 4 9 15 4 9 15 4 9 15 4 9 15 4 9 15 4 9 15 6 11 17 6 11 17 6 11 17 6 11 17 6 11 17 6 11 17 6 11 17 6 11 15 7 15 17 8 17 16 10 19 18 12 21 20 15 24 23 17 26 25 19 28 27 20 29 28 39 48 47 39 48 47 39 48 47 39 48 47 39 48 47 39 48 47 39 48 47 39 48 47 45 51 51 43 49 49 41 47 47 38 44 44 34 40 40 31 37 37 29 35 35 27 33 33 7 13 13 7 13 13 7 13 13 7 13 13 7 13 13 7 13 13 7 13 13 7 13 13 0 4 3 0 6 5 0 8 7 2 11 10 6 15 14 9 18 17 11 20 19 13 22 21 24 33 32 24 33 32 24 33 32 24 33 32 24 33 32 24 33 32 24 33 32 24 33 32 39 43 42 39 43 42 39 43 42 39 43 42 39 43 42 39 43 42 39 43 42 39 43 42 43 47 46 43 47 46 43 47 46 43 47 46 43 47 46 43 47 46 43 47 46 45 47 46 32 31 29 34 30 29 34 30 29 34 30 29 34 30 29 34 30 29 34 30 29 34 30 29 33 29 28 33 29 28 33 29 28 33 29 28 33 29 28 33 29 28 33 29 28 33 29 28 37 32 29 37 32 29 37 32 29 37 32 29 37 32 29 37 32 29 37 32 29 37 32 29 38 33 30 38 33 30 38 33 30 38 33 30 38 33 30 38 33 30 38 33 30 38 33 30
2 1 7 2 1 7 2 1 7 2 1 7 1 0 6 1 0 6 1 0 6 1 0 6 1 0 6 1 0 6 1 0 6 1 0 6 1 0 6 1 0 6 1 0 6 1 0 6 1 0 6 1 0 6 1 0 6 1 0 6 2 1 7 2 1 7 2 1 7 2 1 7 2 1 7 2 1 7 2 1 7 2 1 7 4 3 8 4 3 8 4 3 8 4 3 8 4 3 8 4 3 8 4 3 8 4 3 8 2 1 6 2 1 6 2 1 6 2 1 6 2 1 6 2 1 6 2 1 6 2 1 6 3 2 8 3 2 8 3 2 8 3 2 8 3 2 8 3 2 8 3 2 8 3 2 8 5 4 10 5 4 10 5 4 10 5 4 10 5 4 10 5 4 10 5 4 10 4 5 10 5 8 15 4 9 15 4 9 15 4 9 15 4 9 15 4 9 15 4 9 15 4 9 15 6 11 17 6 11 17 6 11 17 6 11 17 6 11 17 6 11 17 6 11 17 6 11 15 6 14 16 7 16 15 10 19 18 15 24 23 19 28 27 23 32 31 26 35 34 28 37 36 43 52 51 43 52 51 43 52 51 43 52 51 43 52 51 43 52 51 43 52 51 43 52 51 45 51 51 43 49 49 41 47 47 38 44 44 34 40 40 31 37 37 29 35 35 27 33 33 7 13 13 7 13 13 7 13 13 7 13 13 7 13 13 7 13 13 7 13 13 7 13 13 0 4 3 0 6 5 0 8 7 2 11 10 6 15 14 9 18 17 11 20 19 13 22 21 24 33 32 24 33 32 24 33 32 24 33 32 24 33 32 24 33 32 24 33 32 24 33 32 39 43 42 39 43 42 39 43 42 39 43 42 39 43 42 39 43 42 39 43 42 39 43 42 39 43 42 39 43 42 39 43 42 39 43 42 39 43 42 39 43 42 39 43 42 41 43 42 32 31 29 34 30 29 34 30 29 34 30 29 34 30 29 34 30 29 34 30 29 34 30 29 33 29 28 33 29 28 33 29 28 33 29 28 33 29 28 33 29 28 33 29 28 33 29 28 37 32 29 37 32 29 37 32 29 37 32 29 37 32 29 37 32 29 37 32 29 37 32 29 38 33 30 38 33 30 38 33 30 38 33 30 38 33 30 38 33 30 38 33 30 38 33 30
2 1 7 2 1 7 2 1 7 2 1 7 1 0 6 1 0 6 1 0 6 1 0 6 1 0 6 1 0 6 1 0 6 1 0 6 1 0 6 1 0 6 1 0 6 1 0 6 1 0 6 1 0 6 1 0 6 1 0 6 2 1 7 2 1 7 2 1 7 2 1 7 2 1 7 2 1 7 2 1 7 2 1 7 4 3 8 4 3 8 4 3 8 4 3 8 4 3 8 4 3 8 4 3 8 4 3 8 2 1 6 2 1 6 2 1 6 2 1 6 2 1 6 2 1 6 2 1 6 2 1 6 3 2 8 3 2 8 3 2 8 3 2 8 3 2 8 3 2 8 3 2 8 3 2 8 5 4 10 5 4 10 5 4 10 5 4 10 5 4 10 5 4 10 5 4 10 4 5 10 5 8 15 4 9 15 4 9 15 4 9 15 4 9 15 4 9 15 4 9 15 4 9 15 6 11 17 6 11 17 6 11 17 6 11 17 6 11 17 6 11 17 6 11 17 6 11 15 4 12 14 7 16 15 11 20 19 17 26 25 23 32 31 29 38 37 33 42 41 35 44 43 46 55 54 46 55 54 46 55 54 46 55 54 46 55 54 46 55 54 46 55 54 46 55 54 45 51 51 43 49 49 41 47 47 38 44 44 34 40 40 31 37 37 29 35 35 27 33 33 7 13 13 7 13 13 7 13 13 7 13 13 7 13 13 7 13 13 7 13 13 7 13 13 0 4 3 0 6 5 0 8 7 2 11 10 6 15 14 9 18 17 11 20 19 13 22 21 24 33 32 24 33 32 24 33 32 24 33 32 24 33 32 24 33 32 24 33 32 24 33 32 39 43 42 39 43 42 39 43 42 39 43 42 39 43 42 39 43 42 39 43 42 39 43 42 36 40 39 36 40 39 36 40 39 36 40 39 36 40 39 36 40 39 36 40 39 38 40 39 32 31 29 34 30 29 34 30 29 34 30 29 34 30 29 34 30 29 34 30 29 34 30 29 33 29 28 33 29 28 33 29 28 33 29 28 33 29 28 33 29 28 33 29 28 33 29 28 37 32 29 37 32 29 37 32 29 37 32 29 37 32 29 37 32 29 37 32 29 37 32 29 38 33 30 38 33 30 38 33 30 38 33 30 38 33 30 38 33 30 38 33 30 38 33 30
2 1 7 2 1 7 2 1 7 2 1 7 1 0 6 1 0 6 1 0 6 1 0 6 1 0 6 1 0 6 1 0 6 1 0 6 1 0 6 1 0 6 1 0 6 1 0 6 1 0 6 1 0 6 1 0 6 1 0 6 2 1 7 2 1 7 2 1 7 2 1 7 2 1 7 2 1 7 2 1 7 2 1 7 4 3 8 4 3 8 4 3 8 4 3 8 4 3 8 4 3 8 4 3 8 4 3 8 2 1 6 2 1 6 2 1 6 2 1 6 2 1 6 2 1 6 2 1 6 2 1 6 3 2 8 3 2 8 3 2 8 3 2 8 3 2 8 3 2 8 3 2 8 3 2 8 5 4 10 5 4 10 5 4 10 5 4 10 5 4 10 5 4 10 5 4 10 4 5 10 5 8 15 4 9 15 4 9 15 4 9 15 4 9 15 4 9 15 4 9 15 4 9 15 6 11 17 6 11 17 6 11 17 6 11 17 6 11 17 6 11 17 6 11 17 6 11 15 3 11 13 6 15 14 12 21 20 19 28 27 26 35 34 33 42 41 38 47 46 41 50 49 48 57 56 48 57 56 48 57 56 48 57 56 48 57 56 48 57 56 48 57 56 48 57 56 45 51 51 43 49 49 41 47 47 38 44 44 34 40 40 31 37 37 29 35 35 27 33 33 7 13 13 7 13 13 7 13 13 7 13 13 7 13 13 7 13 13 7 13 13 7 13 13 0 4 3 0 6 5 0 8 7 2 11 10 6 15 14 9 18 17 11 20 19 13 22 21 24 33 32 24 33 32 24 33 32 24 33 32 24 33 32 24 33 32 24 33 32 24 33 32 39 43 42 39 43 42 39 43 42 39 43 42 39 43 42 39 43 42 39 43 42 39 43 42 34 38 37 34 38 37 34 38 37 34 38 37 34 38 37 34 38 37 34 38 37 36 38 37 32 31 29 34 30 29 34 30 29 34 30 29 34 30 29 34 30 29 34 30 29 34 30 29 33 29 28 33 29 28 33 29 28 33 29 28 33 29 28 33 29 28 33 29 28 33 29 28 37 32 29 37 32 29 37 32 29 37 32 29 37 32 29 37 32 29 37 32 29 37 32 29 38 33 30 38 33 30 38 33 30 38 33 30 38 33 30 38 33 30 38 33 30 38 33 30
2 1 7 2 1 7 2 1 7 2 1 7 1 0 6 1 0 6 1 0 6 1 0 6 1 0 6 1 0 6 1 0 6 1 0 6 1 0 6 1 0 6 1 0 6 1 0 6 1 0 6 1 0 6 1 0 6 1 0 6 2 1 7 2 1 7 2 1 7 2 1 7 2 1 7 2 1 7 2 1 7 2 1 7 4 3 8 4 3 8 4 3 8 4 3 8 4 3 8 4 3 8 4 3 8 4 3 8 2 1 6 2 1 6 2 1 6 2 1 6 2 1 6 2 1 6 2 1 6 2 1 6 3 2 8 3 2 8 3 2 8 3 2 8 3 2 8 3 2 8 3 2 8 3 2 8 5 4 10 5 4 10 5 4 10 5 4 10 5 4 10 5 4 10 5 4 10 4 5 10 5 8 15 4 9 15 4 9 15 4 9 15 4 9 15 4 9 15 4 9 15 4 9 15 6 11 17 6 11 17 6 11 17 6 11 17 6 11 17 6 11 17 6 11 17 6 11 15 3 11 13 6 15 14 12 21 20 20 29 28 28 37 36 35 44 43 41 50 49 44 53 52 50 59 58 50 59 58 50 59 58 50 59 58 50 59 58 50 59 58 50 59 58 50 59 58 45 51 51 43 49 49 41 47 47 38 44 44 34 40 40 31 37 37 29 35 35 27 33 33 7 13 13 7 13 13 7 13 13 7 13 13 7 13 13 7 13 13 7 13 13 7 13 13 0 4 3 0 6 5 0 8 7 2 11 10 6 15 14 9 18 17 11 20 19 13 22 21 24 33 32 24 33 32 24 33 32 24 33 32 24 33 32 24 33 32 24 33 32 24 33 32 39 43 42 39 43 42 39 43 42 39 43 42 39 43 42 39 43 42 39 43 42 39 43 42 32 36 35 32 36 35 32 36 35 32 36 35 32 36 35 32 36 35 32 36 35 34 36 35 32 31 29 34 30 29 34 30 29 34 30 29 34 30 29 34 30 29 34 30 29 34 30 29 33 29 28 33 29 28 33 29 28 33 29 28 33 29 28 33 29 28 33 29 28 33 29 28 37 32 29 37 32 29 37 32 29 37 32 29 37 32 29 37 32 29 37 32 29 37 32 29 38 33 30 38 33 30 38 33 30 38 33 30 38 33 30 38 33 30 38 33 30 38 33 30
0 0 5 0 0 5 0 0 5 0 0 5 2 1 7 2 1 7 2 1 7 2 1 7 2 1 7 2 1 7 2 1 7 2 1 7 2 1 7 2 1 7 2 1 7 2 1 7 2 1 7 2 1 7 2 1 7 2 1 7 3 2 8 3 2 8 3 2 8 3 2 8 3 2 8 3 2 8 3 2 8 3 2 8 4 3 8 4 3 8 4 3 8 4 3 8 4 3 8 4 3 8 4 3 8 4 3 8 1 0 5 1 0 5 1 0 5 1 0 5 1 0 5 1 0 5 1 0 5 1 0 5 3 2 8 3 2 8 3 2 8 3 2 8 3 2 8 3 2 8 3 2 8 3 2 8 5 4 10 5 4 10 5 4 10 5 4 10 5 4 10 5 4 10 5 4 10 4 5 10 6 9 16 5 10 16 5 10 16 5 10 16 5 10 16 5 10 16 5 10 16 5 10 16 3 8 14 3 8 14 2 7 13 1 6 12 0 4 10 0 3 9 0 2 8 0 2 6 33 41 43 34 43 42 37 46 45 40 49 48 43 52 51 47 56 55 49 58 57 50 59 58 65 74 73 65 74 73 65 74 73 65 74 73 65 74 73 65 74 73 65 74 73 65 74 73 67 73 73 65 71 71 60 66 66 53 59 59 47 53 53 40 46 46 35 41 41 33 39 39 9 15 15 9 15 15 9 15 15 9 15 15 9 15 15 9 15 15 9 15 15 9 15 15 9 18 17 9 18 17 9 18 17 9 18 17 9 18 17 9 18 17 9 18 17 9 18 17 22 31 30 22 31 30 22 31 30 22 31 30 22 31 30 22 31 30 22 31 30 22 31 30 28 32 31 28 32 31 28 32 31 28 32 31 28 32 31 28 32 31 28 32 31 28 32 31 26 30 29 26 30 29 26 30 29 26 30 29 26 30 29 26 30 29 26 30 29 28 30 29 29 28 26 31 27 26 31 27 26 31 27 26 31 27 26 31 27 26 31 27 26 31 27 26 33 29 28 33 29 28 33 29 28 33 29 28 33 29 28 33 29 28 33 29 28 33 29 28 35 30 27 35 30 27 35 30 27 35 30 27 35 30 27 35 30 27 35 30 27 35 30 27 36 31 28 36 31 28 36 31 28 36 31 28 36 31 28 36 31 28 36 31 28 36 31 28
0 0 5 0 0 5 0 0 5 0 0 5 2 1 7 2 1 7 2 1 7 2 1 7 2 1 7 2 1 7 2 1 7 2 1 7 2 1 7 2 1 7 2 1 7 2 1 7 2 1 7 2 1 7 2 1 7 2 1 7 3 2 8 3 2 8 3 2 8 3 2 8 3 2 8 3 2 8 3 2 8 3 2 8 4 3 8 4 3 8 4 3 8 4 3 8 4 3 8 4 3 8 4 3 8 4 3 8 1 0 5 1 0 5 1 0 5 1 0 5 1 0 5 1 0 5 1 0 5 1 0 5 3 2 8 3 2 8 3 2 8 3 2 8 3 2 8 3 2 8 3 2 8 3 2 8 5 4 10 5 4 10 5 4 10 5 4 10 5 4 10 5 4 10 5 4 10 4 5 10 6 9 16 5 10 16 5 10 16 5 10 16 5 10 16 5 10 16 5 10 16 5 10 16 5 10 16 5 10 16 5 10 16 4 9 15 4 9 15 3 8 14 3 8 14 2 7 11 36 44 46 37 46 45 39 48 47 43 52 51 46 55 54 49 58 57 52 61 60 53 62 61 67 76 75 67 76 75 67 76 75 67 76 75 67 76 75 67 76 75 67 76 75 67 76 75 67 73 73 65 71 71 60 66 66 53 59 59 47 53 53 40 46 46 35 41 41 33 39 39 9 15 15 9 15 15 9 15 15 9 15 15 9 15 15 9 15 15 9 15 15 9 15 15 9 18 17 9 18 17 9 18 17 9 18 17 9 18 17 9 18 17 9 18 17 9 18 17 22 31 30 22 31 30 22 31 30 22 31 30 22 31 30 22 31 30 22 31 30 22 31 30 28 32 31 28 32 31 28 32 31 28 32 31 28 32 31 28 32 31 28 32 31 28 32 31 26 30 29 26 30 29 26 30 29 26 30 29 26 30 29 26 30 29 26 30 29 28 30 29 29 28 26 31 27 26 31 27 26 31 27 26 31 27 26 31 27 26 31 27 26 31 27 26 33 29 28 33 29 28 33 29 28 33 29 28 33 29 28 33 29 28 33 29 28 33 29 28 35 30 27 35 30 27 35 30 27 35 30 27 35 30 27 35 30 27 35 30 27 35 30 27 36 31 28 36 31 28 36 31 28 36 31 28 36 31 28 36 31 28 36 31 28 36 31 28
0 0 5 0 0 5 0 0 5 0 0 5 2 1 7 2 1 7 2 1 7 2 1 7 2 1 7 2 1 7 2 1 7 2 1 7 2 1 7 2 1 7 2 1 7 2 1 7 2 1 7 2 1 7 2 1 7 2 1 7 3 2 8 3 2 8 3 2 8 3 2 8 3 2 8 3 2 8 3 2 8 3 2 8 4 3 8 4 3 8 4 3 8 4 3 8 4 3 8 4 3 8 4 3 8 4 3 8 1 0 5 1 0 5 1 0 5 1 0 5 1 0 5 1 0 5 1 0 5 1 0 5 3 2 8 3 2 8 3 2 8 3 2 8 3 2 8 3 2 8 3 2 8 3 2 8 5 4 10 5 4 10 5 4 10 5 4 10 5 4 10 5 4 10 5 4 10 4 5 10 6 9 16 5 10 16 5 10 16 5 10 16 5 10 16 5 10 16 5 10 16 5 10 16 9 14 20 10 15 21 10 15 21 11 16 22 12 17 23 12 17 23 13 18 24 13 18 22 41 49 51 42 51 50 44 53 52 47 56 55 51 60 59 54 63 62 57 66 65 58 67 66 69 78 77 69 78 77 69 78 77 69 78 77 69 78 77 69 78 77 69 78 77 69 78 77 67 73 73 65 71 71 60 66 66 53 59 59 47 53 53 40 46 46 35 41 41 33 39 39 9 15 15 9 15 15 9 15 15 9 15 15 9 15 15 9 15 15 9 15 15 9 15 15 9 18 17 9 18 17 9 18 17 9 18 17 9 18 17 9 18 17 9 18 17 9 18 17 22 31 30 22 31 30 22 31 30 22 31 30 22 31 30 22 31 30 22 31 30 22 31 30 28 32 31 28 32 31 28 32 31 28 32 31 28 32 31 28 32 31 28 32 31 28 32 31 26 30 29 26 30 29 26 30 29 26 30 29 26 30 29 26 30 29 26 30 29 28 30 29 29 28 26 31 27 26 31 27 26 31 27 26 31 27 26 31 27 26 31 27 26 31 27 26 33 29 28 33 29 28 33 29 28 33 29 28 33 29 28 33 29 28 33 29 28 33 29 28 35 30 27 35 30 27 35 30 27 35 30 27 35 30 27 35 30 27 35 30 27 35 30 27 36 31 28 36 31 28 36 31 28 36 31 28 36 31 28 36 31 28 36 31 28 36 31 28
0 0 5 0 0 5 0 0 5 0 0 5 2 1 7 2 1 7 2 1 7 2 1 7 2 1 7 2 1 7 2 1 7 2 1 7 2 1 7 2 1 7 2 1 7 2 1 7 2 1 7 2 1 7 2 1 7 2 1 7 3 2 8 3 2 8 3 2 8 3 2 8 3 2 8 3 2 8 3 2 8 3 2 8 4 3 8 4 3 8 4 3 8 4 3 8 4 3 8 4 3 8 4 3 8 4 3 8 1 0 5 1 0 5 1 0 5 1 0 5 1 0 5 1 0 5 1 0 5 1 0 5 3 2 8 3 2 8 3 2 8 3 2 8 3 2 8 3 2 8 3 2 8 3 2 8 5 4 10 5 4 10 5 4 10 5 4 10 5 4 10 5 4 10 5 4 10 4 5 10 6 9 16 5 10 16 5 10 16 5 10 16 5 10 16 5 10 16 5 10 16 5 10 16 15 20 26 15 20 26 17 22 28 20 25 31 22 27 33 24 29 35 26 31 37 27 32 36 47 55 57 48 57 56 51 60 59 54 63 62 57 66 65 60 69 68 63 72 71 64 73 72 72 81 80 72 81 80 72 81 80 72 81 80 72 81 80 72 81 80 72 81 80 72 81 80 67 73 73 65 71 71 60 66 66 53 59 59 47 53 53 40 46 46 35 41 41 33 39 39 9 15 15 9 15 15 9 15 15 9 15 15 9 15 15 9 15 15 9 15 15 9 15 15 9 18 17 9 18 17 9 18 17 9 18 17 9 18 17 9 18 17 9 18 17 9 18 17 22 31 30 22 31 30 22 31 30 22 31 30 22 31 30 22 31 30 22 31 30 22 31 30 28 32 31 28 32 31 28 32 31 28 32 31 28 32 31 28 32 31 28 32 31 28 32 31 26 30 29 26 30 29 26 30 29 26 30 29 26 30 29 26 30 29 26 30 29 28 30 29 29 28 26 31 27 26 31 27 26 31 27 26 31 27 26 31 27 26 31 27 26 31 27 26 33 29 28 33 29 28 33 29 28 33 29 28 33 29 28 33 29 28 33 29 28 33 29 28 35 30 27 35 30 27 35 30 27 35 30 27 35 30 27 35 30 27 35 30 27 35 30 27 36 31 28 36 31 28 36 31 28 36 31 28 36 31 28 36 31 28 36 31 28 36 31 28
0 0 5 0 0 5 0 0 5 0 0 5 2 1 7 2 1 7 2 1 7 2 1 7 2 1 7 2 1 7 2 1 7 2 1 7 2 1 7 2 1 7 2 1 7 2 1 7 2 1 7 2 1 7 2 1 7 2 1 7 3 2 8 3 2 8 3 2 8 3 2 8 3 2 8 3 2 8 3 2 8 3 2 8 4 3 8 4 3 8 4 3 8 4 3 8 4 3 8 4 3 8 4 3 8 4 3 8 1 0 5 1 0 5 1 0 5 1 0 5 1 0 5 1 0 5 1 0 5 1 0 5 3 2 8 3 2 8 3 2 8 3 2 8 3 2 8 3 2 8 3 2 8 3 2 8 5 4 10 5 4 10 5 4 10 5 4 10 5 4 10 5 4 10 5 4 10 4 5 10 6 9 16 5 10 16 5 10 16 5 10 16 5 10 16 5 10 16 5 10 16 5 10 16 20 25 31 22 27 33 25 30 36 29 34 40 33 38 44 37 42 48 41 46 52 42 47 51 54 62 64 55 64 63 58 67 66 61 70 69 64 73 72 67 76 75 70 79 78 71 80 79 76 85 84 76 85 84 76 85 84 76 85 84 76 85 84 76 85 84 76 85 84 76 85 84 67 73 73 65 71 71 60 66 66 53 59 59 47 53 53 40 46 46 35 41 41 33 39 39 9 15 15 9 15 15 9 15 15 9 15 15 9 15 15 9 15 15 9 15 15 9 15 15 9 18 17 9 18 17 9 18 17 9 18 17 9 18 17 9 18 17 9 18 17 9 18 17 22 31 30 22 31 30 22 31 30 22 31 30 22 31 30 22 31 30 22 31 30 22 31 30 28 32 31 28 32 31 28 32 31 28 32 31 28 32 31 28 32 31 28 32 31 28 32 31 26 30 29 26 30 29 26 30 29 26 30 29 26 30 29 26 30 29 26 30 29 28 30 29 29 28 26 31 27 26 31 27 26 31 27 26 31 27 26 31 27 26 31 27 26 31 27 26 33 29 28 33 29 28 33 29 28 33 29 28 33 29 28 33 29 28 33 29 28 33 29 28 35 30 27 35 30 27 35 30 27 35 30 27 35 30 27 35 30 27 35 30 27 35 30 27 36 31 28 36 31 28 36 31 28 36 31 28 36 31 28 36 31 28 36 31 28 36 31 28
0 0 5 0 0 5 0 0 5 0 0 5 2 1 7 2 1 7 2 1 7 2 1 7 2 1 7 2 1 7 2 1 7 2 1 7 2 1 7 2 1 7 2 1 7 2 1 7 2 1 7 2 1 7 2 1 7 2 1 7 3 2 8 3 2 8 3 2 8 3 2 8 3 2 8 3 2 8 3 2 8 3 2 8 4 3 8 4 3 8 4 3 8 4 3 8 4 3 8 4 3 8 4 3 8 4 3 8 1 0 5 1 0 5 1 0 5 1 0 5 1 0 5 1 0 5 1 0 5 1 0 5 3 2 8 3 2 8 3 2 8 3 2 8 3 2 8 3 2 8 3 2 8 3 2 8 5 4 10 5 4 10 5 4 10 5 4 10 5 4 10 5 4 10 5 4 10 4 5 10 6 9 16 5 10 16 5 10 16 5 10 16 5 10 16 5 10 16 5 10 16 5 10 16 25 30 36 28 33 39 32 37 43 38 43 49 44 49 55 49 54 60 54 59 65 56 61 65 60 68 70 61 70 69 64 73 72 67 76 75 71 80 79 74 83 82 76 85 84 77 86 85 79 88 87 79 88 87 79 88 87 79 88 87 79 88 87 79 88 87 79 88 87 79 88 87 67 73 73 65 71 71 60 66 66 53 59 59 47 53 53 40 46 46 35 41 41 33 39 39 9 15 15 9 15 15 9 15 15 9 15 15 9 15 15 9 15 15 9 15 15 9 15 15 9 18 17 9 18 17 9 18 17 9 18 17 9 18 17 9 18 17 9 18 17 9 18 17 22 31 30 22 31 30 22 31 30 22 31 30 22 31 30 22 31 30 22 31 30 22 31 30 28 32 31 28 32 31 28 32 31 28 32 31 28 32 31 28 32 31 28 32 31 28 32 31 26 30 29 26 30 29 26 30 29 26 30 29 26 30 29 26 30 29 26 30 29 28 30 29 29 28 26 31 27 26 31 27 26 31 27 26 31 27 26 31 27 26 31 27 26 31 27 26 33 29 28 33 29 28 33 29 28 33 29 28 33 29 28 33 29 28 33 29 28 33 29 28 35 30 27 35 30 27 35 30 27 35 30 27 35 30 27 35 30 27 35 30 27 35 30 27 36 31 28 36 31 28 36 31 28 36 31 28 36 31 28 36 31 28 36 31 28 36 31 28
0 0 5 0 0 5 0 0 5 0 0 5 2 1 7 2 1 7 2 1 7 2 1 7 2 1 7 2 1 7 2 1 7 2 1 7 2 1 7 2 1 7 2 1 7 2 1 7 2 1 7 2 1 7 2 1 7 2 1 7 3 2 8 3 2 8 3 2 8 3 2 8 3 2 8 3 2 8 3 2 8 3 2 8 4 3 8 4 3 8 4 3 8 4 3 8 4 3 8 4 3 8 4 3 8 4 3 8 1 0 5 1 0 5 1 0 5 1 0 5 1 0 5 1 0 5 1 0 5 1 0 5 3 2 8 3 2 8 3 2 8 3 2 8 3 2 8 3 2 8 3 2 8 3 2 8 5 4 10 5 4 10 5 4 10 5 4 10 5 4 10 5 4 10 5 4 10 4 5 10 6 9 16 5 10 16 5 10 16 5 10 16 5 10 16 5 10 16 5 10 16 5 10 16 29 34 40 32 37 43 37 42 48 44 49 55 52 57 63 59 64 70 64 69 75 67 72 76 65 73 75 66 75 74 69 78 77 72 81 80 75 84 83 79 88 87 81 90 89 82 91 90 81 90 89 81 90 89 81 90 89 81 90 89 81 90 89 81 90 89 81 90 89 81 90 89 67 73 73 65 71 71 60 66 66 53 59 59 47 53 53 40 46 46 35 41 41 33 39 39 9 15 15 9 15 15 9 15 15 9 15 15 9 15 15 9 15 15 9 15 15 9 15 15 9 18 17 9 18 17 9 18 17 9 18 17 9 18 17 9 18 17 9 18 17 9 18 17 22 31 30 22 31 30 22 31 30 22 31 30 22 31 30 22 31 30 22 31 30 22 31 30 28 32 31 28 32 31 28 32 31 28 32 31 28 32 31 28 32 31 28 32 31 28 32 31 26 30 29 26 30 29 26 30 29 26 30 29 26 30 29 26 30 29 26 30 29 28 30 29 29 28 26 31 27 26 31 27 26 31 27 26 31 27 26 31 27 26 31 27 26 31 27 26 33 29 28 33 29 28 33 29 28 33 29 28 33 29 28 33 29 28 33 29 28 33 29 28 35 30 27 35 30 27 35 30 27 35 30 27 35 30 27 35 30 27 35 30 27 35 30 27 36 31 28 36 31 28 36 31 28 36 31 28 36 31 28 36 31 28 36 31 28 36 31 28
0 0 5 0 0 4 0 0 5 0 0 4 2 1 7 2 1 6 2 1 7 2 1 6 2 1 7 2 1 6 2 1 7 2 1 6 2 1 7 2 1 6 2 1 7 2 1 6 2 1 7 2 1 6 2 1 7 2 1 6 3 2 8 3 2 7 3 2 8 3 2 7 3 2 8 3 2 7 3 2 8 3 2 7 4 3 8 3 4 8 4 3 8 3 4 8 4 3 8 3 4 8 4 3 8 3 4 8 1 0 5 0 1 5 1 0 5 0 1 5 1 0 5 0 1 5 1 0 5 0 1 5 2 3 8 2 3 8 2 3 8 2 3 8 2 3 8 2 3 8 2 3 8 2 3 8 4 5 10 4 5 10 4 5 10 4 5 10 4 5 10 4 5 10 4 5 10 4 5 10 5 10 14 5 10 14 5 10 16 5 10 14 5 10 16 5 10 14 5 10 16 5 10 14 31 36 42 34 39 43 40 45 51 48 53 57 56 61 67 64 69 73 70 75 81 73 78 82 68 76 78 69 78 77 71 80 79 75 84 83 78 87 86 81 90 89 84 93 92 85 94 93 83 92 91 83 92 91 83 92 91 83 92 91 83 92 91 83 92 91 83 92 91 83 92 91 67 73 73 65 71 71 60 66 66 53 59 59 47 53 53 40 46 46 35 41 41 33 39 39 9 15 15 9 15 15 9 15 15 9 15 15 9 15 15 9 15 15 9 15 15 7 16 15 9 18 17 9 18 17 9 18 17 9 18 17 9 18 17 9 18 17 9 18 17 9 18 17 22 31 30 22 31 30 22 31 30 22 31 30 22 31 30 22 31 30 22 31 30 22 31 30 27 33 33 28 32 31 28 32 33 28 32 31 28 32 33 28 32 31 28 32 33 28 32 31 26 30 31 26 30 29 26 30 31 26 30 29 26 30 31 26 30 29 26 30 31 28 30 29 29 28 26 31 27 26 31 27 26 31 27 26 31 27 26 31 27 26 31 27 26 31 27 26 33 29 28 33 29 28 33 29 28 33 29 28 33 29 28 33 29 28 33 29 28 34 29 26 35 30 27 35 30 27 37 29 27 35 30 27 37 29 27 35 30 27 37 29 27 35 30 27 38 30 28 36 31 28 38 30 28 36 31 28 38 30 28 36 31 28 38 30 28 36 31 28
0 0 4 0 0 2 0 0 4 0 0 2 0 0 4 0 0 2 0 0 4 0 0 2 0 0 4 0 0 2 0 0 4 0 0 2 1 0 5 1 1 3 1 0 5 1 1 3 1 0 5 1 1 3 1 0 5 1 1 3 0 0 4 0 0 2 0 0 4 0 0 2 0 0 4 0 0 2 0 0 4 0 0 4 1 2 6 0 2 7 1 2 7 0 2 7 1 2 7 0 2 7 1 2 7 0 2 7 3 4 9 1 4 9 3 4 9 1 4 9 3 4 9 1 4 9 3 4 9 1 4 9 0 1 4 0 1 4 0 1 4 0 1 4 0 1 4 0 1 4 0 1 4 0 1 4 3 7 10 4 8 11 6 10 13 10 14 17 13 17 20 16 20 23 19 23 26 19 24 27 11 16 19 11 19 21 13 21 24 16 24 26 20 28 31 23 31 33 25 33 36 27 35 37 54 62 65 55 63 65 57 65 68 61 69 71 64 72 75 67 75 77 70 78 81 71 79 81 87 93 93 87 93 93 87 93 93 87 93 93 87 93 93 87 93 93 87 93 93 87 93 93 92 98 98 91 97 97 88 94 94 85 91 91 82 88 88 78 84 84 76 82 82 75 81 81 71 79 81 69 77 79 64 72 74 57 65 67 51 59 61 44 52 54 39 47 49 37 45 47 9 17 19 9 17 19 9 17 19 9 17 19 9 17 19 9 17 19 9 17 19 9 17 19 14 22 24 13 23 24 13 23 24 13 23 24 13 23 24 13 23 24 13 23 24 13 23 24 12 22 23 12 22 23 12 22 23 12 22 23 12 22 23 12 22 23 12 22 23 13 21 23 26 31 34 26 32 32 26 31 34 26 32 32 26 31 34 26 32 32 26 31 34 26 32 32 17 22 25 17 23 23 17 22 25 17 23 23 17 22 25 17 23 23 17 22 25 20 21 23 29 28 26 32 27 24 32 27 24 32 27 24 32 27 24 32 27 24 32 27 24 32 27 24 34 29 26 34 29 26 34 29 26 34 29 26 34 29 26 34 29 26 34 29 26 34 29 26 37 29 27 37 29 26 38 28 26 37 29 26 38 28 26 37 29 26 38 28 26 37 29 26 38 28 26 37 29 26 38 28 26 37 29 26 38 28 26 37 29 26 38 28 26 37 29 26
0 0 2 0 0 2 0 0 2 0 0 2 0 0 2 0 0 2 0 0 2 0 0 2 0 0 2 0 0 2 0 0 2 0 0 2 1 1 3 1 1 3 1 1 3 1 1 3 1 1 3 1 1 3 1 1 3 1 1 3 0 0 2 0 0 2 0 0 2 0 0 2 0 0 2 0 0 2 0 0 2 0 0 2 1 2 7 0 2 7 0 2 7 0 2 7 0 2 7 0 2 7 0 2 7 0 2 7 1 4 9 1 4 9 1 4 9 1 4 9 1 4 9 1 4 9 1 4 9 1 4 9 0 1 4 0 1 4 0 1 4 0 1 4 0 1 4 0 1 4 0 1 4 0 1 4 0 4 7 0 5 8 2 7 10 6 11 14 9 14 17 12 17 20 15 20 23 16 21 24 13 21 23 15 23 25 17 25 27 20 28 30 24 32 34 27 35 37 29 37 39 31 39 41 55 63 65 56 64 66 59 67 69 62 70 72 65 73 75 69 77 79 71 79 81 72 80 82 87 93 93 87 93 93 87 93 93 87 93 93 87 93 93 87 93 93 87 93 93 87 93 93 93 99 99 92 98 98 90 96 96 86 92 92 83 89 89 80 86 86 77 83 83 76 82 82 71 79 81 69 77 79 64 72 74 57 65 67 51 59 61 44 52 54 39 47 49 37 45 47 9 17 19 9 17 19 9 17 19 9 17 19 9 17 19 9 17 19 9 17 19 9 17 19 13 23 24 13 23 24 13 23 24 13 23 24 13 23 24 13 23 24 13 23 24 13 23 24 12 22 23 12 22 23 12 22 23 12 22 23 12 22 23 12 22 23 12 22 23 12 22 23 24 29 32 24 29 32 24 29 32 24 29 32 24 29 32 24 29 32 24 29 32 24 29 32 17 22 25 17 22 25 17 22 25 17 22 25 17 22 25 17 22 25 17 22 25 18 22 23 31 27 26 32 27 24 32 27 24 32 27 24 32 27 24 32 27 24 32 27 24 32 27 24 34 29 26 34 29 26 34 29 26 34 29 26 34 29 26 34 29 26 34 29 26 34 29 26 38 28 26 38 28 26 38 28 26 38 28 26 38 28 26 38 28 26 38 28 26 38 28 26 38 28 26 38 28 26 38 28 26 38 28 26 38 28 26 38 28 26 38 28 26 37 29 26
0 0 2 0 0 2 0 0 2 0 0 2 0 0 2 0 0 2 0 0 2 0 0 2 0 0 2 0 0 2 0 0 2 0 0 2 1 1 3 1 1 3 1 1 3 1 1 3 1 1 3 1 1 3 1 1 3 1 1 3 0 0 2 0 0 2 0 0 2 0 0 2 0 0 2 0 0 2 0 0 2 0 0 2 1 2 7 0 2 7 0 2 7 0 2 7 0 2 7 0 2 7 0 2 7 0 2 7 1 4 9 1 4 9 1 4 9 1 4 9 1 4 9 1 4 9 1 4 9 1 4 9 0 3 6 0 3 6 0 3 6 0 3 6 0 3 6 0 3 6 0 3 6 0 3 6 0 1 4 0 2 5 0 4 7 2 7 10 6 11 14 9 14 17 12 17 20 13 18 21 21 29 31 22 30 32 24 32 34 28 36 38 31 39 41 34 42 44 37 45 47 38 46 48 57 65 67 59 67 69 61 69 71 64 72 74 68 76 78 71 79 81 73 81 83 75 83 85 87 93 93 87 93 93 87 93 93 87 93 93 87 93 93 87 93 93 87 93 93 87 93 93 96 102 102 94 100 100 92 98 98 89 95 95 85 91 91 82 88 88 80 86 86 78 84 84 71 79 81 69 77 79 64 72 74 57 65 67 51 59 61 44 52 54 39 47 49 37 45 47 9 17 19 9 17 19 9 17 19 9 17 19 9 17 19 9 17 19 9 17 19 9 17 19 13 23 24 13 23 24 13 23 24 13 23 24 13 23 24 13 23 24 13 23 24 13 23 24 12 22 23 12 22 23 12 22 23 12 22 23 12 22 23 12 22 23 12 22 23 12 22 23 22 27 30 22 27 30 22 27 30 22 27 30 22 27 30 22 27 30 22 27 30 22 27 30 17 22 25 17 22 25 17 22 25 17 22 25 17 22 25 17 22 25 17 22 25 18 22 23 31 27 26 32 27 24 32 27 24 32 27 24 32 27 24 32 27 24 32 27 24 32 27 24 34 29 26 34 29 26 34 29 26 34 29 26 34 29 26 34 29 26 34 29 26 34 29 26 38 28 26 38 28 26 38 28 26 38 28 26 38 28 26 38 28 26 38 28 26 38 28 26 38 28 26 38 28 26 38 28 26 38 28 26 38 28 26 38 28 26 38 28 26 37 29 26
