P3
207 145
255
82 63 67 79 60 64 75 56 60 73 54 58 72 53 57 61 38 48 61 38 48 61 38 48 61 38 48 61 38 48 61 38 48 61 38 48 61 38 48 77 54 64 77 54 64 77 54 64 77 54 64 77 54 64 77 54 64 77 54 64 76 55 64 56 39 49 55 39 49 55 39 49 55 39 49 55 39 49 55 39 49 55 39 49 55 39 49 54 38 48 54 38 48 54 38 48 54 38 48 54 38 48 54 38 48 54 38 48 51 40 48 62 54 65 61 58 67 63 60 69 66 63 72 70 67 76 73 70 79 75 72 81 77 74 83 62 59 68 59 56 65 54 51 60 48 45 54 41 38 47 35 32 41 30 27 36 27 24 35 34 30 44 34 30 45 34 30 45 34 30 45 34 30 45 34 30 45 34 30 45 34 30 45 32 28 43 34 30 45 36 32 47 39 35 50 43 39 54 46 42 57 48 44 59 53 45 58 61 44 54 64 43 50 64 43 50 64 43 50 64 43 50 64 43 50 64 43 50 64 43 50 59 38 45 61 40 47 63 42 49 66 45 52 70 49 56 73 52 59 75 54 61 76 56 65 82 69 79 81 69 81 81 69 81 81 69 81 81 69 81 81 69 81 81 69 81 81 69 81 70 58 70 68 56 68 66 54 66 63 51 63 59 47 59 56 44 56 54 42 54 49 41 52 50 47 56 48 48 56 50 47 56 50 47 56 53 45 56 55 45 56 56 44 56 59 43 56 68 47 62 70 46 62 72 45 62 73 44 62 76 43 62 76 43 62 79 41 62 76 43 62 73 50 68 70 52 68 70 52 68 70 52 68 70 52 68 70 52 68 70 52 68 70 52 68 91 73 89 92 74 90 95 77 93 98 80 96 101 83 99 105 87 103 107 89 105 105 91 108 94 87 103 91 88 105 91 88 105 91 88 105 91 88 105 91 88 105 91 88 105 91 88 105 99 96 113 99 96 113 99 96 113 99 96 113 99 96 113 99 96 113 99 96 113 100 96 110 106 96 105 107 96 102 107 96 102 107 96 102 107 96 102 107 96 102 107 96 102 107 96 102 93 82 88 94 83 89 98 87 93 102 91 97 107 96 102 111 100 106 115 104 110 118 105 112 116 95 104 117 94 104 117 94 104 117 94 104 117 94 104 117 94 104 117 94 104 117 94 104 97 74 84 97 74 84 97 74 84 97 74 84 97 74 84 97 74 84 97 74 84 99 73 84 114 84 96 115 83 96 115 83 96 115 83 96 115 83 96 115 83 96 115 83 96 115 83 96 107 75 88 107 75 88 107 75 88 107 75 88 107 75 88 107 75 88 107 75 88 110 74 88 97 48 69 99 47 69 99 47 69 96 49 69 96 49 69 93 50 69 92 51 69 89 52 69 71 39 54 66 38 52
72 53 57 68 49 53 65 46 50 63 44 48 61 42 46 64 41 51 64 41 51 64 41 51 64 41 51 64 41 51 64 41 51 64 41 51 64 41 51 70 47 57 70 47 57 70 47 57 70 47 57 70 47 57 70 47 57 70 47 57 69 48 57 50 33 43 49 33 43 49 33 43 49 33 43 49 33 43 49 33 43 49 33 43 49 33 43 46 30 40 46 30 40 46 30 40 46 30 40 46 30 40 46 30 40 46 30 40 43 32 40 39 31 42 36 33 42 36 33 42 36 33 42 36 33 42 36 33 42 36 33 42 36 33 42 33 30 39 33 30 39 33 30 39 33 30 39 33 30 39 33 30 39 33 30 39 33 30 41 30 26 40 30 26 41 30 26 41 30 26 41 30 26 41 30 26 41 30 26 41 30 26 41 40 36 51 40 36 51 40 36 51 40 36 51 40 36 51 40 36 51 40 36 51 43 35 48 67 50 60 70 49 56 69 48 55 68 47 54 66 45 52 65 44 51 64 43 50 64 43 50 62 41 48 64 43 50 67 46 53 72 51 58 76 55 62 81 60 67 84 63 70 85 65 74 77 64 74 76 64 76 76 64 76 76 64 76 76 64 76 76 64 76 76 64 76 76 64 76 50 38 50 50 38 50 50 38 50 50 38 50 50 38 50 50 38 50 50 38 50 47 39 50 44 41 50 42 42 50 44 41 50 44 41 50 47 39 50 49 39 50 50 38 50 53 37 50 54 33 48 57 33 49 61 34 51 66 37 55 72 39 58 75 42 61 81 43 64 78 47 65 72 51 68 70 56 71 76 62 77 83 69 84 91 77 92 99 85 100 105 91 106 108 94 109 100 86 101 100 86 101 100 86 101 100 86 101 100 86 101 100 86 101 100 86 101 98 87 103 94 87 103 91 88 105 91 88 105 91 88 105 91 88 105 91 88 105 91 88 105 91 88 105 97 94 111 97 94 111 97 94 111 97 94 111 97 94 111 97 94 111 97 94 111 98 94 108 106 96 105 107 96 102 107 96 102 107 96 102 107 96 102 107 96 102 107 96 102 107 96 102 93 82 88 93 82 88 93 82 88 93 82 88 93 82 88 93 82 88 93 82 88 94 81 88 125 104 113 124 101 111 120 97 107 116 93 103 111 88 98 107 84 94 103 80 90 102 79 89 97 74 84 96 73 83 93 70 80 90 67 77 87 64 74 83 60 70 81 58 68 82 56 67 90 60 72 93 61 74 95 63 76 98 66 79 102 70 83 105 73 86 107 75 88 109 77 90 114 82 95 112 80 93 110 78 91 107 75 88 103 71 84 100 68 81 98 66 79 99 63 77 106 57 78 106 54 76 104 52 74 98 51 71 94 47 67 88 45 64 85 44 62 80 43 60 61 29 44 58 30 44
72 53 57 68 49 53 65 46 50 63 44 48 61 42 46 64 41 51 64 41 51 64 41 51 64 41 51 64 41 51 64 41 51 64 41 51 64 41 51 70 47 57 70 47 57 70 47 57 70 47 57 70 47 57 70 47 57 70 47 57 69 48 57 50 33 43 49 33 43 49 33 43 49 33 43 49 33 43 49 33 43 49 33 43 49 33 43 46 30 40 46 30 40 46 30 40 46 30 40 46 30 40 46 30 40 46 30 40 43 32 40 39 31 42 36 33 42 36 33 42 36 33 42 36 33 42 36 33 42 36 33 42 36 33 42 33 30 39 33 30 39 33 30 39 33 30 39 33 30 39 33 30 39 33 30 39 33 30 41 32 28 42 32 28 43 32 28 43 32 28 43 32 28 43 32 28 43 32 28 43 32 28 43 40 36 51 40 36 51 40 36 51 40 36 51 40 36 51 40 36 51 40 36 51 43 35 48 66 49 59 68 47 54 68 47 54 67 46 53 67 46 53 66 45 52 66 45 52 65 44 51 64 43 50 65 44 51 68 47 54 72 51 58 76 55 62 80 59 66 83 62 69 83 63 72 75 62 72 74 62 74 74 62 74 74 62 74 74 62 74 74 62 74 74 62 74 74 62 74 50 38 50 50 38 50 50 38 50 50 38 50 50 38 50 50 38 50 50 38 50 47 39 50 44 41 50 42 42 50 44 41 50 44 41 50 47 39 50 49 39 50 50 38 50 53 37 50 55 34 49 58 34 50 63 36 53 67 38 56 73 40 59 77 44 63 82 44 65 79 48 66 72 55 71 71 60 74 76 65 79 83 72 86 90 79 93 97 86 100 103 92 106 106 95 109 98 87 101 98 87 101 98 87 101 98 87 101 98 87 101 98 87 101 98 87 101 96 88 103 92 88 103 91 88 105 91 88 105 91 88 105 91 88 105 91 88 105 91 88 105 91 88 105 97 94 111 97 94 111 97 94 111 97 94 111 97 94 111 97 94 111 97 94 111 98 94 108 106 96 105 107 96 102 107 96 102 107 96 102 107 96 102 107 96 102 107 96 102 107 96 102 91 80 86 91 80 86 91 80 86 91 80 86 91 80 86 91 80 86 91 80 86 92 79 86 122 101 110 121 98 108 118 95 105 114 91 101 110 87 97 107 84 94 104 81 91 102 79 89 98 75 85 97 74 84 95 72 82 91 68 78 88 65 75 85 62 72 82 59 69 83 57 68 90 60 72 93 61 74 95 63 76 98 66 79 102 70 83 105 73 86 107 75 88 109 77 90 114 82 95 112 80 93 110 78 91 107 75 88 103 71 84 100 68 81 98 66 79 99 63 77 106 57 78 106 54 76 104 52 74 98 51 71 94 47 67 88 45 64 85 44 62 80 43 60 61 29 44 58 30 44
72 53 57 68 49 53 65 46 50 63 44 48 61 42 46 64 41 51 64 41 51 64 41 51 64 41 51 64 41 51 64 41 51 64 41 51 64 41 51 70 47 57 70 47 57 70 47 57 70 47 57 70 47 57 70 47 57 70 47 57 69 48 57 50 33 43 49 33 43 49 33 43 49 33 43 49 33 43 49 33 43 49 33 43 49 33 43 46 30 40 46 30 40 46 30 40 46 30 40 46 30 40 46 30 40 46 30 40 43 32 40 39 31 42 36 33 42 36 33 42 36 33 42 36 33 42 36 33 42 36 33 42 36 33 42 33 30 39 33 30 39 33 30 39 33 30 39 33 30 39 33 30 39 33 30 39 33 30 41 34 30 44 34 30 45 34 30 45 34 30 45 34 30 45 34 30 45 34 30 45 34 30 45 40 36 51 40 36 51 40 36 51 40 36 51 40 36 51 40 36 51 40 36 51 43 35 48 62 45 55 65 44 51 66 45 52 67 46 53 67 46 53 68 47 54 69 48 55 69 48 55 67 46 53 68 47 54 70 49 56 73 52 59 75 54 61 78 57 64 80 59 66 80 60 69 70 57 67 69 57 69 69 57 69 69 57 69 69 57 69 69 57 69 69 57 69 69 57 69 50 38 50 50 38 50 50 38 50 50 38 50 50 38 50 50 38 50 50 38 50 47 39 50 44 41 50 42 42 50 44 41 50 44 41 50 47 39 50 49 39 50 50 38 50 53 37 50 57 36 51 61 37 53 65 38 55 69 40 58 76 43 62 79 46 65 84 46 67 80 51 69 76 62 77 74 66 79 78 70 83 84 76 89 90 82 95 96 88 101 100 92 105 103 95 108 96 88 101 96 88 101 96 88 101 96 88 101 96 88 101 96 88 101 96 88 101 95 89 103 92 88 103 91 88 105 91 88 105 91 88 105 91 88 105 91 88 105 91 88 105 91 88 105 97 94 111 97 94 111 97 94 111 97 94 111 97 94 111 97 94 111 97 94 111 98 94 108 106 96 105 107 96 102 107 96 102 107 96 102 107 96 102 107 96 102 107 96 102 107 96 102 89 78 84 89 78 84 89 78 84 89 78 84 89 78 84 89 78 84 89 78 84 90 77 84 116 95 104 116 93 103 114 91 101 111 88 98 109 86 96 106 83 93 104 81 91 103 80 90 101 78 88 99 76 86 97 74 84 94 71 81 90 67 77 87 64 74 85 62 72 85 59 70 90 60 72 93 61 74 95 63 76 98 66 79 102 70 83 105 73 86 107 75 88 109 77 90 114 82 95 112 80 93 110 78 91 107 75 88 103 71 84 100 68 81 98 66 79 99 63 77 106 57 78 106 54 76 104 52 74 98 51 71 94 47 67 88 45 64 85 44 62 80 43 60 61 29 44 58 30 44
72 53 57 68 49 53 65 46 50 63 44 48 61 42 46 64 41 51 64 41 51 64 41 51 64 41 51 64 41 51 64 41 51 64 41 51 64 41 51 70 47 57 70 47 57 70 47 57 70 47 57 70 47 57 70 47 57 70 47 57 69 48 57 50 33 43 49 33 43 49 33 43 49 33 43 49 33 43 49 33 43 49 33 43 49 33 43 46 30 40 46 30 40 46 30 40 46 30 40 46 30 40 46 30 40 46 30 40 43 32 40 39 31 42 36 33 42 36 33 42 36 33 42 36 33 42 36 33 42 36 33 42 36 33 42 33 30 39 33 30 39 33 30 39 33 30 39 33 30 39 33 30 39 33 30 39 33 30 41 37 33 47 37 33 48 37 33 48 37 33 48 37 33 48 37 33 48 37 33 48 37 33 48 40 36 51 40 36 51 40 36 51 40 36 51 40 36 51 40 36 51 40 36 51 43 35 48 58 41 51 62 41 48 63 42 49 66 45 52 68 47 54 71 50 57 72 51 58 73 52 59 72 51 58 72 51 58 73 52 59 74 53 60 74 53 60 75 54 61 76 55 62 75 55 64 63 50 60 62 50 62 62 50 62 62 50 62 62 50 62 62 50 62 62 50 62 62 50 62 50 38 50 50 38 50 50 38 50 50 38 50 50 38 50 50 38 50 50 38 50 47 39 50 44 41 50 42 42 50 44 41 50 44 41 50 47 39 50 49 39 50 50 38 50 53 37 50 61 40 55 64 40 56 68 41 58 73 44 62 79 46 65 82 49 68 88 50 71 83 54 72 82 70 84 78 75 86 83 77 89 85 82 93 91 85 97 94 91 102 99 93 105 98 95 106 95 89 101 93 90 101 95 89 101 93 90 101 95 89 101 93 90 101 95 89 101 93 89 103 91 89 103 91 88 105 91 88 105 91 88 105 91 88 105 91 88 105 91 88 105 91 88 105 97 94 111 97 94 111 97 94 111 97 94 111 97 94 111 97 94 111 97 94 111 98 94 108 106 96 105 107 96 102 107 96 102 107 96 102 107 96 102 107 96 102 107 96 102 107 96 102 86 75 81 86 75 81 86 75 81 86 75 81 86 75 81 86 75 81 86 75 81 87 74 81 108 87 96 109 86 96 108 85 95 107 84 94 106 83 93 105 82 92 105 82 92 104 81 91 104 81 91 103 80 90 100 77 87 97 74 84 94 71 81 90 67 77 88 65 75 89 63 74 90 60 72 93 61 74 95 63 76 98 66 79 102 70 83 105 73 86 107 75 88 109 77 90 114 82 95 112 80 93 110 78 91 107 75 88 103 71 84 100 68 81 98 66 79 99 63 77 106 57 78 106 54 76 104 52 74 98 51 71 94 47 67 88 45 64 85 44 62 80 43 60 61 29 44 58 30 44
72 53 57 68 49 53 65 46 50 63 44 48 61 42 46 64 41 51 64 41 51 64 41 51 64 41 51 64 41 51 64 41 51 64 41 51 64 41 51 70 47 57 70 47 57 70 47 57 70 47 57 70 47 57 70 47 57 70 47 57 69 48 57 50 33 43 49 33 43 49 33 43 49 33 43 49 33 43 49 33 43 49 33 43 49 33 43 46 30 40 46 30 40 46 30 40 46 30 40 46 30 40 46 30 40 46 30 40 43 32 40 39 31 42 36 33 42 36 33 42 36 33 42 36 33 42 36 33 42 36 33 42 36 33 42 33 30 39 33 30 39 33 30 39 33 30 39 33 30 39 33 30 39 33 30 39 33 30 41 41 37 51 41 37 52 41 37 52 41 37 52 41 37 52 41 37 52 41 37 52 41 37 52 40 36 51 40 36 51 40 36 51 40 36 51 40 36 51 40 36 51 40 36 51 43 35 48 53 36 46 58 37 44 61 40 47 65 44 51 69 48 55 73 52 59 76 55 62 78 57 64 76 55 62 76 55 62 75 54 61 74 53 60 74 53 60 73 52 59 72 51 58 71 51 60 57 44 54 56 44 56 56 44 56 56 44 56 56 44 56 56 44 56 56 44 56 56 44 56 50 38 50 50 38 50 50 38 50 50 38 50 50 38 50 50 38 50 50 38 50 47 39 50 44 41 50 42 42 50 44 41 50 44 41 50 47 39 50 49 39 50 50 38 50 53 37 50 64 43 58 67 43 59 72 45 62 76 47 65 82 49 68 86 53 72 91 53 74 86 57 75 90 78 92 84 82 93 87 84 95 88 86 97 92 89 100 93 91 102 96 93 104 96 94 105 93 90 101 92 90 101 93 90 101 92 90 101 93 90 101 92 90 101 93 90 101 92 90 103 91 89 103 91 88 105 91 88 105 91 88 105 91 88 105 91 88 105 91 88 105 91 88 105 97 94 111 97 94 111 97 94 111 97 94 111 97 94 111 97 94 111 97 94 111 98 94 108 106 96 105 107 96 102 107 96 102 107 96 102 107 96 102 107 96 102 107 96 102 107 96 102 82 71 77 82 71 77 82 71 77 82 71 77 82 71 77 82 71 77 82 71 77 83 70 77 100 79 88 101 78 88 102 79 89 103 80 90 104 81 91 105 82 92 105 82 92 106 83 93 107 84 94 106 83 93 104 81 91 100 77 87 97 74 84 94 71 81 91 68 78 92 66 77 90 60 72 93 61 74 95 63 76 98 66 79 102 70 83 105 73 86 107 75 88 109 77 90 114 82 95 112 80 93 110 78 91 107 75 88 103 71 84 100 68 81 98 66 79 99 63 77 106 57 78 106 54 76 104 52 74 98 51 71 94 47 67 88 45 64 85 44 62 80 43 60 61 29 44 58 30 44
72 53 57 68 49 53 65 46 50 63 44 48 61 42 46 64 41 51 64 41 51 64 41 51 64 41 51 64 41 51 64 41 51 64 41 51 64 41 51 70 47 57 70 47 57 70 47 57 70 47 57 70 47 57 70 47 57 70 47 57 69 48 57 50 33 43 49 33 43 49 33 43 49 33 43 49 33 43 49 33 43 49 33 43 49 33 43 46 30 40 46 30 40 46 30 40 46 30 40 46 30 40 46 30 40 46 30 40 43 32 40 39 31 42 36 33 42 36 33 42 36 33 42 36 33 42 36 33 42 36 33 42 36 33 42 33 30 39 33 30 39 33 30 39 33 30 39 33 30 39 33 30 39 33 30 39 33 30 41 44 40 54 44 40 55 44 40 55 44 40 55 44 40 55 44 40 55 44 40 55 44 40 55 40 36 51 40 36 51 40 36 51 40 36 51 40 36 51 40 36 51 40 36 51 43 35 48 49 32 42 54 33 40 58 37 44 64 43 50 70 49 56 76 55 62 80 59 66 82 61 68 81 60 67 80 59 66 78 57 64 75 54 61 73 52 59 70 49 56 68 47 54 66 46 55 50 37 47 49 37 49 49 37 49 49 37 49 49 37 49 49 37 49 49 37 49 49 37 49 50 38 50 50 38 50 50 38 50 50 38 50 50 38 50 50 38 50 50 38 50 47 39 50 44 41 50 42 42 50 44 41 50 44 41 50 47 39 50 49 39 50 50 38 50 53 37 50 67 46 61 71 47 63 75 48 65 79 50 68 86 53 72 89 56 75 94 56 77 90 61 79 97 86 100 90 90 100 92 90 101 92 92 102 93 91 102 93 93 103 94 92 103 94 94 104 92 90 101 91 91 101 92 90 101 91 91 101 92 90 101 91 91 101 92 90 101 92 90 103 91 89 103 91 88 105 91 88 105 91 88 105 91 88 105 91 88 105 91 88 105 91 88 105 97 94 111 97 94 111 97 94 111 97 94 111 97 94 111 97 94 111 97 94 111 98 94 108 106 96 105 107 96 102 107 96 102 107 96 102 107 96 102 107 96 102 107 96 102 107 96 102 79 68 74 79 68 74 79 68 74 79 68 74 79 68 74 79 68 74 79 68 74 80 67 74 92 71 80 94 71 81 96 73 83 99 76 86 101 78 88 104 81 91 106 83 93 107 84 94 111 88 98 109 86 96 107 84 94 104 81 91 100 77 87 97 74 84 95 72 82 95 69 80 90 60 72 93 61 74 95 63 76 98 66 79 102 70 83 105 73 86 107 75 88 109 77 90 114 82 95 112 80 93 110 78 91 107 75 88 103 71 84 100 68 81 98 66 79 99 63 77 106 57 78 106 54 76 104 52 74 98 51 71 94 47 67 88 45 64 85 44 62 80 43 60 61 29 44 58 30 44
72 53 57 68 49 53 65 46 50 63 44 48 61 42 46 64 41 51 64 41 51 64 41 51 64 41 51 64 41 51 64 41 51 64 41 51 64 41 51 70 47 57 70 47 57 70 47 57 70 47 57 70 47 57 70 47 57 70 47 57 69 48 57 50 33 43 49 33 43 49 33 43 49 33 43 49 33 43 49 33 43 49 33 43 49 33 43 46 30 40 46 30 40 46 30 40 46 30 40 46 30 40 46 30 40 46 30 40 43 32 40 39 31 42 36 33 42 36 33 42 36 33 42 36 33 42 36 33 42 36 33 42 36 33 42 33 30 39 33 30 39 33 30 39 33 30 39 33 30 39 33 30 39 33 30 39 33 30 41 46 42 56 46 42 57 46 42 57 46 42 57 46 42 57 46 42 57 46 42 57 46 42 57 40 36 51 40 36 51 40 36 51 40 36 51 40 36 51 40 36 51 40 36 51 43 35 48 45 28 38 51 30 37 56 35 42 63 42 49 71 50 57 78 57 64 83 62 69 86 65 72 84 63 70 83 62 69 80 59 66 76 55 62 72 51 58 68 47 54 65 44 51 63 43 52 45 32 42 44 32 44 44 32 44 44 32 44 44 32 44 44 32 44 44 32 44 44 32 44 50 38 50 50 38 50 50 38 50 50 38 50 50 38 50 50 38 50 50 38 50 47 39 50 44 41 50 42 42 50 44 41 50 44 41 50 47 39 50 49 39 50 50 38 50 53 37 50 70 49 64 73 49 65 77 50 67 82 53 71 88 55 74 91 58 77 97 59 80 91 64 81 101 93 106 94 97 106 95 95 105 93 96 105 94 94 104 91 94 103 93 93 103 91 94 103 91 91 101 89 92 101 91 91 101 89 92 101 91 91 101 89 92 101 91 91 101 91 91 103 91 89 103 91 88 105 91 88 105 91 88 105 91 88 105 91 88 105 91 88 105 91 88 105 97 94 111 97 94 111 97 94 111 97 94 111 97 94 111 97 94 111 97 94 111 98 94 108 106 96 105 107 96 102 107 96 102 107 96 102 107 96 102 107 96 102 107 96 102 107 96 102 77 66 72 77 66 72 77 66 72 77 66 72 77 66 72 77 66 72 77 66 72 78 65 72 86 65 74 89 66 76 92 69 79 96 73 83 100 77 87 103 80 90 106 83 93 108 85 95 113 90 100 112 89 99 109 86 96 106 83 93 103 80 90 99 76 86 97 74 84 98 72 83 90 60 72 93 61 74 95 63 76 98 66 79 102 70 83 105 73 86 107 75 88 109 77 90 114 82 95 112 80 93 110 78 91 107 75 88 103 71 84 100 68 81 98 66 79 99 63 77 106 57 78 106 54 76 104 52 74 98 51 71 94 47 67 88 45 64 85 44 62 80 43 60 61 29 44 58 30 44
70 54 57 66 50 53 63 47 50 61 45 48 61 42 48 64 41 51 64 41 51 64 41 51 64 41 51 64 41 51 64 41 51 64 41 51 64 41 51 70 47 57 70 47 57 70 47 57 70 47 57 70 47 57 70 47 57 70 47 57 69 48 57 50 33 43 49 33 43 50 33 43 49 33 43 50 33 43 49 33 43 50 33 43 49 33 43 47 30 40 46 30 40 47 30 40 46 30 40 47 30 40 46 30 40 47 30 40 44 31 40 42 30 42 39 31 42 39 31 42 39 31 42 39 31 42 38 32 42 38 32 42 36 33 42 33 30 39 33 30 39 32 31 39 32 31 39 32 31 39 31 31 39 31 31 39 31 31 39 47 45 58 48 44 58 48 44 58 48 44 58 48 44 58 48 44 58 48 44 58 48 44 58 40 36 50 40 36 50 40 36 50 40 36 50 40 36 50 40 36 50 40 36 50 43 35 46 42 27 34 46 29 35 54 35 41 60 43 49 70 51 57 76 59 65 84 65 71 85 68 74 85 66 72 81 64 70 80 61 67 73 56 62 71 52 58 64 47 53 63 44 50 59 42 50 43 30 40 42 30 40 42 30 42 42 30 40 42 30 42 42 30 40 42 30 42 42 30 40 50 38 50 50 38 48 50 38 50 50 38 48 50 38 50 50 38 48 50 38 50 49 39 48 46 41 48 44 41 48 44 41 48 46 41 48 47 40 48 49 39 48 50 38 48 51 38 48 69 51 63 72 52 64 76 54 67 80 56 70 85 58 73 90 62 77 92 64 79 89 66 82 104 96 107 98 98 108 99 97 108 96 96 106 96 94 105 94 94 104 94 92 103 92 92 102 92 90 101 91 91 101 92 90 101 91 91 101 92 90 101 91 91 101 92 90 101 92 90 101 91 89 102 91 89 103 92 88 103 91 89 103 92 88 103 91 89 103 92 88 103 91 89 103 98 94 109 97 95 109 98 94 109 97 95 109 98 94 109 97 95 109 98 94 109 100 94 106 107 96 104 108 95 102 108 95 102 108 95 102 108 95 102 108 95 102 108 95 102 108 95 102 76 63 70 76 63 70 76 63 70 76 63 70 76 63 70 76 63 70 76 63 70 78 63 70 83 62 71 88 62 73 92 66 77 96 70 81 101 75 86 105 79 90 109 83 94 110 84 95 116 90 101 115 89 100 113 87 98 109 83 94 106 80 91 103 77 88 100 74 85 99 73 84 88 60 72 92 62 74 94 64 76 97 67 79 101 71 83 105 73 86 107 75 88 109 77 90 115 81 95 113 79 93 113 77 91 110 74 88 106 70 84 104 66 81 102 64 79 103 60 77 106 57 78 106 54 76 102 53 74 98 51 71 92 47 67 87 46 64 83 44 62 78 44 60 60 29 44 57 31 44
76 61 64 72 57 60 69 54 57 67 52 55 66 49 55 69 46 56 71 45 58 71 45 58 71 45 58 71 45 58 71 45 58 71 45 58 71 45 58 67 41 54 67 41 54 67 41 54 67 41 54 67 41 54 67 41 54 67 41 54 65 41 54 51 31 42 49 32 42 51 31 42 49 32 42 51 31 42 49 32 42 51 31 42 49 32 42 41 21 32 39 22 32 41 21 32 39 22 32 41 21 32 39 22 32 41 21 32 39 22 32 51 30 45 49 31 45 48 32 45 48 32 45 46 32 45 45 33 45 44 34 45 41 35 45 44 41 50 43 42 50 42 42 50 40 43 50 39 44 50 37 44 50 36 45 50 37 44 50 43 43 51 43 42 50 43 42 50 41 40 48 40 39 47 39 38 46 38 37 45 37 36 44 56 55 63 55 54 62 53 52 60 51 50 58 49 48 56 47 46 54 46 45 53 48 43 50 50 41 44 53 43 44 59 47 49 65 55 56 72 60 62 78 68 69 84 72 74 85 75 76 97 85 87 94 84 85 93 81 83 89 79 80 86 74 76 82 72 73 81 69 71 79 67 71 57 44 53 57 44 53 57 44 54 57 44 53 57 44 54 57 44 53 57 44 54 57 44 53 45 32 42 45 32 41 45 32 42 45 32 41 45 32 42 45 32 41 45 32 42 44 33 41 56 46 54 55 48 55 57 50 57 61 54 61 66 56 64 69 59 67 72 62 70 74 63 71 80 69 77 82 69 78 84 71 80 88 75 84 93 77 87 96 80 90 99 83 93 98 85 94 102 92 103 99 93 103 100 92 103 99 93 103 100 92 103 99 93 103 100 92 103 99 93 103 96 88 99 95 89 99 96 88 99 95 89 99 96 88 99 95 89 99 96 88 99 95 89 99 97 91 101 95 92 101 97 91 101 95 92 101 97 91 101 95 92 101 97 91 101 95 92 101 102 96 106 100 97 106 102 96 106 100 97 106 102 96 106 100 97 106 102 96 106 103 96 104 112 99 106 113 96 102 111 94 100 108 91 97 104 87 93 101 84 90 99 82 88 97 80 86 79 62 68 79 62 68 79 62 68 79 62 68 79 62 68 79 62 68 79 62 68 81 62 68 91 65 76 92 64 76 92 64 76 92 64 76 92 64 76 92 64 76 92 64 76 92 64 76 101 73 85 102 74 86 105 77 89 108 80 92 111 83 95 115 87 99 117 89 101 118 90 102 109 86 96 109 86 96 111 85 96 111 85 96 112 84 96 114 84 96 115 83 96 116 82 96 116 78 93 116 75 91 115 72 89 113 69 86 111 64 82 109 60 79 109 58 77 107 56 75 113 64 83 110 63 81 103 59 76 95 52 69 88 47 63 79 41 56 73 37 51 68 36 49 51 23 35 50 27 37
74 62 64 70 58 60 67 55 57 65 53 55 65 50 55 69 46 56 71 45 58 71 45 58 71 45 58 71 45 58 71 45 58 71 45 58 71 45 58 67 41 54 67 41 54 67 41 54 67 41 54 67 41 54 67 41 54 67 41 54 65 41 54 52 30 42 51 31 42 51 31 42 51 31 42 51 31 42 51 31 42 51 31 42 51 31 42 43 23 34 43 23 34 43 23 34 43 23 34 43 23 34 43 23 34 43 23 34 43 23 34 55 31 47 54 31 47 54 31 47 51 33 47 51 33 47 48 34 47 47 35 47 44 36 47 44 41 50 42 42 50 40 43 50 37 44 50 37 44 50 35 46 50 35 46 50 36 45 50 42 45 50 45 44 50 44 43 49 44 43 49 43 42 48 42 41 47 42 41 47 42 41 47 59 58 64 58 57 63 56 55 61 53 52 58 50 49 55 48 47 53 46 45 51 46 44 49 48 42 44 52 43 44 57 48 49 64 55 56 70 61 62 77 68 69 82 73 74 84 75 76 95 86 87 93 84 85 91 82 83 88 79 80 84 75 76 81 72 73 79 70 71 77 68 71 57 44 51 57 44 53 57 44 53 57 44 53 57 44 53 57 44 53 57 44 53 57 44 53 47 34 43 47 34 43 47 34 43 47 34 43 47 34 43 47 34 43 47 34 43 46 35 43 58 47 53 58 49 54 61 52 57 64 55 60 67 58 63 71 62 67 73 64 69 74 65 70 80 71 76 81 72 77 84 75 80 87 78 83 90 81 86 94 85 90 96 87 92 97 87 95 100 90 99 100 90 101 100 90 101 100 90 101 100 90 101 100 90 101 100 90 101 100 90 101 98 88 99 98 88 99 98 88 99 98 88 99 98 88 99 98 88 99 98 88 99 96 88 99 98 91 99 97 92 99 97 92 99 97 92 99 97 92 99 97 92 99 97 92 99 97 92 99 102 97 104 102 97 104 102 97 104 102 97 104 102 97 104 102 97 104 102 97 104 105 95 103 114 99 106 115 96 102 113 94 100 110 91 97 106 87 93 103 84 90 101 82 88 99 80 86 83 64 70 83 64 70 83 64 70 83 64 70 83 64 70 83 64 70 83 64 70 84 63 70 92 64 76 94 64 76 94 64 76 94 64 76 94 64 76 94 64 76 94 64 76 94 64 76 102 72 84 103 73 85 105 75 87 109 79 91 112 82 94 115 85 97 118 88 100 117 89 101 108 87 96 107 87 96 109 86 96 109 86 96 112 84 96 114 84 96 115 83 96 118 82 96 118 77 93 118 74 91 118 71 89 116 67 86 115 62 82 112 59 79 113 55 77 109 54 75 113 64 83 108 64 81 103 59 76 94 53 69 88 47 63 78 42 56 71 37 51 67 37 49 50 24 35 49 28 37
74 62 64 70 58 60 67 55 57 65 53 55 65 50 55 69 46 56 71 45 58 71 45 58 71 45 58 71 45 58 71 45 58 71 45 58 71 45 58 67 41 54 67 41 54 67 41 54 67 41 54 67 41 54 67 41 54 67 41 54 65 41 54 52 30 42 51 31 42 51 31 42 51 31 42 51 31 42 51 31 42 51 31 42 51 31 42 45 25 36 45 25 36 45 25 36 45 25 36 45 25 36 45 25 36 45 25 36 45 25 36 60 36 52 59 36 52 59 36 52 56 38 52 56 38 52 53 39 52 52 40 52 49 41 52 44 41 50 42 42 50 40 43 50 37 44 50 37 44 50 35 46 50 35 46 50 36 45 50 43 46 51 47 46 52 47 46 52 48 47 53 49 48 54 49 48 54 50 49 55 50 49 55 65 64 70 63 62 68 60 59 65 56 55 61 52 51 57 48 47 53 45 44 50 45 43 48 48 42 44 52 43 44 57 48 49 64 55 56 70 61 62 77 68 69 82 73 74 84 75 76 95 86 87 93 84 85 91 82 83 88 79 80 84 75 76 81 72 73 79 70 71 77 68 71 57 44 51 57 44 53 57 44 53 57 44 53 57 44 53 57 44 53 57 44 53 57 44 53 52 39 48 52 39 48 52 39 48 52 39 48 52 39 48 52 39 48 52 39 48 51 40 48 60 49 55 61 52 57 63 54 59 66 57 62 70 61 66 73 64 69 75 66 71 77 68 73 82 73 78 84 75 80 86 77 82 89 80 85 93 84 89 96 87 92 98 89 94 100 90 98 98 88 97 98 88 99 98 88 99 98 88 99 98 88 99 98 88 99 98 88 99 98 88 99 98 88 99 98 88 99 98 88 99 98 88 99 98 88 99 98 88 99 98 88 99 96 88 99 98 91 99 97 92 99 97 92 99 97 92 99 97 92 99 97 92 99 97 92 99 97 92 99 102 97 104 102 97 104 102 97 104 102 97 104 102 97 104 102 97 104 102 97 104 105 95 103 114 99 106 115 96 102 113 94 100 110 91 97 106 87 93 103 84 90 101 82 88 99 80 86 85 66 72 85 66 72 85 66 72 85 66 72 85 66 72 85 66 72 85 66 72 86 65 72 92 64 76 94 64 76 94 64 76 94 64 76 94 64 76 94 64 76 94 64 76 94 64 76 99 69 81 101 71 83 103 73 85 106 76 88 110 80 92 113 83 95 115 85 97 115 87 99 108 87 96 107 87 96 109 86 96 109 86 96 112 84 96 114 84 96 115 83 96 118 82 96 118 77 93 118 74 91 118 71 89 116 67 86 115 62 82 112 59 79 113 55 77 109 54 75 113 64 83 108 64 81 103 59 76 94 53 69 88 47 63 78 42 56 71 37 51 67 37 49 50 24 35 49 28 37
74 62 64 70 58 60 67 55 57 65 53 55 65 50 55 69 46 56 71 45 58 71 45 58 71 45 58 71 45 58 71 45 58 71 45 58 71 45 58 67 41 54 67 41 54 67 41 54 67 41 54 67 41 54 67 41 54 67 41 54 65 41 54 52 30 42 51 31 42 51 31 42 51 31 42 51 31 42 51 31 42 51 31 42 51 31 42 48 28 39 48 28 39 48 28 39 48 28 39 48 28 39 48 28 39 48 28 39 48 28 39 67 43 59 66 43 59 66 43 59 63 45 59 63 45 59 60 46 59 59 47 59 56 48 59 44 41 50 42 42 50 40 43 50 37 44 50 37 44 50 35 46 50 35 46 50 36 45 50 45 48 53 49 48 54 51 50 56 53 52 58 56 55 61 58 57 63 60 59 65 61 60 66 72 71 77 70 69 75 66 65 71 60 59 65 54 53 59 49 48 54 45 44 50 43 41 46 48 42 44 52 43 44 57 48 49 64 55 56 70 61 62 77 68 69 82 73 74 84 75 76 95 86 87 93 84 85 91 82 83 88 79 80 84 75 76 81 72 73 79 70 71 77 68 71 57 44 51 57 44 53 57 44 53 57 44 53 57 44 53 57 44 53 57 44 53 57 44 53 59 46 55 59 46 55 59 46 55 59 46 55 59 46 55 59 46 55 59 46 55 58 47 55 64 53 59 64 55 60 66 57 62 70 61 66 73 64 69 76 67 72 79 70 75 80 71 76 86 77 82 87 78 83 89 80 85 93 84 89 96 87 92 99 90 95 102 93 98 103 93 101 95 85 94 95 85 96 95 85 96 95 85 96 95 85 96 95 85 96 95 85 96 95 85 96 98 88 99 98 88 99 98 88 99 98 88 99 98 88 99 98 88 99 98 88 99 96 88 99 98 91 99 97 92 99 97 92 99 97 92 99 97 92 99 97 92 99 97 92 99 97 92 99 102 97 104 102 97 104 102 97 104 102 97 104 102 97 104 102 97 104 102 97 104 105 95 103 114 99 106 115 96 102 113 94 100 110 91 97 106 87 93 103 84 90 101 82 88 99 80 86 88 69 75 88 69 75 88 69 75 88 69 75 88 69 75 88 69 75 88 69 75 89 68 75 92 64 76 94 64 76 94 64 76 94 64 76 94 64 76 94 64 76 94 64 76 94 64 76 96 66 78 97 67 79 100 70 82 103 73 85 106 76 88 110 80 92 112 82 94 111 83 95 108 87 96 107 87 96 109 86 96 109 86 96 112 84 96 114 84 96 115 83 96 118 82 96 118 77 93 118 74 91 118 71 89 116 67 86 115 62 82 112 59 79 113 55 77 109 54 75 113 64 83 108 64 81 103 59 76 94 53 69 88 47 63 78 42 56 71 37 51 67 37 49 50 24 35 49 28 37
74 62 64 70 58 60 67 55 57 65 53 55 65 50 55 69 46 56 71 45 58 71 45 58 71 45 58 71 45 58 71 45 58 71 45 58 71 45 58 67 41 54 67 41 54 67 41 54 67 41 54 67 41 54 67 41 54 67 41 54 65 41 54 52 30 42 51 31 42 51 31 42 51 31 42 51 31 42 51 31 42 51 31 42 51 31 42 52 32 43 52 32 43 52 32 43 52 32 43 52 32 43 52 32 43 52 32 43 52 32 43 73 49 65 72 49 65 72 49 65 69 51 65 69 51 65 66 52 65 65 53 65 62 54 65 44 41 50 42 42 50 40 43 50 37 44 50 37 44 50 35 46 50 35 46 50 36 45 50 47 50 55 52 51 57 55 54 60 59 58 64 64 63 69 68 67 73 71 70 76 72 71 77 80 79 85 77 76 82 72 71 77 65 64 70 57 56 62 50 49 55 44 43 49 42 40 45 48 42 44 52 43 44 57 48 49 64 55 56 70 61 62 77 68 69 82 73 74 84 75 76 95 86 87 93 84 85 91 82 83 88 79 80 84 75 76 81 72 73 79 70 71 77 68 71 57 44 51 57 44 53 57 44 53 57 44 53 57 44 53 57 44 53 57 44 53 57 44 53 65 52 61 65 52 61 65 52 61 65 52 61 65 52 61 65 52 61 65 52 61 64 53 61 67 56 62 67 58 63 70 61 66 73 64 69 76 67 72 80 71 76 82 73 78 83 74 79 89 80 85 90 81 86 93 84 89 96 87 92 99 90 95 103 94 99 105 96 101 106 96 104 91 81 90 91 81 92 91 81 92 91 81 92 91 81 92 91 81 92 91 81 92 91 81 92 98 88 99 98 88 99 98 88 99 98 88 99 98 88 99 98 88 99 98 88 99 96 88 99 98 91 99 97 92 99 97 92 99 97 92 99 97 92 99 97 92 99 97 92 99 97 92 99 102 97 104 102 97 104 102 97 104 102 97 104 102 97 104 102 97 104 102 97 104 105 95 103 114 99 106 115 96 102 113 94 100 110 91 97 106 87 93 103 84 90 101 82 88 99 80 86 92 73 79 92 73 79 92 73 79 92 73 79 92 73 79 92 73 79 92 73 79 93 72 79 92 64 76 94 64 76 94 64 76 94 64 76 94 64 76 94 64 76 94 64 76 94 64 76 93 63 75 94 64 76 96 66 78 100 70 82 103 73 85 106 76 88 109 79 91 108 80 92 108 87 96 107 87 96 109 86 96 109 86 96 112 84 96 114 84 96 115 83 96 118 82 96 118 77 93 118 74 91 118 71 89 116 67 86 115 62 82 112 59 79 113 55 77 109 54 75 113 64 83 108 64 81 103 59 76 94 53 69 88 47 63 78 42 56 71 37 51 67 37 49 50 24 35 49 28 37
74 62 64 70 58 60 67 55 57 65 53 55 65 50 55 69 46 56 71 45 58 71 45 58 71 45 58 71 45 58 71 45 58 71 45 58 71 45 58 67 41 54 67 41 54 67 41 54 67 41 54 67 41 54 67 41 54 67 41 54 65 41 54 52 30 42 51 31 42 51 31 42 51 31 42 51 31 42 51 31 42 51 31 42 51 31 42 55 35 46 55 35 46 55 35 46 55 35 46 55 35 46 55 35 46 55 35 46 55 35 46 80 56 72 79 56 72 79 56 72 76 58 72 76 58 72 73 59 72 72 60 72 69 61 72 44 41 50 42 42 50 40 43 50 37 44 50 37 44 50 35 46 50 35 46 50 36 45 50 49 52 57 55 54 60 59 58 64 65 64 70 71 70 76 77 76 82 81 80 86 83 82 88 88 87 93 84 83 89 78 77 83 69 68 74 59 58 64 50 49 55 43 42 48 41 39 44 48 42 44 52 43 44 57 48 49 64 55 56 70 61 62 77 68 69 82 73 74 84 75 76 95 86 87 93 84 85 91 82 83 88 79 80 84 75 76 81 72 73 79 70 71 77 68 71 57 44 51 57 44 53 57 44 53 57 44 53 57 44 53 57 44 53 57 44 53 57 44 53 72 59 68 72 59 68 72 59 68 72 59 68 72 59 68 72 59 68 72 59 68 71 60 68 70 59 65 71 62 67 73 64 69 76 67 72 80 71 76 83 74 79 85 76 81 87 78 83 92 83 88 94 85 90 96 87 92 99 90 95 103 94 99 106 97 102 108 99 104 110 100 108 88 78 87 88 78 89 88 78 89 88 78 89 88 78 89 88 78 89 88 78 89 88 78 89 98 88 99 98 88 99 98 88 99 98 88 99 98 88 99 98 88 99 98 88 99 96 88 99 98 91 99 97 92 99 97 92 99 97 92 99 97 92 99 97 92 99 97 92 99 97 92 99 102 97 104 102 97 104 102 97 104 102 97 104 102 97 104 102 97 104 102 97 104 105 95 103 114 99 106 115 96 102 113 94 100 110 91 97 106 87 93 103 84 90 101 82 88 99 80 86 95 76 82 95 76 82 95 76 82 95 76 82 95 76 82 95 76 82 95 76 82 96 75 82 92 64 76 94 64 76 94 64 76 94 64 76 94 64 76 94 64 76 94 64 76 94 64 76 89 59 71 91 61 73 93 63 75 96 66 78 100 70 82 103 73 85 105 75 87 105 77 89 108 87 96 107 87 96 109 86 96 109 86 96 112 84 96 114 84 96 115 83 96 118 82 96 118 77 93 118 74 91 118 71 89 116 67 86 115 62 82 112 59 79 113 55 77 109 54 75 113 64 83 108 64 81 103 59 76 94 53 69 88 47 63 78 42 56 71 37 51 67 37 49 50 24 35 49 28 37
74 62 64 70 58 60 67 55 57 65 53 55 65 50 55 69 46 56 71 45 58 71 45 58 71 45 58 71 45 58 71 45 58 71 45 58 71 45 58 67 41 54 67 41 54 67 41 54 67 41 54 67 41 54 67 41 54 67 41 54 65 41 54 52 30 42 51 31 42 51 31 42 51 31 42 51 31 42 51 31 42 51 31 42 51 31 42 57 37 48 57 37 48 57 37 48 57 37 48 57 37 48 57 37 48 57 37 48 57 37 48 85 61 77 84 61 77 84 61 77 81 63 77 81 63 77 78 64 77 77 65 77 74 66 77 44 41 50 42 42 50 40 43 50 37 44 50 37 44 50 35 46 50 35 46 50 36 45 50 51 54 59 57 56 62 62 61 67 69 68 74 76 75 81 83 82 88 89 88 94 92 91 97 94 93 99 90 89 95 82 81 87 72 71 77 61 60 66 51 50 56 43 42 48 40 38 43 48 42 44 52 43 44 57 48 49 64 55 56 70 61 62 77 68 69 82 73 74 84 75 76 95 86 87 93 84 85 91 82 83 88 79 80 84 75 76 81 72 73 79 70 71 77 68 71 57 44 51 57 44 53 57 44 53 57 44 53 57 44 53 57 44 53 57 44 53 57 44 53 77 64 73 77 64 73 77 64 73 77 64 73 77 64 73 77 64 73 77 64 73 76 65 73 73 62 68 73 64 69 75 66 71 79 70 75 82 73 78 85 76 81 88 79 84 89 80 85 95 86 91 96 87 92 98 89 94 102 93 98 105 96 101 108 99 104 111 102 107 112 102 110 86 76 85 86 76 87 86 76 87 86 76 87 86 76 87 86 76 87 86 76 87 86 76 87 98 88 99 98 88 99 98 88 99 98 88 99 98 88 99 98 88 99 98 88 99 96 88 99 98 91 99 97 92 99 97 92 99 97 92 99 97 92 99 97 92 99 97 92 99 97 92 99 102 97 104 102 97 104 102 97 104 102 97 104 102 97 104 102 97 104 102 97 104 105 95 103 114 99 106 115 96 102 113 94 100 110 91 97 106 87 93 103 84 90 101 82 88 99 80 86 97 78 84 97 78 84 97 78 84 97 78 84 97 78 84 97 78 84 97 78 84 98 77 84 92 64 76 94 64 76 94 64 76 94 64 76 94 64 76 94 64 76 94 64 76 94 64 76 87 57 69 88 58 70 91 61 73 94 64 76 97 67 79 101 71 83 103 73 85 102 74 86 108 87 96 107 87 96 109 86 96 109 86 96 112 84 96 114 84 96 115 83 96 118 82 96 118 77 93 118 74 91 118 71 89 116 67 86 115 62 82 112 59 79 113 55 77 109 54 75 113 64 83 108 64 81 103 59 76 94 53 69 88 47 63 78 42 56 71 37 51 67 37 49 50 24 35 49 28 37
74 62 64 70 58 60 67 55 57 65 53 55 65 50 55 69 46 56 71 45 58 71 45 58 71 45 58 71 45 58 71 45 58 71 45 58 71 45 58 67 41 54 67 41 54 67 41 54 67 41 54 67 41 54 67 41 54 67 41 54 65 41 54 52 30 42 51 31 42 51 31 42 51 31 42 51 31 42 51 31 42 51 31 42 51 31 42 59 39 50 59 39 50 59 39 50 59 39 50 59 39 50 59 39 50 59 39 50 59 39 50 87 63 79 86 63 79 86 63 79 83 65 79 83 65 79 80 66 79 79 67 79 76 68 79 44 41 50 42 42 50 40 43 50 37 44 50 37 44 50 35 46 50 35 46 50 36 45 50 52 55 60 58 57 63 64 63 69 71 70 76 79 78 84 87 86 92 93 92 98 96 95 101 97 96 102 93 92 98 84 83 89 73 72 78 62 61 67 51 50 56 43 42 48 39 37 42 48 42 44 52 43 44 57 48 49 64 55 56 70 61 62 77 68 69 82 73 74 84 75 76 95 86 87 93 84 85 91 82 83 88 79 80 84 75 76 81 72 73 79 70 71 77 68 71 57 44 51 57 44 53 57 44 53 57 44 53 57 44 53 57 44 53 57 44 53 57 44 53 79 66 75 79 66 75 79 66 75 79 66 75 79 66 75 79 66 75 79 66 75 78 67 75 74 63 69 74 65 70 77 68 73 80 71 76 83 74 79 87 78 83 89 80 85 90 81 86 96 87 92 97 88 93 100 91 96 103 94 99 106 97 102 110 101 106 112 103 108 113 103 111 84 74 83 84 74 85 84 74 85 84 74 85 84 74 85 84 74 85 84 74 85 84 74 85 98 88 99 98 88 99 98 88 99 98 88 99 98 88 99 98 88 99 98 88 99 96 88 99 98 91 99 97 92 99 97 92 99 97 92 99 97 92 99 97 92 99 97 92 99 97 92 99 102 97 104 102 97 104 102 97 104 102 97 104 102 97 104 102 97 104 102 97 104 105 95 103 114 99 106 115 96 102 113 94 100 110 91 97 106 87 93 103 84 90 101 82 88 99 80 86 99 80 86 99 80 86 99 80 86 99 80 86 99 80 86 99 80 86 99 80 86 100 79 86 92 64 76 94 64 76 94 64 76 94 64 76 94 64 76 94 64 76 94 64 76 94 64 76 86 56 68 87 57 69 89 59 71 93 63 75 96 66 78 99 69 81 102 72 84 101 73 85 108 87 96 107 87 96 109 86 96 109 86 96 112 84 96 114 84 96 115 83 96 118 82 96 118 77 93 118 74 91 118 71 89 116 67 86 115 62 82 112 59 79 113 55 77 109 54 75 113 64 83 108 64 81 103 59 76 94 53 69 88 47 63 78 42 56 71 37 51 67 37 49 50 24 35 49 28 37
83 71 73 79 67 69 76 64 66 74 62 64 74 59 64 74 51 61 76 50 63 76 50 63 76 50 63 76 50 63 76 50 63 76 50 63 76 50 63 78 52 65 76 50 63 74 48 61 71 45 58 67 41 54 64 38 51 62 36 49 58 34 47 40 18 30 40 20 31 42 22 33 46 26 37 49 29 40 52 32 43 55 35 46 56 36 47 52 32 43 53 33 44 56 36 47 59 39 50 62 42 53 66 46 57 68 48 59 69 49 60 83 59 75 80 57 73 78 55 71 72 54 68 68 50 64 62 48 61 59 47 59 54 46 57 44 41 50 43 43 51 42 45 52 41 48 54 43 50 56 43 54 58 45 56 60 47 56 61 72 75 80 77 76 82 79 78 84 82 81 87 86 85 91 89 88 94 91 90 96 93 92 98 88 87 93 91 90 96 94 93 99 93 92 98 86 85 91 74 73 79 61 60 66 54 52 57 34 28 30 39 30 31 45 36 37 53 44 45 61 52 53 68 59 60 74 65 66 77 68 69 103 94 95 100 91 92 94 85 86 86 77 78 78 69 70 71 62 63 65 56 57 62 53 56 59 46 53 59 46 55 59 46 55 59 46 55 59 46 55 59 46 55 59 46 55 59 46 55 85 72 81 85 72 81 85 72 81 85 72 81 85 72 81 85 72 81 85 72 81 84 73 81 78 67 73 78 69 74 80 71 76 84 75 80 87 78 83 90 81 86 93 84 89 94 85 90 102 93 98 102 93 98 102 93 98 102 93 98 102 93 98 102 93 98 102 93 98 102 92 100 87 77 86 85 75 86 83 73 84 80 70 81 76 66 77 73 63 74 71 61 72 69 59 70 83 73 84 85 75 86 87 77 88 90 80 91 94 84 95 97 87 98 99 89 100 99 91 102 100 93 101 99 94 101 99 94 101 99 94 101 99 94 101 99 94 101 99 94 101 99 94 101 102 97 104 102 97 104 102 97 104 102 97 104 102 97 104 102 97 104 102 97 104 105 95 103 101 86 93 102 83 89 100 81 87 97 78 84 93 74 80 90 71 77 88 69 75 86 67 73 99 80 86 100 81 87 103 84 90 106 87 93 109 90 96 113 94 100 115 96 102 117 96 103 104 76 88 106 76 88 106 76 88 106 76 88 106 76 88 106 76 88 106 76 88 106 76 88 93 63 75 93 63 75 93 63 75 93 63 75 93 63 75 93 63 75 93 63 75 91 63 75 108 87 96 107 87 96 109 86 96 109 86 96 112 84 96 114 84 96 115 83 96 118 82 96 109 68 84 111 67 84 113 66 84 114 65 84 117 64 84 117 64 84 120 62 84 118 63 84 111 62 81 106 62 79 101 57 74 92 51 67 86 45 61 76 40 54 69 35 49 65 35 47 54 28 39 53 32 41
83 71 73 79 67 69 76 64 66 74 62 64 74 59 64 74 51 61 76 50 63 76 50 63 76 50 63 76 50 63 76 50 63 76 50 63 76 50 63 78 52 65 76 50 63 74 48 61 71 45 58 67 41 54 64 38 51 62 36 49 58 34 47 41 19 31 41 21 32 44 24 35 47 27 38 50 30 41 54 34 45 56 36 47 57 37 48 55 35 46 56 36 47 58 38 49 62 42 53 65 45 56 68 48 59 71 51 62 72 52 63 83 59 75 80 57 73 78 55 71 72 54 68 68 50 64 62 48 61 59 47 59 54 46 57 44 41 50 43 43 51 43 46 53 42 49 55 45 52 58 46 57 61 48 59 63 50 59 64 72 75 80 77 76 82 79 78 84 82 81 87 86 85 91 89 88 94 91 90 96 93 92 98 88 87 93 91 90 96 94 93 99 93 92 98 86 85 91 74 73 79 61 60 66 54 52 57 34 28 30 39 30 31 45 36 37 52 43 44 59 50 51 66 57 58 71 62 63 74 65 66 99 90 91 96 87 88 90 81 82 83 74 75 76 67 68 69 60 61 64 55 56 61 52 55 59 46 53 59 46 55 59 46 55 59 46 55 59 46 55 59 46 55 59 46 55 59 46 55 83 70 79 83 70 79 83 70 79 83 70 79 83 70 79 83 70 79 83 70 79 82 71 79 79 68 74 79 70 75 82 73 78 85 76 81 88 79 84 92 83 88 94 85 90 95 86 91 102 93 98 102 93 98 102 93 98 102 93 98 102 93 98 102 93 98 102 93 98 102 92 100 87 77 86 85 75 86 83 73 84 80 70 81 76 66 77 73 63 74 71 61 72 69 59 70 83 73 84 85 75 86 87 77 88 90 80 91 94 84 95 97 87 98 99 89 100 99 91 102 100 93 101 99 94 101 99 94 101 99 94 101 99 94 101 99 94 101 99 94 101 99 94 101 102 97 104 102 97 104 102 97 104 102 97 104 102 97 104 102 97 104 102 97 104 105 95 103 101 86 93 102 83 89 100 81 87 97 78 84 93 74 80 90 71 77 88 69 75 86 67 73 98 79 85 99 80 86 101 82 88 105 86 92 108 89 95 111 92 98 114 95 101 116 95 102 106 78 90 108 78 90 108 78 90 108 78 90 108 78 90 108 78 90 108 78 90 108 78 90 95 65 77 95 65 77 95 65 77 95 65 77 95 65 77 95 65 77 95 65 77 93 65 77 108 87 96 107 87 96 109 86 96 109 86 96 112 84 96 114 84 96 115 83 96 118 82 96 109 68 84 111 67 84 113 66 84 114 65 84 117 64 84 117 64 84 120 62 84 118 63 84 111 62 81 106 62 79 101 57 74 92 51 67 86 45 61 76 40 54 69 35 49 65 35 47 54 28 39 53 32 41
83 71 73 79 67 69 76 64 66 74 62 64 74 59 64 74 51 61 76 50 63 76 50 63 76 50 63 76 50 63 76 50 63 76 50 63 76 50 63 78 52 65 76 50 63 74 48 61 71 45 58 67 41 54 64 38 51 62 36 49 58 34 47 43 21 33 44 24 35 46 26 37 49 29 40 53 33 44 56 36 47 58 38 49 60 40 51 60 40 51 61 41 52 63 43 54 66 46 57 70 50 61 73 53 64 76 56 67 77 57 68 83 59 75 80 57 73 78 55 71 72 54 68 68 50 64 62 48 61 59 47 59 54 46 57 43 40 49 42 42 50 43 46 53 44 51 57 48 55 61 50 61 65 53 64 68 56 65 70 72 75 80 77 76 82 79 78 84 82 81 87 86 85 91 89 88 94 91 90 96 93 92 98 88 87 93 91 90 96 94 93 99 93 92 98 86 85 91 74 73 79 61 60 66 54 52 57 35 29 31 40 31 32 44 35 36 50 41 42 56 47 48 62 53 54 66 57 58 68 59 60 90 81 82 88 79 80 84 75 76 78 69 70 72 63 64 66 57 58 62 53 54 59 50 53 59 46 53 59 46 55 59 46 55 59 46 55 59 46 55 59 46 55 59 46 55 59 46 55 81 68 77 81 68 77 81 68 77 81 68 77 81 68 77 81 68 77 81 68 77 80 69 77 81 70 76 82 73 78 84 75 80 87 78 83 91 82 87 94 85 90 96 87 92 98 89 94 102 93 98 102 93 98 102 93 98 102 93 98 102 93 98 102 93 98 102 93 98 102 92 100 87 77 86 85 75 86 83 73 84 80 70 81 76 66 77 73 63 74 71 61 72 69 59 70 83 73 84 85 75 86 87 77 88 90 80 91 94 84 95 97 87 98 99 89 100 99 91 102 100 93 101 99 94 101 99 94 101 99 94 101 99 94 101 99 94 101 99 94 101 99 94 101 102 97 104 102 97 104 102 97 104 102 97 104 102 97 104 102 97 104 102 97 104 105 95 103 101 86 93 102 83 89 100 81 87 97 78 84 93 74 80 90 71 77 88 69 75 86 67 73 95 76 82 97 78 84 99 80 86 102 83 89 106 87 93 109 90 96 111 92 98 114 93 100 108 80 92 110 80 92 110 80 92 110 80 92 110 80 92 110 80 92 110 80 92 110 80 92 97 67 79 97 67 79 97 67 79 97 67 79 97 67 79 97 67 79 97 67 79 95 67 79 108 87 96 107 87 96 109 86 96 109 86 96 112 84 96 114 84 96 115 83 96 118 82 96 109 68 84 111 67 84 113 66 84 114 65 84 117 64 84 117 64 84 120 62 84 118 63 84 111 62 81 106 62 79 101 57 74 92 51 67 86 45 61 76 40 54 69 35 49 65 35 47 54 28 39 53 32 41
83 71 73 79 67 69 76 64 66 74 62 64 74 59 64 74 51 61 76 50 63 76 50 63 76 50 63 76 50 63 76 50 63 76 50 63 76 50 63 78 52 65 76 50 63 74 48 61 71 45 58 67 41 54 64 38 51 62 36 49 58 34 47 47 25 37 47 27 38 49 29 40 53 33 44 56 36 47 59 39 50 62 42 53 63 43 54 66 46 57 67 47 58 70 50 61 73 53 64 76 56 67 79 59 70 82 62 73 83 63 74 83 59 75 80 57 73 78 55 71 72 54 68 68 50 64 62 48 61 59 47 59 54 46 57 41 38 47 42 42 50 44 47 54 46 53 59 52 59 65 56 67 71 60 71 75 63 72 77 72 75 80 77 76 82 79 78 84 82 81 87 86 85 91 89 88 94 91 90 96 93 92 98 88 87 93 91 90 96 94 93 99 93 92 98 86 85 91 74 73 79 61 60 66 54 52 57 37 31 33 40 31 32 43 34 35 48 39 40 52 43 44 56 47 48 59 50 51 61 52 53 79 70 71 78 69 70 75 66 67 71 62 63 66 57 58 62 53 54 59 50 51 57 48 51 59 46 53 59 46 55 59 46 55 59 46 55 59 46 55 59 46 55 59 46 55 59 46 55 78 65 74 78 65 74 78 65 74 78 65 74 78 65 74 78 65 74 78 65 74 77 66 74 85 74 80 85 76 81 87 78 83 91 82 87 94 85 90 97 88 93 100 91 96 101 92 97 102 93 98 102 93 98 102 93 98 102 93 98 102 93 98 102 93 98 102 93 98 102 92 100 87 77 86 85 75 86 83 73 84 80 70 81 76 66 77 73 63 74 71 61 72 69 59 70 83 73 84 85 75 86 87 77 88 90 80 91 94 84 95 97 87 98 99 89 100 99 91 102 100 93 101 99 94 101 99 94 101 99 94 101 99 94 101 99 94 101 99 94 101 99 94 101 102 97 104 102 97 104 102 97 104 102 97 104 102 97 104 102 97 104 102 97 104 105 95 103 101 86 93 102 83 89 100 81 87 97 78 84 93 74 80 90 71 77 88 69 75 86 67 73 92 73 79 93 74 80 96 77 83 99 80 86 102 83 89 106 87 93 108 89 95 110 89 96 111 83 95 113 83 95 113 83 95 113 83 95 113 83 95 113 83 95 113 83 95 113 83 95 100 70 82 100 70 82 100 70 82 100 70 82 100 70 82 100 70 82 100 70 82 98 70 82 108 87 96 107 87 96 109 86 96 109 86 96 112 84 96 114 84 96 115 83 96 118 82 96 109 68 84 111 67 84 113 66 84 114 65 84 117 64 84 117 64 84 120 62 84 118 63 84 111 62 81 106 62 79 101 57 74 92 51 67 86 45 61 76 40 54 69 35 49 65 35 47 54 28 39 53 32 41
83 71 73 79 67 69 76 64 66 74 62 64 74 59 64 74 51 61 76 50 63 76 50 63 76 50 63 76 50 63 76 50 63 76 50 63 76 50 63 78 52 65 76 50 63 74 48 61 71 45 58 67 41 54 64 38 51 62 36 49 58 34 47 50 28 40 50 30 41 53 33 44 56 36 47 59 39 50 63 43 54 65 45 56 66 46 57 73 53 64 74 54 65 77 57 68 80 60 71 83 63 74 86 66 77 89 69 80 90 70 81 83 59 75 80 57 73 78 55 71 72 54 68 68 50 64 62 48 61 59 47 59 54 46 57 40 37 46 41 41 49 45 48 55 49 56 62 57 64 70 62 73 77 67 78 82 71 80 85 72 75 80 77 76 82 79 78 84 82 81 87 86 85 91 89 88 94 91 90 96 93 92 98 88 87 93 91 90 96 94 93 99 93 92 98 86 85 91 74 73 79 61 60 66 54 52 57 38 32 34 41 32 33 43 34 35 45 36 37 48 39 40 50 41 42 52 43 44 53 44 45 68 59 60 67 58 59 65 56 57 63 54 55 60 51 52 58 49 50 56 47 48 55 46 49 59 46 53 59 46 55 59 46 55 59 46 55 59 46 55 59 46 55 59 46 55 59 46 55 74 61 70 74 61 70 74 61 70 74 61 70 74 61 70 74 61 70 74 61 70 73 62 70 88 77 83 88 79 84 91 82 87 94 85 90 97 88 93 101 92 97 103 94 99 104 95 100 102 93 98 102 93 98 102 93 98 102 93 98 102 93 98 102 93 98 102 93 98 102 92 100 87 77 86 85 75 86 83 73 84 80 70 81 76 66 77 73 63 74 71 61 72 69 59 70 83 73 84 85 75 86 87 77 88 90 80 91 94 84 95 97 87 98 99 89 100 99 91 102 100 93 101 99 94 101 99 94 101 99 94 101 99 94 101 99 94 101 99 94 101 99 94 101 102 97 104 102 97 104 102 97 104 102 97 104 102 97 104 102 97 104 102 97 104 105 95 103 101 86 93 102 83 89 100 81 87 97 78 84 93 74 80 90 71 77 88 69 75 86 67 73 89 70 76 90 71 77 92 73 79 96 77 83 99 80 86 102 83 89 105 86 92 107 86 93 115 87 99 117 87 99 117 87 99 117 87 99 117 87 99 117 87 99 117 87 99 117 87 99 104 74 86 104 74 86 104 74 86 104 74 86 104 74 86 104 74 86 104 74 86 102 74 86 108 87 96 107 87 96 109 86 96 109 86 96 112 84 96 114 84 96 115 83 96 118 82 96 109 68 84 111 67 84 113 66 84 114 65 84 117 64 84 117 64 84 120 62 84 118 63 84 111 62 81 106 62 79 101 57 74 92 51 67 86 45 61 76 40 54 69 35 49 65 35 47 54 28 39 53 32 41
83 71 73 79 67 69 76 64 66 74 62 64 74 59 64 74 51 61 76 50 63 76 50 63 76 50 63 76 50 63 76 50 63 76 50 63 76 50 63 78 52 65 76 50 63 74 48 61 71 45 58 67 41 54 64 38 51 62 36 49 58 34 47 53 31 43 54 34 45 56 36 47 59 39 50 63 43 54 66 46 57 68 48 59 70 50 61 79 59 70 80 60 71 83 63 74 86 66 77 90 70 81 93 73 84 95 75 86 96 76 87 83 59 75 80 57 73 78 55 71 72 54 68 68 50 64 62 48 61 59 47 59 54 46 57 39 36 45 40 40 48 45 48 55 51 58 64 61 68 74 68 79 83 74 85 89 79 88 93 72 75 80 77 76 82 79 78 84 82 81 87 86 85 91 89 88 94 91 90 96 93 92 98 88 87 93 91 90 96 94 93 99 93 92 98 86 85 91 74 73 79 61 60 66 54 52 57 39 33 35 42 33 34 42 33 34 43 34 35 43 34 35 44 35 36 45 36 37 45 36 37 57 48 49 57 48 49 56 47 48 56 47 48 55 46 47 54 45 46 54 45 46 53 44 47 59 46 53 59 46 55 59 46 55 59 46 55 59 46 55 59 46 55 59 46 55 59 46 55 71 58 67 71 58 67 71 58 67 71 58 67 71 58 67 71 58 67 71 58 67 70 59 67 91 80 86 92 83 88 94 85 90 97 88 93 101 92 97 104 95 100 106 97 102 108 99 104 102 93 98 102 93 98 102 93 98 102 93 98 102 93 98 102 93 98 102 93 98 102 92 100 87 77 86 85 75 86 83 73 84 80 70 81 76 66 77 73 63 74 71 61 72 69 59 70 83 73 84 85 75 86 87 77 88 90 80 91 94 84 95 97 87 98 99 89 100 99 91 102 100 93 101 99 94 101 99 94 101 99 94 101 99 94 101 99 94 101 99 94 101 99 94 101 102 97 104 102 97 104 102 97 104 102 97 104 102 97 104 102 97 104 102 97 104 105 95 103 101 86 93 102 83 89 100 81 87 97 78 84 93 74 80 90 71 77 88 69 75 86 67 73 85 66 72 87 68 74 89 70 76 92 73 79 96 77 83 99 80 86 101 82 88 104 83 90 118 90 102 120 90 102 120 90 102 120 90 102 120 90 102 120 90 102 120 90 102 120 90 102 107 77 89 107 77 89 107 77 89 107 77 89 107 77 89 107 77 89 107 77 89 105 77 89 108 87 96 107 87 96 109 86 96 109 86 96 112 84 96 114 84 96 115 83 96 118 82 96 109 68 84 111 67 84 113 66 84 114 65 84 117 64 84 117 64 84 120 62 84 118 63 84 111 62 81 106 62 79 101 57 74 92 51 67 86 45 61 76 40 54 69 35 49 65 35 47 54 28 39 53 32 41
83 71 73 79 67 69 76 64 66 74 62 64 74 59 64 74 51 61 76 50 63 76 50 63 76 50 63 76 50 63 76 50 63 76 50 63 76 50 63 78 52 65 76 50 63 74 48 61 71 45 58 67 41 54 64 38 51 62 36 49 58 34 47 56 34 46 56 36 47 58 38 49 62 42 53 65 45 56 68 48 59 71 51 62 72 52 63 84 64 75 85 65 76 88 68 79 91 71 82 94 74 85 98 78 89 100 80 91 101 81 92 83 59 75 80 57 73 78 55 71 72 54 68 68 50 64 62 48 61 59 47 59 54 46 57 38 35 44 40 40 48 46 49 56 53 60 66 64 71 77 72 83 87 80 91 95 85 94 99 72 75 80 77 76 82 79 78 84 82 81 87 86 85 91 89 88 94 91 90 96 93 92 98 88 87 93 91 90 96 94 93 99 93 92 98 86 85 91 74 73 79 61 60 66 54 52 57 40 34 36 42 33 34 42 33 34 41 32 33 40 31 32 40 31 32 39 30 31 39 30 31 49 40 41 49 40 41 49 40 41 50 41 42 51 42 43 51 42 43 52 43 44 52 43 46 59 46 53 59 46 55 59 46 55 59 46 55 59 46 55 59 46 55 59 46 55 59 46 55 69 56 65 69 56 65 69 56 65 69 56 65 69 56 65 69 56 65 69 56 65 68 57 65 94 83 89 94 85 90 96 87 92 100 91 96 103 94 99 106 97 102 109 100 105 110 101 106 102 93 98 102 93 98 102 93 98 102 93 98 102 93 98 102 93 98 102 93 98 102 92 100 87 77 86 85 75 86 83 73 84 80 70 81 76 66 77 73 63 74 71 61 72 69 59 70 83 73 84 85 75 86 87 77 88 90 80 91 94 84 95 97 87 98 99 89 100 99 91 102 100 93 101 99 94 101 99 94 101 99 94 101 99 94 101 99 94 101 99 94 101 99 94 101 102 97 104 102 97 104 102 97 104 102 97 104 102 97 104 102 97 104 102 97 104 105 95 103 101 86 93 102 83 89 100 81 87 97 78 84 93 74 80 90 71 77 88 69 75 86 67 73 83 64 70 84 65 71 87 68 74 90 71 77 93 74 80 97 78 84 99 80 86 101 80 87 120 92 104 122 92 104 122 92 104 122 92 104 122 92 104 122 92 104 122 92 104 122 92 104 109 79 91 109 79 91 109 79 91 109 79 91 109 79 91 109 79 91 109 79 91 107 79 91 108 87 96 107 87 96 109 86 96 109 86 96 112 84 96 114 84 96 115 83 96 118 82 96 109 68 84 111 67 84 113 66 84 114 65 84 117 64 84 117 64 84 120 62 84 118 63 84 111 62 81 106 62 79 101 57 74 92 51 67 86 45 61 76 40 54 69 35 49 65 35 47 54 28 39 53 32 41
82 72 73 79 67 69 75 65 66 74 62 64 74 59 64 73 52 61 74 50 63 76 50 63 74 50 63 76 50 63 74 50 63 76 50 63 74 50 63 78 52 65 74 50 63 74 48 61 69 45 58 67 41 54 62 38 51 62 36 49 58 34 47 57 36 45 57 37 46 60 40 49 63 43 52 66 46 55 70 50 59 72 52 61 73 53 62 87 67 76 88 68 77 90 70 79 94 74 83 97 77 86 100 80 89 103 83 92 104 84 95 82 60 73 80 58 71 77 57 69 74 54 66 68 50 62 64 48 59 60 47 57 56 46 55 40 33 41 44 39 46 50 47 54 60 59 65 70 71 76 79 82 87 87 92 96 92 95 100 74 75 80 77 76 82 79 78 84 82 81 87 86 85 91 89 88 94 91 90 96 93 92 98 88 87 93 91 90 96 94 93 99 93 92 98 86 85 91 74 73 79 61 60 66 54 51 58 40 35 41 39 34 38 39 33 37 37 32 36 37 31 35 34 29 33 35 29 33 33 28 32 42 36 40 42 37 41 44 38 42 44 39 43 46 40 44 47 42 46 48 42 46 49 42 49 57 47 56 58 46 56 58 46 56 58 46 56 58 46 56 58 46 56 58 46 56 58 46 56 66 54 64 66 54 64 66 54 64 66 54 64 66 54 64 66 54 64 66 54 64 65 55 64 92 85 92 93 87 91 96 90 94 99 93 97 102 96 100 106 100 104 108 102 106 109 103 107 100 94 98 100 94 98 100 94 98 100 94 98 100 94 98 100 94 98 100 94 98 102 92 100 88 76 86 87 73 86 85 71 84 82 68 81 78 64 77 75 61 74 73 59 72 71 57 70 85 71 84 87 73 86 89 75 88 92 78 91 96 82 95 99 85 98 101 87 100 102 90 100 102 92 100 100 93 100 100 93 100 100 93 100 100 93 100 100 93 100 100 93 100 100 93 100 103 96 103 103 96 103 103 96 103 103 96 103 103 96 103 103 96 103 103 96 103 106 95 101 102 85 91 102 83 87 100 81 87 97 78 82 93 74 80 90 71 75 88 69 75 86 67 71 82 63 69 83 64 68 85 66 72 89 70 74 92 73 79 95 76 80 98 79 85 100 79 86 121 95 104 122 94 106 122 94 106 122 94 106 122 94 106 122 94 106 122 94 106 122 94 106 109 81 93 109 81 93 109 81 93 109 81 93 109 81 93 109 81 93 109 81 93 108 82 93 111 85 96 109 86 96 111 85 96 112 84 96 114 84 96 115 83 96 116 82 96 118 82 96 109 68 84 110 67 84 111 67 84 113 66 84 114 65 84 114 65 84 116 65 84 116 65 84 110 63 81 105 62 79 99 58 74 90 52 67 83 47 61 74 40 54 68 36 49 63 35 47 52 29 39 52 32 41
90 81 82 91 81 82 90 81 82 91 81 82 92 80 84 84 64 73 83 61 73 82 58 71 78 56 68 75 51 64 71 49 61 70 46 59 67 45 57 77 53 66 74 52 64 73 49 62 69 47 59 66 42 55 62 40 52 61 37 50 58 37 46 56 37 43 58 39 45 63 44 50 70 51 57 76 57 63 83 64 70 88 69 75 90 71 77 101 82 88 101 82 88 101 82 88 101 82 88 101 82 88 101 82 88 101 82 88 101 82 88 91 71 80 90 70 81 88 68 79 84 64 75 81 61 72 76 59 69 73 56 66 71 55 65 78 62 72 79 63 73 79 66 75 83 70 79 86 73 82 88 77 85 91 80 88 91 81 89 85 80 87 83 80 89 83 80 89 83 80 89 83 80 89 83 80 89 83 80 89 83 80 89 92 89 98 89 86 95 83 80 89 75 72 81 67 64 73 60 57 66 54 51 60 50 49 57 35 33 44 34 34 44 35 33 44 34 34 44 35 33 44 34 34 44 35 33 44 34 34 44 43 41 52 42 42 52 43 41 52 42 42 52 43 41 52 42 42 52 43 41 52 43 41 52 50 44 58 51 43 58 51 43 58 51 43 58 51 43 58 51 43 58 51 43 58 51 43 58 54 46 61 57 49 64 62 54 69 68 60 75 75 67 82 81 73 88 86 78 93 88 82 94 94 91 98 93 92 97 93 92 97 93 92 97 93 92 97 93 92 97 93 92 97 93 92 97 98 97 102 98 97 102 98 97 102 98 97 102 98 97 102 98 97 102 98 97 102 102 95 102 88 70 82 89 67 80 86 64 77 81 59 72 77 55 68 72 50 63 69 47 60 67 45 58 90 68 81 92 70 83 94 72 85 97 75 88 101 79 92 104 82 95 106 84 97 107 87 98 105 93 97 104 94 95 104 94 95 104 94 95 104 94 95 104 94 95 104 94 95 104 94 95 107 97 98 105 95 96 103 93 94 100 90 91 96 86 87 93 83 84 91 81 82 90 78 80 107 88 92 108 88 90 108 87 92 108 88 90 108 87 92 108 88 90 108 87 92 108 88 90 88 67 72 88 68 70 88 67 72 88 68 70 88 67 72 88 68 70 88 67 72 88 67 72 111 88 96 111 88 96 111 88 96 111 88 96 111 88 96 111 88 96 111 88 96 111 88 96 101 78 86 103 80 88 105 82 90 108 85 93 112 89 97 115 92 100 117 94 102 121 95 106 120 90 102 119 87 102 117 85 100 115 81 97 111 77 93 108 74 90 108 71 88 106 69 86 109 70 88 109 70 88 109 70 88 111 70 88 111 70 88 111 70 88 111 70 88 111 70 88 97 56 72 93 55 70 87 51 65 78 44 58 71 39 52 61 33 45 55 29 40 50 29 38 57 40 48 54 41 48
90 81 82 90 81 82 90 81 82 90 81 82 91 80 84 84 64 73 83 61 73 81 59 71 78 56 68 74 52 64 71 49 61 69 47 59 67 45 57 76 54 66 74 52 64 72 50 62 69 47 59 65 43 55 62 40 52 60 38 50 58 37 46 56 37 43 58 39 43 63 44 48 70 51 55 76 57 61 83 64 68 88 69 73 90 71 75 101 82 86 101 82 86 101 82 86 101 82 86 101 82 86 101 82 86 101 82 86 101 82 86 90 70 79 89 69 78 86 66 75 83 63 72 80 60 69 76 56 65 74 54 63 73 53 62 78 58 67 79 59 68 82 62 71 85 65 74 88 68 77 92 72 81 94 74 83 92 76 86 89 82 90 86 83 92 86 83 92 86 83 92 86 83 92 86 83 92 86 83 92 86 83 92 88 85 94 85 82 91 79 76 85 72 69 78 65 62 71 58 55 64 53 50 59 49 47 58 34 34 46 32 34 47 32 34 47 32 34 47 32 34 47 32 34 47 32 34 47 32 34 47 40 42 55 40 42 55 40 42 55 40 42 55 40 42 55 40 42 55 40 42 55 42 41 55 48 44 59 50 43 59 50 43 59 50 43 59 50 43 59 50 43 59 50 43 59 50 43 59 54 47 63 57 50 66 62 55 71 68 61 77 75 68 84 81 74 90 86 79 95 87 83 97 93 92 98 92 93 97 93 92 97 92 93 97 93 92 97 92 93 97 93 92 97 92 93 97 96 95 100 95 96 100 96 95 100 95 96 100 96 95 100 95 96 100 96 95 100 100 93 100 88 68 80 91 64 79 88 61 76 84 57 72 80 53 68 76 49 64 73 46 61 72 45 60 93 66 81 95 68 83 97 70 85 100 73 88 104 77 92 107 80 95 109 82 97 108 86 98 108 92 95 105 93 93 105 93 93 105 93 93 105 93 93 105 93 93 105 93 93 105 93 93 108 96 96 106 94 94 104 92 92 101 89 89 97 85 85 94 82 82 92 80 80 92 78 78 105 86 88 106 86 88 106 86 88 106 86 88 106 86 88 106 86 88 106 86 88 106 86 88 90 70 72 90 70 72 90 70 72 90 70 72 90 70 72 90 70 72 90 70 72 90 70 72 108 87 94 108 87 94 108 87 94 108 87 94 108 87 94 108 87 94 108 87 94 108 87 94 100 79 86 102 81 88 104 83 90 107 86 93 111 90 97 114 93 100 116 95 102 121 95 104 121 89 104 122 85 102 120 83 100 117 80 97 113 76 93 110 73 90 108 71 88 106 69 86 108 71 88 108 71 88 108 71 88 108 71 88 108 71 88 108 71 88 108 71 88 108 71 88 94 58 72 90 56 70 85 51 65 76 46 58 70 40 52 60 34 45 53 30 40 49 29 38 56 41 48 53 42 48
90 81 82 90 81 82 90 81 82 90 81 82 91 80 84 84 64 73 83 61 73 81 59 71 78 56 68 74 52 64 71 49 61 69 47 59 67 45 57 76 54 66 74 52 64 72 50 62 69 47 59 65 43 55 62 40 52 60 38 50 58 37 46 56 37 43 58 39 43 63 44 48 70 51 55 76 57 61 83 64 68 88 69 73 90 71 75 101 82 86 101 82 86 101 82 86 101 82 86 101 82 86 101 82 86 101 82 86 101 82 86 88 68 77 86 66 75 84 64 73 81 61 70 77 57 66 74 54 63 72 52 61 70 50 59 73 53 62 74 54 63 77 57 66 80 60 69 84 64 73 87 67 76 89 69 78 87 71 81 92 85 93 89 86 95 89 86 95 89 86 95 89 86 95 89 86 95 89 86 95 89 86 95 79 76 85 77 74 83 73 70 79 67 64 73 61 58 67 55 52 61 51 48 57 47 45 56 34 34 46 32 34 47 32 34 47 32 34 47 32 34 47 32 34 47 32 34 47 32 34 47 40 42 55 40 42 55 40 42 55 40 42 55 40 42 55 40 42 55 40 42 55 42 41 55 48 44 59 50 43 59 50 43 59 50 43 59 50 43 59 50 43 59 50 43 59 50 43 59 57 50 66 59 52 68 64 57 73 71 64 80 78 71 87 84 77 93 89 82 98 91 85 99 94 91 98 93 92 97 94 92 97 93 92 97 94 92 97 93 92 97 94 92 97 93 92 97 95 93 98 94 93 98 95 93 98 94 93 98 95 93 98 94 93 98 95 93 98 98 91 98 85 65 77 88 61 76 86 59 74 83 56 71 81 54 69 78 51 66 76 49 64 75 48 63 93 66 81 95 68 83 97 70 85 100 73 88 104 77 92 107 80 95 109 82 97 108 86 98 108 92 95 105 93 93 105 93 93 105 93 93 105 93 93 105 93 93 105 93 93 105 93 93 108 96 96 106 94 94 104 92 92 101 89 89 97 85 85 94 82 82 92 80 80 92 78 78 103 84 86 104 84 86 104 84 86 104 84 86 104 84 86 104 84 86 104 84 86 104 84 86 92 72 74 92 72 74 92 72 74 92 72 74 92 72 74 92 72 74 92 72 74 92 72 74 106 85 92 106 85 92 106 85 92 106 85 92 106 85 92 106 85 92 106 85 92 106 85 92 100 79 86 102 81 88 104 83 90 107 86 93 111 90 97 114 93 100 116 95 102 121 95 104 121 89 104 122 85 102 120 83 100 117 80 97 113 76 93 110 73 90 108 71 88 106 69 86 108 71 88 108 71 88 108 71 88 108 71 88 108 71 88 108 71 88 108 71 88 108 71 88 94 58 72 90 56 70 85 51 65 76 46 58 70 40 52 60 34 45 53 30 40 49 29 38 56 41 48 53 42 48
90 81 82 90 81 82 90 81 82 90 81 82 91 80 84 84 64 73 83 61 73 81 59 71 78 56 68 74 52 64 71 49 61 69 47 59 67 45 57 76 54 66 74 52 64 72 50 62 69 47 59 65 43 55 62 40 52 60 38 50 58 37 46 56 37 43 58 39 43 63 44 48 70 51 55 76 57 61 83 64 68 88 69 73 90 71 75 101 82 86 101 82 86 101 82 86 101 82 86 101 82 86 101 82 86 101 82 86 101 82 86 84 64 73 83 63 72 81 61 70 77 57 66 74 54 63 71 51 60 68 48 57 67 47 56 67 47 56 68 48 57 71 51 60 74 54 63 77 57 66 80 60 69 83 63 72 81 65 75 91 84 92 88 85 94 88 85 94 88 85 94 88 85 94 88 85 94 88 85 94 88 85 94 68 65 74 67 64 73 64 61 70 60 57 66 55 52 61 51 48 57 48 45 54 45 43 54 34 34 46 32 34 47 32 34 47 32 34 47 32 34 47 32 34 47 32 34 47 32 34 47 40 42 55 40 42 55 40 42 55 40 42 55 40 42 55 40 42 55 40 42 55 42 41 55 48 44 59 50 43 59 50 43 59 50 43 59 50 43 59 50 43 59 50 43 59 50 43 59 60 53 69 63 56 72 67 60 76 74 67 83 81 74 90 87 80 96 92 85 101 95 89 103 96 91 98 94 92 97 96 91 97 94 92 97 96 91 97 94 92 97 96 91 97 94 92 97 94 89 95 92 90 95 94 89 95 92 90 95 94 89 95 92 90 95 94 89 95 97 87 95 80 60 72 84 57 72 83 56 71 82 55 70 82 55 70 81 54 69 80 53 68 80 53 68 93 66 81 95 68 83 97 70 85 100 73 88 104 77 92 107 80 95 109 82 97 108 86 98 108 92 95 105 93 93 105 93 93 105 93 93 105 93 93 105 93 93 105 93 93 105 93 93 108 96 96 106 94 94 104 92 92 101 89 89 97 85 85 94 82 82 92 80 80 92 78 78 100 81 83 101 81 83 101 81 83 101 81 83 101 81 83 101 81 83 101 81 83 101 81 83 95 75 77 95 75 77 95 75 77 95 75 77 95 75 77 95 75 77 95 75 77 95 75 77 103 82 89 103 82 89 103 82 89 103 82 89 103 82 89 103 82 89 103 82 89 103 82 89 100 79 86 102 81 88 104 83 90 107 86 93 111 90 97 114 93 100 116 95 102 121 95 104 121 89 104 122 85 102 120 83 100 117 80 97 113 76 93 110 73 90 108 71 88 106 69 86 108 71 88 108 71 88 108 71 88 108 71 88 108 71 88 108 71 88 108 71 88 108 71 88 94 58 72 90 56 70 85 51 65 76 46 58 70 40 52 60 34 45 53 30 40 49 29 38 56 41 48 53 42 48
90 81 82 90 81 82 90 81 82 90 81 82 91 80 84 84 64 73 83 61 73 81 59 71 78 56 68 74 52 64 71 49 61 69 47 59 67 45 57 76 54 66 74 52 64 72 50 62 69 47 59 65 43 55 62 40 52 60 38 50 58 37 46 56 37 43 58 39 43 63 44 48 70 51 55 76 57 61 83 64 68 88 69 73 90 71 75 101 82 86 101 82 86 101 82 86 101 82 86 101 82 86 101 82 86 101 82 86 101 82 86 81 61 70 80 60 69 77 57 66 74 54 63 71 51 60 67 47 56 65 45 54 64 44 53 60 40 49 61 41 50 64 44 53 67 47 56 70 50 59 73 53 62 76 56 65 74 58 68 84 77 85 81 78 87 81 78 87 81 78 87 81 78 87 81 78 87 81 78 87 81 78 87 57 54 63 56 53 62 54 51 60 52 49 58 49 46 55 47 44 53 45 42 51 43 41 52 34 34 46 32 34 47 32 34 47 32 34 47 32 34 47 32 34 47 32 34 47 32 34 47 40 42 55 40 42 55 40 42 55 40 42 55 40 42 55 40 42 55 40 42 55 42 41 55 48 44 59 50 43 59 50 43 59 50 43 59 50 43 59 50 43 59 50 43 59 50 43 59 63 56 72 66 59 75 71 64 80 77 70 86 84 77 93 91 84 100 95 88 104 98 92 106 96 91 98 96 91 97 97 90 97 96 91 97 97 90 97 96 91 97 97 90 97 96 91 97 91 84 91 90 85 91 91 84 91 90 85 91 91 84 91 90 85 91 91 84 91 94 83 91 77 55 68 80 53 68 81 54 69 82 55 70 82 55 70 83 56 71 84 57 72 84 57 72 93 66 81 95 68 83 97 70 85 100 73 88 104 77 92 107 80 95 109 82 97 108 86 98 108 92 95 105 93 93 105 93 93 105 93 93 105 93 93 105 93 93 105 93 93 105 93 93 108 96 96 106 94 94 104 92 92 101 89 89 97 85 85 94 82 82 92 80 80 92 78 78 96 77 79 97 77 79 97 77 79 97 77 79 97 77 79 97 77 79 97 77 79 97 77 79 99 79 81 99 79 81 99 79 81 99 79 81 99 79 81 99 79 81 99 79 81 99 79 81 99 78 85 99 78 85 99 78 85 99 78 85 99 78 85 99 78 85 99 78 85 99 78 85 100 79 86 102 81 88 104 83 90 107 86 93 111 90 97 114 93 100 116 95 102 121 95 104 121 89 104 122 85 102 120 83 100 117 80 97 113 76 93 110 73 90 108 71 88 106 69 86 108 71 88 108 71 88 108 71 88 108 71 88 108 71 88 108 71 88 108 71 88 108 71 88 94 58 72 90 56 70 85 51 65 76 46 58 70 40 52 60 34 45 53 30 40 49 29 38 56 41 48 53 42 48
90 81 82 90 81 82 90 81 82 90 81 82 91 80 84 84 64 73 83 61 73 81 59 71 78 56 68 74 52 64 71 49 61 69 47 59 67 45 57 76 54 66 74 52 64 72 50 62 69 47 59 65 43 55 62 40 52 60 38 50 58 37 46 56 37 43 58 39 43 63 44 48 70 51 55 76 57 61 83 64 68 88 69 73 90 71 75 101 82 86 101 82 86 101 82 86 101 82 86 101 82 86 101 82 86 101 82 86 101 82 86 78 58 67 76 56 65 74 54 63 71 51 60 67 47 56 64 44 53 62 42 51 60 40 49 54 34 43 55 35 44 57 37 46 60 40 49 64 44 53 67 47 56 70 50 59 68 52 62 72 65 73 69 66 75 69 66 75 69 66 75 69 66 75 69 66 75 69 66 75 69 66 75 46 43 52 46 43 52 45 42 51 45 42 51 44 41 50 43 40 49 43 40 49 41 39 50 34 34 46 32 34 47 32 34 47 32 34 47 32 34 47 32 34 47 32 34 47 32 34 47 40 42 55 40 42 55 40 42 55 40 42 55 40 42 55 40 42 55 40 42 55 42 41 55 48 44 59 50 43 59 50 43 59 50 43 59 50 43 59 50 43 59 50 43 59 50 43 59 67 60 76 69 62 78 74 67 83 80 73 89 87 80 96 94 87 103 99 92 108 101 95 109 97 90 98 99 89 97 99 89 97 99 89 97 99 89 97 99 89 97 99 89 97 99 89 97 90 80 88 90 80 88 90 80 88 90 80 88 90 80 88 90 80 88 90 80 88 92 79 88 72 50 63 76 49 64 78 51 66 81 54 69 83 56 71 86 59 74 88 61 76 89 62 77 93 66 81 95 68 83 97 70 85 100 73 88 104 77 92 107 80 95 109 82 97 108 86 98 108 92 95 105 93 93 105 93 93 105 93 93 105 93 93 105 93 93 105 93 93 105 93 93 108 96 96 106 94 94 104 92 92 101 89 89 97 85 85 94 82 82 92 80 80 92 78 78 93 74 76 94 74 76 94 74 76 94 74 76 94 74 76 94 74 76 94 74 76 94 74 76 102 82 84 102 82 84 102 82 84 102 82 84 102 82 84 102 82 84 102 82 84 102 82 84 96 75 82 96 75 82 96 75 82 96 75 82 96 75 82 96 75 82 96 75 82 96 75 82 100 79 86 102 81 88 104 83 90 107 86 93 111 90 97 114 93 100 116 95 102 121 95 104 121 89 104 122 85 102 120 83 100 117 80 97 113 76 93 110 73 90 108 71 88 106 69 86 108 71 88 108 71 88 108 71 88 108 71 88 108 71 88 108 71 88 108 71 88 108 71 88 94 58 72 90 56 70 85 51 65 76 46 58 70 40 52 60 34 45 53 30 40 49 29 38 56 41 48 53 42 48
90 81 82 90 81 82 90 81 82 90 81 82 91 80 84 84 64 73 83 61 73 81 59 71 78 56 68 74 52 64 71 49 61 69 47 59 67 45 57 76 54 66 74 52 64 72 50 62 69 47 59 65 43 55 62 40 52 60 38 50 58 37 46 56 37 43 58 39 43 63 44 48 70 51 55 76 57 61 83 64 68 88 69 73 90 71 75 101 82 86 101 82 86 101 82 86 101 82 86 101 82 86 101 82 86 101 82 86 101 82 86 75 55 64 74 54 63 72 52 61 68 48 57 65 45 54 62 42 51 59 39 48 58 38 47 49 29 38 50 30 39 52 32 41 56 36 45 59 39 48 62 42 51 65 45 54 63 47 57 59 52 60 56 53 62 56 53 62 56 53 62 56 53 62 56 53 62 56 53 62 56 53 62 38 35 44 38 35 44 38 35 44 39 36 45 40 37 46 40 37 46 41 38 47 40 38 49 34 34 46 32 34 47 32 34 47 32 34 47 32 34 47 32 34 47 32 34 47 32 34 47 40 42 55 40 42 55 40 42 55 40 42 55 40 42 55 40 42 55 40 42 55 42 41 55 48 44 59 50 43 59 50 43 59 50 43 59 50 43 59 50 43 59 50 43 59 50 43 59 69 62 78 72 65 81 77 70 86 83 76 92 90 83 99 96 89 105 101 94 110 105 97 112 99 89 98 100 89 97 100 89 97 100 89 97 100 89 97 100 89 97 100 89 97 100 89 97 89 78 86 89 78 86 89 78 86 89 78 86 89 78 86 89 78 86 89 78 86 92 76 86 69 47 60 73 46 61 76 49 64 80 53 68 84 57 72 88 61 76 91 64 79 92 65 80 93 66 81 95 68 83 97 70 85 100 73 88 104 77 92 107 80 95 109 82 97 108 86 98 108 92 95 105 93 93 105 93 93 105 93 93 105 93 93 105 93 93 105 93 93 105 93 93 108 96 96 106 94 94 104 92 92 101 89 89 97 85 85 94 82 82 92 80 80 92 78 78 91 72 74 92 72 74 92 72 74 92 72 74 92 72 74 92 72 74 92 72 74 92 72 74 104 84 86 104 84 86 104 84 86 104 84 86 104 84 86 104 84 86 104 84 86 104 84 86 94 73 80 94 73 80 94 73 80 94 73 80 94 73 80 94 73 80 94 73 80 94 73 80 100 79 86 102 81 88 104 83 90 107 86 93 111 90 97 114 93 100 116 95 102 121 95 104 121 89 104 122 85 102 120 83 100 117 80 97 113 76 93 110 73 90 108 71 88 106 69 86 108 71 88 108 71 88 108 71 88 108 71 88 108 71 88 108 71 88 108 71 88 108 71 88 94 58 72 90 56 70 85 51 65 76 46 58 70 40 52 60 34 45 53 30 40 49 29 38 56 41 48 53 42 48
90 81 82 90 81 82 90 81 82 90 81 82 91 80 84 84 64 73 83 61 73 81 59 71 78 56 68 74 52 64 71 49 61 69 47 59 67 45 57 76 54 66 74 52 64 72 50 62 69 47 59 65 43 55 62 40 52 60 38 50 58 37 46 56 37 43 58 39 43 63 44 48 70 51 55 76 57 61 83 64 68 88 69 73 90 71 75 101 82 86 101 82 86 101 82 86 101 82 86 101 82 86 101 82 86 101 82 86 101 82 86 74 54 63 73 53 62 70 50 59 67 47 56 64 44 53 60 40 49 58 38 47 57 37 46 46 26 35 47 27 36 50 30 39 53 33 42 56 36 45 60 40 49 62 42 51 60 44 54 51 44 52 48 45 54 48 45 54 48 45 54 48 45 54 48 45 54 48 45 54 48 45 54 33 30 39 34 31 40 35 32 41 36 33 42 37 34 43 39 36 45 39 36 45 39 37 48 34 34 46 32 34 47 32 34 47 32 34 47 32 34 47 32 34 47 32 34 47 32 34 47 40 42 55 40 42 55 40 42 55 40 42 55 40 42 55 40 42 55 40 42 55 42 41 55 48 44 59 50 43 59 50 43 59 50 43 59 50 43 59 50 43 59 50 43 59 50 43 59 70 63 79 73 66 82 78 71 87 84 77 93 91 84 100 97 90 106 102 95 111 106 98 113 101 88 98 103 87 97 103 87 97 103 87 97 103 87 97 103 87 97 103 87 97 103 87 97 90 74 84 90 74 84 90 74 84 90 74 84 90 74 84 90 74 84 90 74 84 91 74 84 68 44 58 72 45 60 75 48 63 80 53 68 84 57 72 89 62 77 92 65 80 94 67 82 93 66 81 95 68 83 97 70 85 100 73 88 104 77 92 107 80 95 109 82 97 108 86 98 108 92 95 105 93 93 105 93 93 105 93 93 105 93 93 105 93 93 105 93 93 105 93 93 108 96 96 106 94 94 104 92 92 101 89 89 97 85 85 94 82 82 92 80 80 92 78 78 89 70 72 90 70 72 90 70 72 90 70 72 90 70 72 90 70 72 90 70 72 90 70 72 106 86 88 106 86 88 106 86 88 106 86 88 106 86 88 106 86 88 106 86 88 106 86 88 92 71 78 92 71 78 92 71 78 92 71 78 92 71 78 92 71 78 92 71 78 92 71 78 100 79 86 102 81 88 104 83 90 107 86 93 111 90 97 114 93 100 116 95 102 121 95 104 121 89 104 122 85 102 120 83 100 117 80 97 113 76 93 110 73 90 108 71 88 106 69 86 108 71 88 108 71 88 108 71 88 108 71 88 108 71 88 108 71 88 108 71 88 108 71 88 94 58 72 90 56 70 85 51 65 76 46 58 70 40 52 60 34 45 53 30 40 49 29 38 56 41 48 53 42 48
93 84 85 93 84 85 93 84 85 93 84 85 94 83 87 92 72 81 92 70 82 89 67 79 86 64 76 83 61 73 79 57 69 77 55 67 76 54 66 62 40 52 62 40 52 62 40 52 62 40 52 62 40 52 62 40 52 62 40 52 62 41 50 56 37 43 58 39 43 63 44 48 70 51 55 76 57 61 83 64 68 88 69 73 90 71 75 99 80 84 99 80 84 99 80 84 99 80 84 99 80 84 99 80 84 99 80 84 99 80 84 68 48 57 66 46 55 64 44 53 61 41 50 57 37 46 54 34 43 52 32 41 50 30 39 50 30 39 50 30 39 50 30 39 50 30 39 50 30 39 50 30 39 50 30 39 47 31 41 39 32 40 36 33 42 36 33 42 36 33 42 36 33 42 36 33 42 36 33 42 36 33 42 35 32 41 35 32 41 35 32 41 35 32 41 35 32 41 35 32 41 35 32 41 34 32 43 38 38 50 36 38 51 36 38 51 36 38 51 36 38 51 36 38 51 36 38 51 36 38 51 38 40 53 38 40 53 38 40 53 38 40 53 38 40 53 38 40 53 38 40 53 40 39 53 44 40 55 46 39 55 46 39 55 46 39 55 46 39 55 46 39 55 46 39 55 46 39 55 83 76 92 83 76 92 83 76 92 83 76 92 83 76 92 83 76 92 83 76 92 86 75 91 82 66 77 85 65 76 85 65 76 85 65 76 85 65 76 85 65 76 85 65 76 85 65 76 69 49 60 69 49 60 69 49 60 69 49 60 69 49 60 69 49 60 69 49 60 70 48 60 79 55 69 83 56 71 85 58 73 88 61 76 92 65 80 95 68 83 97 70 85 99 72 87 103 76 91 105 78 93 107 80 95 110 83 98 114 87 102 117 90 105 119 92 107 118 96 108 105 89 92 102 90 90 102 90 90 102 90 90 102 90 90 102 90 90 102 90 90 102 90 90 99 87 87 99 87 87 99 87 87 99 87 87 99 87 87 99 87 87 99 87 87 101 87 87 95 76 78 96 76 78 96 76 78 96 76 78 96 76 78 96 76 78 96 76 78 96 76 78 97 77 79 98 78 80 101 81 83 104 84 86 107 87 89 111 91 93 113 93 95 114 94 96 117 96 103 115 94 101 112 91 98 107 86 93 103 82 89 98 77 84 95 74 81 93 72 79 112 91 98 112 91 98 112 91 98 112 91 98 112 91 98 112 91 98 112 91 98 115 89 98 110 78 93 113 76 93 113 76 93 113 76 93 113 76 93 113 76 93 113 76 93 113 76 93 117 80 97 117 80 97 117 80 97 117 80 97 117 80 97 117 80 97 117 80 97 117 80 97 103 67 81 93 59 73 80 46 60 66 36 48 59 29 41 55 29 40 56 33 43 57 37 46 46 31 38 49 38 44
91 82 83 91 82 83 91 82 83 91 82 83 92 81 85 89 69 78 89 67 79 87 65 77 83 61 73 80 58 70 77 55 67 74 52 64 73 51 63 62 40 52 62 40 52 62 40 52 62 40 52 62 40 52 62 40 52 62 40 52 62 41 50 56 37 43 58 39 43 63 44 48 70 51 55 76 57 61 83 64 68 88 69 73 90 71 75 99 80 84 99 80 84 99 80 84 99 80 84 99 80 84 99 80 84 99 80 84 99 80 84 68 48 57 66 46 55 64 44 53 61 41 50 57 37 46 54 34 43 52 32 41 50 30 39 50 30 39 50 30 39 50 30 39 50 30 39 50 30 39 50 30 39 50 30 39 47 31 41 39 32 40 36 33 42 36 33 42 36 33 42 36 33 42 36 33 42 36 33 42 36 33 42 35 32 41 35 32 41 35 32 41 35 32 41 35 32 41 35 32 41 35 32 41 34 32 43 38 38 50 36 38 51 36 38 51 36 38 51 36 38 51 36 38 51 36 38 51 36 38 51 38 40 53 38 40 53 38 40 53 38 40 53 38 40 53 38 40 53 38 40 53 40 39 53 44 40 55 46 39 55 46 39 55 46 39 55 46 39 55 46 39 55 46 39 55 46 39 55 86 79 95 86 79 95 86 79 95 86 79 95 86 79 95 86 79 95 86 79 95 89 78 94 83 63 75 85 61 74 85 61 74 85 61 74 85 61 74 85 61 74 85 61 74 85 61 74 71 47 60 71 47 60 71 47 60 71 47 60 71 47 60 71 47 60 71 47 60 71 47 60 81 54 69 83 56 71 85 58 73 88 61 76 92 65 80 95 68 83 97 70 85 99 72 87 103 76 91 105 78 93 107 80 95 110 83 98 114 87 102 117 90 105 119 92 107 118 96 108 105 89 92 102 90 90 102 90 90 102 90 90 102 90 90 102 90 90 102 90 90 102 90 90 99 87 87 99 87 87 99 87 87 99 87 87 99 87 87 99 87 87 99 87 87 101 87 87 95 76 78 96 76 78 96 76 78 96 76 78 96 76 78 96 76 78 96 76 78 96 76 78 96 76 78 97 77 79 99 79 81 103 83 85 106 86 88 109 89 91 112 92 94 113 93 95 115 94 101 114 93 100 111 90 97 107 86 93 103 82 89 99 78 85 96 75 82 95 74 81 112 91 98 112 91 98 112 91 98 112 91 98 112 91 98 112 91 98 112 91 98 115 89 98 110 78 93 113 76 93 113 76 93 113 76 93 113 76 93 113 76 93 113 76 93 113 76 93 117 80 97 117 80 97 117 80 97 117 80 97 117 80 97 117 80 97 117 80 97 117 80 97 103 67 81 93 59 73 80 46 60 66 36 48 59 29 41 55 29 40 56 33 43 57 37 46 46 31 38 49 38 44
89 80 81 89 80 81 89 80 81 89 80 81 90 79 83 84 64 73 84 62 74 82 60 72 79 57 69 75 53 65 72 50 62 69 47 59 68 46 58 62 40 52 62 40 52 62 40 52 62 40 52 62 40 52 62 40 52 62 40 52 62 41 50 56 37 43 58 39 43 63 44 48 70 51 55 76 57 61 83 64 68 88 69 73 90 71 75 99 80 84 99 80 84 99 80 84 99 80 84 99 80 84 99 80 84 99 80 84 99 80 84 68 48 57 66 46 55 64 44 53 61 41 50 57 37 46 54 34 43 52 32 41 50 30 39 50 30 39 50 30 39 50 30 39 50 30 39 50 30 39 50 30 39 50 30 39 47 31 41 39 32 40 36 33 42 36 33 42 36 33 42 36 33 42 36 33 42 36 33 42 36 33 42 35 32 41 35 32 41 35 32 41 35 32 41 35 32 41 35 32 41 35 32 41 34 32 43 38 38 50 36 38 51 36 38 51 36 38 51 36 38 51 36 38 51 36 38 51 36 38 51 38 40 53 38 40 53 38 40 53 38 40 53 38 40 53 38 40 53 38 40 53 40 39 53 44 40 55 46 39 55 46 39 55 46 39 55 46 39 55 46 39 55 46 39 55 46 39 55 89 82 98 89 82 98 89 82 98 89 82 98 89 82 98 89 82 98 89 82 98 93 80 97 82 60 73 85 59 72 85 59 72 85 59 72 85 59 72 85 59 72 85 59 72 85 59 72 73 47 60 73 47 60 73 47 60 73 47 60 73 47 60 73 47 60 73 47 60 73 47 60 81 54 69 83 56 71 85 58 73 88 61 76 92 65 80 95 68 83 97 70 85 99 72 87 103 76 91 105 78 93 107 80 95 110 83 98 114 87 102 117 90 105 119 92 107 118 96 108 105 89 92 102 90 90 102 90 90 102 90 90 102 90 90 102 90 90 102 90 90 102 90 90 99 87 87 99 87 87 99 87 87 99 87 87 99 87 87 99 87 87 99 87 87 101 87 87 95 76 78 96 76 78 96 76 78 96 76 78 96 76 78 96 76 78 96 76 78 96 76 78 93 73 75 95 75 77 97 77 79 100 80 82 104 84 86 107 87 89 109 89 91 111 91 93 112 91 98 111 90 97 109 88 95 106 85 92 104 83 90 101 80 87 99 78 85 98 77 84 112 91 98 112 91 98 112 91 98 112 91 98 112 91 98 112 91 98 112 91 98 115 89 98 110 78 93 113 76 93 113 76 93 113 76 93 113 76 93 113 76 93 113 76 93 113 76 93 117 80 97 117 80 97 117 80 97 117 80 97 117 80 97 117 80 97 117 80 97 117 80 97 103 67 81 93 59 73 80 46 60 66 36 48 59 29 41 55 29 40 56 33 43 57 37 46 46 31 38 49 38 44
86 77 78 86 77 78 86 77 78 86 77 78 87 76 80 78 58 67 78 56 68 75 53 65 72 50 62 69 47 59 66 44 56 63 41 53 62 40 52 62 40 52 62 40 52 62 40 52 62 40 52 62 40 52 62 40 52 62 40 52 62 41 50 56 37 43 58 39 43 63 44 48 70 51 55 76 57 61 83 64 68 88 69 73 90 71 75 99 80 84 99 80 84 99 80 84 99 80 84 99 80 84 99 80 84 99 80 84 99 80 84 68 48 57 66 46 55 64 44 53 61 41 50 57 37 46 54 34 43 52 32 41 50 30 39 50 30 39 50 30 39 50 30 39 50 30 39 50 30 39 50 30 39 50 30 39 47 31 41 39 32 40 36 33 42 36 33 42 36 33 42 36 33 42 36 33 42 36 33 42 36 33 42 35 32 41 35 32 41 35 32 41 35 32 41 35 32 41 35 32 41 35 32 41 34 32 43 38 38 50 36 38 51 36 38 51 36 38 51 36 38 51 36 38 51 36 38 51 36 38 51 38 40 53 38 40 53 38 40 53 38 40 53 38 40 53 38 40 53 38 40 53 40 39 53 44 40 55 46 39 55 46 39 55 46 39 55 46 39 55 46 39 55 46 39 55 46 39 55 88 81 97 88 81 97 88 81 97 88 81 97 88 81 97 88 81 97 88 81 97 92 79 96 80 56 70 83 55 69 85 54 69 83 55 69 85 54 69 83 55 69 85 54 69 83 55 69 76 45 60 74 46 60 76 45 60 74 46 60 76 45 60 74 46 60 76 45 60 74 46 60 81 54 69 83 56 71 85 58 73 88 61 76 92 65 80 95 68 83 97 70 85 99 72 87 103 76 91 105 78 93 107 80 95 110 83 98 114 87 102 117 90 105 119 92 107 118 96 108 105 89 92 102 90 90 102 90 90 102 90 90 102 90 90 102 90 90 102 90 90 102 90 90 99 87 87 99 87 87 99 87 87 99 87 87 99 87 87 99 87 87 99 87 87 101 87 87 95 76 78 96 76 78 96 76 78 96 76 78 96 76 78 96 76 78 96 76 78 96 76 78 90 70 72 91 71 73 94 74 76 97 77 79 100 80 82 104 84 86 106 86 88 107 87 89 107 86 93 107 86 93 106 85 92 105 84 91 105 84 91 104 83 90 103 82 89 103 82 89 112 91 98 112 91 98 112 91 98 112 91 98 112 91 98 112 91 98 112 91 98 115 89 98 110 78 93 113 76 93 113 76 93 113 76 93 113 76 93 113 76 93 113 76 93 113 76 93 117 80 97 117 80 97 117 80 97 117 80 97 117 80 97 117 80 97 117 80 97 117 80 97 103 67 81 93 59 73 80 46 60 66 36 48 59 29 41 55 29 40 56 33 43 57 37 46 46 31 38 49 38 44
82 73 74 82 73 74 82 73 74 82 73 74 83 72 76 71 51 60 71 49 61 68 46 58 65 43 55 62 40 52 59 37 49 56 34 46 55 33 45 62 40 52 62 40 52 62 40 52 62 40 52 62 40 52 62 40 52 62 40 52 62 41 50 56 37 43 58 39 43 63 44 48 70 51 55 76 57 61 83 64 68 88 69 73 90 71 75 99 80 84 99 80 84 99 80 84 99 80 84 99 80 84 99 80 84 99 80 84 99 80 84 68 48 57 66 46 55 64 44 53 61 41 50 57 37 46 54 34 43 52 32 41 50 30 39 50 30 39 50 30 39 50 30 39 50 30 39 50 30 39 50 30 39 50 30 39 47 31 41 39 32 40 36 33 42 36 33 42 36 33 42 36 33 42 36 33 42 36 33 42 36 33 42 35 32 41 35 32 41 35 32 41 35 32 41 35 32 41 35 32 41 35 32 41 34 32 43 38 38 50 36 38 51 36 38 51 36 38 51 36 38 51 36 38 51 36 38 51 36 38 51 38 40 53 38 40 53 38 40 53 38 40 53 38 40 53 38 40 53 38 40 53 40 39 53 44 40 55 46 39 55 46 39 55 46 39 55 46 39 55 46 39 55 46 39 55 46 39 55 81 74 90 81 74 90 81 74 90 81 74 90 81 74 90 81 74 90 81 74 90 85 72 89 76 52 66 81 50 65 82 50 65 81 50 65 82 50 65 81 50 65 82 50 65 81 50 65 77 45 60 76 45 60 77 45 60 76 45 60 77 45 60 76 45 60 77 45 60 76 45 60 82 54 69 83 56 71 85 58 73 88 61 76 92 65 80 95 68 83 97 70 85 99 72 87 103 76 91 105 78 93 107 80 95 110 83 98 114 87 102 117 90 105 119 92 107 118 96 108 105 89 92 102 90 90 102 90 90 102 90 90 102 90 90 102 90 90 102 90 90 102 90 90 99 87 87 99 87 87 99 87 87 99 87 87 99 87 87 99 87 87 99 87 87 101 87 87 95 76 78 96 76 78 96 76 78 96 76 78 96 76 78 96 76 78 96 76 78 96 76 78 87 67 69 88 68 70 90 70 72 94 74 76 97 77 79 100 80 82 103 83 85 104 84 86 103 82 89 103 82 89 104 83 90 105 84 91 105 84 91 106 85 92 107 86 93 107 86 93 112 91 98 112 91 98 112 91 98 112 91 98 112 91 98 112 91 98 112 91 98 115 89 98 110 78 93 113 76 93 113 76 93 113 76 93 113 76 93 113 76 93 113 76 93 113 76 93 117 80 97 117 80 97 117 80 97 117 80 97 117 80 97 117 80 97 117 80 97 117 80 97 103 67 81 93 59 73 80 46 60 66 36 48 59 29 41 55 29 40 56 33 43 57 37 46 46 31 38 49 38 44
79 70 71 79 70 71 79 70 71 79 70 71 80 69 73 65 45 54 65 43 55 62 40 52 59 37 49 55 33 45 52 30 42 50 28 40 49 27 39 62 40 52 62 40 52 62 40 52 62 40 52 62 40 52 62 40 52 62 40 52 62 41 50 56 37 43 58 39 43 63 44 48 70 51 55 76 57 61 83 64 68 88 69 73 90 71 75 99 80 84 99 80 84 99 80 84 99 80 84 99 80 84 99 80 84 99 80 84 99 80 84 68 48 57 66 46 55 64 44 53 61 41 50 57 37 46 54 34 43 52 32 41 50 30 39 50 30 39 50 30 39 50 30 39 50 30 39 50 30 39 50 30 39 50 30 39 47 31 41 39 32 40 36 33 42 36 33 42 36 33 42 36 33 42 36 33 42 36 33 42 36 33 42 35 32 41 35 32 41 35 32 41 35 32 41 35 32 41 35 32 41 35 32 41 34 32 43 38 38 50 36 38 51 36 38 51 36 38 51 36 38 51 36 38 51 36 38 51 36 38 51 38 40 53 38 40 53 38 40 53 38 40 53 38 40 53 38 40 53 38 40 53 40 39 53 44 40 55 46 39 55 46 39 55 46 39 55 46 39 55 46 39 55 46 39 55 46 39 55 69 62 78 69 62 78 69 62 78 69 62 78 69 62 78 69 62 78 69 62 78 73 60 77 75 48 63 79 47 62 80 46 62 79 47 62 80 46 62 79 47 62 80 46 62 79 47 62 78 44 60 77 45 60 78 44 60 77 45 60 78 44 60 77 45 60 78 44 60 77 45 60 82 54 69 83 56 71 85 58 73 88 61 76 92 65 80 95 68 83 97 70 85 99 72 87 103 76 91 105 78 93 107 80 95 110 83 98 114 87 102 117 90 105 119 92 107 118 96 108 105 89 92 102 90 90 102 90 90 102 90 90 102 90 90 102 90 90 102 90 90 102 90 90 99 87 87 99 87 87 99 87 87 99 87 87 99 87 87 99 87 87 99 87 87 101 87 87 95 76 78 96 76 78 96 76 78 96 76 78 96 76 78 96 76 78 96 76 78 96 76 78 83 63 65 85 65 67 87 67 69 90 70 72 94 74 76 97 77 79 99 79 81 101 81 83 98 77 84 99 78 85 101 80 87 104 83 90 106 85 92 109 88 95 111 90 97 112 91 98 112 91 98 112 91 98 112 91 98 112 91 98 112 91 98 112 91 98 112 91 98 115 89 98 110 78 93 113 76 93 113 76 93 113 76 93 113 76 93 113 76 93 113 76 93 113 76 93 117 80 97 117 80 97 117 80 97 117 80 97 117 80 97 117 80 97 117 80 97 117 80 97 103 67 81 93 59 73 80 46 60 66 36 48 59 29 41 55 29 40 56 33 43 57 37 46 46 31 38 49 38 44
77 68 69 77 68 69 77 68 69 77 68 69 78 67 71 60 40 49 60 38 50 57 35 47 54 32 44 51 29 41 47 25 37 45 23 35 44 22 34 62 40 52 62 40 52 62 40 52 62 40 52 62 40 52 62 40 52 62 40 52 62 41 50 56 37 43 58 39 43 63 44 48 70 51 55 76 57 61 83 64 68 88 69 73 90 71 75 99 80 84 99 80 84 99 80 84 99 80 84 99 80 84 99 80 84 99 80 84 99 80 84 68 48 57 66 46 55 64 44 53 61 41 50 57 37 46 54 34 43 52 32 41 50 30 39 50 30 39 50 30 39 50 30 39 50 30 39 50 30 39 50 30 39 50 30 39 47 31 41 39 32 40 36 33 42 36 33 42 36 33 42 36 33 42 36 33 42 36 33 42 36 33 42 35 32 41 35 32 41 35 32 41 35 32 41 35 32 41 35 32 41 35 32 41 34 32 43 38 38 50 36 38 51 36 38 51 36 38 51 36 38 51 36 38 51 36 38 51 36 38 51 38 40 53 38 40 53 38 40 53 38 40 53 38 40 53 38 40 53 38 40 53 40 39 53 44 40 55 46 39 55 46 39 55 46 39 55 46 39 55 46 39 55 46 39 55 46 39 55 56 49 65 56 49 65 56 49 65 56 49 65 56 49 65 56 49 65 56 49 65 61 47 64 74 46 61 78 44 60 80 43 60 78 44 60 80 43 60 78 44 60 80 43 60 78 44 60 80 43 60 78 44 60 80 43 60 78 44 60 80 43 60 78 44 60 80 43 60 77 45 60 82 54 69 83 56 71 85 58 73 88 61 76 92 65 80 95 68 83 97 70 85 99 72 87 103 76 91 105 78 93 107 80 95 110 83 98 114 87 102 117 90 105 119 92 107 118 96 108 105 89 92 102 90 90 102 90 90 102 90 90 102 90 90 102 90 90 102 90 90 102 90 90 99 87 87 99 87 87 99 87 87 99 87 87 99 87 87 99 87 87 99 87 87 101 87 87 95 76 78 96 76 78 96 76 78 96 76 78 96 76 78 96 76 78 96 76 78 96 76 78 81 61 63 82 62 64 85 65 67 88 68 70 91 71 73 95 75 77 97 77 79 98 78 80 95 74 81 96 75 82 99 78 85 103 82 89 107 86 93 111 90 97 114 93 100 115 94 101 112 91 98 112 91 98 112 91 98 112 91 98 112 91 98 112 91 98 112 91 98 115 89 98 110 78 93 113 76 93 113 76 93 113 76 93 113 76 93 113 76 93 113 76 93 113 76 93 117 80 97 117 80 97 117 80 97 117 80 97 117 80 97 117 80 97 117 80 97 117 80 97 103 67 81 93 59 73 80 46 60 66 36 48 59 29 41 55 29 40 56 33 43 57 37 46 46 31 38 49 38 44
75 66 69 75 66 69 75 66 69 75 66 69 76 65 69 54 38 48 54 36 48 52 34 46 48 30 42 45 27 39 42 24 36 39 21 33 38 20 32 59 41 53 59 41 53 59 41 53 59 41 53 59 41 53 59 41 53 59 41 53 59 42 52 54 37 45 56 39 45 63 44 50 68 51 57 76 57 63 81 64 70 88 69 75 88 71 77 99 80 86 97 80 86 99 80 86 97 80 86 99 80 86 97 80 86 99 80 86 99 80 86 68 49 55 67 46 53 65 44 51 62 41 48 58 37 44 55 34 41 53 32 39 51 30 37 51 30 37 51 30 37 51 30 37 51 30 37 51 30 37 51 30 37 51 30 37 48 31 39 39 31 42 36 33 44 36 33 44 36 33 44 36 33 44 36 33 44 36 33 44 36 33 44 35 32 43 35 32 43 35 32 43 35 32 43 35 32 43 35 32 43 35 32 43 34 32 43 38 38 50 36 38 50 36 38 51 36 38 50 36 38 51 36 38 50 36 38 51 36 38 50 38 40 53 38 40 52 38 40 53 38 40 52 38 40 53 38 40 52 38 40 53 40 40 52 46 40 54 47 39 54 47 39 54 47 39 54 47 39 54 47 39 54 47 39 54 47 39 54 49 41 56 49 41 56 49 41 56 49 41 56 49 41 56 49 41 56 49 41 56 53 39 54 72 44 59 76 42 58 76 42 58 76 42 58 76 42 58 76 42 58 76 42 58 76 42 58 78 44 60 78 44 60 78 44 60 78 44 60 78 44 60 78 44 60 78 44 60 77 45 60 84 53 69 84 56 71 86 58 73 88 61 76 92 65 80 95 68 83 95 71 85 97 73 87 101 77 91 102 80 93 104 82 95 106 86 98 110 90 102 113 93 105 115 95 107 115 98 108 102 90 94 101 91 92 102 90 94 101 91 92 102 90 94 101 91 92 102 90 94 101 91 92 99 87 91 98 88 89 99 87 91 98 88 89 99 87 91 98 88 89 99 87 91 101 86 89 95 76 78 96 76 78 96 76 78 96 76 78 96 76 78 96 76 78 96 76 78 96 76 78 80 60 62 81 61 63 83 63 65 87 67 69 90 70 72 93 73 75 96 76 78 97 77 79 94 71 77 96 73 81 99 76 84 104 81 89 108 85 93 113 90 98 116 93 101 118 95 103 113 90 98 113 90 98 113 90 98 113 90 98 113 90 98 113 90 98 113 90 98 116 89 98 111 77 93 113 76 93 114 75 93 113 76 93 114 75 93 113 76 93 114 75 93 113 76 93 118 79 97 117 80 97 118 79 97 117 80 97 118 79 97 117 80 97 118 79 97 115 81 97 100 68 83 89 61 73 75 49 62 63 37 48 54 30 43 52 31 40 54 34 45 54 39 46 44 31 40 49 38 44
57 46 52 53 42 48 50 39 45 48 37 43 46 35 43 44 32 44 44 32 44 44 32 44 44 32 44 44 32 44 44 32 44 44 32 44 44 32 44 46 34 46 46 34 46 46 34 46 46 34 46 46 34 46 46 34 46 46 34 46 46 34 44 49 33 43 51 36 43 57 40 48 63 48 55 70 53 61 76 61 68 82 65 73 83 68 75 104 87 95 102 87 94 101 84 92 96 81 88 94 77 85 90 75 82 88 71 79 87 70 76 66 45 50 65 43 46 63 41 44 60 38 41 56 34 37 53 31 34 51 29 32 49 27 30 53 31 34 53 31 34 53 31 34 53 31 34 53 31 34 53 31 34 53 31 34 51 32 38 48 38 49 43 39 53 43 39 53 43 39 53 43 39 53 43 39 53 43 39 53 43 39 53 38 34 48 38 34 48 38 34 48 38 34 48 38 34 48 38 34 48 38 34 48 37 35 48 39 39 51 37 40 49 37 39 51 37 40 49 37 39 51 37 40 49 37 39 51 37 40 49 38 40 52 38 41 50 38 40 52 38 41 50 38 40 52 38 41 50 38 40 52 41 39 50 44 33 47 46 32 47 46 32 47 46 32 47 46 32 47 46 32 47 46 32 47 46 32 47 50 36 51 50 36 51 50 36 51 50 36 51 50 36 51 50 36 51 50 36 51 53 35 49 66 38 52 69 37 50 69 37 50 69 37 50 69 37 50 69 37 50 69 37 50 69 37 50 70 38 51 72 40 53 74 42 55 77 45 58 81 49 62 84 52 65 86 54 67 88 56 71 91 58 75 92 59 78 95 64 82 97 68 86 101 74 91 103 79 95 106 83 99 107 86 101 109 91 105 106 92 105 105 93 105 104 94 105 102 94 105 102 94 105 101 95 105 101 96 103 98 88 97 98 88 96 99 87 97 98 88 96 99 87 97 98 88 96 99 87 97 98 88 96 101 89 99 101 91 99 104 92 102 107 97 105 111 99 109 113 103 111 117 105 115 119 106 113 102 83 87 103 83 84 103 83 84 103 83 84 103 83 84 103 83 84 103 83 84 103 83 84 89 69 70 89 69 70 89 69 70 89 69 70 89 69 70 89 69 70 89 69 70 90 68 71 99 74 80 102 75 82 104 77 84 107 80 87 111 84 91 114 87 94 116 89 96 118 91 98 115 88 95 113 86 93 111 84 91 108 81 88 104 77 84 101 74 81 99 72 79 99 69 79 107 70 87 108 69 88 110 68 88 108 69 88 110 68 88 108 69 88 110 68 88 108 69 88 124 82 102 122 83 102 124 82 102 122 83 102 124 82 102 122 83 102 124 82 102 118 85 102 76 54 67 63 50 59 53 40 50 44 31 40 41 28 38 42 31 39 48 36 46 51 41 49 56 46 55 54 44 52
57 46 54 53 42 50 50 39 47 48 37 45 45 35 44 43 33 44 41 33 46 41 33 46 41 33 46 41 33 46 41 33 46 41 33 46 41 33 46 43 35 48 43 35 48 43 35 48 43 35 48 43 35 48 43 35 48 43 35 48 45 35 46 47 34 44 51 35 45 56 40 50 63 47 57 69 53 63 76 60 70 81 65 75 83 67 77 102 86 96 101 85 95 98 82 92 95 79 89 92 76 86 88 72 82 86 70 80 86 69 77 66 45 50 65 43 45 65 40 44 60 38 40 58 33 37 53 31 33 53 28 32 49 27 29 55 30 34 53 31 33 55 30 34 53 31 33 55 30 34 53 31 33 55 30 34 51 32 38 48 37 51 43 39 54 43 39 54 43 39 54 43 39 54 43 39 54 43 39 54 43 39 54 38 34 49 38 34 49 38 34 49 38 34 49 38 34 49 38 34 49 38 34 49 37 35 48 39 39 51 37 40 49 39 39 49 37 40 49 39 39 49 37 40 49 39 39 49 37 40 49 40 40 50 38 41 50 40 40 50 38 41 50 40 40 50 38 41 50 40 40 50 42 39 50 45 33 45 48 32 45 48 32 45 48 32 45 48 32 45 48 32 45 48 32 45 48 32 45 52 36 49 52 36 49 52 36 49 52 36 49 52 36 49 52 36 49 52 36 49 55 35 47 65 39 52 68 38 50 68 38 50 68 38 50 68 38 50 68 38 50 68 38 50 68 38 50 69 39 51 71 41 53 73 43 55 76 46 58 80 50 62 83 53 65 85 55 67 87 56 71 92 58 75 93 60 79 96 63 82 96 67 85 100 71 89 101 77 93 103 80 96 102 84 98 102 88 101 100 90 101 98 90 101 95 92 101 95 92 101 93 93 101 93 93 101 93 93 101 94 86 97 96 86 97 96 86 97 96 86 97 96 86 97 96 86 97 96 86 97 96 86 97 97 87 98 98 88 99 101 91 102 104 94 105 107 97 108 111 101 112 113 103 114 115 104 112 102 83 87 103 83 84 103 83 84 103 83 84 103 83 84 103 83 84 103 83 84 103 83 84 91 71 72 91 71 72 91 71 72 91 71 72 91 71 72 91 71 72 91 71 72 92 70 72 100 73 80 104 74 82 106 76 84 109 79 87 113 83 91 116 86 94 118 88 96 120 90 98 117 87 95 115 85 93 113 83 91 110 80 88 106 76 84 103 73 81 101 71 79 100 68 79 108 69 87 110 68 88 110 68 88 110 68 88 110 68 88 110 68 88 110 68 88 110 68 88 122 80 100 122 80 100 122 80 100 122 80 100 122 80 100 122 80 100 122 80 100 116 83 100 72 56 67 59 52 60 49 42 50 40 33 41 37 30 38 39 32 40 45 38 46 49 42 50 54 47 55 52 45 53
57 46 54 53 42 50 50 39 47 48 37 45 45 35 44 43 33 44 41 33 46 41 33 46 41 33 46 41 33 46 41 33 46 41 33 46 41 33 46 43 35 48 43 35 48 43 35 48 43 35 48 43 35 48 43 35 48 43 35 48 45 35 46 47 34 44 51 35 45 56 40 50 63 47 57 69 53 63 76 60 70 81 65 75 83 67 77 100 84 94 98 82 92 96 80 90 93 77 87 89 73 83 86 70 80 84 68 78 83 66 74 66 45 50 64 44 46 63 40 46 59 39 41 56 33 39 52 32 34 51 28 34 48 28 30 53 30 36 52 32 34 53 30 36 52 32 34 53 30 36 52 32 34 53 30 36 49 32 40 46 38 51 43 39 54 43 39 54 43 39 54 43 39 54 43 39 54 43 39 54 43 39 54 38 34 49 38 34 49 38 34 49 38 34 49 38 34 49 38 34 49 38 34 49 38 34 48 40 38 51 39 39 49 40 38 49 39 39 49 40 38 49 39 39 49 40 38 49 39 39 49 41 39 50 40 40 50 41 39 50 40 40 50 41 39 50 40 40 50 41 39 50 42 39 50 45 33 45 48 32 45 48 32 45 48 32 45 48 32 45 48 32 45 48 32 45 48 32 45 52 36 49 52 36 49 52 36 49 52 36 49 52 36 49 52 36 49 52 36 49 55 35 47 65 39 52 68 38 50 68 38 50 68 38 50 68 38 50 68 38 50 68 38 50 68 38 50 69 39 51 71 41 53 73 43 55 76 46 58 80 50 62 83 53 65 85 55 67 87 56 71 93 59 76 93 60 79 95 62 81 95 66 84 97 68 86 97 73 89 98 75 91 96 78 92 95 81 94 93 83 94 91 83 94 88 85 94 88 85 94 86 86 94 86 86 94 86 86 94 89 81 92 91 81 92 91 81 92 91 81 92 91 81 92 91 81 92 91 81 92 91 81 92 92 82 93 93 83 94 96 86 97 99 89 100 103 93 104 106 96 107 108 98 109 110 99 107 102 83 87 103 83 84 103 83 84 103 83 84 103 83 84 103 83 84 103 83 84 103 83 84 93 73 74 93 73 74 93 73 74 93 73 74 93 73 74 93 73 74 93 73 74 94 72 74 100 73 80 104 74 82 106 76 84 109 79 87 113 83 91 116 86 94 118 88 96 120 90 98 117 87 95 115 85 93 113 83 91 110 80 88 106 76 84 103 73 81 101 71 79 100 68 79 108 69 87 110 68 88 110 68 88 110 68 88 110 68 88 110 68 88 110 68 88 110 68 88 120 78 98 120 78 98 120 78 98 120 78 98 120 78 98 120 78 98 120 78 98 114 81 98 72 56 67 59 52 60 49 42 50 40 33 41 37 30 38 39 32 40 45 38 46 49 42 50 54 47 55 52 45 53
57 46 54 53 42 50 50 39 47 48 37 45 45 35 44 43 33 44 41 33 46 41 33 46 41 33 46 41 33 46 41 33 46 41 33 46 41 33 46 43 35 48 43 35 48 43 35 48 43 35 48 43 35 48 43 35 48 43 35 48 45 35 46 47 34 44 51 35 45 56 40 50 63 47 57 69 53 63 76 60 70 81 65 75 83 67 77 96 80 90 95 79 89 93 77 87 89 73 83 86 70 80 83 67 77 80 64 74 80 63 71 65 46 52 63 44 48 62 41 48 58 39 43 55 34 41 51 32 36 50 29 36 47 28 32 52 31 38 51 32 36 52 31 38 51 32 36 52 31 38 51 32 36 52 31 38 48 33 40 46 38 51 43 39 54 43 39 54 43 39 54 43 39 54 43 39 54 43 39 54 43 39 54 38 34 49 38 34 49 38 34 49 38 34 49 38 34 49 38 34 49 38 34 49 38 34 48 41 37 51 40 38 49 41 38 49 40 38 49 41 38 49 40 38 49 41 38 49 40 38 49 42 39 50 41 39 50 42 39 50 41 39 50 42 39 50 41 39 50 42 39 50 44 38 50 45 33 45 48 32 45 48 32 45 48 32 45 48 32 45 48 32 45 48 32 45 48 32 45 52 36 49 52 36 49 52 36 49 52 36 49 52 36 49 52 36 49 52 36 49 55 35 47 65 39 52 68 38 50 68 38 50 68 38 50 68 38 50 68 38 50 68 38 50 68 38 50 69 39 51 71 41 53 73 43 55 76 46 58 80 50 62 83 53 65 85 55 67 87 56 71 94 60 77 94 61 80 94 61 80 92 63 81 93 64 82 91 67 83 91 68 84 88 70 84 85 71 84 83 73 84 81 73 84 78 75 84 78 75 84 76 76 84 76 76 84 76 76 84 82 74 85 84 74 85 84 74 85 84 74 85 84 74 85 84 74 85 84 74 85 84 74 85 86 76 87 87 77 88 90 80 91 93 83 94 96 86 97 99 89 100 102 92 103 104 93 101 102 83 87 103 83 84 103 83 84 103 83 84 103 83 84 103 83 84 103 83 84 103 83 84 96 76 77 96 76 77 96 76 77 96 76 77 96 76 77 96 76 77 96 76 77 97 75 77 100 73 80 104 74 82 106 76 84 109 79 87 113 83 91 116 86 94 118 88 96 120 90 98 117 87 95 115 85 93 113 83 91 110 80 88 106 76 84 103 73 81 101 71 79 100 68 79 108 69 87 110 68 88 110 68 88 110 68 88 110 68 88 110 68 88 110 68 88 110 68 88 117 75 95 117 75 95 117 75 95 117 75 95 117 75 95 117 75 95 117 75 95 111 78 95 72 56 67 59 52 60 49 42 50 40 33 41 37 30 38 39 32 40 45 38 46 49 42 50 54 47 55 52 45 53
57 46 54 53 42 50 50 39 47 48 37 45 45 35 44 43 33 44 41 33 46 41 33 46 41 33 46 41 33 46 41 33 46 41 33 46 41 33 46 43 35 48 43 35 48 43 35 48 43 35 48 43 35 48 43 35 48 43 35 48 45 35 46 47 34 44 51 35 45 56 40 50 63 47 57 69 53 63 76 60 70 81 65 75 83 67 77 93 77 87 92 76 86 89 73 83 86 70 80 83 67 77 79 63 73 77 61 71 76 60 70 63 46 54 61 44 50 61 41 50 56 39 45 54 34 43 49 32 38 49 29 38 45 28 34 51 31 40 49 32 38 51 31 40 49 32 38 51 31 40 49 32 38 51 31 40 48 32 42 46 38 51 43 39 54 43 39 54 43 39 54 43 39 54 43 39 54 43 39 54 43 39 54 38 34 49 38 34 49 38 34 49 38 34 49 38 34 49 38 34 49 38 34 49 38 34 48 41 37 51 41 38 49 43 37 49 41 38 49 43 37 49 41 38 49 43 37 49 41 38 49 44 38 50 42 39 50 44 38 50 42 39 50 44 38 50 42 39 50 44 38 50 45 37 50 46 32 45 48 32 45 48 32 45 48 32 45 48 32 45 48 32 45 48 32 45 48 32 45 52 36 49 52 36 49 52 36 49 52 36 49 52 36 49 52 36 49 52 36 49 55 35 47 65 39 52 68 38 50 68 38 50 68 38 50 68 38 50 68 38 50 68 38 50 68 38 50 69 39 51 71 41 53 73 43 55 76 46 58 80 50 62 83 53 65 85 55 67 87 56 71 96 62 79 94 61 80 94 61 80 90 61 79 89 60 78 85 61 77 83 60 76 80 62 76 75 61 74 73 63 74 71 63 74 68 65 74 68 65 74 66 66 74 66 66 74 66 66 74 76 68 79 78 68 79 78 68 79 78 68 79 78 68 79 78 68 79 78 68 79 78 68 79 79 69 80 80 70 81 83 73 84 86 76 87 89 79 90 92 82 93 95 85 96 97 86 94 102 83 87 103 83 84 103 83 84 103 83 84 103 83 84 103 83 84 103 83 84 103 83 84 100 80 81 100 80 81 100 80 81 100 80 81 100 80 81 100 80 81 100 80 81 101 79 81 100 73 80 104 74 82 106 76 84 109 79 87 113 83 91 116 86 94 118 88 96 120 90 98 117 87 95 115 85 93 113 83 91 110 80 88 106 76 84 103 73 81 101 71 79 100 68 79 108 69 87 110 68 88 110 68 88 110 68 88 110 68 88 110 68 88 110 68 88 110 68 88 113 71 91 113 71 91 113 71 91 113 71 91 113 71 91 113 71 91 113 71 91 107 74 91 72 56 67 59 52 60 49 42 50 40 33 41 37 30 38 39 32 40 45 38 46 49 42 50 54 47 55 52 45 53
57 46 54 53 42 50 50 39 47 48 37 45 45 35 44 43 33 44 41 33 46 41 33 46 41 33 46 41 33 46 41 33 46 41 33 46 41 33 46 43 35 48 43 35 48 43 35 48 43 35 48 43 35 48 43 35 48 43 35 48 45 35 46 47 34 44 51 35 45 56 40 50 63 47 57 69 53 63 76 60 70 81 65 75 83 67 77 90 74 84 88 72 82 86 70 80 83 67 77 79 63 73 76 60 70 74 58 68 72 56 66 62 46 56 60 44 54 58 42 52 55 39 49 51 35 45 48 32 42 46 30 40 44 28 38 48 32 42 48 32 42 48 32 42 48 32 42 48 32 42 48 32 42 48 32 42 46 33 43 46 38 53 43 39 54 43 39 54 43 39 54 43 39 54 43 39 54 43 39 54 43 39 54 38 34 49 38 34 49 38 34 49 38 34 49 38 34 49 38 34 49 38 34 49 38 34 48 43 37 51 44 36 49 44 36 49 44 36 49 44 36 49 44 36 49 44 36 49 44 36 49 45 37 50 45 37 50 45 37 50 45 37 50 45 37 50 45 37 50 45 37 50 47 36 50 46 32 45 48 32 45 48 32 45 48 32 45 48 32 45 48 32 45 48 32 45 48 32 45 52 36 49 52 36 49 52 36 49 52 36 49 52 36 49 52 36 49 52 36 49 55 35 47 65 39 52 68 38 50 68 38 50 68 38 50 68 38 50 68 38 50 68 38 50 68 38 50 69 39 51 71 41 53 73 43 55 76 46 58 80 50 62 83 53 65 85 55 67 87 56 71 97 63 80 95 62 81 93 60 79 87 58 76 85 56 74 79 55 71 76 53 69 72 54 68 65 51 64 63 53 64 61 53 64 58 55 64 58 55 64 56 56 64 56 56 64 56 56 64 69 61 72 71 61 72 71 61 72 71 61 72 71 61 72 71 61 72 71 61 72 71 61 72 73 63 74 74 64 75 76 66 77 79 69 80 83 73 84 86 76 87 89 79 90 91 80 88 102 83 87 103 83 84 103 83 84 103 83 84 103 83 84 103 83 84 103 83 84 103 83 84 103 83 84 103 83 84 103 83 84 103 83 84 103 83 84 103 83 84 103 83 84 104 82 84 100 73 80 104 74 82 106 76 84 109 79 87 113 83 91 116 86 94 118 88 96 120 90 98 117 87 95 115 85 93 113 83 91 110 80 88 106 76 84 103 73 81 101 71 79 100 68 79 108 69 87 110 68 88 110 68 88 110 68 88 110 68 88 110 68 88 110 68 88 110 68 88 110 68 88 110 68 88 110 68 88 110 68 88 110 68 88 110 68 88 110 68 88 104 71 88 72 56 67 59 52 60 49 42 50 40 33 41 37 30 38 39 32 40 45 38 46 49 42 50 54 47 55 52 45 53
57 46 54 53 42 50 50 39 47 48 37 45 45 35 44 43 33 44 41 33 46 41 33 46 41 33 46 41 33 46 41 33 46 41 33 46 41 33 46 43 35 48 43 35 48 43 35 48 43 35 48 43 35 48 43 35 48 43 35 48 45 35 46 47 34 44 51 35 45 56 40 50 63 47 57 69 53 63 76 60 70 81 65 75 83 67 77 87 71 81 86 70 80 84 68 78 80 64 74 77 61 71 74 58 68 71 55 65 70 54 64 60 47 57 58 45 55 56 43 53 53 40 50 49 36 46 46 33 43 44 31 41 42 29 39 46 33 43 46 33 43 46 33 43 46 33 43 46 33 43 46 33 43 46 33 43 45 33 45 45 39 53 43 39 54 43 39 54 43 39 54 43 39 54 43 39 54 43 39 54 43 39 54 38 34 49 38 34 49 38 34 49 38 34 49 38 34 49 38 34 49 38 34 49 40 34 48 44 36 51 46 35 49 46 35 49 46 35 49 46 35 49 46 35 49 46 35 49 46 35 49 47 36 50 47 36 50 47 36 50 47 36 50 47 36 50 47 36 50 47 36 50 48 36 50 46 32 45 48 32 45 48 32 45 48 32 45 48 32 45 48 32 45 48 32 45 48 32 45 52 36 49 52 36 49 52 36 49 52 36 49 52 36 49 52 36 49 52 36 49 55 35 47 65 39 52 68 38 50 68 38 50 68 38 50 68 38 50 68 38 50 68 38 50 68 38 50 69 39 51 71 41 53 73 43 55 76 46 58 80 50 62 83 53 65 85 55 67 87 56 71 98 64 81 95 62 81 92 59 78 86 57 75 82 53 71 75 51 67 71 48 64 66 48 62 58 44 57 56 46 57 54 46 57 51 48 57 51 48 57 49 49 57 49 49 57 49 49 57 64 56 67 66 56 67 66 56 67 66 56 67 66 56 67 66 56 67 66 56 67 66 56 67 68 58 69 69 59 70 71 61 72 75 65 76 78 68 79 81 71 82 84 74 85 86 75 83 102 83 87 103 83 84 103 83 84 103 83 84 103 83 84 103 83 84 103 83 84 103 83 84 105 85 86 105 85 86 105 85 86 105 85 86 105 85 86 105 85 86 105 85 86 106 84 86 100 73 80 104 74 82 106 76 84 109 79 87 113 83 91 116 86 94 118 88 96 120 90 98 117 87 95 115 85 93 113 83 91 110 80 88 106 76 84 103 73 81 101 71 79 100 68 79 108 69 87 110 68 88 110 68 88 110 68 88 110 68 88 110 68 88 110 68 88 110 68 88 108 66 86 108 66 86 108 66 86 108 66 86 108 66 86 108 66 86 108 66 86 102 69 86 72 56 67 59 52 60 49 42 50 40 33 41 37 30 38 39 32 40 45 38 46 49 42 50 54 47 55 52 45 53
57 46 54 53 42 50 50 39 47 48 37 45 45 35 44 43 33 44 41 33 46 41 33 46 41 33 46 41 33 46 41 33 46 41 33 46 41 33 46 43 35 48 43 35 48 43 35 48 43 35 48 43 35 48 43 35 48 43 35 48 45 35 46 47 34 44 51 35 45 56 40 50 63 47 57 69 53 63 76 60 70 81 65 75 83 67 77 86 70 80 85 69 79 82 66 76 79 63 73 76 60 70 72 56 66 70 54 64 67 54 64 59 47 59 56 45 59 54 43 57 51 40 54 47 36 50 44 33 47 42 31 45 40 29 43 44 33 47 44 33 47 44 33 47 44 33 47 44 33 47 44 33 47 44 33 47 42 34 47 45 38 54 43 39 54 43 39 54 43 39 54 43 39 54 43 39 54 43 39 54 43 39 54 38 34 49 38 34 49 38 34 49 38 34 49 38 34 49 38 34 49 38 34 49 40 34 48 47 34 51 48 34 49 48 34 49 48 34 49 48 34 49 48 34 49 48 34 49 48 34 49 49 35 50 49 35 50 49 35 50 49 35 50 49 35 50 49 35 50 49 35 50 49 35 50 48 32 45 48 32 45 48 32 45 48 32 45 48 32 45 48 32 45 48 32 45 48 32 45 52 36 49 52 36 49 52 36 49 52 36 49 52 36 49 52 36 49 52 36 49 55 35 47 65 39 52 68 38 50 68 38 50 68 38 50 68 38 50 68 38 50 68 38 50 68 38 50 69 39 51 71 41 53 73 43 55 76 46 58 80 50 62 83 53 65 85 55 67 87 56 71 98 64 81 96 63 82 92 59 78 85 56 74 80 51 69 73 49 65 68 45 61 63 45 59 54 40 53 52 42 53 50 42 53 47 44 53 47 44 53 45 45 53 45 45 53 45 45 53 62 54 65 64 54 65 64 54 65 64 54 65 64 54 65 64 54 65 64 54 65 64 54 65 65 55 66 66 56 67 69 59 70 72 62 73 75 65 76 79 69 80 81 71 82 83 72 80 102 83 87 103 83 84 103 83 84 103 83 84 103 83 84 103 83 84 103 83 84 103 83 84 107 87 88 107 87 88 107 87 88 107 87 88 107 87 88 107 87 88 107 87 88 108 86 88 100 73 80 104 74 82 106 76 84 109 79 87 113 83 91 116 86 94 118 88 96 120 90 98 117 87 95 115 85 93 113 83 91 110 80 88 106 76 84 103 73 81 101 71 79 100 68 79 108 69 87 110 68 88 110 68 88 110 68 88 110 68 88 110 68 88 110 68 88 110 68 88 106 64 84 106 64 84 106 64 84 106 64 84 106 64 84 106 64 84 106 64 84 100 67 84 72 56 67 59 52 60 49 42 50 40 33 41 37 30 38 39 32 40 45 38 46 49 42 50 54 47 55 52 45 53
78 67 75 78 67 75 78 67 75 78 67 75 77 67 76 55 45 56 52 44 57 50 42 55 46 38 51 43 35 48 40 32 45 37 29 42 36 28 41 45 37 50 45 37 50 45 37 50 45 37 50 45 37 50 45 37 50 45 37 50 47 37 48 63 50 60 65 49 59 65 49 59 65 49 59 65 49 59 65 49 59 65 49 59 65 49 59 66 50 60 66 50 60 66 50 60 66 50 60 66 50 60 66 50 60 66 50 60 64 51 61 42 34 49 41 34 50 41 34 50 41 34 50 41 34 50 41 34 50 41 34 50 41 34 50 44 37 53 44 37 53 44 37 53 44 37 53 44 37 53 44 37 53 44 37 53 44 37 53 50 46 61 50 46 61 50 46 61 50 46 61 50 46 61 50 46 61 50 46 61 50 46 61 48 44 59 48 44 59 48 44 59 48 44 59 48 44 59 48 44 59 48 44 59 51 43 58 52 38 55 55 37 53 55 37 53 55 37 53 55 37 53 55 37 53 55 37 53 55 37 53 57 39 55 57 39 55 57 39 55 57 39 55 57 39 55 57 39 55 57 39 55 57 39 55 48 32 45 48 32 45 48 32 45 48 32 45 48 32 45 48 32 45 48 32 45 48 32 45 46 30 43 48 32 45 50 34 47 53 37 50 57 41 54 60 44 57 62 46 59 67 47 59 64 38 51 68 38 50 70 40 52 74 44 56 77 47 59 80 50 62 83 53 65 84 54 66 93 63 75 93 63 75 94 64 76 95 65 77 97 67 79 98 68 80 99 69 81 99 68 83 84 50 67 82 49 68 80 47 66 73 44 62 70 41 59 64 40 56 60 37 53 56 38 52 43 29 42 43 33 44 43 35 46 43 40 49 47 44 53 48 48 56 50 50 58 52 52 60 50 42 53 52 42 53 52 42 53 52 42 53 52 42 53 52 42 53 52 42 53 52 42 53 53 43 54 54 44 55 56 46 57 60 50 61 63 53 64 66 56 67 69 59 70 71 60 68 98 79 83 99 79 80 99 79 80 99 79 80 99 79 80 99 79 80 99 79 80 99 79 80 102 82 83 102 82 83 102 82 83 102 82 83 102 82 83 102 82 83 102 82 83 103 81 83 118 91 98 118 88 96 116 86 94 113 83 91 109 79 87 106 76 84 104 74 82 102 72 80 110 80 88 110 80 88 110 80 88 110 80 88 110 80 88 110 80 88 110 80 88 111 79 90 100 61 79 102 60 80 102 60 80 102 60 80 102 60 80 102 60 80 102 60 80 102 60 80 108 66 86 106 64 84 104 62 82 101 59 79 97 55 75 94 52 72 92 50 70 84 51 68 52 36 47 46 39 47 46 39 47 46 39 47 46 39 47 46 39 47 46 39 47 46 39 47 48 41 49 46 39 47
78 67 75 78 67 75 78 67 75 78 67 75 77 67 76 58 48 59 55 47 60 52 44 57 49 41 54 46 38 51 42 34 47 40 32 45 39 31 44 45 37 50 45 37 50 45 37 50 45 37 50 45 37 50 45 37 50 45 37 50 47 37 48 61 48 58 63 47 57 63 47 57 63 47 57 63 47 57 63 47 57 63 47 57 63 47 57 64 48 58 64 48 58 64 48 58 64 48 58 64 48 58 64 48 58 64 48 58 61 49 61 41 34 50 38 35 54 38 35 54 38 35 54 38 35 54 38 35 54 38 35 54 38 35 54 41 38 57 41 38 57 41 38 57 41 38 57 41 38 57 41 38 57 41 38 57 41 38 55 50 46 61 50 46 61 50 46 61 50 46 61 50 46 61 50 46 61 50 46 61 50 46 61 48 44 59 48 44 59 48 44 59 48 44 59 48 44 59 48 44 59 48 44 59 51 43 58 55 36 55 58 35 53 58 35 53 58 35 53 58 35 53 58 35 53 58 35 53 58 35 53 60 37 55 60 37 55 60 37 55 60 37 55 60 37 55 60 37 55 60 37 55 59 38 55 49 31 45 48 32 45 48 32 45 48 32 45 48 32 45 48 32 45 48 32 45 48 32 45 46 30 43 48 32 45 50 34 47 53 37 50 57 41 54 60 44 57 62 46 59 67 47 59 65 39 52 69 39 51 72 42 54 75 45 57 78 48 60 82 52 64 84 54 66 85 55 67 94 64 76 95 65 77 95 65 77 96 66 78 96 66 78 97 67 79 97 67 79 98 67 82 83 49 66 81 48 67 78 45 64 72 43 61 69 40 58 62 38 54 59 36 52 55 37 51 43 29 42 43 33 44 43 35 46 43 40 49 47 44 53 48 48 56 50 50 58 52 52 60 50 42 53 52 42 53 52 42 53 52 42 53 52 42 53 52 42 53 52 42 53 52 42 53 54 44 55 55 45 56 58 48 59 61 51 62 64 54 65 68 58 69 70 60 71 72 61 69 98 79 83 99 79 80 99 79 80 99 79 80 99 79 80 99 79 80 99 79 80 99 79 80 102 82 83 102 82 83 102 82 83 102 82 83 102 82 83 102 82 83 102 82 83 103 81 83 118 91 98 118 88 96 116 86 94 113 83 91 109 79 87 106 76 84 104 74 82 102 72 80 108 78 86 108 78 86 108 78 86 108 78 86 108 78 86 108 78 86 108 78 86 109 77 88 100 61 79 102 60 80 102 60 80 102 60 80 102 60 80 102 60 80 102 60 80 102 60 80 108 66 86 106 64 84 104 62 82 101 59 79 97 55 75 94 52 72 92 50 70 84 51 68 52 36 47 46 39 47 46 39 47 46 39 47 46 39 47 46 39 47 46 39 47 46 39 47 48 41 49 46 39 47
78 67 75 78 67 75 78 67 75 78 67 75 77 67 76 63 53 64 60 52 65 57 49 62 54 46 59 50 42 55 47 39 52 45 37 50 44 36 49 45 37 50 45 37 50 45 37 50 45 37 50 45 37 50 45 37 50 45 37 50 47 37 48 59 46 56 61 45 55 61 45 55 61 45 55 61 45 55 61 45 55 61 45 55 61 45 55 62 46 56 62 46 56 62 46 56 62 46 56 62 46 56 62 46 56 62 46 56 59 47 59 39 35 52 37 35 56 37 35 56 37 35 56 37 35 56 37 35 56 37 35 56 37 35 56 40 38 59 40 38 59 40 38 59 40 38 59 40 38 59 40 38 59 40 38 59 40 39 57 49 46 63 50 46 61 50 46 61 50 46 61 50 46 61 50 46 61 50 46 61 50 46 61 48 44 59 48 44 59 48 44 59 48 44 59 48 44 59 48 44 59 48 44 59 53 42 58 57 36 55 59 34 53 59 34 53 59 34 53 59 34 53 59 34 53 59 34 53 59 34 53 61 36 55 61 36 55 61 36 55 61 36 55 61 36 55 61 36 55 61 36 55 60 37 55 49 31 45 48 32 45 48 32 45 48 32 45 48 32 45 48 32 45 48 32 45 48 32 45 46 30 43 48 32 45 50 34 47 53 37 50 57 41 54 60 44 57 62 46 59 67 47 59 67 41 54 72 42 54 74 44 56 77 47 59 81 51 63 84 54 66 86 56 68 88 58 70 98 68 80 98 68 80 97 67 79 96 66 78 96 66 78 95 65 77 94 64 76 94 63 78 81 47 64 78 45 64 76 43 62 70 41 59 66 37 55 60 36 52 57 34 50 52 34 48 43 29 42 43 33 44 43 35 46 43 40 49 47 44 53 48 48 56 50 50 58 52 52 60 50 42 53 52 42 53 52 42 53 52 42 53 52 42 53 52 42 53 52 42 53 52 42 53 56 46 57 58 48 59 60 50 61 63 53 64 67 57 68 70 60 71 72 62 73 75 64 72 98 79 83 99 79 80 99 79 80 99 79 80 99 79 80 99 79 80 99 79 80 99 79 80 102 82 83 102 82 83 102 82 83 102 82 83 102 82 83 102 82 83 102 82 83 103 81 83 118 91 98 118 88 96 116 86 94 113 83 91 109 79 87 106 76 84 104 74 82 102 72 80 106 76 84 106 76 84 106 76 84 106 76 84 106 76 84 106 76 84 106 76 84 107 75 86 100 61 79 102 60 80 102 60 80 102 60 80 102 60 80 102 60 80 102 60 80 102 60 80 108 66 86 106 64 84 104 62 82 101 59 79 97 55 75 94 52 72 92 50 70 84 51 68 52 36 47 46 39 47 46 39 47 46 39 47 46 39 47 46 39 47 46 39 47 46 39 47 48 41 49 46 39 47
78 67 75 78 67 75 78 67 75 78 67 75 77 67 76 69 59 70 66 58 71 63 55 68 60 52 65 57 49 62 54 46 59 51 43 56 50 42 55 45 37 50 45 37 50 45 37 50 45 37 50 45 37 50 45 37 50 45 37 50 47 37 48 56 43 53 58 42 52 58 42 52 58 42 52 58 42 52 58 42 52 58 42 52 58 42 52 59 43 53 59 43 53 59 43 53 59 43 53 59 43 53 59 43 53 59 43 53 56 44 56 38 35 54 34 36 57 35 35 59 34 36 57 35 35 59 34 36 57 35 35 59 34 36 57 38 38 62 37 39 60 38 38 62 37 39 60 38 38 62 37 39 60 38 38 62 38 39 59 49 46 63 50 46 61 50 46 61 50 46 61 50 46 61 50 46 61 50 46 61 50 46 61 48 44 59 48 44 59 48 44 59 48 44 59 48 44 59 48 44 59 48 44 59 53 42 58 58 35 55 61 34 53 62 33 53 61 34 53 62 33 53 61 34 53 62 33 53 61 34 53 64 35 55 63 36 55 64 35 55 63 36 55 64 35 55 63 36 55 64 35 55 61 36 55 49 31 45 48 32 45 48 32 45 48 32 45 48 32 45 48 32 45 48 32 45 48 32 45 46 30 43 48 32 45 50 34 47 53 37 50 57 41 54 60 44 57 62 46 59 67 47 59 71 45 58 75 45 57 77 47 59 81 51 63 84 54 66 87 57 69 90 60 72 91 61 73 102 72 84 101 71 83 100 70 82 97 67 79 95 65 77 92 62 74 91 61 73 90 59 74 77 43 60 75 42 61 73 40 59 66 37 55 63 34 52 57 33 49 53 30 46 49 31 45 43 29 42 43 33 44 43 35 46 43 40 49 47 44 53 48 48 56 50 50 58 52 52 60 50 42 53 52 42 53 52 42 53 52 42 53 52 42 53 52 42 53 52 42 53 52 42 53 60 50 61 61 51 62 63 53 64 67 57 68 70 60 71 73 63 74 76 66 77 78 67 75 98 79 83 99 79 80 99 79 80 99 79 80 99 79 80 99 79 80 99 79 80 99 79 80 102 82 83 102 82 83 102 82 83 102 82 83 102 82 83 102 82 83 102 82 83 103 81 83 118 91 98 118 88 96 116 86 94 113 83 91 109 79 87 106 76 84 104 74 82 102 72 80 103 73 81 103 73 81 103 73 81 103 73 81 103 73 81 103 73 81 103 73 81 104 72 83 100 61 79 102 60 80 102 60 80 102 60 80 102 60 80 102 60 80 102 60 80 102 60 80 108 66 86 106 64 84 104 62 82 101 59 79 97 55 75 94 52 72 92 50 70 84 51 68 52 36 47 46 39 47 46 39 47 46 39 47 46 39 47 46 39 47 46 39 47 46 39 47 48 41 49 46 39 47
78 67 75 78 67 75 78 67 75 78 67 75 77 67 76 76 66 77 73 65 78 70 62 75 67 59 72 64 56 69 61 53 66 58 50 63 57 49 62 45 37 50 45 37 50 45 37 50 45 37 50 45 37 50 45 37 50 45 37 50 47 37 48 52 39 49 54 38 48 54 38 48 54 38 48 54 38 48 54 38 48 54 38 48 54 38 48 55 39 49 55 39 49 55 39 49 55 39 49 55 39 49 55 39 49 55 39 49 51 40 54 37 35 56 32 37 59 34 36 61 32 37 59 34 36 61 32 37 59 34 36 61 32 37 59 37 39 64 35 40 62 37 39 64 35 40 62 37 39 64 35 40 62 37 39 64 38 39 60 49 46 63 50 46 61 50 46 61 50 46 61 50 46 61 50 46 61 50 46 61 50 46 61 48 44 59 48 44 59 48 44 59 48 44 59 48 44 59 48 44 59 48 44 59 53 42 58 58 35 55 62 33 53 64 32 53 62 33 53 64 32 53 62 33 53 64 32 53 62 33 53 66 34 55 64 35 55 66 34 55 64 35 55 66 34 55 64 35 55 66 34 55 63 36 55 51 30 45 48 32 45 48 32 45 48 32 45 48 32 45 48 32 45 48 32 45 48 32 45 46 30 43 48 32 45 50 34 47 53 37 50 57 41 54 60 44 57 62 46 59 67 47 59 74 48 61 78 48 60 81 51 63 84 54 66 87 57 69 91 61 73 93 63 75 94 64 76 107 77 89 105 75 87 102 72 84 98 68 80 94 64 76 90 60 72 87 57 69 85 54 69 74 40 57 72 39 58 69 36 55 63 34 52 60 31 49 53 29 45 50 27 43 46 28 42 43 29 42 43 33 44 43 35 46 43 40 49 47 44 53 48 48 56 50 50 58 52 52 60 50 42 53 52 42 53 52 42 53 52 42 53 52 42 53 52 42 53 52 42 53 52 42 53 63 53 64 64 54 65 67 57 68 70 60 71 73 63 74 77 67 78 79 69 80 81 70 78 98 79 83 99 79 80 99 79 80 99 79 80 99 79 80 99 79 80 99 79 80 99 79 80 102 82 83 102 82 83 102 82 83 102 82 83 102 82 83 102 82 83 102 82 83 103 81 83 118 91 98 118 88 96 116 86 94 113 83 91 109 79 87 106 76 84 104 74 82 102 72 80 99 69 77 99 69 77 99 69 77 99 69 77 99 69 77 99 69 77 99 69 77 100 68 79 100 61 79 102 60 80 102 60 80 102 60 80 102 60 80 102 60 80 102 60 80 102 60 80 108 66 86 106 64 84 104 62 82 101 59 79 97 55 75 94 52 72 92 50 70 84 51 68 52 36 47 46 39 47 46 39 47 46 39 47 46 39 47 46 39 47 46 39 47 46 39 47 48 41 49 46 39 47
78 67 75 78 67 75 78 67 75 78 67 75 77 67 76 82 72 83 79 71 84 77 69 82 74 66 79 70 62 75 67 59 72 64 56 69 63 55 68 45 37 50 45 37 50 45 37 50 45 37 50 45 37 50 45 37 50 45 37 50 47 37 48 49 36 46 51 35 45 51 35 45 51 35 45 51 35 45 51 35 45 51 35 45 51 35 45 52 36 46 52 36 46 52 36 46 52 36 46 52 36 46 52 36 46 52 36 46 48 37 51 35 36 57 31 37 61 32 36 63 31 37 61 32 36 63 31 37 61 32 36 63 31 37 61 35 39 66 34 40 64 35 39 66 34 40 64 35 39 66 34 40 64 35 39 66 37 39 62 49 46 65 50 46 61 50 46 61 50 46 61 50 46 61 50 46 61 50 46 61 50 46 61 48 44 59 48 44 59 48 44 59 48 44 59 48 44 59 48 44 59 48 44 59 53 42 58 59 34 55 64 32 53 65 32 53 64 32 53 65 32 53 64 32 53 65 32 53 64 32 53 67 34 55 66 34 55 67 34 55 66 34 55 67 34 55 66 34 55 67 34 55 64 35 55 51 30 45 48 32 45 48 32 45 48 32 45 48 32 45 48 32 45 48 32 45 48 32 45 46 30 43 48 32 45 50 34 47 53 37 50 57 41 54 60 44 57 62 46 59 67 47 59 77 51 64 82 52 64 84 54 66 87 57 69 91 61 73 94 64 76 96 66 78 98 68 80 111 81 93 109 79 91 105 75 87 99 69 81 93 63 75 87 57 69 83 53 65 81 50 65 71 37 54 68 35 54 66 33 52 60 31 49 56 27 45 50 26 42 47 24 40 42 24 38 43 29 42 43 33 44 43 35 46 43 40 49 47 44 53 48 48 56 50 50 58 52 52 60 50 42 53 52 42 53 52 42 53 52 42 53 52 42 53 52 42 53 52 42 53 52 42 53 66 56 67 68 58 69 70 60 71 73 63 74 77 67 78 80 70 81 82 72 83 85 74 82 98 79 83 99 79 80 99 79 80 99 79 80 99 79 80 99 79 80 99 79 80 99 79 80 102 82 83 102 82 83 102 82 83 102 82 83 102 82 83 102 82 83 102 82 83 103 81 83 118 91 98 118 88 96 116 86 94 113 83 91 109 79 87 106 76 84 104 74 82 102 72 80 96 66 74 96 66 74 96 66 74 96 66 74 96 66 74 96 66 74 96 66 74 97 65 76 100 61 79 102 60 80 102 60 80 102 60 80 102 60 80 102 60 80 102 60 80 102 60 80 108 66 86 106 64 84 104 62 82 101 59 79 97 55 75 94 52 72 92 50 70 84 51 68 52 36 47 46 39 47 46 39 47 46 39 47 46 39 47 46 39 47 46 39 47 46 39 47 48 41 49 46 39 47
78 67 75 78 67 75 78 67 75 78 67 75 77 67 76 87 77 88 84 76 89 82 74 87 78 70 83 75 67 80 72 64 77 69 61 74 68 60 73 45 37 50 45 37 50 45 37 50 45 37 50 45 37 50 45 37 50 45 37 50 47 37 48 47 34 44 49 33 43 49 33 43 49 33 43 49 33 43 49 33 43 49 33 43 49 33 43 50 34 44 50 34 44 50 34 44 50 34 44 50 34 44 50 34 44 50 34 44 46 35 49 35 36 57 30 37 63 31 36 65 30 37 63 31 36 65 30 37 63 31 36 65 30 37 63 34 39 68 33 40 66 34 39 68 33 40 66 34 39 68 33 40 66 34 39 68 35 39 64 48 47 65 50 46 61 50 46 61 50 46 61 50 46 61 50 46 61 50 46 61 50 46 61 48 44 59 48 44 59 48 44 59 48 44 59 48 44 59 48 44 59 48 44 59 54 41 58 61 33 55 65 32 53 66 31 53 65 32 53 66 31 53 65 32 53 66 31 53 65 32 53 68 33 55 67 34 55 68 33 55 67 34 55 68 33 55 67 34 55 68 33 55 64 35 55 51 30 45 48 32 45 48 32 45 48 32 45 48 32 45 48 32 45 48 32 45 48 32 45 46 30 43 48 32 45 50 34 47 53 37 50 57 41 54 60 44 57 62 46 59 67 47 59 80 54 67 84 54 66 86 56 68 90 60 72 93 63 75 96 66 78 99 69 81 100 70 82 115 85 97 112 82 94 107 77 89 100 70 82 92 62 74 85 55 67 80 50 62 77 46 61 68 34 51 66 33 52 64 31 50 57 28 46 54 25 43 48 24 40 44 21 37 40 22 36 43 29 42 43 33 44 43 35 46 43 40 49 47 44 53 48 48 56 50 50 58 52 52 60 50 42 53 52 42 53 52 42 53 52 42 53 52 42 53 52 42 53 52 42 53 52 42 53 69 59 70 70 60 71 72 62 73 76 66 77 79 69 80 82 72 83 85 75 86 87 76 84 98 79 83 99 79 80 99 79 80 99 79 80 99 79 80 99 79 80 99 79 80 99 79 80 102 82 83 102 82 83 102 82 83 102 82 83 102 82 83 102 82 83 102 82 83 103 81 83 118 91 98 118 88 96 116 86 94 113 83 91 109 79 87 106 76 84 104 74 82 102 72 80 94 64 72 94 64 72 94 64 72 94 64 72 94 64 72 94 64 72 94 64 72 95 63 74 100 61 79 102 60 80 102 60 80 102 60 80 102 60 80 102 60 80 102 60 80 102 60 80 108 66 86 106 64 84 104 62 82 101 59 79 97 55 75 94 52 72 92 50 70 84 51 68 52 36 47 46 39 47 46 39 47 46 39 47 46 39 47 46 39 47 46 39 47 46 39 47 48 41 49 46 39 47
78 67 73 78 67 75 78 67 73 78 67 75 77 67 75 88 80 91 87 79 90 84 76 87 81 73 84 78 70 81 74 66 77 72 64 75 71 63 74 45 37 48 45 37 48 45 37 48 45 37 48 45 37 48 45 37 48 45 37 48 45 37 48 43 33 44 44 32 42 44 32 44 44 32 42 44 32 44 44 32 42 44 32 44 44 32 42 45 33 45 45 33 43 45 33 45 45 33 43 45 33 45 45 33 43 45 33 45 41 35 49 34 36 57 31 37 61 31 37 61 31 37 61 31 37 61 31 37 61 31 37 61 31 37 61 34 40 64 34 40 64 34 40 64 34 40 64 34 40 64 34 40 64 34 40 64 35 40 60 48 47 63 49 47 60 49 47 60 49 47 60 49 47 60 49 47 60 49 47 60 49 47 60 47 45 58 47 45 58 47 45 58 47 45 58 47 45 58 47 45 58 47 45 58 51 43 58 58 35 53 64 32 53 64 32 53 64 32 53 64 32 53 64 32 53 64 32 53 64 32 53 66 34 55 66 34 55 66 34 55 66 34 55 66 34 55 66 34 55 66 34 55 63 36 55 51 30 47 48 31 47 49 31 47 48 31 47 49 31 47 48 31 47 49 31 47 48 31 47 47 29 45 48 31 47 51 33 49 53 36 52 58 40 56 60 43 59 63 45 61 67 46 61 82 54 69 85 54 69 88 57 72 91 60 75 94 63 78 98 67 82 100 69 84 101 70 85 117 86 101 114 83 98 108 77 92 100 69 84 92 61 76 84 53 68 78 47 62 73 45 60 62 35 54 59 34 55 55 32 52 51 30 49 48 27 46 42 23 42 39 22 40 35 22 39 41 30 46 40 34 48 40 36 50 42 40 53 46 44 57 48 48 60 48 50 62 52 52 62 50 42 53 52 42 53 53 41 53 52 42 53 53 41 53 52 42 53 53 41 53 52 42 53 71 59 71 71 61 72 75 63 75 77 67 78 81 69 81 84 74 85 87 75 87 89 76 85 96 80 83 99 79 81 99 79 81 99 79 81 99 79 81 99 79 81 99 79 81 99 79 81 102 82 84 102 82 84 102 82 84 102 82 84 102 82 84 102 82 84 102 82 84 103 81 84 118 91 98 118 88 98 117 85 96 113 83 93 110 78 89 106 76 86 105 73 84 102 72 82 93 61 72 92 62 72 93 61 72 92 62 72 93 61 72 92 62 72 93 61 72 94 61 72 100 61 79 102 60 80 102 60 80 102 60 80 102 60 80 102 60 80 102 60 80 102 60 80 108 66 86 106 64 84 104 62 82 101 59 79 97 55 75 94 52 72 92 50 70 84 51 68 52 36 47 45 40 47 45 40 47 45 40 47 45 40 47 45 40 47 45 40 47 45 40 47 47 42 49 45 40 47
79 70 73 79 70 75 79 70 73 79 70 75 79 70 75 80 73 80 80 73 81 80 73 81 80 73 81 80 73 81 80 73 81 80 73 81 80 73 81 54 47 55 53 46 54 50 43 51 47 40 48 44 37 45 40 33 41 38 31 39 36 30 40 41 37 51 40 38 51 40 38 52 40 38 51 40 38 52 40 38 51 40 38 52 40 38 51 39 37 51 39 37 50 39 37 51 39 37 50 39 37 51 39 37 50 39 37 51 38 37 51 37 39 54 36 39 56 36 39 56 36 39 56 36 39 56 36 39 56 36 39 56 36 39 56 44 47 64 44 47 64 44 47 64 44 47 64 44 47 64 44 47 64 44 47 64 44 47 62 52 56 67 52 56 65 52 56 65 52 56 65 52 56 65 52 56 65 52 56 65 52 56 65 49 53 62 49 53 62 49 53 62 49 53 62 49 53 62 49 53 62 49 53 62 53 51 62 49 35 48 54 33 48 54 33 48 54 33 48 54 33 48 54 33 48 54 33 48 54 33 48 61 40 55 61 40 55 61 40 55 61 40 55 61 40 55 61 40 55 61 40 55 61 40 57 57 36 55 55 36 55 57 36 55 55 36 55 57 36 55 55 36 55 57 36 55 55 36 55 59 38 57 57 38 57 59 38 57 57 38 57 59 38 57 57 38 57 59 38 57 60 37 55 76 47 65 80 47 64 83 50 67 86 53 70 89 56 73 93 60 77 95 62 79 96 63 80 100 67 84 97 64 81 92 59 76 86 53 70 79 46 63 73 40 57 68 35 52 59 34 53 41 28 48 37 29 50 35 30 50 35 30 50 35 30 50 35 30 50 34 31 50 34 31 50 44 43 61 44 43 61 42 43 61 42 43 61 42 43 61 42 43 61 41 44 61 44 43 59 40 32 45 46 34 46 52 38 51 57 45 57 65 51 64 70 58 70 76 62 75 78 66 78 84 70 83 83 71 83 84 70 83 83 71 83 84 70 83 83 71 83 84 70 83 84 71 81 92 75 81 94 75 79 94 75 79 94 75 79 94 75 79 94 75 79 94 75 79 94 75 79 102 83 87 102 83 87 102 83 87 102 83 87 102 83 87 102 83 87 102 83 87 104 81 89 100 70 82 101 69 82 102 68 82 101 69 82 102 68 82 101 69 82 102 68 82 101 69 82 95 61 75 94 62 75 95 61 75 94 62 75 95 61 75 94 62 75 95 61 75 97 61 75 95 54 72 96 53 72 96 53 72 96 53 72 96 53 72 96 53 72 96 53 72 96 53 72 100 57 76 98 55 74 96 53 72 93 50 69 89 46 65 86 43 62 84 41 60 75 43 58 49 36 46 42 39 46 42 39 46 42 39 46 42 39 46 42 39 46 42 39 46 42 39 46 42 39 46 40 37 44
79 70 73 79 70 73 79 70 73 79 70 73 79 70 73 80 73 80 80 73 80 80 73 80 80 73 80 80 73 80 80 73 80 80 73 80 80 73 80 55 48 55 54 47 54 52 45 52 48 41 48 45 38 45 42 35 42 39 32 39 37 32 39 39 38 52 37 39 54 37 39 54 37 39 54 37 39 54 37 39 54 37 39 54 37 39 54 36 38 53 36 38 53 36 38 53 36 38 53 36 38 53 36 38 53 36 38 53 36 38 53 37 39 52 37 39 52 37 39 52 37 39 52 37 39 52 37 39 52 37 39 52 37 39 52 45 47 60 45 47 60 45 47 60 45 47 60 45 47 60 45 47 60 45 47 60 45 47 59 52 56 65 50 57 63 52 57 63 50 57 63 52 57 63 50 57 63 52 57 63 50 57 63 51 56 62 49 56 62 51 56 62 49 56 62 51 56 62 49 56 62 51 56 62 54 54 62 49 39 50 53 37 50 53 37 50 53 37 50 53 37 50 53 37 50 53 37 50 53 37 50 58 42 55 58 42 55 58 42 55 58 42 55 58 42 55 58 42 55 58 42 55 58 41 57 55 36 55 55 36 56 57 35 56 55 36 56 57 35 56 55 36 56 57 35 56 55 36 56 59 37 58 57 38 58 59 37 58 57 38 58 59 37 58 57 38 58 59 37 58 60 37 57 75 46 66 78 47 65 81 48 67 84 53 71 88 55 74 90 59 77 94 61 80 94 63 81 99 66 85 95 64 82 91 58 77 84 53 71 78 45 64 71 40 58 67 34 53 57 34 54 35 30 50 30 32 53 30 32 53 30 32 53 30 32 53 30 32 53 30 32 53 30 32 53 41 43 64 41 43 64 41 43 64 41 43 64 41 43 64 41 43 64 41 43 64 44 43 61 43 32 48 48 34 47 53 39 52 59 45 58 66 52 65 72 58 71 77 63 76 80 66 79 84 70 83 84 70 83 84 70 83 84 70 83 84 70 83 84 70 83 84 70 83 86 70 81 92 75 83 94 75 81 94 75 81 94 75 81 94 75 81 94 75 81 94 75 81 94 75 81 102 83 89 102 83 89 102 83 89 102 83 89 102 83 89 102 83 89 102 83 89 104 81 89 100 69 84 102 68 84 102 68 84 102 68 84 102 68 84 102 68 84 102 68 84 102 68 84 95 61 77 95 61 77 95 61 77 95 61 77 95 61 77 95 61 77 95 61 77 97 60 77 95 54 72 96 53 72 96 53 72 96 53 72 96 53 72 96 53 72 96 53 72 96 53 72 100 57 76 98 55 74 96 53 72 93 50 69 89 46 65 86 43 62 84 41 60 75 43 58 48 36 46 41 40 46 41 40 46 41 40 46 41 40 46 41 40 46 41 40 46 41 40 46 41 40 46 39 38 44
79 70 73 79 70 73 79 70 73 79 70 73 79 70 73 80 73 80 80 73 80 80 73 80 80 73 80 80 73 80 80 73 80 80 73 80 80 73 80 58 51 58 56 49 56 54 47 54 51 44 51 47 40 47 44 37 44 42 35 42 39 34 41 39 38 52 37 39 54 37 39 54 37 39 54 37 39 54 37 39 54 37 39 54 37 39 54 36 38 53 36 38 53 36 38 53 36 38 53 36 38 53 36 38 53 36 38 53 36 38 53 37 39 52 37 39 52 37 39 52 37 39 52 37 39 52 37 39 52 37 39 52 37 39 52 45 47 60 45 47 60 45 47 60 45 47 60 45 47 60 45 47 60 45 47 60 45 47 59 53 56 65 52 57 63 53 56 63 52 57 63 53 56 63 52 57 63 53 56 63 52 57 63 54 57 64 53 58 64 54 57 64 53 58 64 54 57 64 53 58 64 54 57 64 57 56 64 55 43 55 58 42 55 58 42 55 58 42 55 58 42 55 58 42 55 58 42 55 58 42 55 58 42 55 58 42 55 58 42 55 58 42 55 58 42 55 58 42 55 58 42 55 58 41 57 54 37 55 54 37 56 55 36 56 54 37 56 55 36 56 54 37 56 55 36 56 54 37 56 57 38 58 56 39 58 57 38 58 56 39 58 57 38 58 56 39 58 57 38 58 59 38 57 71 44 63 74 45 63 78 47 65 79 50 68 85 54 72 86 57 75 90 59 77 90 61 79 95 64 82 91 62 80 88 57 75 79 50 68 74 43 61 66 37 55 63 32 50 54 33 52 35 30 50 30 32 53 30 32 53 30 32 53 30 32 53 30 32 53 30 32 53 30 32 53 41 43 64 41 43 64 41 43 64 41 43 64 41 43 64 41 43 64 41 43 64 44 43 61 46 35 51 50 36 49 55 41 54 62 48 61 69 55 68 75 61 74 80 66 79 82 68 81 84 70 83 84 70 83 84 70 83 84 70 83 84 70 83 84 70 83 84 70 83 86 70 81 92 75 83 94 75 81 94 75 81 94 75 81 94 75 81 94 75 81 94 75 81 94 75 81 102 83 89 102 83 89 102 83 89 102 83 89 102 83 89 102 83 89 102 83 89 104 81 89 100 69 84 102 68 84 102 68 84 102 68 84 102 68 84 102 68 84 102 68 84 102 68 84 95 61 77 95 61 77 95 61 77 95 61 77 95 61 77 95 61 77 95 61 77 97 60 77 95 54 72 96 53 72 96 53 72 96 53 72 96 53 72 96 53 72 96 53 72 96 53 72 100 57 76 98 55 74 96 53 72 93 50 69 89 46 65 86 43 62 84 41 60 75 43 58 48 36 46 41 40 46 41 40 46 41 40 46 41 40 46 41 40 46 41 40 46 41 40 46 41 40 46 39 38 44
79 70 73 79 70 73 79 70 73 79 70 73 79 70 73 80 73 80 80 73 80 80 73 80 80 73 80 80 73 80 80 73 80 80 73 80 80 73 80 61 54 61 60 53 60 57 50 57 54 47 54 51 44 51 47 40 47 45 38 45 43 38 45 39 38 52 37 39 54 37 39 54 37 39 54 37 39 54 37 39 54 37 39 54 37 39 54 36 38 53 36 38 53 36 38 53 36 38 53 36 38 53 36 38 53 36 38 53 36 38 53 37 39 52 37 39 52 37 39 52 37 39 52 37 39 52 37 39 52 37 39 52 37 39 52 45 47 60 45 47 60 45 47 60 45 47 60 45 47 60 45 47 60 45 47 60 45 47 59 53 56 65 53 56 63 55 55 63 53 56 63 55 55 63 53 56 63 55 55 63 53 56 63 59 59 67 57 60 67 59 59 67 57 60 67 59 59 67 57 60 67 59 59 67 61 58 67 62 50 62 65 49 62 65 49 62 65 49 62 65 49 62 65 49 62 65 49 62 65 49 62 58 42 55 58 42 55 58 42 55 58 42 55 58 42 55 58 42 55 58 42 55 58 41 57 54 37 55 52 37 56 54 37 56 52 37 56 54 37 56 52 37 56 54 37 56 52 37 56 56 39 58 54 39 58 56 39 58 54 39 58 56 39 58 54 39 58 56 39 58 57 38 57 66 41 60 69 42 59 73 44 62 75 48 65 79 50 68 82 55 72 85 56 74 85 58 75 90 61 79 86 59 76 83 54 72 75 48 65 69 40 58 62 35 52 58 29 47 50 29 48 35 30 50 30 32 53 30 32 53 30 32 53 30 32 53 30 32 53 30 32 53 30 32 53 41 43 64 41 43 64 41 43 64 41 43 64 41 43 64 41 43 64 41 43 64 44 43 61 49 38 54 54 40 53 58 44 57 65 51 64 72 58 71 78 64 77 83 69 82 86 72 85 84 70 83 84 70 83 84 70 83 84 70 83 84 70 83 84 70 83 84 70 83 86 70 81 92 75 83 94 75 81 94 75 81 94 75 81 94 75 81 94 75 81 94 75 81 94 75 81 102 83 89 102 83 89 102 83 89 102 83 89 102 83 89 102 83 89 102 83 89 104 81 89 100 69 84 102 68 84 102 68 84 102 68 84 102 68 84 102 68 84 102 68 84 102 68 84 95 61 77 95 61 77 95 61 77 95 61 77 95 61 77 95 61 77 95 61 77 97 60 77 95 54 72 96 53 72 96 53 72 96 53 72 96 53 72 96 53 72 96 53 72 96 53 72 100 57 76 98 55 74 96 53 72 93 50 69 89 46 65 86 43 62 84 41 60 75 43 58 48 36 46 41 40 46 41 40 46 41 40 46 41 40 46 41 40 46 41 40 46 41 40 46 41 40 46 39 38 44
79 70 73 79 70 73 79 70 73 79 70 73 79 70 73 80 73 80 80 73 80 80 73 80 80 73 80 80 73 80 80 73 80 80 73 80 80 73 80 64 57 64 63 56 63 61 54 61 57 50 57 54 47 54 51 44 51 48 41 48 46 41 48 39 38 52 37 39 54 37 39 54 37 39 54 37 39 54 37 39 54 37 39 54 37 39 54 36 38 53 36 38 53 36 38 53 36 38 53 36 38 53 36 38 53 36 38 53 36 38 53 37 39 52 37 39 52 37 39 52 37 39 52 37 39 52 37 39 52 37 39 52 37 39 52 45 47 60 45 47 60 45 47 60 45 47 60 45 47 60 45 47 60 45 47 60 45 47 59 55 55 65 55 55 63 56 55 63 55 55 63 56 55 63 55 55 63 56 55 63 55 55 63 64 63 71 63 63 71 64 63 71 63 63 71 64 63 71 63 63 71 64 63 71 65 62 71 68 56 68 71 55 68 71 55 68 71 55 68 71 55 68 71 55 68 71 55 68 71 55 68 58 42 55 58 42 55 58 42 55 58 42 55 58 42 55 58 42 55 58 42 55 58 41 57 52 38 55 51 38 56 52 37 56 51 38 56 52 37 56 51 38 56 52 37 56 51 38 56 54 39 58 53 40 58 54 39 58 53 40 58 54 39 58 53 40 58 54 39 58 56 39 57 62 39 57 64 40 56 68 41 58 70 46 62 75 48 65 76 52 68 81 54 71 80 56 72 86 59 76 81 57 73 78 51 68 70 46 62 65 38 55 56 32 48 54 27 44 45 26 45 35 30 50 30 32 53 30 32 53 30 32 53 30 32 53 30 32 53 30 32 53 30 32 53 41 43 64 41 43 64 41 43 64 41 43 64 41 43 64 41 43 64 41 43 64 44 43 61 52 41 57 57 43 56 62 48 61 68 54 67 75 61 74 82 68 81 86 72 85 89 75 88 84 70 83 84 70 83 84 70 83 84 70 83 84 70 83 84 70 83 84 70 83 86 70 81 92 75 83 94 75 81 94 75 81 94 75 81 94 75 81 94 75 81 94 75 81 94 75 81 102 83 89 102 83 89 102 83 89 102 83 89 102 83 89 102 83 89 102 83 89 104 81 89 100 69 84 102 68 84 102 68 84 102 68 84 102 68 84 102 68 84 102 68 84 102 68 84 95 61 77 95 61 77 95 61 77 95 61 77 95 61 77 95 61 77 95 61 77 97 60 77 95 54 72 96 53 72 96 53 72 96 53 72 96 53 72 96 53 72 96 53 72 96 53 72 100 57 76 98 55 74 96 53 72 93 50 69 89 46 65 86 43 62 84 41 60 75 43 58 48 36 46 41 40 46 41 40 46 41 40 46 41 40 46 41 40 46 41 40 46 41 40 46 41 40 46 39 38 44
79 70 73 79 70 73 79 70 73 79 70 73 79 70 73 80 73 80 80 73 80 80 73 80 80 73 80 80 73 80 80 73 80 80 73 80 80 73 80 68 61 68 66 59 66 64 57 64 61 54 61 57 50 57 54 47 54 52 45 52 49 44 51 39 38 52 37 39 54 37 39 54 37 39 54 37 39 54 37 39 54 37 39 54 37 39 54 36 38 53 36 38 53 36 38 53 36 38 53 36 38 53 36 38 53 36 38 53 36 38 53 37 39 52 37 39 52 37 39 52 37 39 52 37 39 52 37 39 52 37 39 52 37 39 52 45 47 60 45 47 60 45 47 60 45 47 60 45 47 60 45 47 60 45 47 60 47 47 59 56 54 65 57 54 63 57 54 63 57 54 63 57 54 63 57 54 63 57 54 63 57 54 63 68 65 74 68 65 74 68 65 74 68 65 74 68 65 74 68 65 74 68 65 74 70 64 74 75 63 75 78 62 75 78 62 75 78 62 75 78 62 75 78 62 75 78 62 75 78 62 75 58 42 55 58 42 55 58 42 55 58 42 55 58 42 55 58 42 55 58 42 55 56 42 57 51 38 55 50 39 56 50 39 56 50 39 56 50 39 56 50 39 56 50 39 56 50 39 56 52 41 58 52 41 58 52 41 58 52 41 58 52 41 58 52 41 58 52 41 58 54 40 57 57 36 53 60 37 53 62 39 55 65 42 58 69 46 62 72 49 65 74 51 67 76 53 69 79 56 72 77 54 70 72 49 65 66 43 59 59 36 52 52 29 45 47 24 40 41 24 42 34 31 50 30 32 53 30 32 53 30 32 53 30 32 53 30 32 53 30 32 53 30 32 53 41 43 64 41 43 64 41 43 64 41 43 64 41 43 64 41 43 64 41 43 64 44 43 61 56 45 61 60 46 59 65 51 64 71 57 70 78 64 77 85 71 84 90 76 89 92 78 91 84 70 83 84 70 83 84 70 83 84 70 83 84 70 83 84 70 83 84 70 83 86 70 81 92 75 83 94 75 81 94 75 81 94 75 81 94 75 81 94 75 81 94 75 81 94 75 81 102 83 89 102 83 89 102 83 89 102 83 89 102 83 89 102 83 89 102 83 89 104 81 89 100 69 84 102 68 84 102 68 84 102 68 84 102 68 84 102 68 84 102 68 84 102 68 84 95 61 77 95 61 77 95 61 77 95 61 77 95 61 77 95 61 77 95 61 77 97 60 77 95 54 72 96 53 72 96 53 72 96 53 72 96 53 72 96 53 72 96 53 72 96 53 72 100 57 76 98 55 74 96 53 72 93 50 69 89 46 65 86 43 62 84 41 60 75 43 58 48 36 46 41 40 46 41 40 46 41 40 46 41 40 46 41 40 46 41 40 46 41 40 46 41 40 46 39 38 44
79 70 73 79 70 73 79 70 73 79 70 73 79 70 73 80 73 80 80 73 80 80 73 80 80 73 80 80 73 80 80 73 80 80 73 80 80 73 80 70 63 70 69 62 69 66 59 66 63 56 63 60 53 60 56 49 56 54 47 54 52 47 54 39 38 52 37 39 54 37 39 54 37 39 54 37 39 54 37 39 54 37 39 54 37 39 54 36 38 53 36 38 53 36 38 53 36 38 53 36 38 53 36 38 53 36 38 53 36 38 53 37 39 52 37 39 52 37 39 52 37 39 52 37 39 52 37 39 52 37 39 52 37 39 52 45 47 60 45 47 60 45 47 60 45 47 60 45 47 60 45 47 60 45 47 60 47 47 59 57 54 65 59 53 63 59 53 63 59 53 63 59 53 63 59 53 63 59 53 63 59 53 63 72 66 76 72 66 76 72 66 76 72 66 76 72 66 76 72 66 76 72 66 76 73 65 76 81 67 80 83 67 80 83 67 80 83 67 80 83 67 80 83 67 80 83 67 80 83 67 80 58 42 55 58 42 55 58 42 55 58 42 55 58 42 55 58 42 55 58 42 55 56 42 57 50 39 55 48 39 56 48 39 56 48 39 56 48 39 56 48 39 56 48 39 56 48 39 56 50 41 58 50 41 58 50 41 58 50 41 58 50 41 58 50 41 58 50 41 58 52 41 57 52 35 51 56 35 50 59 38 53 62 41 56 65 44 59 69 48 63 71 50 65 72 51 66 76 55 70 73 52 67 68 47 62 62 41 56 55 34 49 49 28 43 44 23 38 36 22 39 34 31 50 30 32 53 30 32 53 30 32 53 30 32 53 30 32 53 30 32 53 30 32 53 41 43 64 41 43 64 41 43 64 41 43 64 41 43 64 41 43 64 41 43 64 44 43 61 58 47 63 63 49 62 68 54 67 74 60 73 81 67 80 87 73 86 92 78 91 95 81 94 84 70 83 84 70 83 84 70 83 84 70 83 84 70 83 84 70 83 84 70 83 86 70 81 92 75 83 94 75 81 94 75 81 94 75 81 94 75 81 94 75 81 94 75 81 94 75 81 102 83 89 102 83 89 102 83 89 102 83 89 102 83 89 102 83 89 102 83 89 104 81 89 100 69 84 102 68 84 102 68 84 102 68 84 102 68 84 102 68 84 102 68 84 102 68 84 95 61 77 95 61 77 95 61 77 95 61 77 95 61 77 95 61 77 95 61 77 97 60 77 95 54 72 96 53 72 96 53 72 96 53 72 96 53 72 96 53 72 96 53 72 96 53 72 100 57 76 98 55 74 96 53 72 93 50 69 89 46 65 86 43 62 84 41 60 75 43 58 48 36 46 41 40 46 41 40 46 41 40 46 41 40 46 41 40 46 41 40 46 41 40 46 41 40 46 39 38 44
79 70 73 79 70 73 79 70 73 79 70 73 79 70 73 80 73 80 80 73 80 80 73 80 80 73 80 80 73 80 80 73 80 80 73 80 80 73 80 71 64 71 70 63 70 68 61 68 64 57 64 61 54 61 58 51 58 55 48 55 53 48 55 39 38 52 37 39 54 37 39 54 37 39 54 37 39 54 37 39 54 37 39 54 37 39 54 36 38 53 36 38 53 36 38 53 36 38 53 36 38 53 36 38 53 36 38 53 36 38 53 37 39 52 37 39 52 37 39 52 37 39 52 37 39 52 37 39 52 37 39 52 37 39 52 45 47 60 45 47 60 45 47 60 45 47 60 45 47 60 45 47 60 45 47 60 47 47 59 60 52 65 62 52 63 62 52 63 62 52 63 62 52 63 62 52 63 62 52 63 62 52 63 77 67 78 77 67 78 77 67 78 77 67 78 77 67 78 77 67 78 77 67 78 78 66 78 83 69 82 85 69 82 85 69 82 85 69 82 85 69 82 85 69 82 85 69 82 85 69 82 58 42 55 58 42 55 58 42 55 58 42 55 58 42 55 58 42 55 58 42 55 55 43 57 48 40 55 45 41 56 45 41 56 45 41 56 45 41 56 45 41 56 45 41 56 45 41 56 47 43 58 47 43 58 47 43 58 47 43 58 47 43 58 47 43 58 47 43 58 49 43 57 49 35 50 52 36 49 54 38 51 58 42 55 61 45 58 64 48 61 67 51 64 68 52 65 72 56 69 69 53 66 64 48 61 58 42 55 51 35 48 45 29 42 40 24 37 33 22 38 34 31 50 30 32 53 30 32 53 30 32 53 30 32 53 30 32 53 30 32 53 30 32 53 41 43 64 41 43 64 41 43 64 41 43 64 41 43 64 41 43 64 41 43 64 44 43 61 59 48 64 64 50 63 69 55 68 75 61 74 82 68 81 88 74 87 93 79 92 96 82 95 84 70 83 84 70 83 84 70 83 84 70 83 84 70 83 84 70 83 84 70 83 86 70 81 92 75 83 94 75 81 94 75 81 94 75 81 94 75 81 94 75 81 94 75 81 94 75 81 102 83 89 102 83 89 102 83 89 102 83 89 102 83 89 102 83 89 102 83 89 104 81 89 100 69 84 102 68 84 102 68 84 102 68 84 102 68 84 102 68 84 102 68 84 102 68 84 95 61 77 95 61 77 95 61 77 95 61 77 95 61 77 95 61 77 95 61 77 97 60 77 95 54 72 96 53 72 96 53 72 96 53 72 96 53 72 96 53 72 96 53 72 96 53 72 100 57 76 98 55 74 96 53 72 93 50 69 89 46 65 86 43 62 84 41 60 75 43 58 48 36 46 41 40 46 41 40 46 41 40 46 41 40 46 41 40 46 41 40 46 41 40 46 41 40 46 39 38 44
84 75 78 84 75 78 84 75 78 84 75 78 84 75 78 64 57 64 64 57 64 65 58 65 66 59 66 68 61 68 69 62 69 70 63 70 70 63 70 73 66 73 73 66 73 73 66 73 73 66 73 73 66 73 73 66 73 73 66 73 72 67 74 51 50 64 49 51 66 49 51 66 49 51 66 49 51 66 49 51 66 49 51 66 49 51 66 48 50 65 48 50 65 48 50 65 48 50 65 48 50 65 48 50 65 48 50 65 48 50 65 54 56 69 53 55 68 50 52 65 47 49 62 44 46 59 40 42 55 38 40 53 37 39 52 53 55 68 53 55 68 53 55 68 53 55 68 53 55 68 53 55 68 53 55 68 56 54 67 58 47 61 61 47 60 63 49 62 67 53 66 70 56 69 73 59 72 76 62 75 77 63 76 88 74 87 88 74 87 88 74 87 88 74 87 88 74 87 88 74 87 88 74 87 88 74 87 88 72 85 88 72 85 88 72 85 88 72 85 88 72 85 88 72 85 88 72 85 88 72 85 87 71 84 85 69 82 80 64 77 73 57 70 67 51 64 60 44 57 55 39 52 50 38 52 43 39 53 41 40 54 41 40 54 41 40 54 41 40 54 41 40 54 41 40 54 41 40 54 38 37 51 38 37 51 38 37 51 38 37 51 38 37 51 38 37 51 38 37 51 39 37 50 49 38 52 50 38 50 50 38 50 50 38 50 50 38 50 50 38 50 50 38 50 50 38 50 45 33 45 45 33 45 45 33 45 45 33 45 45 33 45 45 33 45 45 33 45 42 34 49 36 35 53 33 35 56 33 35 56 33 35 56 33 35 56 33 35 56 33 35 56 33 35 56 35 37 58 37 39 60 39 41 62 42 44 65 46 48 69 49 51 72 51 53 74 56 55 73 76 65 81 78 64 77 78 64 77 78 64 77 78 64 77 78 64 77 78 64 77 78 64 77 81 67 80 81 67 80 81 67 80 81 67 80 81 67 80 81 67 80 81 67 80 83 67 78 96 79 87 98 79 85 98 79 85 98 79 85 98 79 85 98 79 85 98 79 85 98 79 85 98 79 85 98 79 85 98 79 85 98 79 85 98 79 85 98 79 85 98 79 85 100 77 85 100 69 84 102 68 84 102 68 84 102 68 84 102 68 84 102 68 84 102 68 84 102 68 84 99 65 81 99 65 81 99 65 81 99 65 81 99 65 81 99 65 81 99 65 81 101 64 81 95 54 72 96 53 72 96 53 72 96 53 72 96 53 72 96 53 72 96 53 72 96 53 72 92 49 68 90 47 66 88 45 64 85 42 61 81 38 57 78 35 54 76 33 52 67 35 50 50 38 48 43 42 48 43 42 48 43 42 48 43 42 48 43 42 48 43 42 48 43 42 48 38 37 43 36 35 41
84 75 78 84 75 78 84 75 78 84 75 78 84 75 78 65 58 65 66 59 66 66 59 66 67 60 67 67 60 67 68 61 68 68 61 68 69 62 69 71 64 71 71 64 71 71 64 71 71 64 71 71 64 71 71 64 71 71 64 71 70 65 72 53 52 66 51 53 68 51 53 68 51 53 68 51 53 68 51 53 68 51 53 68 51 53 68 50 52 67 50 52 67 50 52 67 50 52 67 50 52 67 50 52 67 50 52 67 50 52 67 55 57 70 54 56 69 52 54 67 48 50 63 45 47 60 42 44 57 39 41 54 38 40 53 53 55 68 53 55 68 53 55 68 53 55 68 53 55 68 53 55 68 53 55 68 56 54 67 60 48 62 65 47 61 68 50 64 71 53 67 74 56 70 78 60 74 80 62 76 81 63 77 91 73 87 91 73 87 91 73 87 91 73 87 91 73 87 91 73 87 91 73 87 91 73 87 88 72 85 88 72 85 88 72 85 88 72 85 88 72 85 88 72 85 88 72 85 88 72 85 87 71 84 85 69 82 80 64 77 73 57 70 67 51 64 60 44 57 55 39 52 50 38 52 42 40 53 38 42 54 38 42 54 38 42 54 38 42 54 38 42 54 38 42 54 38 42 54 35 39 51 35 39 51 35 39 51 35 39 51 35 39 51 35 39 51 35 39 51 38 38 50 46 40 52 47 39 50 47 39 50 47 39 50 47 39 50 47 39 50 47 39 50 47 39 50 42 34 45 42 34 45 42 34 45 42 34 45 42 34 45 42 34 45 42 34 45 41 35 49 36 35 53 33 35 56 33 35 56 33 35 56 33 35 56 33 35 56 33 35 56 33 35 56 35 37 58 37 39 60 39 41 62 42 44 65 46 48 69 49 51 72 51 53 74 56 55 73 76 65 81 78 64 77 78 64 77 78 64 77 78 64 77 78 64 77 78 64 77 78 64 77 81 67 80 81 67 80 81 67 80 81 67 80 81 67 80 81 67 80 81 67 80 83 67 78 96 79 87 98 79 85 98 79 85 98 79 85 98 79 85 98 79 85 98 79 85 98 79 85 98 79 85 98 79 85 98 79 85 98 79 85 98 79 85 98 79 85 98 79 85 100 77 85 100 69 84 102 68 84 102 68 84 102 68 84 102 68 84 102 68 84 102 68 84 102 68 84 99 65 81 99 65 81 99 65 81 99 65 81 99 65 81 99 65 81 99 65 81 101 64 81 95 54 72 96 53 72 96 53 72 96 53 72 96 53 72 96 53 72 96 53 72 96 53 72 92 49 68 90 47 66 88 45 64 85 42 61 81 38 57 78 35 54 76 33 52 67 35 50 50 38 48 43 42 48 43 42 48 43 42 48 43 42 48 43 42 48 43 42 48 43 42 48 38 37 43 36 35 41
84 75 78 84 75 78 84 75 78 84 75 78 84 75 78 69 62 69 69 62 69 68 61 68 67 60 67 67 60 67 66 59 66 65 58 65 65 58 65 69 62 69 69 62 69 69 62 69 69 62 69 69 62 69 69 62 69 69 62 69 68 63 70 55 54 68 53 55 70 53 55 70 53 55 70 53 55 70 53 55 70 53 55 70 53 55 70 55 57 72 55 57 72 55 57 72 55 57 72 55 57 72 55 57 72 55 57 72 55 57 72 58 60 73 56 58 71 54 56 69 51 53 66 47 49 62 44 46 59 42 44 57 40 42 55 53 55 68 53 55 68 53 55 68 53 55 68 53 55 68 53 55 68 53 55 68 57 53 67 63 49 64 70 49 64 72 51 66 75 54 69 79 58 73 82 61 76 84 63 78 86 65 80 93 72 87 93 72 87 93 72 87 93 72 87 93 72 87 93 72 87 93 72 87 93 72 87 89 71 85 88 72 85 88 72 85 88 72 85 88 72 85 88 72 85 88 72 85 88 72 85 87 71 84 85 69 82 80 64 77 73 57 70 67 51 64 60 44 57 55 39 52 49 38 52 41 41 53 36 42 54 36 42 54 36 42 54 36 42 54 36 42 54 36 42 54 36 42 54 33 39 51 33 39 51 33 39 51 33 39 51 33 39 51 33 39 51 33 39 51 35 39 50 43 41 52 46 40 50 46 40 50 46 40 50 46 40 50 46 40 50 46 40 50 46 40 50 41 35 45 41 35 45 41 35 45 41 35 45 41 35 45 41 35 45 41 35 45 39 35 49 34 35 53 33 35 56 33 35 56 33 35 56 33 35 56 33 35 56 33 35 56 33 35 56 35 37 58 37 39 60 39 41 62 42 44 65 46 48 69 49 51 72 51 53 74 56 55 73 76 65 81 78 64 77 78 64 77 78 64 77 78 64 77 78 64 77 78 64 77 78 64 77 81 67 80 81 67 80 81 67 80 81 67 80 81 67 80 81 67 80 81 67 80 83 67 78 96 79 87 98 79 85 98 79 85 98 79 85 98 79 85 98 79 85 98 79 85 98 79 85 98 79 85 98 79 85 98 79 85 98 79 85 98 79 85 98 79 85 98 79 85 100 77 85 100 69 84 102 68 84 102 68 84 102 68 84 102 68 84 102 68 84 102 68 84 102 68 84 99 65 81 99 65 81 99 65 81 99 65 81 99 65 81 99 65 81 99 65 81 101 64 81 95 54 72 96 53 72 96 53 72 96 53 72 96 53 72 96 53 72 96 53 72 96 53 72 92 49 68 90 47 66 88 45 64 85 42 61 81 38 57 78 35 54 76 33 52 67 35 50 50 38 48 43 42 48 43 42 48 43 42 48 43 42 48 43 42 48 43 42 48 43 42 48 38 37 43 36 35 41
84 75 78 84 75 78 84 75 78 84 75 78 84 75 78 73 66 73 72 65 72 71 64 71 68 61 68 66 59 66 63 56 63 62 55 62 61 54 61 66 59 66 66 59 66 66 59 66 66 59 66 66 59 66 66 59 66 66 59 66 65 60 67 58 57 71 56 58 73 56 58 73 56 58 73 56 58 73 56 58 73 56 58 73 56 58 73 62 64 79 62 64 79 62 64 79 62 64 79 62 64 79 62 64 79 62 64 79 62 64 79 61 63 76 60 62 75 57 59 72 54 56 69 51 53 66 47 49 62 45 47 60 44 46 59 53 55 68 53 55 68 53 55 68 53 55 68 53 55 68 53 55 68 53 55 68 57 53 67 69 52 68 74 51 67 77 53 69 80 57 73 84 60 76 86 63 79 90 66 82 90 67 83 95 71 87 94 71 87 95 71 87 94 71 87 95 71 87 94 71 87 95 71 87 94 71 87 89 71 85 88 72 85 88 72 85 88 72 85 88 72 85 88 72 85 88 72 85 88 72 85 87 71 84 85 69 82 80 64 77 73 57 70 67 51 64 60 44 57 55 39 52 49 38 52 39 41 53 34 44 54 35 43 54 34 44 54 35 43 54 34 44 54 35 43 54 34 44 54 32 40 51 31 41 51 32 40 51 31 41 51 32 40 51 31 41 51 32 40 51 33 40 50 42 42 52 43 42 50 44 41 50 43 42 50 44 41 50 43 42 50 44 41 50 43 42 50 39 36 45 38 37 45 39 36 45 38 37 45 39 36 45 38 37 45 39 36 45 38 36 49 34 35 53 33 35 56 33 35 56 33 35 56 33 35 56 33 35 56 33 35 56 33 35 56 35 37 58 37 39 60 39 41 62 42 44 65 46 48 69 49 51 72 51 53 74 56 55 73 76 65 81 78 64 77 78 64 77 78 64 77 78 64 77 78 64 77 78 64 77 78 64 77 81 67 80 81 67 80 81 67 80 81 67 80 81 67 80 81 67 80 81 67 80 83 67 78 96 79 87 98 79 85 98 79 85 98 79 85 98 79 85 98 79 85 98 79 85 98 79 85 98 79 85 98 79 85 98 79 85 98 79 85 98 79 85 98 79 85 98 79 85 100 77 85 100 69 84 102 68 84 102 68 84 102 68 84 102 68 84 102 68 84 102 68 84 102 68 84 99 65 81 99 65 81 99 65 81 99 65 81 99 65 81 99 65 81 99 65 81 101 64 81 95 54 72 96 53 72 96 53 72 96 53 72 96 53 72 96 53 72 96 53 72 96 53 72 92 49 68 90 47 66 88 45 64 85 42 61 81 38 57 78 35 54 76 33 52 67 35 50 50 38 48 43 42 48 43 42 48 43 42 48 43 42 48 43 42 48 43 42 48 43 42 48 38 37 43 36 35 41
84 75 78 84 75 78 84 75 78 84 75 78 84 75 78 78 71 78 76 69 76 73 66 73 69 62 69 65 58 65 61 54 61 58 51 58 56 49 56 62 55 62 62 55 62 62 55 62 62 55 62 62 55 62 62 55 62 62 55 62 61 56 63 62 61 75 60 62 77 60 62 77 60 62 77 60 62 77 60 62 77 60 62 77 60 62 77 68 70 85 68 70 85 68 70 85 68 70 85 68 70 85 68 70 85 68 70 85 68 70 85 64 66 79 63 65 78 61 63 76 57 59 72 54 56 69 51 53 66 48 50 63 47 49 62 53 55 68 53 55 68 53 55 68 53 55 68 53 55 68 53 55 68 53 55 68 57 53 67 73 55 71 78 54 70 83 56 73 84 60 76 89 62 79 91 67 83 95 68 85 94 70 86 97 70 87 95 71 87 97 70 87 95 71 87 97 70 87 95 71 87 97 70 87 94 71 87 89 71 85 88 72 85 88 72 85 88 72 85 88 72 85 88 72 85 88 72 85 88 72 85 87 71 84 85 69 82 80 64 77 73 57 70 67 51 64 60 44 57 55 39 52 49 38 52 38 42 53 32 45 54 34 44 54 32 45 54 34 44 54 32 45 54 34 44 54 32 45 54 31 41 51 29 42 51 31 41 51 29 42 51 31 41 51 29 42 51 31 41 51 32 41 50 40 43 52 42 42 50 43 42 50 42 42 50 43 42 50 42 42 50 43 42 50 42 42 50 38 37 45 37 37 45 38 37 45 37 37 45 38 37 45 37 37 45 38 37 45 37 37 49 34 35 53 33 35 56 33 35 56 33 35 56 33 35 56 33 35 56 33 35 56 33 35 56 35 37 58 37 39 60 39 41 62 42 44 65 46 48 69 49 51 72 51 53 74 56 55 73 76 65 81 78 64 77 78 64 77 78 64 77 78 64 77 78 64 77 78 64 77 78 64 77 81 67 80 81 67 80 81 67 80 81 67 80 81 67 80 81 67 80 81 67 80 83 67 78 96 79 87 98 79 85 98 79 85 98 79 85 98 79 85 98 79 85 98 79 85 98 79 85 98 79 85 98 79 85 98 79 85 98 79 85 98 79 85 98 79 85 98 79 85 100 77 85 100 69 84 102 68 84 102 68 84 102 68 84 102 68 84 102 68 84 102 68 84 102 68 84 99 65 81 99 65 81 99 65 81 99 65 81 99 65 81 99 65 81 99 65 81 101 64 81 95 54 72 96 53 72 96 53 72 96 53 72 96 53 72 96 53 72 96 53 72 96 53 72 92 49 68 90 47 66 88 45 64 85 42 61 81 38 57 78 35 54 76 33 52 67 35 50 50 38 48 43 42 48 43 42 48 43 42 48 43 42 48 43 42 48 43 42 48 43 42 48 38 37 43 36 35 41
84 75 78 84 75 78 84 75 78 84 75 78 84 75 78 82 75 82 80 73 80 76 69 76 70 63 70 64 57 64 58 51 58 54 47 54 52 45 52 59 52 59 59 52 59 59 52 59 59 52 59 59 52 59 59 52 59 59 52 59 58 53 60 65 64 78 63 65 80 63 65 80 63 65 80 63 65 80 63 65 80 63 65 80 63 65 80 75 77 92 75 77 92 75 77 92 75 77 92 75 77 92 75 77 92 75 77 92 75 77 92 68 70 83 66 68 81 64 66 79 61 63 76 57 59 72 54 56 69 52 54 67 50 52 65 53 55 68 53 55 68 53 55 68 53 55 68 53 55 68 53 55 68 53 55 68 59 53 67 78 57 74 84 57 74 87 58 76 89 62 79 94 65 83 96 69 86 99 70 88 100 73 90 98 69 87 97 70 87 98 69 87 97 70 87 98 69 87 97 70 87 98 69 87 95 71 87 89 71 85 88 72 85 88 72 85 88 72 85 88 72 85 88 72 85 88 72 85 88 72 85 87 71 84 85 69 82 80 64 77 73 57 70 67 51 64 60 44 57 55 39 52 47 39 52 36 43 53 31 45 54 32 45 54 31 45 54 32 45 54 31 45 54 32 45 54 31 45 54 29 42 51 28 42 51 29 42 51 28 42 51 29 42 51 28 42 51 29 42 51 31 41 50 39 43 52 40 43 50 42 42 50 40 43 50 42 42 50 40 43 50 42 42 50 40 43 50 37 37 45 35 38 45 37 37 45 35 38 45 37 37 45 35 38 45 37 37 45 35 37 49 33 36 53 33 35 56 33 35 56 33 35 56 33 35 56 33 35 56 33 35 56 33 35 56 35 37 58 37 39 60 39 41 62 42 44 65 46 48 69 49 51 72 51 53 74 56 55 73 76 65 81 78 64 77 78 64 77 78 64 77 78 64 77 78 64 77 78 64 77 78 64 77 81 67 80 81 67 80 81 67 80 81 67 80 81 67 80 81 67 80 81 67 80 83 67 78 96 79 87 98 79 85 98 79 85 98 79 85 98 79 85 98 79 85 98 79 85 98 79 85 98 79 85 98 79 85 98 79 85 98 79 85 98 79 85 98 79 85 98 79 85 100 77 85 100 69 84 102 68 84 102 68 84 102 68 84 102 68 84 102 68 84 102 68 84 102 68 84 99 65 81 99 65 81 99 65 81 99 65 81 99 65 81 99 65 81 99 65 81 101 64 81 95 54 72 96 53 72 96 53 72 96 53 72 96 53 72 96 53 72 96 53 72 96 53 72 92 49 68 90 47 66 88 45 64 85 42 61 81 38 57 78 35 54 76 33 52 67 35 50 50 38 48 43 42 48 43 42 48 43 42 48 43 42 48 43 42 48 43 42 48 43 42 48 38 37 43 36 35 41
84 75 78 84 75 78 84 75 78 84 75 78 84 75 78 86 79 86 83 76 83 78 71 78 71 64 71 63 56 63 56 49 56 51 44 51 48 41 48 57 50 57 57 50 57 57 50 57 57 50 57 57 50 57 57 50 57 57 50 57 56 51 58 67 66 80 65 67 82 65 67 82 65 67 82 65 67 82 65 67 82 65 67 82 65 67 82 80 82 97 80 82 97 80 82 97 80 82 97 80 82 97 80 82 97 80 82 97 80 82 97 70 72 85 69 71 84 66 68 81 63 65 78 60 62 75 56 58 71 54 56 69 53 55 68 53 55 68 53 55 68 53 55 68 53 55 68 53 55 68 53 55 68 53 55 68 59 53 67 82 59 77 87 58 76 91 60 78 93 64 82 98 67 85 99 70 88 104 73 91 103 74 92 100 69 87 98 69 87 100 69 87 98 69 87 100 69 87 98 69 87 100 69 87 97 70 87 91 70 85 88 72 85 88 72 85 88 72 85 88 72 85 88 72 85 88 72 85 88 72 85 87 71 84 85 69 82 80 64 77 73 57 70 67 51 64 60 44 57 55 39 52 47 39 52 35 44 53 29 46 54 31 45 54 29 46 54 31 45 54 29 46 54 31 45 54 29 46 54 28 42 51 26 43 51 28 42 51 26 43 51 28 42 51 26 43 51 28 42 51 29 42 50 37 44 52 39 44 50 40 43 50 39 44 50 40 43 50 39 44 50 40 43 50 39 44 50 35 38 45 34 39 45 35 38 45 34 39 45 35 38 45 34 39 45 35 38 45 34 38 49 33 36 53 33 35 56 33 35 56 33 35 56 33 35 56 33 35 56 33 35 56 33 35 56 35 37 58 37 39 60 39 41 62 42 44 65 46 48 69 49 51 72 51 53 74 56 55 73 76 65 81 78 64 77 78 64 77 78 64 77 78 64 77 78 64 77 78 64 77 78 64 77 81 67 80 81 67 80 81 67 80 81 67 80 81 67 80 81 67 80 81 67 80 83 67 78 96 79 87 98 79 85 98 79 85 98 79 85 98 79 85 98 79 85 98 79 85 98 79 85 98 79 85 98 79 85 98 79 85 98 79 85 98 79 85 98 79 85 98 79 85 100 77 85 100 69 84 102 68 84 102 68 84 102 68 84 102 68 84 102 68 84 102 68 84 102 68 84 99 65 81 99 65 81 99 65 81 99 65 81 99 65 81 99 65 81 99 65 81 101 64 81 95 54 72 96 53 72 96 53 72 96 53 72 96 53 72 96 53 72 96 53 72 96 53 72 92 49 68 90 47 66 88 45 64 85 42 61 81 38 57 78 35 54 76 33 52 67 35 50 50 38 48 43 42 48 43 42 48 43 42 48 43 42 48 43 42 48 43 42 48 43 42 48 38 37 43 36 35 41
84 75 78 84 75 80 84 75 78 84 75 80 84 75 80 88 82 86 85 78 85 79 72 79 71 64 71 63 56 63 55 48 55 49 42 49 46 39 46 55 48 55 55 48 55 55 48 55 55 48 55 55 48 55 55 48 55 55 48 55 54 49 56 71 68 79 70 68 81 70 68 82 70 68 81 70 68 82 70 68 81 70 68 82 70 68 81 85 83 97 85 83 96 85 83 97 85 83 96 85 83 97 85 83 96 85 83 97 85 83 96 74 72 85 73 71 82 71 69 82 67 65 76 64 62 75 61 59 70 58 56 69 57 55 66 56 54 67 56 54 65 56 54 67 56 54 65 56 54 67 56 54 65 56 54 67 60 52 65 83 60 76 88 60 75 91 63 78 94 66 81 97 69 84 101 73 88 103 75 90 104 76 91 98 70 85 98 70 85 98 70 85 98 70 85 98 70 85 98 70 85 98 70 85 95 71 85 91 71 83 88 72 83 88 72 83 88 72 83 88 72 83 88 72 83 88 72 83 88 72 83 87 71 82 85 69 80 80 64 75 73 57 68 67 51 62 60 44 55 55 39 50 49 39 50 38 42 53 32 45 54 34 44 54 32 45 54 34 44 54 32 45 54 34 44 54 32 45 54 31 41 51 29 42 51 31 41 51 29 42 51 31 41 51 29 42 51 31 41 51 31 41 50 39 43 52 39 43 52 40 43 52 39 43 52 40 43 52 39 43 52 40 43 52 39 43 52 35 38 47 34 38 47 35 38 47 34 38 47 35 38 47 34 38 47 35 38 47 35 37 49 34 35 53 34 35 55 34 35 56 34 35 55 34 35 56 34 35 55 34 35 56 34 35 55 36 37 58 38 39 59 40 41 62 43 44 64 47 48 69 50 51 71 52 53 74 57 54 73 76 65 79 78 65 75 80 64 75 78 65 75 80 64 75 78 65 75 80 64 75 78 65 75 83 67 78 81 68 78 83 67 78 81 68 78 83 67 78 81 68 78 83 67 78 83 67 78 99 78 87 99 78 85 100 77 87 99 78 85 100 77 87 99 78 85 100 77 87 99 78 85 100 77 87 99 78 85 100 77 87 99 78 85 100 77 87 99 78 85 100 77 87 102 76 87 101 69 84 102 68 84 102 68 84 102 68 84 102 68 84 102 68 84 102 68 84 102 68 84 99 65 81 99 65 81 99 65 81 99 65 81 99 65 81 99 65 81 99 65 81 102 63 81 96 53 72 97 52 72 97 52 72 97 52 72 97 52 72 96 53 72 96 53 72 95 54 72 91 50 68 89 48 66 85 46 64 82 43 61 78 39 57 74 37 54 72 35 52 64 36 50 49 39 48 43 42 48 43 42 48 43 42 48 43 42 48 43 42 48 43 42 48 43 42 48 38 37 43 36 35 41
88 79 84 88 78 86 88 79 84 88 78 86 88 79 84 84 78 82 82 76 80 80 74 78 77 71 75 73 67 71 70 64 68 68 62 66 66 60 64 57 51 55 57 51 55 57 51 55 57 51 55 57 51 55 57 51 55 57 51 55 57 50 57 57 50 58 59 52 60 61 53 64 64 57 65 68 60 71 71 64 72 73 65 76 75 68 76 96 88 99 95 88 96 93 85 96 89 82 90 86 78 89 83 76 84 80 72 83 79 72 80 60 53 61 60 53 60 60 53 61 60 53 60 60 53 61 60 53 60 60 53 61 60 53 60 63 56 64 65 58 65 67 60 68 70 63 70 74 67 75 77 70 77 79 72 80 84 73 81 95 75 86 96 74 86 96 74 86 96 74 86 96 74 86 96 74 86 96 74 86 96 74 86 86 64 76 88 66 78 90 68 80 93 71 83 97 75 87 100 78 90 102 80 92 104 82 94 89 72 82 87 70 80 85 68 78 82 65 75 78 61 71 75 58 68 73 56 66 71 54 64 86 69 79 84 67 77 82 65 75 79 62 72 75 58 68 72 55 65 70 53 63 64 52 62 43 40 51 39 41 53 41 41 53 39 41 53 41 41 53 39 41 53 41 41 53 39 41 53 33 33 45 31 33 45 33 33 45 31 33 45 33 33 45 31 33 45 33 33 45 31 33 45 46 46 58 44 46 58 46 46 58 44 46 58 46 46 58 44 46 58 46 46 58 44 46 58 37 37 49 35 37 49 37 37 49 35 37 49 37 37 49 35 37 49 37 37 49 37 36 50 43 40 59 43 40 59 43 40 61 43 40 59 43 40 61 43 40 59 43 40 61 43 40 59 46 43 64 48 45 64 53 50 71 60 57 76 66 63 84 73 70 89 78 75 96 83 76 94 86 72 85 88 72 82 89 72 82 88 72 82 89 72 82 88 72 82 89 72 82 88 72 82 95 78 88 94 78 88 95 78 88 94 78 88 95 78 88 94 78 88 95 78 88 97 77 88 99 73 86 100 72 84 102 71 86 100 72 84 102 71 86 100 72 84 102 71 86 100 72 84 98 67 82 96 68 80 98 67 82 96 68 80 98 67 82 96 68 80 98 67 82 98 67 82 99 65 81 101 64 81 101 64 81 101 64 81 101 64 81 101 64 81 101 64 81 101 64 81 101 64 81 101 64 81 101 64 81 101 64 81 101 64 81 101 64 81 101 64 81 104 63 81 102 53 72 104 53 72 102 53 72 102 53 72 101 54 72 99 55 72 98 55 72 95 57 72 83 47 61 79 45 59 76 44 57 72 42 54 66 38 50 62 36 47 58 35 45 52 35 45 45 40 47 41 41 49 41 41 49 41 41 49 41 41 49 41 41 49 41 41 49 41 41 49 35 35 43 33 33 41
88 78 86 88 78 86 88 78 86 88 78 86 88 78 86 84 78 82 82 76 80 80 74 78 77 71 75 73 67 71 70 64 68 68 62 66 66 60 64 57 51 55 57 51 55 57 51 55 57 51 55 57 51 55 57 51 55 57 51 55 57 51 55 60 49 57 62 51 59 64 53 61 67 56 64 71 60 68 74 63 71 76 65 73 78 67 75 98 87 95 97 86 94 94 83 91 91 80 88 88 77 85 84 73 81 82 71 79 81 70 78 63 52 58 63 52 58 63 52 58 63 52 58 63 52 58 63 52 58 63 52 58 63 52 58 66 55 61 68 57 63 70 59 65 73 62 68 77 66 72 80 69 75 82 71 77 85 72 79 91 74 82 93 73 82 93 73 82 93 73 82 93 73 82 93 73 82 93 73 82 93 73 82 85 65 74 87 67 76 89 69 78 92 72 81 96 76 85 99 79 88 101 81 90 103 83 92 89 72 80 87 70 78 85 68 76 82 65 73 78 61 69 75 58 66 73 56 64 71 54 62 86 69 77 84 67 75 82 65 73 79 62 70 75 58 66 72 55 63 70 53 61 65 52 61 46 38 51 43 39 53 43 39 53 43 39 53 43 39 53 43 39 53 43 39 53 43 39 53 37 33 47 37 33 47 37 33 47 37 33 47 37 33 47 37 33 47 37 33 47 36 34 47 47 45 59 46 45 59 46 45 59 46 45 59 46 45 59 46 45 59 46 45 59 46 45 59 37 36 50 37 36 50 37 36 50 37 36 50 37 36 50 37 36 50 37 36 50 37 36 50 44 39 59 44 39 59 44 39 59 44 39 59 44 39 59 44 39 59 44 39 59 44 39 59 47 42 62 49 44 64 54 49 69 61 56 76 67 62 82 74 69 89 79 74 94 84 75 92 86 73 83 89 72 80 89 72 80 89 72 80 89 72 80 89 72 80 89 72 80 89 72 80 95 78 86 95 78 86 95 78 86 95 78 86 95 78 86 95 78 86 95 78 86 98 77 86 100 72 86 103 71 86 103 71 86 103 71 86 103 71 86 103 71 86 103 71 86 103 71 86 99 67 82 99 67 82 99 67 82 99 67 82 99 67 82 99 67 82 99 67 82 99 67 82 101 64 81 101 64 81 101 64 81 101 64 81 101 64 81 101 64 81 101 64 81 101 64 81 101 64 81 101 64 81 101 64 81 101 64 81 101 64 81 101 64 81 101 64 81 104 63 81 104 53 72 105 52 72 105 52 72 102 53 72 102 53 72 99 55 72 98 55 72 95 57 72 81 47 61 77 47 59 73 45 57 67 44 54 63 40 50 58 38 47 56 36 45 49 36 45 43 40 47 41 41 49 41 41 49 41 41 49 41 41 49 41 41 49 41 41 49 41 41 49 35 35 43 33 33 41
88 78 86 88 78 86 88 78 86 88 78 86 88 78 86 84 78 82 82 76 80 80 74 78 77 71 75 73 67 71 70 64 68 68 62 66 66 60 64 57 51 55 57 51 55 57 51 55 57 51 55 57 51 55 57 51 55 57 51 55 57 51 55 60 49 57 62 51 59 64 53 61 67 56 64 71 60 68 74 63 71 76 65 73 78 67 75 96 85 93 94 83 91 92 81 89 89 78 86 85 74 82 82 71 79 80 69 77 78 67 75 63 52 58 63 52 58 63 52 58 63 52 58 63 52 58 63 52 58 63 52 58 63 52 58 66 55 61 68 57 63 70 59 65 73 62 68 77 66 72 80 69 75 82 71 77 85 72 79 89 72 80 91 71 80 91 71 80 91 71 80 91 71 80 91 71 80 91 71 80 91 71 80 85 65 74 87 67 76 89 69 78 92 72 81 96 76 85 99 79 88 101 81 90 103 83 92 89 72 80 87 70 78 85 68 76 82 65 73 78 61 69 75 58 66 73 56 64 71 54 62 86 69 77 84 67 75 82 65 73 79 62 70 75 58 66 72 55 63 70 53 61 65 52 61 46 38 51 43 39 53 43 39 53 43 39 53 43 39 53 43 39 53 43 39 53 43 39 53 39 35 49 39 35 49 39 35 49 39 35 49 39 35 49 39 35 49 39 35 49 38 36 49 47 45 59 46 45 59 46 45 59 46 45 59 46 45 59 46 45 59 46 45 59 46 45 59 37 36 50 37 36 50 37 36 50 37 36 50 37 36 50 37 36 50 37 36 50 37 36 50 44 39 59 44 39 59 44 39 59 44 39 59 44 39 59 44 39 59 44 39 59 44 39 59 47 42 62 49 44 64 54 49 69 61 56 76 67 62 82 74 69 89 79 74 94 84 75 92 86 73 83 89 72 80 89 72 80 89 72 80 89 72 80 89 72 80 89 72 80 89 72 80 95 78 86 95 78 86 95 78 86 95 78 86 95 78 86 95 78 86 95 78 86 98 77 86 100 72 86 103 71 86 103 71 86 103 71 86 103 71 86 103 71 86 103 71 86 103 71 86 99 67 82 99 67 82 99 67 82 99 67 82 99 67 82 99 67 82 99 67 82 99 67 82 101 64 81 101 64 81 101 64 81 101 64 81 101 64 81 101 64 81 101 64 81 101 64 81 101 64 81 101 64 81 101 64 81 101 64 81 101 64 81 101 64 81 101 64 81 104 63 81 104 53 72 105 52 72 105 52 72 102 53 72 102 53 72 99 55 72 98 55 72 95 57 72 81 47 61 77 47 59 73 45 57 67 44 54 63 40 50 58 38 47 56 36 45 49 36 45 43 40 47 41 41 49 41 41 49 41 41 49 41 41 49 41 41 49 41 41 49 41 41 49 35 35 43 33 33 41
88 78 86 88 78 86 88 78 86 88 78 86 88 78 86 84 78 82 82 76 80 80 74 78 77 71 75 73 67 71 70 64 68 68 62 66 66 60 64 57 51 55 57 51 55 57 51 55 57 51 55 57 51 55 57 51 55 57 51 55 57 51 55 60 49 57 62 51 59 64 53 61 67 56 64 71 60 68 74 63 71 76 65 73 78 67 75 92 81 89 91 80 88 89 78 86 85 74 82 82 71 79 79 68 76 76 65 73 75 64 72 63 52 58 63 52 58 63 52 58 63 52 58 63 52 58 63 52 58 63 52 58 63 52 58 66 55 61 68 57 63 70 59 65 73 62 68 77 66 72 80 69 75 82 71 77 85 72 79 86 69 77 88 68 77 88 68 77 88 68 77 88 68 77 88 68 77 88 68 77 88 68 77 85 65 74 87 67 76 89 69 78 92 72 81 96 76 85 99 79 88 101 81 90 103 83 92 89 72 80 87 70 78 85 68 76 82 65 73 78 61 69 75 58 66 73 56 64 71 54 62 86 69 77 84 67 75 82 65 73 79 62 70 75 58 66 72 55 63 70 53 61 65 52 61 46 38 51 43 39 53 43 39 53 43 39 53 43 39 53 43 39 53 43 39 53 43 39 53 42 38 52 42 38 52 42 38 52 42 38 52 42 38 52 42 38 52 42 38 52 41 39 52 47 45 59 46 45 59 46 45 59 46 45 59 46 45 59 46 45 59 46 45 59 46 45 59 37 36 50 37 36 50 37 36 50 37 36 50 37 36 50 37 36 50 37 36 50 37 36 50 44 39 59 44 39 59 44 39 59 44 39 59 44 39 59 44 39 59 44 39 59 44 39 59 47 42 62 49 44 64 54 49 69 61 56 76 67 62 82 74 69 89 79 74 94 84 75 92 86 73 83 89 72 80 89 72 80 89 72 80 89 72 80 89 72 80 89 72 80 89 72 80 95 78 86 95 78 86 95 78 86 95 78 86 95 78 86 95 78 86 95 78 86 98 77 86 100 72 86 103 71 86 103 71 86 103 71 86 103 71 86 103 71 86 103 71 86 103 71 86 99 67 82 99 67 82 99 67 82 99 67 82 99 67 82 99 67 82 99 67 82 99 67 82 101 64 81 101 64 81 101 64 81 101 64 81 101 64 81 101 64 81 101 64 81 101 64 81 101 64 81 101 64 81 101 64 81 101 64 81 101 64 81 101 64 81 101 64 81 104 63 81 104 53 72 105 52 72 105 52 72 102 53 72 102 53 72 99 55 72 98 55 72 95 57 72 81 47 61 77 47 59 73 45 57 67 44 54 63 40 50 58 38 47 56 36 45 49 36 45 43 40 47 41 41 49 41 41 49 41 41 49 41 41 49 41 41 49 41 41 49 41 41 49 35 35 43 33 33 41
88 78 86 88 78 86 88 78 86 88 78 86 88 78 86 84 78 82 82 76 80 80 74 78 77 71 75 73 67 71 70 64 68 68 62 66 66 60 64 57 51 55 57 51 55 57 51 55 57 51 55 57 51 55 57 51 55 57 51 55 57 51 55 60 49 57 62 51 59 64 53 61 67 56 64 71 60 68 74 63 71 76 65 73 78 67 75 89 78 86 88 77 85 85 74 82 82 71 79 79 68 76 75 64 72 73 62 70 72 61 69 63 52 58 63 52 58 63 52 58 63 52 58 63 52 58 63 52 58 63 52 58 63 52 58 66 55 61 68 57 63 70 59 65 73 62 68 77 66 72 80 69 75 82 71 77 85 72 79 82 65 73 84 64 73 84 64 73 84 64 73 84 64 73 84 64 73 84 64 73 84 64 73 85 65 74 87 67 76 89 69 78 92 72 81 96 76 85 99 79 88 101 81 90 103 83 92 89 72 80 87 70 78 85 68 76 82 65 73 78 61 69 75 58 66 73 56 64 71 54 62 86 69 77 84 67 75 82 65 73 79 62 70 75 58 66 72 55 63 70 53 61 65 52 61 46 38 51 43 39 53 43 39 53 43 39 53 43 39 53 43 39 53 43 39 53 43 39 53 46 42 56 46 42 56 46 42 56 46 42 56 46 42 56 46 42 56 46 42 56 45 43 56 47 45 59 46 45 59 46 45 59 46 45 59 46 45 59 46 45 59 46 45 59 46 45 59 37 36 50 37 36 50 37 36 50 37 36 50 37 36 50 37 36 50 37 36 50 37 36 50 44 39 59 44 39 59 44 39 59 44 39 59 44 39 59 44 39 59 44 39 59 44 39 59 47 42 62 49 44 64 54 49 69 61 56 76 67 62 82 74 69 89 79 74 94 84 75 92 86 73 83 89 72 80 89 72 80 89 72 80 89 72 80 89 72 80 89 72 80 89 72 80 95 78 86 95 78 86 95 78 86 95 78 86 95 78 86 95 78 86 95 78 86 98 77 86 100 72 86 103 71 86 103 71 86 103 71 86 103 71 86 103 71 86 103 71 86 103 71 86 99 67 82 99 67 82 99 67 82 99 67 82 99 67 82 99 67 82 99 67 82 99 67 82 101 64 81 101 64 81 101 64 81 101 64 81 101 64 81 101 64 81 101 64 81 101 64 81 101 64 81 101 64 81 101 64 81 101 64 81 101 64 81 101 64 81 101 64 81 104 63 81 104 53 72 105 52 72 105 52 72 102 53 72 102 53 72 99 55 72 98 55 72 95 57 72 81 47 61 77 47 59 73 45 57 67 44 54 63 40 50 58 38 47 56 36 45 49 36 45 43 40 47 41 41 49 41 41 49 41 41 49 41 41 49 41 41 49 41 41 49 41 41 49 35 35 43 33 33 41
88 78 86 88 78 86 88 78 86 88 78 86 88 78 86 84 78 82 82 76 80 80 74 78 77 71 75 73 67 71 70 64 68 68 62 66 66 60 64 57 51 55 57 51 55 57 51 55 57 51 55 57 51 55 57 51 55 57 51 55 57 51 55 60 49 57 62 51 59 64 53 61 67 56 64 71 60 68 74 63 71 76 65 73 78 67 75 86 75 83 84 73 81 82 71 79 79 68 76 75 64 72 72 61 69 70 59 67 68 57 65 63 52 58 63 52 58 63 52 58 63 52 58 63 52 58 63 52 58 63 52 58 63 52 58 66 55 61 68 57 63 70 59 65 73 62 68 77 66 72 80 69 75 82 71 77 85 72 79 79 62 70 81 61 70 81 61 70 81 61 70 81 61 70 81 61 70 81 61 70 81 61 70 85 65 74 87 67 76 89 69 78 92 72 81 96 76 85 99 79 88 101 81 90 103 83 92 89 72 80 87 70 78 85 68 76 82 65 73 78 61 69 75 58 66 73 56 64 71 54 62 86 69 77 84 67 75 82 65 73 79 62 70 75 58 66 72 55 63 70 53 61 65 52 61 46 38 51 43 39 53 43 39 53 43 39 53 43 39 53 43 39 53 43 39 53 43 39 53 49 45 59 49 45 59 49 45 59 49 45 59 49 45 59 49 45 59 49 45 59 48 46 59 47 45 59 46 45 59 46 45 59 46 45 59 46 45 59 46 45 59 46 45 59 46 45 59 37 36 50 37 36 50 37 36 50 37 36 50 37 36 50 37 36 50 37 36 50 37 36 50 44 39 59 44 39 59 44 39 59 44 39 59 44 39 59 44 39 59 44 39 59 44 39 59 47 42 62 49 44 64 54 49 69 61 56 76 67 62 82 74 69 89 79 74 94 84 75 92 86 73 83 89 72 80 89 72 80 89 72 80 89 72 80 89 72 80 89 72 80 89 72 80 95 78 86 95 78 86 95 78 86 95 78 86 95 78 86 95 78 86 95 78 86 98 77 86 100 72 86 103 71 86 103 71 86 103 71 86 103 71 86 103 71 86 103 71 86 103 71 86 99 67 82 99 67 82 99 67 82 99 67 82 99 67 82 99 67 82 99 67 82 99 67 82 101 64 81 101 64 81 101 64 81 101 64 81 101 64 81 101 64 81 101 64 81 101 64 81 101 64 81 101 64 81 101 64 81 101 64 81 101 64 81 101 64 81 101 64 81 104 63 81 104 53 72 105 52 72 105 52 72 102 53 72 102 53 72 99 55 72 98 55 72 95 57 72 81 47 61 77 47 59 73 45 57 67 44 54 63 40 50 58 38 47 56 36 45 49 36 45 43 40 47 41 41 49 41 41 49 41 41 49 41 41 49 41 41 49 41 41 49 41 41 49 35 35 43 33 33 41
88 78 86 88 78 86 88 78 86 88 78 86 88 78 86 84 78 82 82 76 80 80 74 78 77 71 75 73 67 71 70 64 68 68 62 66 66 60 64 57 51 55 57 51 55 57 51 55 57 51 55 57 51 55 57 51 55 57 51 55 57 51 55 60 49 57 62 51 59 64 53 61 67 56 64 71 60 68 74 63 71 76 65 73 78 67 75 83 72 80 82 71 79 80 69 77 76 65 73 73 62 70 70 59 67 67 56 64 66 55 63 63 52 58 63 52 58 63 52 58 63 52 58 63 52 58 63 52 58 63 52 58 63 52 58 66 55 61 68 57 63 70 59 65 73 62 68 77 66 72 80 69 75 82 71 77 85 72 79 77 60 68 79 59 68 79 59 68 79 59 68 79 59 68 79 59 68 79 59 68 79 59 68 85 65 74 87 67 76 89 69 78 92 72 81 96 76 85 99 79 88 101 81 90 103 83 92 89 72 80 87 70 78 85 68 76 82 65 73 78 61 69 75 58 66 73 56 64 71 54 62 86 69 77 84 67 75 82 65 73 79 62 70 75 58 66 72 55 63 70 53 61 65 52 61 46 38 51 43 39 53 43 39 53 43 39 53 43 39 53 43 39 53 43 39 53 43 39 53 51 47 61 51 47 61 51 47 61 51 47 61 51 47 61 51 47 61 51 47 61 50 48 61 47 45 59 46 45 59 46 45 59 46 45 59 46 45 59 46 45 59 46 45 59 46 45 59 37 36 50 37 36 50 37 36 50 37 36 50 37 36 50 37 36 50 37 36 50 37 36 50 44 39 59 44 39 59 44 39 59 44 39 59 44 39 59 44 39 59 44 39 59 44 39 59 47 42 62 49 44 64 54 49 69 61 56 76 67 62 82 74 69 89 79 74 94 84 75 92 86 73 83 89 72 80 89 72 80 89 72 80 89 72 80 89 72 80 89 72 80 89 72 80 95 78 86 95 78 86 95 78 86 95 78 86 95 78 86 95 78 86 95 78 86 98 77 86 100 72 86 103 71 86 103 71 86 103 71 86 103 71 86 103 71 86 103 71 86 103 71 86 99 67 82 99 67 82 99 67 82 99 67 82 99 67 82 99 67 82 99 67 82 99 67 82 101 64 81 101 64 81 101 64 81 101 64 81 101 64 81 101 64 81 101 64 81 101 64 81 101 64 81 101 64 81 101 64 81 101 64 81 101 64 81 101 64 81 101 64 81 104 63 81 104 53 72 105 52 72 105 52 72 102 53 72 102 53 72 99 55 72 98 55 72 95 57 72 81 47 61 77 47 59 73 45 57 67 44 54 63 40 50 58 38 47 56 36 45 49 36 45 43 40 47 41 41 49 41 41 49 41 41 49 41 41 49 41 41 49 41 41 49 41 41 49 35 35 43 33 33 41
88 78 86 88 78 86 88 78 86 88 78 86 88 78 86 84 78 82 82 76 80 80 74 78 77 71 75 73 67 71 70 64 68 68 62 66 66 60 64 57 51 55 57 51 55 57 51 55 57 51 55 57 51 55 57 51 55 57 51 55 57 51 55 60 49 57 62 51 59 64 53 61 67 56 64 71 60 68 74 63 71 76 65 73 78 67 75 82 71 79 81 70 78 78 67 75 75 64 72 72 61 69 68 57 65 66 55 63 65 54 62 63 52 58 63 52 58 63 52 58 63 52 58 63 52 58 63 52 58 63 52 58 63 52 58 66 55 61 68 57 63 70 59 65 73 62 68 77 66 72 80 69 75 82 71 77 85 72 79 75 58 66 77 57 66 77 57 66 77 57 66 77 57 66 77 57 66 77 57 66 77 57 66 85 65 74 87 67 76 89 69 78 92 72 81 96 76 85 99 79 88 101 81 90 103 83 92 89 72 80 87 70 78 85 68 76 82 65 73 78 61 69 75 58 66 73 56 64 71 54 62 86 69 77 84 67 75 82 65 73 79 62 70 75 58 66 72 55 63 70 53 61 65 52 61 46 38 51 43 39 53 43 39 53 43 39 53 43 39 53 43 39 53 43 39 53 43 39 53 53 49 63 53 49 63 53 49 63 53 49 63 53 49 63 53 49 63 53 49 63 52 50 63 47 45 59 46 45 59 46 45 59 46 45 59 46 45 59 46 45 59 46 45 59 46 45 59 37 36 50 37 36 50 37 36 50 37 36 50 37 36 50 37 36 50 37 36 50 37 36 50 44 39 59 44 39 59 44 39 59 44 39 59 44 39 59 44 39 59 44 39 59 44 39 59 47 42 62 49 44 64 54 49 69 61 56 76 67 62 82 74 69 89 79 74 94 84 75 92 86 73 83 89 72 80 89 72 80 89 72 80 89 72 80 89 72 80 89 72 80 89 72 80 95 78 86 95 78 86 95 78 86 95 78 86 95 78 86 95 78 86 95 78 86 98 77 86 100 72 86 103 71 86 103 71 86 103 71 86 103 71 86 103 71 86 103 71 86 103 71 86 99 67 82 99 67 82 99 67 82 99 67 82 99 67 82 99 67 82 99 67 82 99 67 82 101 64 81 101 64 81 101 64 81 101 64 81 101 64 81 101 64 81 101 64 81 101 64 81 101 64 81 101 64 81 101 64 81 101 64 81 101 64 81 101 64 81 101 64 81 104 63 81 104 53 72 105 52 72 105 52 72 102 53 72 102 53 72 99 55 72 98 55 72 95 57 72 81 47 61 77 47 59 73 45 57 67 44 54 63 40 50 58 38 47 56 36 45 49 36 45 43 40 47 41 41 49 41 41 49 41 41 49 41 41 49 41 41 49 41 41 49 41 41 49 35 35 43 33 33 41
69 59 67 69 59 67 69 59 67 69 59 67 69 59 67 64 58 62 64 58 62 64 58 62 64 58 62 64 58 62 64 58 62 64 58 62 64 58 62 60 54 58 60 54 58 60 54 58 60 54 58 60 54 58 60 54 58 60 54 58 60 54 58 60 49 57 60 49 57 60 49 57 60 49 57 60 49 57 60 49 57 60 49 57 60 49 57 61 50 58 61 50 58 61 50 58 61 50 58 61 50 58 61 50 58 61 50 58 61 50 58 68 57 63 68 57 63 68 57 63 68 57 63 68 57 63 68 57 63 68 57 63 68 57 63 77 66 72 77 66 72 77 66 72 77 66 72 77 66 72 77 66 72 77 66 72 78 65 72 72 55 63 74 54 63 74 54 63 74 54 63 74 54 63 74 54 63 74 54 63 74 54 63 80 60 69 82 62 71 84 64 73 87 67 76 91 71 80 94 74 83 96 76 85 98 78 87 90 73 81 88 71 79 86 69 77 83 66 74 79 62 70 76 59 67 74 57 65 72 55 63 73 56 64 73 56 64 73 56 64 73 56 64 73 56 64 73 56 64 73 56 64 70 57 66 45 37 50 43 39 53 45 41 55 49 45 59 52 48 62 55 51 65 58 54 68 59 55 69 63 59 73 63 59 73 63 59 73 63 59 73 63 59 73 63 59 73 63 59 73 62 60 73 60 58 72 57 56 70 55 54 68 52 51 65 48 47 61 45 44 58 43 42 56 41 40 54 31 30 44 33 32 46 35 34 48 38 37 51 42 41 55 45 44 58 47 46 60 49 48 62 52 47 67 52 47 67 52 47 67 52 47 67 52 47 67 52 47 67 52 47 67 52 47 67 60 55 75 61 56 76 63 58 78 67 62 82 70 65 85 73 68 88 76 71 91 80 71 88 94 81 91 97 80 88 97 80 88 97 80 88 97 80 88 97 80 88 97 80 88 97 80 88 93 76 84 93 76 84 93 76 84 93 76 84 93 76 84 93 76 84 93 76 84 96 75 84 97 69 83 100 68 83 100 68 83 100 68 83 100 68 83 100 68 83 100 68 83 100 68 83 96 64 79 96 64 79 96 64 79 96 64 79 96 64 79 96 64 79 96 64 79 96 64 79 95 58 75 95 58 75 95 58 75 95 58 75 95 58 75 95 58 75 95 58 75 95 58 75 99 62 79 99 62 79 99 62 79 99 62 79 99 62 79 99 62 79 99 62 79 102 61 79 103 52 71 104 51 71 104 51 71 101 52 71 101 52 71 98 54 71 97 54 71 94 56 71 78 44 58 74 44 56 70 42 54 64 41 51 60 37 47 55 35 44 53 33 42 46 33 42 43 40 47 41 41 49 41 41 49 41 41 49 41 41 49 41 41 49 41 41 49 41 41 49 25 25 33 25 25 33
69 59 67 69 59 67 69 59 67 69 59 67 69 59 67 64 58 62 64 58 62 64 58 62 64 58 62 64 58 62 64 58 62 64 58 62 64 58 62 60 54 58 60 54 58 60 54 58 60 54 58 60 54 58 60 54 58 60 54 58 60 54 58 60 49 57 60 49 57 60 49 57 60 49 57 60 49 57 60 49 57 60 49 57 60 49 57 61 50 58 61 50 58 61 50 58 61 50 58 61 50 58 61 50 58 61 50 58 61 50 58 68 57 63 68 57 63 68 57 63 68 57 63 68 57 63 68 57 63 68 57 63 68 57 63 77 66 72 77 66 72 77 66 72 77 66 72 77 66 72 77 66 72 77 66 72 78 65 72 72 55 63 74 54 63 74 54 63 74 54 63 74 54 63 74 54 63 74 54 63 74 54 63 80 60 69 82 62 71 84 64 73 87 67 76 91 71 80 94 74 83 96 76 85 98 78 87 90 73 81 88 71 79 86 69 77 83 66 74 79 62 70 76 59 67 74 57 65 72 55 63 73 56 64 73 56 64 73 56 64 73 56 64 73 56 64 73 56 64 73 56 64 70 57 66 46 38 51 44 40 54 47 43 57 50 46 60 53 49 63 57 53 67 59 55 69 60 56 70 63 59 73 63 59 73 63 59 73 63 59 73 63 59 73 63 59 73 63 59 73 62 60 73 60 58 72 57 56 70 55 54 68 52 51 65 48 47 61 45 44 58 43 42 56 41 40 54 31 30 44 33 32 46 35 34 48 38 37 51 42 41 55 45 44 58 47 46 60 49 48 62 52 47 67 52 47 67 52 47 67 52 47 67 52 47 67 52 47 67 52 47 67 52 47 67 61 56 76 62 57 77 65 60 80 68 63 83 71 66 86 75 70 90 77 72 92 81 72 89 94 81 91 97 80 88 97 80 88 97 80 88 97 80 88 97 80 88 97 80 88 97 80 88 93 76 84 93 76 84 93 76 84 93 76 84 93 76 84 93 76 84 93 76 84 96 75 84 97 69 83 100 68 83 100 68 83 100 68 83 100 68 83 100 68 83 100 68 83 100 68 83 96 64 79 96 64 79 96 64 79 96 64 79 96 64 79 96 64 79 96 64 79 96 64 79 95 58 75 95 58 75 95 58 75 95 58 75 95 58 75 95 58 75 95 58 75 95 58 75 99 62 79 99 62 79 99 62 79 99 62 79 99 62 79 99 62 79 99 62 79 102 61 79 103 52 71 104 51 71 104 51 71 101 52 71 101 52 71 98 54 71 97 54 71 94 56 71 78 44 58 74 44 56 70 42 54 64 41 51 60 37 47 55 35 44 53 33 42 46 33 42 43 40 47 41 41 49 41 41 49 41 41 49 41 41 49 41 41 49 41 41 49 41 41 49 25 25 33 25 25 33
69 59 67 69 59 67 69 59 67 69 59 67 69 59 67 64 58 62 64 58 62 64 58 62 64 58 62 64 58 62 64 58 62 64 58 62 64 58 62 60 54 58 60 54 58 60 54 58 60 54 58 60 54 58 60 54 58 60 54 58 60 54 58 60 49 57 60 49 57 60 49 57 60 49 57 60 49 57 60 49 57 60 49 57 60 49 57 61 50 58 61 50 58 61 50 58 61 50 58 61 50 58 61 50 58 61 50 58 61 50 58 68 57 63 68 57 63 68 57 63 68 57 63 68 57 63 68 57 63 68 57 63 68 57 63 77 66 72 77 66 72 77 66 72 77 66 72 77 66 72 77 66 72 77 66 72 78 65 72 72 55 63 74 54 63 74 54 63 74 54 63 74 54 63 74 54 63 74 54 63 74 54 63 80 60 69 82 62 71 84 64 73 87 67 76 91 71 80 94 74 83 96 76 85 98 78 87 90 73 81 88 71 79 86 69 77 83 66 74 79 62 70 76 59 67 74 57 65 72 55 63 73 56 64 73 56 64 73 56 64 73 56 64 73 56 64 73 56 64 73 56 64 70 57 66 48 40 53 47 43 57 49 45 59 52 48 62 56 52 66 59 55 69 61 57 71 63 59 73 63 59 73 63 59 73 63 59 73 63 59 73 63 59 73 63 59 73 63 59 73 62 60 73 60 58 72 57 56 70 55 54 68 52 51 65 48 47 61 45 44 58 43 42 56 41 40 54 31 30 44 33 32 46 35 34 48 38 37 51 42 41 55 45 44 58 47 46 60 49 48 62 52 47 67 52 47 67 52 47 67 52 47 67 52 47 67 52 47 67 52 47 67 52 47 67 63 58 78 65 60 80 67 62 82 70 65 85 74 69 89 77 72 92 79 74 94 84 75 92 94 81 91 97 80 88 97 80 88 97 80 88 97 80 88 97 80 88 97 80 88 97 80 88 93 76 84 93 76 84 93 76 84 93 76 84 93 76 84 93 76 84 93 76 84 96 75 84 97 69 83 100 68 83 100 68 83 100 68 83 100 68 83 100 68 83 100 68 83 100 68 83 96 64 79 96 64 79 96 64 79 96 64 79 96 64 79 96 64 79 96 64 79 96 64 79 95 58 75 95 58 75 95 58 75 95 58 75 95 58 75 95 58 75 95 58 75 95 58 75 99 62 79 99 62 79 99 62 79 99 62 79 99 62 79 99 62 79 99 62 79 102 61 79 103 52 71 104 51 71 104 51 71 101 52 71 101 52 71 98 54 71 97 54 71 94 56 71 78 44 58 74 44 56 70 42 54 64 41 51 60 37 47 55 35 44 53 33 42 46 33 42 43 40 47 41 41 49 41 41 49 41 41 49 41 41 49 41 41 49 41 41 49 41 41 49 25 25 33 25 25 33
69 59 67 69 59 67 69 59 67 69 59 67 69 59 67 64 58 62 64 58 62 64 58 62 64 58 62 64 58 62 64 58 62 64 58 62 64 58 62 60 54 58 60 54 58 60 54 58 60 54 58 60 54 58 60 54 58 60 54 58 60 54 58 60 49 57 60 49 57 60 49 57 60 49 57 60 49 57 60 49 57 60 49 57 60 49 57 61 50 58 61 50 58 61 50 58 61 50 58 61 50 58 61 50 58 61 50 58 61 50 58 68 57 63 68 57 63 68 57 63 68 57 63 68 57 63 68 57 63 68 57 63 68 57 63 77 66 72 77 66 72 77 66 72 77 66 72 77 66 72 77 66 72 77 66 72 78 65 72 72 55 63 74 54 63 74 54 63 74 54 63 74 54 63 74 54 63 74 54 63 74 54 63 80 60 69 82 62 71 84 64 73 87 67 76 91 71 80 94 74 83 96 76 85 98 78 87 90 73 81 88 71 79 86 69 77 83 66 74 79 62 70 76 59 67 74 57 65 72 55 63 73 56 64 73 56 64 73 56 64 73 56 64 73 56 64 73 56 64 73 56 64 70 57 66 52 44 57 50 46 60 52 48 62 56 52 66 59 55 69 62 58 72 65 61 75 66 62 76 63 59 73 63 59 73 63 59 73 63 59 73 63 59 73 63 59 73 63 59 73 62 60 73 60 58 72 57 56 70 55 54 68 52 51 65 48 47 61 45 44 58 43 42 56 41 40 54 31 30 44 33 32 46 35 34 48 38 37 51 42 41 55 45 44 58 47 46 60 49 48 62 52 47 67 52 47 67 52 47 67 52 47 67 52 47 67 52 47 67 52 47 67 52 47 67 67 62 82 68 63 83 70 65 85 74 69 89 77 72 92 80 75 95 83 78 98 87 78 95 94 81 91 97 80 88 97 80 88 97 80 88 97 80 88 97 80 88 97 80 88 97 80 88 93 76 84 93 76 84 93 76 84 93 76 84 93 76 84 93 76 84 93 76 84 96 75 84 97 69 83 100 68 83 100 68 83 100 68 83 100 68 83 100 68 83 100 68 83 100 68 83 96 64 79 96 64 79 96 64 79 96 64 79 96 64 79 96 64 79 96 64 79 96 64 79 95 58 75 95 58 75 95 58 75 95 58 75 95 58 75 95 58 75 95 58 75 95 58 75 99 62 79 99 62 79 99 62 79 99 62 79 99 62 79 99 62 79 99 62 79 102 61 79 103 52 71 104 51 71 104 51 71 101 52 71 101 52 71 98 54 71 97 54 71 94 56 71 78 44 58 74 44 56 70 42 54 64 41 51 60 37 47 55 35 44 53 33 42 46 33 42 43 40 47 41 41 49 41 41 49 41 41 49 41 41 49 41 41 49 41 41 49 41 41 49 25 25 33 25 25 33
69 59 67 69 59 67 69 59 67 69 59 67 69 59 67 64 58 62 64 58 62 64 58 62 64 58 62 64 58 62 64 58 62 64 58 62 64 58 62 60 54 58 60 54 58 60 54 58 60 54 58 60 54 58 60 54 58 60 54 58 60 54 58 60 49 57 60 49 57 60 49 57 60 49 57 60 49 57 60 49 57 60 49 57 60 49 57 61 50 58 61 50 58 61 50 58 61 50 58 61 50 58 61 50 58 61 50 58 61 50 58 68 57 63 68 57 63 68 57 63 68 57 63 68 57 63 68 57 63 68 57 63 68 57 63 77 66 72 77 66 72 77 66 72 77 66 72 77 66 72 77 66 72 77 66 72 78 65 72 72 55 63 74 54 63 74 54 63 74 54 63 74 54 63 74 54 63 74 54 63 74 54 63 80 60 69 82 62 71 84 64 73 87 67 76 91 71 80 94 74 83 96 76 85 98 78 87 90 73 81 88 71 79 86 69 77 83 66 74 79 62 70 76 59 67 74 57 65 72 55 63 73 56 64 73 56 64 73 56 64 73 56 64 73 56 64 73 56 64 73 56 64 70 57 66 55 47 60 53 49 63 56 52 66 59 55 69 62 58 72 66 62 76 68 64 78 69 65 79 63 59 73 63 59 73 63 59 73 63 59 73 63 59 73 63 59 73 63 59 73 62 60 73 60 58 72 57 56 70 55 54 68 52 51 65 48 47 61 45 44 58 43 42 56 41 40 54 31 30 44 33 32 46 35 34 48 38 37 51 42 41 55 45 44 58 47 46 60 49 48 62 52 47 67 52 47 67 52 47 67 52 47 67 52 47 67 52 47 67 52 47 67 52 47 67 70 65 85 71 66 86 74 69 89 77 72 92 80 75 95 84 79 99 86 81 101 90 81 98 94 81 91 97 80 88 97 80 88 97 80 88 97 80 88 97 80 88 97 80 88 97 80 88 93 76 84 93 76 84 93 76 84 93 76 84 93 76 84 93 76 84 93 76 84 96 75 84 97 69 83 100 68 83 100 68 83 100 68 83 100 68 83 100 68 83 100 68 83 100 68 83 96 64 79 96 64 79 96 64 79 96 64 79 96 64 79 96 64 79 96 64 79 96 64 79 95 58 75 95 58 75 95 58 75 95 58 75 95 58 75 95 58 75 95 58 75 95 58 75 99 62 79 99 62 79 99 62 79 99 62 79 99 62 79 99 62 79 99 62 79 102 61 79 103 52 71 104 51 71 104 51 71 101 52 71 101 52 71 98 54 71 97 54 71 94 56 71 78 44 58 74 44 56 70 42 54 64 41 51 60 37 47 55 35 44 53 33 42 46 33 42 43 40 47 41 41 49 41 41 49 41 41 49 41 41 49 41 41 49 41 41 49 41 41 49 25 25 33 25 25 33
69 59 67 69 59 67 69 59 67 69 59 67 69 59 67 64 58 62 64 58 62 64 58 62 64 58 62 64 58 62 64 58 62 64 58 62 64 58 62 60 54 58 60 54 58 60 54 58 60 54 58 60 54 58 60 54 58 60 54 58 60 54 58 60 49 57 60 49 57 60 49 57 60 49 57 60 49 57 60 49 57 60 49 57 60 49 57 61 50 58 61 50 58 61 50 58 61 50 58 61 50 58 61 50 58 61 50 58 61 50 58 68 57 63 68 57 63 68 57 63 68 57 63 68 57 63 68 57 63 68 57 63 68 57 63 77 66 72 77 66 72 77 66 72 77 66 72 77 66 72 77 66 72 77 66 72 78 65 72 72 55 63 74 54 63 74 54 63 74 54 63 74 54 63 74 54 63 74 54 63 74 54 63 80 60 69 82 62 71 84 64 73 87 67 76 91 71 80 94 74 83 96 76 85 98 78 87 90 73 81 88 71 79 86 69 77 83 66 74 79 62 70 76 59 67 74 57 65 72 55 63 73 56 64 73 56 64 73 56 64 73 56 64 73 56 64 73 56 64 73 56 64 70 57 66 58 50 63 57 53 67 59 55 69 62 58 72 66 62 76 69 65 79 71 67 81 73 69 83 63 59 73 63 59 73 63 59 73 63 59 73 63 59 73 63 59 73 63 59 73 62 60 73 60 58 72 57 56 70 55 54 68 52 51 65 48 47 61 45 44 58 43 42 56 41 40 54 31 30 44 33 32 46 35 34 48 38 37 51 42 41 55 45 44 58 47 46 60 49 48 62 52 47 67 52 47 67 52 47 67 52 47 67 52 47 67 52 47 67 52 47 67 52 47 67 73 68 88 75 70 90 77 72 92 80 75 95 84 79 99 87 82 102 89 84 104 94 85 102 94 81 91 97 80 88 97 80 88 97 80 88 97 80 88 97 80 88 97 80 88 97 80 88 93 76 84 93 76 84 93 76 84 93 76 84 93 76 84 93 76 84 93 76 84 96 75 84 97 69 83 100 68 83 100 68 83 100 68 83 100 68 83 100 68 83 100 68 83 100 68 83 96 64 79 96 64 79 96 64 79 96 64 79 96 64 79 96 64 79 96 64 79 96 64 79 95 58 75 95 58 75 95 58 75 95 58 75 95 58 75 95 58 75 95 58 75 95 58 75 99 62 79 99 62 79 99 62 79 99 62 79 99 62 79 99 62 79 99 62 79 102 61 79 103 52 71 104 51 71 104 51 71 101 52 71 101 52 71 98 54 71 97 54 71 94 56 71 78 44 58 74 44 56 70 42 54 64 41 51 60 37 47 55 35 44 53 33 42 46 33 42 43 40 47 41 41 49 41 41 49 41 41 49 41 41 49 41 41 49 41 41 49 41 41 49 25 25 33 25 25 33
69 59 67 69 59 67 69 59 67 69 59 67 69 59 67 64 58 62 64 58 62 64 58 62 64 58 62 64 58 62 64 58 62 64 58 62 64 58 62 60 54 58 60 54 58 60 54 58 60 54 58 60 54 58 60 54 58 60 54 58 60 54 58 60 49 57 60 49 57 60 49 57 60 49 57 60 49 57 60 49 57 60 49 57 60 49 57 61 50 58 61 50 58 61 50 58 61 50 58 61 50 58 61 50 58 61 50 58 61 50 58 68 57 63 68 57 63 68 57 63 68 57 63 68 57 63 68 57 63 68 57 63 68 57 63 77 66 72 77 66 72 77 66 72 77 66 72 77 66 72 77 66 72 77 66 72 78 65 72 72 55 63 74 54 63 74 54 63 74 54 63 74 54 63 74 54 63 74 54 63 74 54 63 80 60 69 82 62 71 84 64 73 87 67 76 91 71 80 94 74 83 96 76 85 98 78 87 90 73 81 88 71 79 86 69 77 83 66 74 79 62 70 76 59 67 74 57 65 72 55 63 73 56 64 73 56 64 73 56 64 73 56 64 73 56 64 73 56 64 73 56 64 70 57 66 61 53 66 59 55 69 61 57 71 65 61 75 68 64 78 71 67 81 74 70 84 75 71 85 63 59 73 63 59 73 63 59 73 63 59 73 63 59 73 63 59 73 63 59 73 62 60 73 60 58 72 57 56 70 55 54 68 52 51 65 48 47 61 45 44 58 43 42 56 41 40 54 31 30 44 33 32 46 35 34 48 38 37 51 42 41 55 45 44 58 47 46 60 49 48 62 52 47 67 52 47 67 52 47 67 52 47 67 52 47 67 52 47 67 52 47 67 52 47 67 76 71 91 77 72 92 79 74 94 83 78 98 86 81 101 89 84 104 92 87 107 96 87 104 94 81 91 97 80 88 97 80 88 97 80 88 97 80 88 97 80 88 97 80 88 97 80 88 93 76 84 93 76 84 93 76 84 93 76 84 93 76 84 93 76 84 93 76 84 96 75 84 97 69 83 100 68 83 100 68 83 100 68 83 100 68 83 100 68 83 100 68 83 100 68 83 96 64 79 96 64 79 96 64 79 96 64 79 96 64 79 96 64 79 96 64 79 96 64 79 95 58 75 95 58 75 95 58 75 95 58 75 95 58 75 95 58 75 95 58 75 95 58 75 99 62 79 99 62 79 99 62 79 99 62 79 99 62 79 99 62 79 99 62 79 102 61 79 103 52 71 104 51 71 104 51 71 101 52 71 101 52 71 98 54 71 97 54 71 94 56 71 78 44 58 74 44 56 70 42 54 64 41 51 60 37 47 55 35 44 53 33 42 46 33 42 43 40 47 41 41 49 41 41 49 41 41 49 41 41 49 41 41 49 41 41 49 41 41 49 25 25 33 25 25 33
67 60 67 69 59 68 67 60 67 69 59 68 67 60 67 64 57 64 64 58 62 64 58 62 64 58 62 64 58 62 64 58 62 64 58 62 64 58 62 60 54 58 60 54 58 60 54 58 60 54 58 60 54 58 60 54 58 60 54 58 60 54 58 59 49 57 59 49 57 60 49 57 59 49 57 60 49 57 59 49 57 60 49 57 59 49 57 61 50 58 60 50 58 61 50 58 60 50 58 61 50 58 60 50 58 61 50 58 61 50 58 68 57 63 68 57 63 68 57 63 68 57 63 68 57 63 68 57 63 68 57 63 68 57 63 77 66 72 77 66 72 77 66 72 77 66 72 77 66 72 77 66 72 77 66 72 78 65 72 71 56 63 72 55 63 72 55 65 72 55 63 72 55 65 72 55 63 72 55 65 72 55 63 78 61 71 80 63 71 82 65 75 85 68 76 89 72 82 92 75 83 94 77 87 96 79 87 89 74 81 87 72 79 85 70 77 82 67 74 78 63 70 75 60 67 73 58 65 71 56 63 72 57 64 72 57 64 72 57 64 72 57 64 72 57 64 72 57 64 72 57 64 70 57 66 62 54 65 60 57 68 65 59 71 66 63 74 71 65 77 73 70 81 77 71 83 76 73 84 65 59 71 63 60 71 65 59 71 63 60 71 65 59 71 63 60 71 65 59 71 63 60 71 61 57 71 58 56 69 56 54 67 53 51 64 49 47 60 46 44 57 44 42 55 42 40 53 32 30 43 34 32 45 36 34 47 39 37 50 43 41 54 46 44 57 48 46 59 50 48 62 52 48 65 52 48 65 52 48 65 52 48 65 52 48 65 52 48 65 52 48 65 52 48 65 77 73 90 78 74 91 81 77 94 84 80 97 87 83 100 91 87 104 93 89 106 97 89 104 96 80 91 97 80 88 97 80 88 97 80 88 97 80 88 97 80 88 97 80 88 97 80 88 93 76 84 93 76 84 93 76 84 93 76 84 93 76 84 93 76 84 93 76 84 96 75 84 97 69 81 99 69 81 99 68 83 99 69 81 99 68 83 99 69 81 99 68 83 99 69 81 95 64 79 95 65 77 95 64 79 95 65 77 95 64 79 95 65 77 95 64 79 96 64 79 93 59 75 93 59 75 93 59 75 93 59 75 93 59 75 93 59 75 93 59 75 93 59 75 97 63 79 97 63 79 97 63 79 97 63 79 97 63 79 97 63 79 97 63 79 100 61 79 101 52 73 103 52 71 101 52 73 100 53 71 98 53 73 97 54 71 96 55 73 93 57 71 77 45 60 72 44 56 69 43 56 63 42 51 58 38 49 53 36 44 50 34 44 45 34 42 43 40 49 41 41 49 41 41 49 41 41 49 41 41 49 41 41 49 41 41 49 41 41 49 25 25 33 25 25 33
64 59 66 65 57 68 64 59 66 65 57 68 65 58 66 73 66 73 73 66 73 73 66 73 73 66 73 73 66 73 73 66 73 73 66 73 73 66 73 63 56 63 63 56 63 63 56 63 63 56 63 63 56 63 63 56 63 63 56 63 63 56 63 59 52 59 59 52 59 61 51 59 59 52 59 61 51 59 59 52 59 61 51 59 59 52 59 58 48 56 58 51 58 62 52 60 63 56 63 69 59 67 70 63 70 74 64 72 76 66 74 69 58 64 70 57 64 70 57 64 70 57 64 70 57 64 70 57 64 70 57 64 70 57 64 59 46 53 61 48 55 64 51 58 69 56 63 73 60 67 78 65 72 81 68 75 83 70 77 71 60 68 71 60 68 71 59 69 71 60 68 71 59 69 71 60 68 71 59 69 71 60 68 73 61 71 74 63 71 77 65 75 80 69 77 83 71 81 87 76 84 89 77 87 90 79 87 82 71 79 80 69 77 78 67 75 75 64 72 71 60 68 68 57 65 66 55 63 64 53 61 69 58 66 69 58 66 69 58 66 69 58 66 69 58 66 69 58 66 69 58 66 68 58 66 68 61 68 68 63 69 72 65 72 74 69 75 78 71 78 81 76 82 84 77 84 84 79 85 64 57 64 63 58 64 64 57 64 63 58 64 64 57 64 63 58 64 64 57 64 64 57 65 65 57 68 65 57 70 65 57 70 65 57 70 65 57 70 65 57 70 65 57 70 65 57 70 53 45 58 53 45 58 53 45 58 53 45 58 53 45 58 53 45 58 53 45 58 52 46 58 44 38 52 47 40 56 53 46 62 61 54 70 69 62 78 77 70 86 83 76 92 86 79 95 93 86 102 93 86 102 93 86 102 93 86 102 93 86 102 93 86 102 93 86 102 94 86 99 96 80 90 99 79 88 99 79 88 99 79 88 99 79 88 99 79 88 99 79 88 99 79 88 99 79 88 99 79 88 99 79 88 99 79 88 99 79 88 99 79 88 99 79 88 100 79 88 92 66 77 93 66 75 93 65 77 93 66 75 93 65 77 93 66 75 93 65 77 93 66 75 78 50 62 78 51 60 78 50 62 78 51 60 78 50 62 78 51 60 78 50 62 78 50 62 81 51 63 82 50 63 82 50 63 82 50 63 82 50 63 82 50 63 82 50 63 82 50 63 95 63 76 95 63 76 95 63 76 95 63 76 95 63 76 95 63 76 95 63 76 98 61 78 99 56 75 102 55 75 100 55 76 99 56 75 98 56 76 95 58 75 93 59 76 91 60 75 71 44 59 66 44 56 63 43 55 58 41 51 53 37 48 48 35 44 45 33 43 40 33 41 42 41 49 39 42 51 39 42 51 39 42 51 39 42 51 39 42 51 39 42 51 39 42 51 22 25 34 22 25 34
64 58 68 64 58 68 64 58 68 64 58 68 64 59 66 73 66 74 73 66 73 73 66 73 73 66 73 73 66 73 73 66 73 73 66 73 73 66 73 63 56 63 63 56 63 63 56 63 63 56 63 63 56 63 63 56 63 63 56 63 63 56 63 59 52 59 59 52 59 59 52 59 59 52 59 59 52 59 59 52 59 59 52 59 59 52 59 56 49 56 58 51 58 60 53 60 63 56 63 67 60 67 70 63 70 72 65 72 76 66 74 69 58 64 70 57 64 70 57 64 70 57 64 70 57 64 70 57 64 70 57 64 70 57 64 61 48 55 62 49 56 65 52 59 69 56 63 73 60 67 77 64 71 80 67 74 80 69 75 69 57 67 68 58 67 68 58 67 68 58 67 68 58 67 68 58 67 68 58 67 68 58 67 71 61 70 72 62 71 74 64 73 78 68 77 81 71 80 84 74 83 87 77 86 88 78 87 81 71 79 79 69 77 77 67 75 74 64 72 70 60 68 67 57 65 65 55 63 63 53 61 68 58 66 68 58 66 68 58 66 68 58 66 68 58 66 68 58 66 68 58 66 68 58 66 67 61 65 68 62 66 70 64 68 74 68 72 77 71 75 80 74 78 83 77 81 84 78 82 64 58 62 64 58 62 64 58 62 64 58 62 64 58 62 64 58 62 64 58 62 64 57 64 67 57 66 67 57 68 67 57 68 67 57 68 67 57 68 67 57 68 67 57 68 67 57 68 57 47 58 57 47 58 57 47 58 57 47 58 57 47 58 57 47 58 57 47 58 55 47 58 47 39 54 49 43 57 54 48 62 61 55 69 69 63 77 76 70 84 81 75 89 84 78 92 91 85 99 91 85 99 91 85 99 91 85 99 91 85 99 91 85 99 91 85 99 94 83 97 94 78 88 97 77 86 97 77 86 97 77 86 97 77 86 97 77 86 97 77 86 97 77 86 97 77 86 97 77 86 97 77 86 97 77 86 97 77 86 97 77 86 97 77 86 98 77 86 88 65 73 90 64 73 90 64 73 90 64 73 90 64 73 90 64 73 90 64 73 90 64 73 77 51 60 77 51 60 77 51 60 77 51 60 77 51 60 77 51 60 77 51 60 77 51 60 81 51 63 81 51 63 81 51 63 81 51 63 81 51 63 81 51 63 81 51 63 81 51 63 94 64 76 94 64 76 94 64 76 94 64 76 94 64 76 94 64 76 94 64 76 96 62 76 98 56 76 99 56 76 99 56 76 96 57 76 96 57 76 93 59 76 92 59 76 89 61 76 69 45 59 65 45 57 61 43 55 55 42 52 51 38 48 46 36 45 44 34 43 39 34 41 41 41 51 39 42 51 39 42 51 39 42 51 39 42 51 39 42 51 39 42 51 39 42 51 22 25 34 22 25 34
64 58 68 64 58 68 64 58 68 64 58 68 64 59 66 73 66 74 73 66 73 73 66 73 73 66 73 73 66 73 73 66 73 73 66 73 73 66 73 63 56 63 63 56 63 63 56 63 63 56 63 63 56 63 63 56 63 63 56 63 63 56 63 59 52 59 59 52 59 59 52 59 59 52 59 59 52 59 59 52 59 59 52 59 59 52 59 56 49 56 58 51 58 60 53 60 63 56 63 67 60 67 70 63 70 72 65 72 76 66 74 69 58 64 70 57 64 70 57 64 70 57 64 70 57 64 70 57 64 70 57 64 70 57 64 64 51 58 65 52 59 67 54 61 70 57 64 72 59 66 75 62 69 77 64 71 77 66 72 67 55 65 66 56 65 66 56 65 66 56 65 66 56 65 66 56 65 66 56 65 66 56 65 68 58 67 70 60 69 72 62 71 75 65 74 79 69 78 82 72 81 84 74 83 86 76 85 81 71 79 79 69 77 77 67 75 74 64 72 70 60 68 67 57 65 65 55 63 63 53 61 68 58 66 68 58 66 68 58 66 68 58 66 68 58 66 68 58 66 68 58 66 68 58 66 64 58 62 66 60 64 68 62 66 71 65 69 75 69 73 78 72 76 80 74 78 82 76 80 64 58 62 64 58 62 64 58 62 64 58 62 64 58 62 64 58 62 64 58 62 64 57 64 67 57 66 67 57 68 67 57 68 67 57 68 67 57 68 67 57 68 67 57 68 67 57 68 59 49 60 59 49 60 59 49 60 59 49 60 59 49 60 59 49 60 59 49 60 57 49 60 51 43 58 52 46 60 56 50 64 62 56 70 68 62 76 74 68 82 78 72 86 80 74 88 89 83 97 89 83 97 89 83 97 89 83 97 89 83 97 89 83 97 89 83 97 92 81 95 92 76 86 95 75 84 95 75 84 95 75 84 95 75 84 95 75 84 95 75 84 95 75 84 95 75 84 95 75 84 95 75 84 95 75 84 95 75 84 95 75 84 95 75 84 96 75 84 86 63 71 88 62 71 88 62 71 88 62 71 88 62 71 88 62 71 88 62 71 88 62 71 77 51 60 77 51 60 77 51 60 77 51 60 77 51 60 77 51 60 77 51 60 77 51 60 81 51 63 81 51 63 81 51 63 81 51 63 81 51 63 81 51 63 81 51 63 81 51 63 94 64 76 94 64 76 94 64 76 94 64 76 94 64 76 94 64 76 94 64 76 96 62 76 98 56 76 99 56 76 99 56 76 96 57 76 96 57 76 93 59 76 92 59 76 89 61 76 69 45 59 65 45 57 61 43 55 55 42 52 51 38 48 46 36 45 44 34 43 39 34 41 41 41 51 39 42 51 39 42 51 39 42 51 39 42 51 39 42 51 39 42 51 39 42 51 22 25 34 22 25 34
64 58 68 64 58 68 64 58 68 64 58 68 64 59 66 73 66 74 73 66 73 73 66 73 73 66 73 73 66 73 73 66 73 73 66 73 73 66 73 63 56 63 63 56 63 63 56 63 63 56 63 63 56 63 63 56 63 63 56 63 63 56 63 59 52 59 59 52 59 59 52 59 59 52 59 59 52 59 59 52 59 59 52 59 59 52 59 56 49 56 58 51 58 60 53 60 63 56 63 67 60 67 70 63 70 72 65 72 76 66 74 69 58 64 70 57 64 70 57 64 70 57 64 70 57 64 70 57 64 70 57 64 70 57 64 69 56 63 69 56 63 70 57 64 71 58 65 71 58 65 72 59 66 73 60 67 72 61 67 64 52 62 63 53 62 63 53 62 63 53 62 63 53 62 63 53 62 63 53 62 63 53 62 65 55 64 66 56 65 69 59 68 72 62 71 75 65 74 79 69 78 81 71 80 82 72 81 81 71 79 79 69 77 77 67 75 74 64 72 70 60 68 67 57 65 65 55 63 63 53 61 68 58 66 68 58 66 68 58 66 68 58 66 68 58 66 68 58 66 68 58 66 68 58 66 61 55 59 62 56 60 65 59 63 68 62 66 71 65 69 75 69 73 77 71 75 78 72 76 64 58 62 64 58 62 64 58 62 64 58 62 64 58 62 64 58 62 64 58 62 64 57 64 67 57 66 67 57 68 67 57 68 67 57 68 67 57 68 67 57 68 67 57 68 67 57 68 62 52 63 62 52 63 62 52 63 62 52 63 62 52 63 62 52 63 62 52 63 60 52 63 55 47 62 56 50 64 59 53 67 63 57 71 67 61 75 71 65 79 74 68 82 76 70 84 86 80 94 86 80 94 86 80 94 86 80 94 86 80 94 86 80 94 86 80 94 89 78 92 89 73 83 92 72 81 92 72 81 92 72 81 92 72 81 92 72 81 92 72 81 92 72 81 92 72 81 92 72 81 92 72 81 92 72 81 92 72 81 92 72 81 92 72 81 93 72 81 83 60 68 85 59 68 85 59 68 85 59 68 85 59 68 85 59 68 85 59 68 85 59 68 77 51 60 77 51 60 77 51 60 77 51 60 77 51 60 77 51 60 77 51 60 77 51 60 81 51 63 81 51 63 81 51 63 81 51 63 81 51 63 81 51 63 81 51 63 81 51 63 94 64 76 94 64 76 94 64 76 94 64 76 94 64 76 94 64 76 94 64 76 96 62 76 98 56 76 99 56 76 99 56 76 96 57 76 96 57 76 93 59 76 92 59 76 89 61 76 69 45 59 65 45 57 61 43 55 55 42 52 51 38 48 46 36 45 44 34 43 39 34 41 41 41 51 39 42 51 39 42 51 39 42 51 39 42 51 39 42 51 39 42 51 39 42 51 22 25 34 22 25 34
64 58 68 64 58 68 64 58 68 64 58 68 64 59 66 73 66 74 73 66 73 73 66 73 73 66 73 73 66 73 73 66 73 73 66 73 73 66 73 63 56 63 63 56 63 63 56 63 63 56 63 63 56 63 63 56 63 63 56 63 63 56 63 59 52 59 59 52 59 59 52 59 59 52 59 59 52 59 59 52 59 59 52 59 59 52 59 56 49 56 58 51 58 60 53 60 63 56 63 67 60 67 70 63 70 72 65 72 76 66 74 69 58 64 70 57 64 70 57 64 70 57 64 70 57 64 70 57 64 70 57 64 70 57 64 73 60 67 73 60 67 72 59 66 71 58 65 71 58 65 70 57 64 69 56 63 68 57 63 60 48 58 59 49 58 59 49 58 59 49 58 59 49 58 59 49 58 59 49 58 59 49 58 62 52 61 63 53 62 65 55 64 69 59 68 72 62 71 75 65 74 78 68 77 79 69 78 81 71 79 79 69 77 77 67 75 74 64 72 70 60 68 67 57 65 65 55 63 63 53 61 68 58 66 68 58 66 68 58 66 68 58 66 68 58 66 68 58 66 68 58 66 68 58 66 58 52 56 59 53 57 61 55 59 65 59 63 68 62 66 71 65 69 74 68 72 75 69 73 64 58 62 64 58 62 64 58 62 64 58 62 64 58 62 64 58 62 64 58 62 64 57 64 67 57 66 67 57 68 67 57 68 67 57 68 67 57 68 67 57 68 67 57 68 67 57 68 66 56 67 66 56 67 66 56 67 66 56 67 66 56 67 66 56 67 66 56 67 64 56 67 60 52 67 60 54 68 61 55 69 64 58 72 66 60 74 69 63 77 70 64 78 71 65 79 82 76 90 82 76 90 82 76 90 82 76 90 82 76 90 82 76 90 82 76 90 85 74 88 85 69 79 88 68 77 88 68 77 88 68 77 88 68 77 88 68 77 88 68 77 88 68 77 88 68 77 88 68 77 88 68 77 88 68 77 88 68 77 88 68 77 88 68 77 89 68 77 79 56 64 81 55 64 81 55 64 81 55 64 81 55 64 81 55 64 81 55 64 81 55 64 77 51 60 77 51 60 77 51 60 77 51 60 77 51 60 77 51 60 77 51 60 77 51 60 81 51 63 81 51 63 81 51 63 81 51 63 81 51 63 81 51 63 81 51 63 81 51 63 94 64 76 94 64 76 94 64 76 94 64 76 94 64 76 94 64 76 94 64 76 96 62 76 98 56 76 99 56 76 99 56 76 96 57 76 96 57 76 93 59 76 92 59 76 89 61 76 69 45 59 65 45 57 61 43 55 55 42 52 51 38 48 46 36 45 44 34 43 39 34 41 41 41 51 39 42 51 39 42 51 39 42 51 39 42 51 39 42 51 39 42 51 39 42 51 22 25 34 22 25 34
64 58 68 64 58 68 64 58 68 64 58 68 64 59 66 73 66 74 73 66 73 73 66 73 73 66 73 73 66 73 73 66 73 73 66 73 73 66 73 63 56 63 63 56 63 63 56 63 63 56 63 63 56 63 63 56 63 63 56 63 63 56 63 59 52 59 59 52 59 59 52 59 59 52 59 59 52 59 59 52 59 59 52 59 59 52 59 56 49 56 58 51 58 60 53 60 63 56 63 67 60 67 70 63 70 72 65 72 76 66 74 69 58 64 70 57 64 70 57 64 70 57 64 70 57 64 70 57 64 70 57 64 70 57 64 78 65 72 77 64 71 75 62 69 72 59 66 70 57 64 67 54 61 65 52 59 63 52 58 57 45 55 56 46 55 56 46 55 56 46 55 56 46 55 56 46 55 56 46 55 56 46 55 58 48 57 60 50 59 62 52 61 65 55 64 69 59 68 72 62 71 74 64 73 76 66 75 81 71 79 79 69 77 77 67 75 74 64 72 70 60 68 67 57 65 65 55 63 63 53 61 68 58 66 68 58 66 68 58 66 68 58 66 68 58 66 68 58 66 68 58 66 68 58 66 54 48 52 56 50 54 58 52 56 61 55 59 65 59 63 68 62 66 70 64 68 72 66 70 64 58 62 64 58 62 64 58 62 64 58 62 64 58 62 64 58 62 64 58 62 64 57 64 67 57 66 67 57 68 67 57 68 67 57 68 67 57 68 67 57 68 67 57 68 67 57 68 69 59 70 69 59 70 69 59 70 69 59 70 69 59 70 69 59 70 69 59 70 67 59 70 64 56 71 63 57 71 64 58 72 65 59 73 65 59 73 66 60 74 67 61 75 67 61 75 79 73 87 79 73 87 79 73 87 79 73 87 79 73 87 79 73 87 79 73 87 82 71 85 82 66 76 85 65 74 85 65 74 85 65 74 85 65 74 85 65 74 85 65 74 85 65 74 85 65 74 85 65 74 85 65 74 85 65 74 85 65 74 85 65 74 85 65 74 86 65 74 76 53 61 78 52 61 78 52 61 78 52 61 78 52 61 78 52 61 78 52 61 78 52 61 77 51 60 77 51 60 77 51 60 77 51 60 77 51 60 77 51 60 77 51 60 77 51 60 81 51 63 81 51 63 81 51 63 81 51 63 81 51 63 81 51 63 81 51 63 81 51 63 94 64 76 94 64 76 94 64 76 94 64 76 94 64 76 94 64 76 94 64 76 96 62 76 98 56 76 99 56 76 99 56 76 96 57 76 96 57 76 93 59 76 92 59 76 89 61 76 69 45 59 65 45 57 61 43 55 55 42 52 51 38 48 46 36 45 44 34 43 39 34 41 41 41 51 39 42 51 39 42 51 39 42 51 39 42 51 39 42 51 39 42 51 39 42 51 22 25 34 22 25 34
64 58 68 64 58 68 64 58 68 64 58 68 64 59 66 73 66 74 73 66 73 73 66 73 73 66 73 73 66 73 73 66 73 73 66 73 73 66 73 63 56 63 63 56 63 63 56 63 63 56 63 63 56 63 63 56 63 63 56 63 63 56 63 59 52 59 59 52 59 59 52 59 59 52 59 59 52 59 59 52 59 59 52 59 59 52 59 56 49 56 58 51 58 60 53 60 63 56 63 67 60 67 70 63 70 72 65 72 76 66 74 69 58 64 70 57 64 70 57 64 70 57 64 70 57 64 70 57 64 70 57 64 70 57 64 81 68 75 80 67 74 77 64 71 73 60 67 69 56 63 65 52 59 62 49 56 60 49 55 55 43 53 54 44 53 54 44 53 54 44 53 54 44 53 54 44 53 54 44 53 54 44 53 56 46 55 57 47 56 60 50 59 63 53 62 66 56 65 70 60 69 72 62 71 73 63 72 81 71 79 79 69 77 77 67 75 74 64 72 70 60 68 67 57 65 65 55 63 63 53 61 68 58 66 68 58 66 68 58 66 68 58 66 68 58 66 68 58 66 68 58 66 68 58 66 52 46 50 53 47 51 56 50 54 59 53 57 62 56 60 66 60 64 68 62 66 69 63 67 64 58 62 64 58 62 64 58 62 64 58 62 64 58 62 64 58 62 64 58 62 64 57 64 67 57 66 67 57 68 67 57 68 67 57 68 67 57 68 67 57 68 67 57 68 67 57 68 71 61 72 71 61 72 71 61 72 71 61 72 71 61 72 71 61 72 71 61 72 69 61 72 68 60 75 66 60 74 66 60 74 65 59 73 65 59 73 64 58 72 64 58 72 63 57 71 77 71 85 77 71 85 77 71 85 77 71 85 77 71 85 77 71 85 77 71 85 80 69 83 80 64 74 83 63 72 83 63 72 83 63 72 83 63 72 83 63 72 83 63 72 83 63 72 83 63 72 83 63 72 83 63 72 83 63 72 83 63 72 83 63 72 83 63 72 84 63 72 74 51 59 76 50 59 76 50 59 76 50 59 76 50 59 76 50 59 76 50 59 76 50 59 77 51 60 77 51 60 77 51 60 77 51 60 77 51 60 77 51 60 77 51 60 77 51 60 81 51 63 81 51 63 81 51 63 81 51 63 81 51 63 81 51 63 81 51 63 81 51 63 94 64 76 94 64 76 94 64 76 94 64 76 94 64 76 94 64 76 94 64 76 96 62 76 98 56 76 99 56 76 99 56 76 96 57 76 96 57 76 93 59 76 92 59 76 89 61 76 69 45 59 65 45 57 61 43 55 55 42 52 51 38 48 46 36 45 44 34 43 39 34 41 41 41 51 39 42 51 39 42 51 39 42 51 39 42 51 39 42 51 39 42 51 39 42 51 22 25 34 22 25 34
64 58 68 64 58 68 64 58 68 64 58 68 64 59 66 73 66 74 73 66 73 73 66 73 73 66 73 73 66 73 73 66 73 73 66 73 73 66 73 63 56 63 63 56 63 63 56 63 63 56 63 63 56 63 63 56 63 63 56 63 63 56 63 59 52 59 59 52 59 59 52 59 59 52 59 59 52 59 59 52 59 59 52 59 59 52 59 56 49 56 58 51 58 60 53 60 63 56 63 67 60 67 70 63 70 72 65 72 76 66 74 69 58 64 70 57 64 70 57 64 70 57 64 70 57 64 70 57 64 70 57 64 70 57 64 83 70 77 81 68 75 78 65 72 73 60 67 69 56 63 64 51 58 61 48 55 58 47 53 53 41 51 52 42 51 52 42 51 52 42 51 52 42 51 52 42 51 52 42 51 52 42 51 55 45 54 56 46 55 58 48 57 62 52 61 65 55 64 68 58 67 71 61 70 72 62 71 81 71 79 79 69 77 77 67 75 74 64 72 70 60 68 67 57 65 65 55 63 63 53 61 68 58 66 68 58 66 68 58 66 68 58 66 68 58 66 68 58 66 68 58 66 68 58 66 51 45 49 52 46 50 54 48 52 58 52 56 61 55 59 64 58 62 67 61 65 68 62 66 64 58 62 64 58 62 64 58 62 64 58 62 64 58 62 64 58 62 64 58 62 64 57 64 67 57 66 67 57 68 67 57 68 67 57 68 67 57 68 67 57 68 67 57 68 67 57 68 73 63 74 73 63 74 73 63 74 73 63 74 73 63 74 73 63 74 73 63 74 71 63 74 69 61 76 68 62 76 67 61 75 66 60 74 64 58 72 63 57 71 62 56 70 62 56 70 75 69 83 75 69 83 75 69 83 75 69 83 75 69 83 75 69 83 75 69 83 78 67 81 78 62 72 81 61 70 81 61 70 81 61 70 81 61 70 81 61 70 81 61 70 81 61 70 81 61 70 81 61 70 81 61 70 81 61 70 81 61 70 81 61 70 81 61 70 82 61 70 72 49 57 74 48 57 74 48 57 74 48 57 74 48 57 74 48 57 74 48 57 74 48 57 77 51 60 77 51 60 77 51 60 77 51 60 77 51 60 77 51 60 77 51 60 77 51 60 81 51 63 81 51 63 81 51 63 81 51 63 81 51 63 81 51 63 81 51 63 81 51 63 94 64 76 94 64 76 94 64 76 94 64 76 94 64 76 94 64 76 94 64 76 96 62 76 98 56 76 99 56 76 99 56 76 96 57 76 96 57 76 93 59 76 92 59 76 89 61 76 69 45 59 65 45 57 61 43 55 55 42 52 51 38 48 46 36 45 44 34 43 39 34 41 41 41 51 39 42 51 39 42 51 39 42 51 39 42 51 39 42 51 39 42 51 39 42 51 22 25 34 22 25 34
73 67 77 73 67 77 73 67 77 73 67 77 73 68 75 75 68 76 75 68 75 75 68 75 75 68 75 75 68 75 75 68 75 75 68 75 75 68 75 83 76 83 81 74 81 79 72 79 76 69 76 72 65 72 69 62 69 67 60 67 65 58 65 60 53 60 60 53 60 60 53 60 60 53 60 60 53 60 60 53 60 60 53 60 60 53 60 68 61 68 68 61 68 68 61 68 68 61 68 68 61 68 68 61 68 68 61 68 70 60 68 69 58 64 72 59 66 74 61 68 77 64 71 81 68 75 84 71 78 86 73 80 88 75 82 68 55 62 68 55 62 68 55 62 68 55 62 68 55 62 68 55 62 68 55 62 67 56 62 50 38 48 50 40 49 50 40 49 52 42 51 53 43 52 54 44 53 55 45 54 56 46 55 53 43 52 53 43 52 53 43 52 53 43 52 53 43 52 53 43 52 53 43 52 53 43 52 54 44 52 56 46 54 58 48 56 61 51 59 65 55 63 68 58 66 70 60 68 72 62 70 69 59 67 69 59 67 69 59 67 69 59 67 69 59 67 69 59 67 69 59 67 69 59 67 56 50 54 56 50 54 56 50 54 56 50 54 56 50 54 56 50 54 56 50 54 56 50 54 69 63 67 69 63 67 69 63 67 69 63 67 69 63 67 69 63 67 69 63 67 69 62 69 76 66 75 76 66 77 76 66 77 76 66 77 76 66 77 76 66 77 76 66 77 76 66 77 78 68 79 76 66 77 74 64 75 71 61 72 67 57 68 64 54 65 62 52 63 58 50 61 54 46 61 53 47 61 53 47 61 53 47 61 53 47 61 53 47 61 53 47 61 53 47 61 47 41 55 47 41 55 47 41 55 47 41 55 47 41 55 47 41 55 47 41 55 50 39 53 67 51 61 70 50 59 70 50 59 70 50 59 70 50 59 70 50 59 70 50 59 70 50 59 71 51 60 71 51 60 71 51 60 71 51 60 71 51 60 71 51 60 71 51 60 72 51 60 74 51 59 76 50 59 76 50 59 76 50 59 76 50 59 76 50 59 76 50 59 76 50 59 68 42 51 68 42 51 68 42 51 68 42 51 68 42 51 68 42 51 68 42 51 68 42 51 86 56 68 86 56 68 86 56 68 86 56 68 86 56 68 86 56 68 86 56 68 86 56 68 83 53 65 85 55 67 87 57 69 90 60 72 94 64 76 97 67 79 99 69 81 103 69 83 103 61 81 104 61 81 104 61 81 101 62 81 101 62 81 98 64 81 97 64 81 94 66 81 70 46 60 66 46 58 62 44 56 56 43 53 52 39 49 47 37 46 45 35 44 40 35 42 49 49 59 45 48 57 43 46 55 40 43 52 36 39 48 33 36 45 31 34 43 29 32 41 23 26 35 23 26 35
75 69 79 75 69 79 75 69 79 75 69 79 75 70 77 75 68 76 75 68 75 75 68 75 75 68 75 75 68 75 75 68 75 75 68 75 75 68 75 83 76 83 81 74 81 79 72 79 76 69 76 72 65 72 69 62 69 67 60 67 65 58 65 60 53 60 60 53 60 60 53 60 60 53 60 60 53 60 60 53 60 60 53 60 60 53 60 68 61 68 68 61 68 68 61 68 68 61 68 68 61 68 68 61 68 68 61 68 70 60 68 69 58 64 72 59 66 74 61 68 77 64 71 81 68 75 84 71 78 86 73 80 88 75 82 70 57 64 70 57 64 70 57 64 70 57 64 70 57 64 70 57 64 70 57 64 69 58 64 53 41 51 52 42 51 53 43 52 53 43 52 54 44 53 55 45 54 55 45 54 55 45 54 53 43 52 53 43 52 53 43 52 53 43 52 53 43 52 53 43 52 53 43 52 53 43 52 54 44 52 56 46 54 58 48 56 61 51 59 65 55 63 68 58 66 70 60 68 72 62 70 69 59 67 69 59 67 69 59 67 69 59 67 69 59 67 69 59 67 69 59 67 69 59 67 56 50 54 56 50 54 56 50 54 56 50 54 56 50 54 56 50 54 56 50 54 56 50 54 69 63 67 69 63 67 69 63 67 69 63 67 69 63 67 69 63 67 69 63 67 69 62 69 76 66 75 76 66 77 76 66 77 76 66 77 76 66 77 76 66 77 76 66 77 76 66 77 78 68 79 76 66 77 74 64 75 71 61 72 67 57 68 64 54 65 62 52 63 58 50 61 54 46 61 53 47 61 53 47 61 53 47 61 53 47 61 53 47 61 53 47 61 53 47 61 47 41 55 47 41 55 47 41 55 47 41 55 47 41 55 47 41 55 47 41 55 50 39 53 67 51 61 70 50 59 70 50 59 70 50 59 70 50 59 70 50 59 70 50 59 70 50 59 71 51 60 71 51 60 71 51 60 71 51 60 71 51 60 71 51 60 71 51 60 72 51 60 74 51 59 76 50 59 76 50 59 76 50 59 76 50 59 76 50 59 76 50 59 76 50 59 70 44 53 70 44 53 70 44 53 70 44 53 70 44 53 70 44 53 70 44 53 70 44 53 86 56 68 86 56 68 86 56 68 86 56 68 86 56 68 86 56 68 86 56 68 86 56 68 83 53 65 85 55 67 87 57 69 90 60 72 94 64 76 97 67 79 99 69 81 103 69 83 103 61 81 104 61 81 104 61 81 101 62 81 101 62 81 98 64 81 97 64 81 94 66 81 70 46 60 66 46 58 62 44 56 56 43 53 52 39 49 47 37 46 45 35 44 40 35 42 49 49 59 45 48 57 43 46 55 40 43 52 36 39 48 33 36 45 31 34 43 29 32 41 23 26 35 23 26 35
77 71 81 77 71 81 77 71 81 77 71 81 77 72 79 75 68 76 75 68 75 75 68 75 75 68 75 75 68 75 75 68 75 75 68 75 75 68 75 83 76 83 81 74 81 79 72 79 76 69 76 72 65 72 69 62 69 67 60 67 65 58 65 60 53 60 60 53 60 60 53 60 60 53 60 60 53 60 60 53 60 60 53 60 60 53 60 68 61 68 68 61 68 68 61 68 68 61 68 68 61 68 68 61 68 68 61 68 70 60 68 69 58 64 72 59 66 74 61 68 77 64 71 81 68 75 84 71 78 86 73 80 88 75 82 75 62 69 75 62 69 75 62 69 75 62 69 75 62 69 75 62 69 75 62 69 74 63 69 59 47 57 58 48 57 57 47 56 56 46 55 56 46 55 55 45 54 55 45 54 54 44 53 53 43 52 53 43 52 53 43 52 53 43 52 53 43 52 53 43 52 53 43 52 53 43 52 54 44 52 56 46 54 58 48 56 61 51 59 65 55 63 68 58 66 70 60 68 72 62 70 69 59 67 69 59 67 69 59 67 69 59 67 69 59 67 69 59 67 69 59 67 69 59 67 56 50 54 56 50 54 56 50 54 56 50 54 56 50 54 56 50 54 56 50 54 56 50 54 69 63 67 69 63 67 69 63 67 69 63 67 69 63 67 69 63 67 69 63 67 69 62 69 76 66 75 76 66 77 76 66 77 76 66 77 76 66 77 76 66 77 76 66 77 76 66 77 78 68 79 76 66 77 74 64 75 71 61 72 67 57 68 64 54 65 62 52 63 58 50 61 54 46 61 53 47 61 53 47 61 53 47 61 53 47 61 53 47 61 53 47 61 53 47 61 47 41 55 47 41 55 47 41 55 47 41 55 47 41 55 47 41 55 47 41 55 50 39 53 67 51 61 70 50 59 70 50 59 70 50 59 70 50 59 70 50 59 70 50 59 70 50 59 71 51 60 71 51 60 71 51 60 71 51 60 71 51 60 71 51 60 71 51 60 72 51 60 74 51 59 76 50 59 76 50 59 76 50 59 76 50 59 76 50 59 76 50 59 76 50 59 72 46 55 72 46 55 72 46 55 72 46 55 72 46 55 72 46 55 72 46 55 72 46 55 86 56 68 86 56 68 86 56 68 86 56 68 86 56 68 86 56 68 86 56 68 86 56 68 83 53 65 85 55 67 87 57 69 90 60 72 94 64 76 97 67 79 99 69 81 103 69 83 103 61 81 104 61 81 104 61 81 101 62 81 101 62 81 98 64 81 97 64 81 94 66 81 70 46 60 66 46 58 62 44 56 56 43 53 52 39 49 47 37 46 45 35 44 40 35 42 49 49 59 45 48 57 43 46 55 40 43 52 36 39 48 33 36 45 31 34 43 29 32 41 23 26 35 23 26 35
80 74 84 80 74 84 80 74 84 80 74 84 80 75 82 75 68 76 75 68 75 75 68 75 75 68 75 75 68 75 75 68 75 75 68 75 75 68 75 83 76 83 81 74 81 79 72 79 76 69 76 72 65 72 69 62 69 67 60 67 65 58 65 60 53 60 60 53 60 60 53 60 60 53 60 60 53 60 60 53 60 60 53 60 60 53 60 68 61 68 68 61 68 68 61 68 68 61 68 68 61 68 68 61 68 68 61 68 70 60 68 69 58 64 72 59 66 74 61 68 77 64 71 81 68 75 84 71 78 86 73 80 88 75 82 82 69 76 82 69 76 82 69 76 82 69 76 82 69 76 82 69 76 82 69 76 81 70 76 67 55 65 65 55 64 63 53 62 61 51 60 58 48 57 56 46 55 54 44 53 53 43 52 53 43 52 53 43 52 53 43 52 53 43 52 53 43 52 53 43 52 53 43 52 53 43 52 54 44 52 56 46 54 58 48 56 61 51 59 65 55 63 68 58 66 70 60 68 72 62 70 69 59 67 69 59 67 69 59 67 69 59 67 69 59 67 69 59 67 69 59 67 69 59 67 56 50 54 56 50 54 56 50 54 56 50 54 56 50 54 56 50 54 56 50 54 56 50 54 69 63 67 69 63 67 69 63 67 69 63 67 69 63 67 69 63 67 69 63 67 69 62 69 76 66 75 76 66 77 76 66 77 76 66 77 76 66 77 76 66 77 76 66 77 76 66 77 78 68 79 76 66 77 74 64 75 71 61 72 67 57 68 64 54 65 62 52 63 58 50 61 54 46 61 53 47 61 53 47 61 53 47 61 53 47 61 53 47 61 53 47 61 53 47 61 47 41 55 47 41 55 47 41 55 47 41 55 47 41 55 47 41 55 47 41 55 50 39 53 67 51 61 70 50 59 70 50 59 70 50 59 70 50 59 70 50 59 70 50 59 70 50 59 71 51 60 71 51 60 71 51 60 71 51 60 71 51 60 71 51 60 71 51 60 72 51 60 74 51 59 76 50 59 76 50 59 76 50 59 76 50 59 76 50 59 76 50 59 76 50 59 75 49 58 75 49 58 75 49 58 75 49 58 75 49 58 75 49 58 75 49 58 75 49 58 86 56 68 86 56 68 86 56 68 86 56 68 86 56 68 86 56 68 86 56 68 86 56 68 83 53 65 85 55 67 87 57 69 90 60 72 94 64 76 97 67 79 99 69 81 103 69 83 103 61 81 104 61 81 104 61 81 101 62 81 101 62 81 98 64 81 97 64 81 94 66 81 70 46 60 66 46 58 62 44 56 56 43 53 52 39 49 47 37 46 45 35 44 40 35 42 49 49 59 45 48 57 43 46 55 40 43 52 36 39 48 33 36 45 31 34 43 29 32 41 23 26 35 23 26 35
84 78 88 84 78 88 84 78 88 84 78 88 84 79 86 75 68 76 75 68 75 75 68 75 75 68 75 75 68 75 75 68 75 75 68 75 75 68 75 83 76 83 81 74 81 79 72 79 76 69 76 72 65 72 69 62 69 67 60 67 65 58 65 60 53 60 60 53 60 60 53 60 60 53 60 60 53 60 60 53 60 60 53 60 60 53 60 68 61 68 68 61 68 68 61 68 68 61 68 68 61 68 68 61 68 68 61 68 70 60 68 69 58 64 72 59 66 74 61 68 77 64 71 81 68 75 84 71 78 86 73 80 88 75 82 88 75 82 88 75 82 88 75 82 88 75 82 88 75 82 88 75 82 88 75 82 87 76 82 75 63 73 72 62 71 69 59 68 65 55 64 61 51 60 56 46 55 53 43 52 52 42 51 53 43 52 53 43 52 53 43 52 53 43 52 53 43 52 53 43 52 53 43 52 53 43 52 54 44 52 56 46 54 58 48 56 61 51 59 65 55 63 68 58 66 70 60 68 72 62 70 69 59 67 69 59 67 69 59 67 69 59 67 69 59 67 69 59 67 69 59 67 69 59 67 56 50 54 56 50 54 56 50 54 56 50 54 56 50 54 56 50 54 56 50 54 56 50 54 69 63 67 69 63 67 69 63 67 69 63 67 69 63 67 69 63 67 69 63 67 69 62 69 76 66 75 76 66 77 76 66 77 76 66 77 76 66 77 76 66 77 76 66 77 76 66 77 78 68 79 76 66 77 74 64 75 71 61 72 67 57 68 64 54 65 62 52 63 58 50 61 54 46 61 53 47 61 53 47 61 53 47 61 53 47 61 53 47 61 53 47 61 53 47 61 47 41 55 47 41 55 47 41 55 47 41 55 47 41 55 47 41 55 47 41 55 50 39 53 67 51 61 70 50 59 70 50 59 70 50 59 70 50 59 70 50 59 70 50 59 70 50 59 71 51 60 71 51 60 71 51 60 71 51 60 71 51 60 71 51 60 71 51 60 72 51 60 74 51 59 76 50 59 76 50 59 76 50 59 76 50 59 76 50 59 76 50 59 76 50 59 79 53 62 79 53 62 79 53 62 79 53 62 79 53 62 79 53 62 79 53 62 79 53 62 86 56 68 86 56 68 86 56 68 86 56 68 86 56 68 86 56 68 86 56 68 86 56 68 83 53 65 85 55 67 87 57 69 90 60 72 94 64 76 97 67 79 99 69 81 103 69 83 103 61 81 104 61 81 104 61 81 101 62 81 101 62 81 98 64 81 97 64 81 94 66 81 70 46 60 66 46 58 62 44 56 56 43 53 52 39 49 47 37 46 45 35 44 40 35 42 49 49 59 45 48 57 43 46 55 40 43 52 36 39 48 33 36 45 31 34 43 29 32 41 23 26 35 23 26 35
87 81 91 87 81 91 87 81 91 87 81 91 87 82 89 75 68 76 75 68 75 75 68 75 75 68 75 75 68 75 75 68 75 75 68 75 75 68 75 83 76 83 81 74 81 79 72 79 76 69 76 72 65 72 69 62 69 67 60 67 65 58 65 60 53 60 60 53 60 60 53 60 60 53 60 60 53 60 60 53 60 60 53 60 60 53 60 68 61 68 68 61 68 68 61 68 68 61 68 68 61 68 68 61 68 68 61 68 70 60 68 69 58 64 72 59 66 74 61 68 77 64 71 81 68 75 84 71 78 86 73 80 88 75 82 95 82 89 95 82 89 95 82 89 95 82 89 95 82 89 95 82 89 95 82 89 94 83 89 82 70 80 79 69 78 75 65 74 69 59 68 63 53 62 57 47 56 53 43 52 50 40 49 53 43 52 53 43 52 53 43 52 53 43 52 53 43 52 53 43 52 53 43 52 53 43 52 54 44 52 56 46 54 58 48 56 61 51 59 65 55 63 68 58 66 70 60 68 72 62 70 69 59 67 69 59 67 69 59 67 69 59 67 69 59 67 69 59 67 69 59 67 69 59 67 56 50 54 56 50 54 56 50 54 56 50 54 56 50 54 56 50 54 56 50 54 56 50 54 69 63 67 69 63 67 69 63 67 69 63 67 69 63 67 69 63 67 69 63 67 69 62 69 76 66 75 76 66 77 76 66 77 76 66 77 76 66 77 76 66 77 76 66 77 76 66 77 78 68 79 76 66 77 74 64 75 71 61 72 67 57 68 64 54 65 62 52 63 58 50 61 54 46 61 53 47 61 53 47 61 53 47 61 53 47 61 53 47 61 53 47 61 53 47 61 47 41 55 47 41 55 47 41 55 47 41 55 47 41 55 47 41 55 47 41 55 50 39 53 67 51 61 70 50 59 70 50 59 70 50 59 70 50 59 70 50 59 70 50 59 70 50 59 71 51 60 71 51 60 71 51 60 71 51 60 71 51 60 71 51 60 71 51 60 72 51 60 74 51 59 76 50 59 76 50 59 76 50 59 76 50 59 76 50 59 76 50 59 76 50 59 82 56 65 82 56 65 82 56 65 82 56 65 82 56 65 82 56 65 82 56 65 82 56 65 86 56 68 86 56 68 86 56 68 86 56 68 86 56 68 86 56 68 86 56 68 86 56 68 83 53 65 85 55 67 87 57 69 90 60 72 94 64 76 97 67 79 99 69 81 103 69 83 103 61 81 104 61 81 104 61 81 101 62 81 101 62 81 98 64 81 97 64 81 94 66 81 70 46 60 66 46 58 62 44 56 56 43 53 52 39 49 47 37 46 45 35 44 40 35 42 49 49 59 45 48 57 43 46 55 40 43 52 36 39 48 33 36 45 31 34 43 29 32 41 23 26 35 23 26 35
89 83 93 89 83 93 89 83 93 89 83 93 89 84 91 75 68 76 75 68 75 75 68 75 75 68 75 75 68 75 75 68 75 75 68 75 75 68 75 83 76 83 81 74 81 79 72 79 76 69 76 72 65 72 69 62 69 67 60 67 65 58 65 60 53 60 60 53 60 60 53 60 60 53 60 60 53 60 60 53 60 60 53 60 60 53 60 68 61 68 68 61 68 68 61 68 68 61 68 68 61 68 68 61 68 68 61 68 70 60 68 69 58 64 72 59 66 74 61 68 77 64 71 81 68 75 84 71 78 86 73 80 88 75 82 100 87 94 100 87 94 100 87 94 100 87 94 100 87 94 100 87 94 100 87 94 99 88 94 88 76 86 84 74 83 79 69 78 72 62 71 65 55 64 58 48 57 52 42 51 49 39 48 53 43 52 53 43 52 53 43 52 53 43 52 53 43 52 53 43 52 53 43 52 53 43 52 54 44 52 56 46 54 58 48 56 61 51 59 65 55 63 68 58 66 70 60 68 72 62 70 69 59 67 69 59 67 69 59 67 69 59 67 69 59 67 69 59 67 69 59 67 69 59 67 56 50 54 56 50 54 56 50 54 56 50 54 56 50 54 56 50 54 56 50 54 56 50 54 69 63 67 69 63 67 69 63 67 69 63 67 69 63 67 69 63 67 69 63 67 69 62 69 76 66 75 76 66 77 76 66 77 76 66 77 76 66 77 76 66 77 76 66 77 76 66 77 78 68 79 76 66 77 74 64 75 71 61 72 67 57 68 64 54 65 62 52 63 58 50 61 54 46 61 53 47 61 53 47 61 53 47 61 53 47 61 53 47 61 53 47 61 53 47 61 47 41 55 47 41 55 47 41 55 47 41 55 47 41 55 47 41 55 47 41 55 50 39 53 67 51 61 70 50 59 70 50 59 70 50 59 70 50 59 70 50 59 70 50 59 70 50 59 71 51 60 71 51 60 71 51 60 71 51 60 71 51 60 71 51 60 71 51 60 72 51 60 74 51 59 76 50 59 76 50 59 76 50 59 76 50 59 76 50 59 76 50 59 76 50 59 84 58 67 84 58 67 84 58 67 84 58 67 84 58 67 84 58 67 84 58 67 84 58 67 86 56 68 86 56 68 86 56 68 86 56 68 86 56 68 86 56 68 86 56 68 86 56 68 83 53 65 85 55 67 87 57 69 90 60 72 94 64 76 97 67 79 99 69 81 103 69 83 103 61 81 104 61 81 104 61 81 101 62 81 101 62 81 98 64 81 97 64 81 94 66 81 70 46 60 66 46 58 62 44 56 56 43 53 52 39 49 47 37 46 45 35 44 40 35 42 49 49 59 45 48 57 43 46 55 40 43 52 36 39 48 33 36 45 31 34 43 29 32 41 23 26 35 23 26 35
89 86 97 89 86 97 89 86 97 89 86 97 89 86 97 74 68 78 74 69 76 74 68 78 74 69 76 74 68 78 74 69 76 74 68 78 74 69 76 82 76 86 80 75 82 78 72 82 75 70 77 71 65 75 68 63 70 66 60 70 64 59 66 60 53 61 60 53 61 60 53 61 60 53 61 60 53 61 60 53 61 60 53 61 60 53 61 68 61 69 68 61 69 68 61 69 68 61 69 68 61 69 68 61 69 68 61 69 70 60 68 69 58 66 71 60 66 73 62 70 76 65 71 80 69 77 83 72 78 85 74 82 87 76 82 101 90 98 101 90 96 101 90 98 101 90 96 101 90 98 101 90 96 101 90 98 101 90 98 90 80 89 85 78 86 81 71 80 72 65 73 66 56 65 56 49 57 52 42 51 47 40 48 53 43 52 51 44 52 53 43 52 51 44 52 53 43 52 51 44 52 53 43 52 53 43 52 54 44 53 56 46 54 58 48 57 61 51 59 65 55 64 68 58 66 70 60 69 72 62 70 69 59 68 69 59 67 69 59 68 69 59 67 69 59 68 69 59 67 69 59 68 69 59 67 56 49 56 56 50 54 56 49 56 56 50 54 56 49 56 56 50 54 56 49 56 56 50 54 69 62 69 69 63 67 69 62 69 69 63 67 69 62 69 69 63 67 69 62 69 69 62 69 76 66 75 76 66 77 76 66 77 76 66 77 76 66 77 76 66 77 76 66 77 76 66 77 78 68 79 76 66 77 74 64 75 71 61 72 67 57 68 64 54 65 62 52 63 58 50 61 53 47 61 51 47 61 53 47 61 51 47 61 53 47 61 51 47 61 53 47 61 51 47 61 47 41 55 45 41 55 47 41 55 45 41 55 47 41 55 45 41 55 47 41 55 48 40 53 67 51 62 68 51 59 68 51 61 68 51 59 68 51 61 68 51 59 68 51 61 68 51 59 69 52 62 69 52 60 69 52 62 69 52 60 69 52 62 69 52 60 69 52 62 71 51 60 73 52 59 74 51 59 74 51 59 74 51 59 74 51 59 74 51 59 74 51 59 74 51 59 84 61 69 84 61 69 84 61 69 84 61 69 84 61 69 84 61 69 84 61 69 84 61 69 83 57 68 84 56 68 84 56 68 84 56 68 84 56 68 84 56 68 84 56 68 84 56 68 81 53 65 83 55 67 85 57 69 88 60 72 92 64 76 95 67 79 97 69 81 102 70 85 101 62 81 103 61 81 101 62 81 100 63 81 98 64 81 97 64 81 96 65 81 93 66 81 69 47 60 64 46 58 61 45 56 55 43 53 50 40 49 45 38 46 42 37 44 38 35 44 49 49 59 45 48 57 43 46 55 40 43 52 36 39 48 33 36 45 31 34 43 29 32 41 23 26 35 23 26 35
94 93 107 94 93 107 94 93 107 94 93 107 94 93 107 74 72 86 75 71 85 75 71 86 75 71 85 75 71 86 75 71 85 75 71 86 75 71 85 73 69 84 73 69 83 73 69 84 73 69 83 73 69 84 73 69 83 73 69 84 73 69 83 65 57 70 67 57 68 67 57 68 67 57 68 67 57 68 67 57 68 67 57 68 67 57 68 73 63 74 73 63 74 73 63 74 73 63 74 73 63 74 73 63 74 73 63 74 73 63 74 75 65 74 77 67 75 79 69 78 82 72 80 86 76 85 89 79 87 91 81 90 93 83 91 93 83 92 93 83 91 93 83 92 93 83 91 93 83 92 93 83 91 93 83 92 91 84 92 80 73 81 78 72 82 76 68 79 72 66 76 70 62 73 65 59 69 64 56 67 62 56 66 54 46 57 53 47 57 54 46 57 53 47 57 54 46 57 53 47 57 54 46 57 54 46 57 69 61 72 69 62 70 69 61 72 69 62 70 69 61 72 69 62 70 69 61 72 69 62 70 73 65 76 71 64 72 69 61 72 66 59 67 62 54 65 59 52 60 57 49 60 55 48 56 56 46 55 58 48 56 60 50 59 63 53 61 67 57 66 70 60 68 72 62 71 74 64 72 76 66 75 76 66 74 76 66 75 76 66 74 76 66 75 76 66 74 76 66 75 76 66 75 81 73 84 81 73 84 81 73 84 81 73 84 81 73 84 81 73 84 81 73 84 81 73 84 85 77 88 83 75 86 81 73 84 78 70 81 74 66 77 71 63 74 69 61 72 67 59 70 51 47 61 50 48 61 51 47 61 50 48 61 51 47 61 50 48 61 51 47 61 50 48 61 45 41 55 44 42 55 45 41 55 44 42 55 45 41 55 44 42 55 45 41 55 47 41 53 62 50 60 65 49 59 65 49 60 65 49 59 65 49 60 65 49 59 65 49 60 65 49 59 65 49 60 65 49 59 65 49 60 65 49 59 65 49 60 65 49 59 65 49 60 65 49 59 77 60 68 77 60 66 77 60 66 77 60 66 77 60 66 77 60 66 77 60 66 77 60 66 83 66 72 83 66 72 83 66 72 83 66 72 83 66 72 83 66 72 83 66 72 85 66 72 84 63 72 85 62 72 85 62 72 85 62 72 85 62 72 85 62 72 85 62 72 85 62 72 86 63 73 86 63 73 86 63 73 86 63 73 86 63 73 86 63 73 86 63 73 89 61 75 99 65 82 99 61 82 95 60 80 91 58 77 86 55 73 80 53 70 76 52 68 72 51 66 54 38 51 51 39 51 50 40 51 48 40 51 47 41 51 45 42 51 44 43 51 43 43 51 47 50 59 44 48 59 42 46 57 39 43 54 35 39 50 32 36 47 30 34 45 28 32 43 23 27 38 23 27 38
90 92 107 90 92 107 90 92 107 90 92 107 90 92 107 74 71 88 74 71 88 74 71 88 74 71 88 74 71 88 74 71 88 74 71 88 74 71 88 72 69 86 72 69 86 72 69 86 72 69 86 72 69 86 72 69 86 72 69 86 73 69 84 65 57 72 67 56 70 67 56 70 67 56 70 67 56 70 67 56 70 67 56 70 67 56 70 73 62 76 73 62 76 73 62 76 73 62 76 73 62 76 73 62 76 73 62 76 73 63 74 73 65 76 75 68 76 77 70 78 80 73 81 84 77 85 87 80 88 89 82 90 91 84 92 91 84 92 91 84 92 91 84 92 91 84 92 91 84 92 91 84 92 91 84 92 91 84 92 80 74 84 79 73 83 77 71 81 73 67 77 70 64 74 67 61 71 64 58 68 63 57 67 53 47 57 53 47 57 53 47 57 53 47 57 53 47 57 53 47 57 53 47 57 53 47 57 69 61 72 69 61 72 69 61 72 69 61 72 69 61 72 69 61 72 69 61 72 69 61 72 73 65 76 71 63 74 69 61 72 66 58 69 62 54 65 59 51 62 57 49 60 55 47 58 56 46 55 58 48 57 60 50 59 63 53 62 67 57 66 70 60 69 72 62 71 74 64 73 76 66 75 76 66 75 76 66 75 76 66 75 76 66 75 76 66 75 76 66 75 76 66 75 81 73 84 81 73 84 81 73 84 81 73 84 81 73 84 81 73 84 81 73 84 81 73 84 85 77 88 83 75 86 81 73 84 78 70 81 74 66 77 71 63 74 69 61 72 66 60 70 53 49 63 52 50 63 52 50 63 52 50 63 52 50 63 52 50 63 52 50 63 52 50 63 46 44 57 46 44 57 46 44 57 46 44 57 46 44 57 46 44 57 46 44 57 47 44 55 64 52 64 65 52 62 65 52 62 65 52 62 65 52 62 65 52 62 65 52 62 65 52 62 63 50 60 63 50 60 63 50 60 63 50 60 63 50 60 63 50 60 63 50 60 63 50 59 76 61 68 76 61 66 76 61 66 76 61 66 76 61 66 76 61 66 76 61 66 76 61 66 82 67 72 82 67 72 82 67 72 82 67 72 82 67 72 82 67 72 82 67 72 83 66 72 83 63 72 84 63 72 84 63 72 84 63 72 84 63 72 84 63 72 84 63 72 84 63 72 85 64 73 85 64 73 85 64 73 85 64 73 85 64 73 85 64 73 85 64 73 86 62 75 98 65 82 96 63 82 94 61 80 88 59 77 84 55 73 78 54 70 75 52 68 70 52 66 52 38 51 50 40 51 48 40 51 45 42 51 45 42 51 43 43 51 43 43 51 41 44 51 46 50 61 44 48 59 42 46 57 39 43 54 35 39 50 32 36 47 30 34 45 28 32 43 23 27 38 23 27 38
88 90 105 88 90 105 88 90 105 88 90 105 88 90 105 74 71 88 74 71 88 74 71 88 74 71 88 74 71 88 74 71 88 74 71 88 74 71 88 72 69 86 72 69 86 72 69 86 72 69 86 72 69 86 72 69 86 72 69 86 73 69 84 65 57 72 67 56 70 67 56 70 67 56 70 67 56 70 67 56 70 67 56 70 67 56 70 73 62 76 73 62 76 73 62 76 73 62 76 73 62 76 73 62 76 73 62 76 73 63 74 73 65 76 75 68 76 77 70 78 80 73 81 84 77 85 87 80 88 89 82 90 91 84 92 91 84 92 91 84 92 91 84 92 91 84 92 91 84 92 91 84 92 91 84 92 91 84 92 83 77 87 81 75 85 79 73 83 76 70 80 72 66 76 69 63 73 67 61 71 65 59 69 53 47 57 53 47 57 53 47 57 53 47 57 53 47 57 53 47 57 53 47 57 53 47 57 69 61 72 69 61 72 69 61 72 69 61 72 69 61 72 69 61 72 69 61 72 69 61 72 73 65 76 71 63 74 69 61 72 66 58 69 62 54 65 59 51 62 57 49 60 55 47 58 56 46 55 58 48 57 60 50 59 63 53 62 67 57 66 70 60 69 72 62 71 74 64 73 76 66 75 76 66 75 76 66 75 76 66 75 76 66 75 76 66 75 76 66 75 76 66 75 81 73 84 81 73 84 81 73 84 81 73 84 81 73 84 81 73 84 81 73 84 81 73 84 85 77 88 83 75 86 81 73 84 78 70 81 74 66 77 71 63 74 69 61 72 66 60 70 55 51 65 54 52 65 54 52 65 54 52 65 54 52 65 54 52 65 54 52 65 54 52 65 48 46 59 48 46 59 48 46 59 48 46 59 48 46 59 48 46 59 48 46 59 49 46 57 66 54 66 67 54 64 67 54 64 67 54 64 67 54 64 67 54 64 67 54 64 67 54 64 63 50 60 63 50 60 63 50 60 63 50 60 63 50 60 63 50 60 63 50 60 63 50 59 76 61 68 76 61 66 76 61 66 76 61 66 76 61 66 76 61 66 76 61 66 76 61 66 82 67 72 82 67 72 82 67 72 82 67 72 82 67 72 82 67 72 82 67 72 83 66 72 83 63 72 84 63 72 84 63 72 84 63 72 84 63 72 84 63 72 84 63 72 84 63 72 85 64 73 85 64 73 85 64 73 85 64 73 85 64 73 85 64 73 85 64 73 86 62 75 98 65 82 96 63 82 94 61 80 88 59 77 84 55 73 78 54 70 75 52 68 70 52 66 52 38 51 50 40 51 48 40 51 45 42 51 45 42 51 43 43 51 43 43 51 41 44 51 46 50 61 44 48 59 42 46 57 39 43 54 35 39 50 32 36 47 30 34 45 28 32 43 23 27 38 23 27 38
85 87 102 85 87 102 85 87 102 85 87 102 85 87 102 74 71 88 74 71 88 74 71 88 74 71 88 74 71 88 74 71 88 74 71 88 74 71 88 72 69 86 72 69 86 72 69 86 72 69 86 72 69 86 72 69 86 72 69 86 73 69 84 65 57 72 67 56 70 67 56 70 67 56 70 67 56 70 67 56 70 67 56 70 67 56 70 73 62 76 73 62 76 73 62 76 73 62 76 73 62 76 73 62 76 73 62 76 73 63 74 73 65 76 75 68 76 77 70 78 80 73 81 84 77 85 87 80 88 89 82 90 91 84 92 91 84 92 91 84 92 91 84 92 91 84 92 91 84 92 91 84 92 91 84 92 91 84 92 86 80 90 85 79 89 82 76 86 79 73 83 76 70 80 72 66 76 70 64 74 69 63 73 53 47 57 53 47 57 53 47 57 53 47 57 53 47 57 53 47 57 53 47 57 53 47 57 69 61 72 69 61 72 69 61 72 69 61 72 69 61 72 69 61 72 69 61 72 69 61 72 73 65 76 71 63 74 69 61 72 66 58 69 62 54 65 59 51 62 57 49 60 55 47 58 56 46 55 58 48 57 60 50 59 63 53 62 67 57 66 70 60 69 72 62 71 74 64 73 76 66 75 76 66 75 76 66 75 76 66 75 76 66 75 76 66 75 76 66 75 76 66 75 81 73 84 81 73 84 81 73 84 81 73 84 81 73 84 81 73 84 81 73 84 81 73 84 85 77 88 83 75 86 81 73 84 78 70 81 74 66 77 71 63 74 69 61 72 66 60 70 58 54 68 57 55 68 57 55 68 57 55 68 57 55 68 57 55 68 57 55 68 57 55 68 51 49 62 51 49 62 51 49 62 51 49 62 51 49 62 51 49 62 51 49 62 52 49 60 69 57 69 70 57 67 70 57 67 70 57 67 70 57 67 70 57 67 70 57 67 70 57 67 63 50 60 63 50 60 63 50 60 63 50 60 63 50 60 63 50 60 63 50 60 63 50 59 76 61 68 76 61 66 76 61 66 76 61 66 76 61 66 76 61 66 76 61 66 76 61 66 82 67 72 82 67 72 82 67 72 82 67 72 82 67 72 82 67 72 82 67 72 83 66 72 83 63 72 84 63 72 84 63 72 84 63 72 84 63 72 84 63 72 84 63 72 84 63 72 85 64 73 85 64 73 85 64 73 85 64 73 85 64 73 85 64 73 85 64 73 86 62 75 98 65 82 96 63 82 94 61 80 88 59 77 84 55 73 78 54 70 75 52 68 70 52 66 52 38 51 50 40 51 48 40 51 45 42 51 45 42 51 43 43 51 43 43 51 41 44 51 46 50 61 44 48 59 42 46 57 39 43 54 35 39 50 32 36 47 30 34 45 28 32 43 23 27 38 23 27 38
81 83 98 81 83 98 81 83 98 81 83 98 81 83 98 74 71 88 74 71 88 74 71 88 74 71 88 74 71 88 74 71 88 74 71 88 74 71 88 72 69 86 72 69 86 72 69 86 72 69 86 72 69 86 72 69 86 72 69 86 73 69 84 65 57 72 67 56 70 67 56 70 67 56 70 67 56 70 67 56 70 67 56 70 67 56 70 73 62 76 73 62 76 73 62 76 73 62 76 73 62 76 73 62 76 73 62 76 73 63 74 73 65 76 75 68 76 77 70 78 80 73 81 84 77 85 87 80 88 89 82 90 91 84 92 91 84 92 91 84 92 91 84 92 91 84 92 91 84 92 91 84 92 91 84 92 91 84 92 89 83 93 88 82 92 86 80 90 82 76 86 79 73 83 76 70 80 73 67 77 72 66 76 53 47 57 53 47 57 53 47 57 53 47 57 53 47 57 53 47 57 53 47 57 53 47 57 69 61 72 69 61 72 69 61 72 69 61 72 69 61 72 69 61 72 69 61 72 69 61 72 73 65 76 71 63 74 69 61 72 66 58 69 62 54 65 59 51 62 57 49 60 55 47 58 56 46 55 58 48 57 60 50 59 63 53 62 67 57 66 70 60 69 72 62 71 74 64 73 76 66 75 76 66 75 76 66 75 76 66 75 76 66 75 76 66 75 76 66 75 76 66 75 81 73 84 81 73 84 81 73 84 81 73 84 81 73 84 81 73 84 81 73 84 81 73 84 85 77 88 83 75 86 81 73 84 78 70 81 74 66 77 71 63 74 69 61 72 66 60 70 62 58 72 61 59 72 61 59 72 61 59 72 61 59 72 61 59 72 61 59 72 61 59 72 55 53 66 55 53 66 55 53 66 55 53 66 55 53 66 55 53 66 55 53 66 56 53 64 73 61 73 74 61 71 74 61 71 74 61 71 74 61 71 74 61 71 74 61 71 74 61 71 63 50 60 63 50 60 63 50 60 63 50 60 63 50 60 63 50 60 63 50 60 63 50 59 76 61 68 76 61 66 76 61 66 76 61 66 76 61 66 76 61 66 76 61 66 76 61 66 82 67 72 82 67 72 82 67 72 82 67 72 82 67 72 82 67 72 82 67 72 83 66 72 83 63 72 84 63 72 84 63 72 84 63 72 84 63 72 84 63 72 84 63 72 84 63 72 85 64 73 85 64 73 85 64 73 85 64 73 85 64 73 85 64 73 85 64 73 86 62 75 98 65 82 96 63 82 94 61 80 88 59 77 84 55 73 78 54 70 75 52 68 70 52 66 52 38 51 50 40 51 48 40 51 45 42 51 45 42 51 43 43 51 43 43 51 41 44 51 46 50 61 44 48 59 42 46 57 39 43 54 35 39 50 32 36 47 30 34 45 28 32 43 23 27 38 23 27 38
78 80 95 78 80 95 78 80 95 78 80 95 78 80 95 74 71 88 74 71 88 74 71 88 74 71 88 74 71 88 74 71 88 74 71 88 74 71 88 72 69 86 72 69 86 72 69 86 72 69 86 72 69 86 72 69 86 72 69 86 73 69 84 65 57 72 67 56 70 67 56 70 67 56 70 67 56 70 67 56 70 67 56 70 67 56 70 73 62 76 73 62 76 73 62 76 73 62 76 73 62 76 73 62 76 73 62 76 73 63 74 73 65 76 75 68 76 77 70 78 80 73 81 84 77 85 87 80 88 89 82 90 91 84 92 91 84 92 91 84 92 91 84 92 91 84 92 91 84 92 91 84 92 91 84 92 91 84 92 93 87 97 91 85 95 89 83 93 86 80 90 82 76 86 79 73 83 77 71 81 75 69 79 53 47 57 53 47 57 53 47 57 53 47 57 53 47 57 53 47 57 53 47 57 53 47 57 69 61 72 69 61 72 69 61 72 69 61 72 69 61 72 69 61 72 69 61 72 69 61 72 73 65 76 71 63 74 69 61 72 66 58 69 62 54 65 59 51 62 57 49 60 55 47 58 56 46 55 58 48 57 60 50 59 63 53 62 67 57 66 70 60 69 72 62 71 74 64 73 76 66 75 76 66 75 76 66 75 76 66 75 76 66 75 76 66 75 76 66 75 76 66 75 81 73 84 81 73 84 81 73 84 81 73 84 81 73 84 81 73 84 81 73 84 81 73 84 85 77 88 83 75 86 81 73 84 78 70 81 74 66 77 71 63 74 69 61 72 66 60 70 65 61 75 64 62 75 64 62 75 64 62 75 64 62 75 64 62 75 64 62 75 64 62 75 58 56 69 58 56 69 58 56 69 58 56 69 58 56 69 58 56 69 58 56 69 59 56 67 76 64 76 77 64 74 77 64 74 77 64 74 77 64 74 77 64 74 77 64 74 77 64 74 63 50 60 63 50 60 63 50 60 63 50 60 63 50 60 63 50 60 63 50 60 63 50 59 76 61 68 76 61 66 76 61 66 76 61 66 76 61 66 76 61 66 76 61 66 76 61 66 82 67 72 82 67 72 82 67 72 82 67 72 82 67 72 82 67 72 82 67 72 83 66 72 83 63 72 84 63 72 84 63 72 84 63 72 84 63 72 84 63 72 84 63 72 84 63 72 85 64 73 85 64 73 85 64 73 85 64 73 85 64 73 85 64 73 85 64 73 86 62 75 98 65 82 96 63 82 94 61 80 88 59 77 84 55 73 78 54 70 75 52 68 70 52 66 52 38 51 50 40 51 48 40 51 45 42 51 45 42 51 43 43 51 43 43 51 41 44 51 46 50 61 44 48 59 42 46 57 39 43 54 35 39 50 32 36 47 30 34 45 28 32 43 23 27 38 23 27 38
76 78 93 76 78 93 76 78 93 76 78 93 76 78 93 74 71 88 74 71 88 74 71 88 74 71 88 74 71 88 74 71 88 74 71 88 74 71 88 72 69 86 72 69 86 72 69 86 72 69 86 72 69 86 72 69 86 72 69 86 73 69 84 65 57 72 67 56 70 67 56 70 67 56 70 67 56 70 67 56 70 67 56 70 67 56 70 73 62 76 73 62 76 73 62 76 73 62 76 73 62 76 73 62 76 73 62 76 73 63 74 73 65 76 75 68 76 77 70 78 80 73 81 84 77 85 87 80 88 89 82 90 91 84 92 91 84 92 91 84 92 91 84 92 91 84 92 91 84 92 91 84 92 91 84 92 91 84 92 95 89 99 94 88 98 91 85 95 88 82 92 85 79 89 81 75 85 79 73 83 78 72 82 53 47 57 53 47 57 53 47 57 53 47 57 53 47 57 53 47 57 53 47 57 53 47 57 69 61 72 69 61 72 69 61 72 69 61 72 69 61 72 69 61 72 69 61 72 69 61 72 73 65 76 71 63 74 69 61 72 66 58 69 62 54 65 59 51 62 57 49 60 55 47 58 56 46 55 58 48 57 60 50 59 63 53 62 67 57 66 70 60 69 72 62 71 74 64 73 76 66 75 76 66 75 76 66 75 76 66 75 76 66 75 76 66 75 76 66 75 76 66 75 81 73 84 81 73 84 81 73 84 81 73 84 81 73 84 81 73 84 81 73 84 81 73 84 85 77 88 83 75 86 81 73 84 78 70 81 74 66 77 71 63 74 69 61 72 66 60 70 67 63 77 66 64 77 66 64 77 66 64 77 66 64 77 66 64 77 66 64 77 66 64 77 60 58 71 60 58 71 60 58 71 60 58 71 60 58 71 60 58 71 60 58 71 61 58 69 78 66 78 79 66 76 79 66 76 79 66 76 79 66 76 79 66 76 79 66 76 79 66 76 63 50 60 63 50 60 63 50 60 63 50 60 63 50 60 63 50 60 63 50 60 63 50 59 76 61 68 76 61 66 76 61 66 76 61 66 76 61 66 76 61 66 76 61 66 76 61 66 82 67 72 82 67 72 82 67 72 82 67 72 82 67 72 82 67 72 82 67 72 83 66 72 83 63 72 84 63 72 84 63 72 84 63 72 84 63 72 84 63 72 84 63 72 84 63 72 85 64 73 85 64 73 85 64 73 85 64 73 85 64 73 85 64 73 85 64 73 86 62 75 98 65 82 96 63 82 94 61 80 88 59 77 84 55 73 78 54 70 75 52 68 70 52 66 52 38 51 50 40 51 48 40 51 45 42 51 45 42 51 43 43 51 43 43 51 41 44 51 46 50 61 44 48 59 42 46 57 39 43 54 35 39 50 32 36 47 30 34 45 28 32 43 23 27 38 23 27 38
74 76 91 74 76 91 74 76 91 74 76 91 74 76 91 74 71 88 74 71 88 74 71 88 74 71 88 74 71 88 74 71 88 74 71 88 74 71 88 72 69 86 72 69 86 72 69 86 72 69 86 72 69 86 72 69 86 72 69 86 73 69 84 65 57 72 67 56 70 67 56 70 67 56 70 67 56 70 67 56 70 67 56 70 67 56 70 73 62 76 73 62 76 73 62 76 73 62 76 73 62 76 73 62 76 73 62 76 73 63 74 73 65 76 75 68 76 77 70 78 80 73 81 84 77 85 87 80 88 89 82 90 91 84 92 91 84 92 91 84 92 91 84 92 91 84 92 91 84 92 91 84 92 91 84 92 91 84 92 96 90 100 95 89 99 93 87 97 89 83 93 86 80 90 83 77 87 80 74 84 79 73 83 53 47 57 53 47 57 53 47 57 53 47 57 53 47 57 53 47 57 53 47 57 53 47 57 69 61 72 69 61 72 69 61 72 69 61 72 69 61 72 69 61 72 69 61 72 69 61 72 73 65 76 71 63 74 69 61 72 66 58 69 62 54 65 59 51 62 57 49 60 55 47 58 56 46 55 58 48 57 60 50 59 63 53 62 67 57 66 70 60 69 72 62 71 74 64 73 76 66 75 76 66 75 76 66 75 76 66 75 76 66 75 76 66 75 76 66 75 76 66 75 81 73 84 81 73 84 81 73 84 81 73 84 81 73 84 81 73 84 81 73 84 81 73 84 85 77 88 83 75 86 81 73 84 78 70 81 74 66 77 71 63 74 69 61 72 66 60 70 69 65 79 68 66 79 68 66 79 68 66 79 68 66 79 68 66 79 68 66 79 68 66 79 62 60 73 62 60 73 62 60 73 62 60 73 62 60 73 62 60 73 62 60 73 63 60 71 80 68 80 81 68 78 81 68 78 81 68 78 81 68 78 81 68 78 81 68 78 81 68 78 63 50 60 63 50 60 63 50 60 63 50 60 63 50 60 63 50 60 63 50 60 63 50 59 76 61 68 76 61 66 76 61 66 76 61 66 76 61 66 76 61 66 76 61 66 76 61 66 82 67 72 82 67 72 82 67 72 82 67 72 82 67 72 82 67 72 82 67 72 83 66 72 83 63 72 84 63 72 84 63 72 84 63 72 84 63 72 84 63 72 84 63 72 84 63 72 85 64 73 85 64 73 85 64 73 85 64 73 85 64 73 85 64 73 85 64 73 86 62 75 98 65 82 96 63 82 94 61 80 88 59 77 84 55 73 78 54 70 75 52 68 70 52 66 52 38 51 50 40 51 48 40 51 45 42 51 45 42 51 43 43 51 43 43 51 41 44 51 46 50 61 44 48 59 42 46 57 39 43 54 35 39 50 32 36 47 30 34 45 28 32 43 23 27 38 23 27 38
57 59 74 57 59 74 57 59 74 57 59 74 57 59 74 60 57 74 60 57 74 60 57 74 60 57 74 60 57 74 60 57 74 60 57 74 60 57 74 68 65 82 68 65 82 68 65 82 68 65 82 68 65 82 68 65 82 68 65 82 69 65 80 73 65 80 75 64 78 75 64 78 75 64 78 75 64 78 75 64 78 75 64 78 75 64 78 72 61 75 72 61 75 72 61 75 72 61 75 72 61 75 72 61 75 72 61 75 72 62 73 74 66 77 74 67 75 74 67 75 74 67 75 74 67 75 74 67 75 74 67 75 74 67 75 79 72 80 79 72 80 79 72 80 79 72 80 79 72 80 79 72 80 79 72 80 79 72 80 83 77 87 83 77 87 83 77 87 83 77 87 83 77 87 83 77 87 83 77 87 83 77 87 50 44 54 51 45 55 53 47 57 57 51 61 60 54 64 63 57 67 66 60 70 67 61 71 78 70 81 76 68 79 74 66 77 71 63 74 67 59 70 64 56 67 62 54 65 60 52 63 45 37 48 45 37 48 45 37 48 45 37 48 45 37 48 45 37 48 45 37 48 45 37 48 65 55 64 65 55 64 65 55 64 65 55 64 65 55 64 65 55 64 65 55 64 65 55 64 83 73 82 83 73 82 83 73 82 83 73 82 83 73 82 83 73 82 83 73 82 83 73 82 87 79 90 87 79 90 87 79 90 87 79 90 87 79 90 87 79 90 87 79 90 87 79 90 80 72 83 80 72 83 80 72 83 80 72 83 80 72 83 80 72 83 80 72 83 79 73 83 70 66 80 69 67 80 69 67 80 69 67 80 69 67 80 69 67 80 69 67 80 69 67 80 71 69 82 71 69 82 71 69 82 71 69 82 71 69 82 71 69 82 71 69 82 72 69 80 79 67 79 80 67 77 80 67 77 80 67 77 80 67 77 80 67 77 80 67 77 80 67 77 73 60 70 73 60 70 73 60 70 73 60 70 73 60 70 73 60 70 73 60 70 73 60 69 83 68 75 83 68 73 83 68 73 83 68 73 83 68 73 83 68 73 83 68 73 83 68 73 79 64 69 79 64 69 79 64 69 79 64 69 79 64 69 79 64 69 79 64 69 80 63 69 90 70 79 91 70 79 91 70 79 91 70 79 91 70 79 91 70 79 91 70 79 91 70 79 83 62 71 83 62 71 83 62 71 83 62 71 83 62 71 83 62 71 83 62 71 84 60 73 92 59 76 90 57 76 88 55 74 82 53 71 78 49 67 72 48 64 69 46 62 64 46 60 53 39 52 51 41 52 49 41 52 46 43 52 46 43 52 44 44 52 44 44 52 42 45 52 44 48 59 42 46 57 40 44 55 37 41 52 33 37 48 30 34 45 28 32 43 26 30 41 23 27 38 23 27 38
57 59 74 57 59 74 57 59 74 57 59 74 57 59 74 60 57 74 60 57 74 60 57 74 60 57 74 60 57 74 60 57 74 60 57 74 60 57 74 68 65 82 68 65 82 68 65 82 68 65 82 68 65 82 68 65 82 68 65 82 69 65 80 73 65 80 75 64 78 75 64 78 75 64 78 75 64 78 75 64 78 75 64 78 75 64 78 72 61 75 72 61 75 72 61 75 72 61 75 72 61 75 72 61 75 72 61 75 72 62 73 74 66 77 74 67 75 74 67 75 74 67 75 74 67 75 74 67 75 74 67 75 74 67 75 79 72 80 79 72 80 79 72 80 79 72 80 79 72 80 79 72 80 79 72 80 79 72 80 81 75 85 81 75 85 81 75 85 81 75 85 81 75 85 81 75 85 81 75 85 81 75 85 51 45 55 52 46 56 55 49 59 58 52 62 61 55 65 65 59 69 67 61 71 68 62 72 78 70 81 76 68 79 74 66 77 71 63 74 67 59 70 64 56 67 62 54 65 60 52 63 47 39 50 47 39 50 47 39 50 47 39 50 47 39 50 47 39 50 47 39 50 47 39 50 61 51 60 61 51 60 61 51 60 61 51 60 61 51 60 61 51 60 61 51 60 61 51 60 76 66 75 76 66 75 76 66 75 76 66 75 76 66 75 76 66 75 76 66 75 76 66 75 85 77 88 85 77 88 85 77 88 85 77 88 85 77 88 85 77 88 85 77 88 85 77 88 78 70 81 78 70 81 78 70 81 78 70 81 78 70 81 78 70 81 78 70 81 77 71 81 74 70 84 73 71 84 73 71 84 73 71 84 73 71 84 73 71 84 73 71 84 73 71 84 71 69 82 71 69 82 71 69 82 71 69 82 71 69 82 71 69 82 71 69 82 72 69 80 79 67 79 80 67 77 80 67 77 80 67 77 80 67 77 80 67 77 80 67 77 80 67 77 73 60 70 73 60 70 73 60 70 73 60 70 73 60 70 73 60 70 73 60 70 73 60 69 83 68 75 83 68 73 83 68 73 83 68 73 83 68 73 83 68 73 83 68 73 83 68 73 81 66 71 81 66 71 81 66 71 81 66 71 81 66 71 81 66 71 81 66 71 82 65 71 90 70 79 91 70 79 91 70 79 91 70 79 91 70 79 91 70 79 91 70 79 91 70 79 83 62 71 83 62 71 83 62 71 83 62 71 83 62 71 83 62 71 83 62 71 84 60 73 92 59 76 90 57 76 88 55 74 82 53 71 78 49 67 72 48 64 69 46 62 64 46 60 53 39 52 51 41 52 49 41 52 46 43 52 46 43 52 44 44 52 44 44 52 42 45 52 44 48 59 42 46 57 40 44 55 37 41 52 33 37 48 30 34 45 28 32 43 26 30 41 23 27 38 23 27 38
57 59 74 57 59 74 57 59 74 57 59 74 57 59 74 60 57 74 60 57 74 60 57 74 60 57 74 60 57 74 60 57 74 60 57 74 60 57 74 68 65 82 68 65 82 68 65 82 68 65 82 68 65 82 68 65 82 68 65 82 69 65 80 73 65 80 75 64 78 75 64 78 75 64 78 75 64 78 75 64 78 75 64 78 75 64 78 72 61 75 72 61 75 72 61 75 72 61 75 72 61 75 72 61 75 72 61 75 72 62 73 74 66 77 74 67 75 74 67 75 74 67 75 74 67 75 74 67 75 74 67 75 74 67 75 79 72 80 79 72 80 79 72 80 79 72 80 79 72 80 79 72 80 79 72 80 79 72 80 79 73 83 79 73 83 79 73 83 79 73 83 79 73 83 79 73 83 79 73 83 79 73 83 53 47 57 55 49 59 57 51 61 60 54 64 64 58 68 67 61 71 69 63 73 71 65 75 78 70 81 76 68 79 74 66 77 71 63 74 67 59 70 64 56 67 62 54 65 60 52 63 52 44 55 52 44 55 52 44 55 52 44 55 52 44 55 52 44 55 52 44 55 52 44 55 55 45 54 55 45 54 55 45 54 55 45 54 55 45 54 55 45 54 55 45 54 55 45 54 66 56 65 66 56 65 66 56 65 66 56 65 66 56 65 66 56 65 66 56 65 66 56 65 80 72 83 80 72 83 80 72 83 80 72 83 80 72 83 80 72 83 80 72 83 80 72 83 76 68 79 76 68 79 76 68 79 76 68 79 76 68 79 76 68 79 76 68 79 75 69 79 80 76 90 79 77 90 79 77 90 79 77 90 79 77 90 79 77 90 79 77 90 79 77 90 71 69 82 71 69 82 71 69 82 71 69 82 71 69 82 71 69 82 71 69 82 72 69 80 79 67 79 80 67 77 80 67 77 80 67 77 80 67 77 80 67 77 80 67 77 80 67 77 73 60 70 73 60 70 73 60 70 73 60 70 73 60 70 73 60 70 73 60 70 73 60 69 83 68 75 83 68 73 83 68 73 83 68 73 83 68 73 83 68 73 83 68 73 83 68 73 83 68 73 83 68 73 83 68 73 83 68 73 83 68 73 83 68 73 83 68 73 84 67 73 90 70 79 91 70 79 91 70 79 91 70 79 91 70 79 91 70 79 91 70 79 91 70 79 83 62 71 83 62 71 83 62 71 83 62 71 83 62 71 83 62 71 83 62 71 84 60 73 92 59 76 90 57 76 88 55 74 82 53 71 78 49 67 72 48 64 69 46 62 64 46 60 53 39 52 51 41 52 49 41 52 46 43 52 46 43 52 44 44 52 44 44 52 42 45 52 44 48 59 42 46 57 40 44 55 37 41 52 33 37 48 30 34 45 28 32 43 26 30 41 23 27 38 23 27 38
57 59 74 57 59 74 57 59 74 57 59 74 57 59 74 60 57 74 60 57 74 60 57 74 60 57 74 60 57 74 60 57 74 60 57 74 60 57 74 68 65 82 68 65 82 68 65 82 68 65 82 68 65 82 68 65 82 68 65 82 69 65 80 73 65 80 75 64 78 75 64 78 75 64 78 75 64 78 75 64 78 75 64 78 75 64 78 72 61 75 72 61 75 72 61 75 72 61 75 72 61 75 72 61 75 72 61 75 72 62 73 74 66 77 74 67 75 74 67 75 74 67 75 74 67 75 74 67 75 74 67 75 74 67 75 79 72 80 79 72 80 79 72 80 79 72 80 79 72 80 79 72 80 79 72 80 79 72 80 76 70 80 76 70 80 76 70 80 76 70 80 76 70 80 76 70 80 76 70 80 76 70 80 57 51 61 58 52 62 60 54 64 64 58 68 67 61 71 70 64 74 73 67 77 74 68 78 78 70 81 76 68 79 74 66 77 71 63 74 67 59 70 64 56 67 62 54 65 60 52 63 59 51 62 59 51 62 59 51 62 59 51 62 59 51 62 59 51 62 59 51 62 59 51 62 53 43 52 53 43 52 53 43 52 53 43 52 53 43 52 53 43 52 53 43 52 53 43 52 57 47 56 57 47 56 57 47 56 57 47 56 57 47 56 57 47 56 57 47 56 57 47 56 73 65 76 73 65 76 73 65 76 73 65 76 73 65 76 73 65 76 73 65 76 73 65 76 73 65 76 73 65 76 73 65 76 73 65 76 73 65 76 73 65 76 73 65 76 72 66 76 82 78 92 81 79 92 81 79 92 81 79 92 81 79 92 81 79 92 81 79 92 81 79 92 71 69 82 71 69 82 71 69 82 71 69 82 71 69 82 71 69 82 71 69 82 72 69 80 79 67 79 80 67 77 80 67 77 80 67 77 80 67 77 80 67 77 80 67 77 80 67 77 73 60 70 73 60 70 73 60 70 73 60 70 73 60 70 73 60 70 73 60 70 73 60 69 83 68 75 83 68 73 83 68 73 83 68 73 83 68 73 83 68 73 83 68 73 83 68 73 86 71 76 86 71 76 86 71 76 86 71 76 86 71 76 86 71 76 86 71 76 87 70 76 90 70 79 91 70 79 91 70 79 91 70 79 91 70 79 91 70 79 91 70 79 91 70 79 83 62 71 83 62 71 83 62 71 83 62 71 83 62 71 83 62 71 83 62 71 84 60 73 92 59 76 90 57 76 88 55 74 82 53 71 78 49 67 72 48 64 69 46 62 64 46 60 53 39 52 51 41 52 49 41 52 46 43 52 46 43 52 44 44 52 44 44 52 42 45 52 44 48 59 42 46 57 40 44 55 37 41 52 33 37 48 30 34 45 28 32 43 26 30 41 23 27 38 23 27 38
57 59 74 57 59 74 57 59 74 57 59 74 57 59 74 60 57 74 60 57 74 60 57 74 60 57 74 60 57 74 60 57 74 60 57 74 60 57 74 68 65 82 68 65 82 68 65 82 68 65 82 68 65 82 68 65 82 68 65 82 69 65 80 73 65 80 75 64 78 75 64 78 75 64 78 75 64 78 75 64 78 75 64 78 75 64 78 72 61 75 72 61 75 72 61 75 72 61 75 72 61 75 72 61 75 72 61 75 72 62 73 74 66 77 74 67 75 74 67 75 74 67 75 74 67 75 74 67 75 74 67 75 74 67 75 79 72 80 79 72 80 79 72 80 79 72 80 79 72 80 79 72 80 79 72 80 79 72 80 72 66 76 72 66 76 72 66 76 72 66 76 72 66 76 72 66 76 72 66 76 72 66 76 60 54 64 61 55 65 64 58 68 67 61 71 70 64 74 74 68 78 76 70 80 77 71 81 78 70 81 76 68 79 74 66 77 71 63 74 67 59 70 64 56 67 62 54 65 60 52 63 65 57 68 65 57 68 65 57 68 65 57 68 65 57 68 65 57 68 65 57 68 65 57 68 56 46 55 56 46 55 56 46 55 56 46 55 56 46 55 56 46 55 56 46 55 56 46 55 54 44 53 54 44 53 54 44 53 54 44 53 54 44 53 54 44 53 54 44 53 54 44 53 67 59 70 67 59 70 67 59 70 67 59 70 67 59 70 67 59 70 67 59 70 67 59 70 69 61 72 69 61 72 69 61 72 69 61 72 69 61 72 69 61 72 69 61 72 68 62 72 79 75 89 78 76 89 78 76 89 78 76 89 78 76 89 78 76 89 78 76 89 78 76 89 71 69 82 71 69 82 71 69 82 71 69 82 71 69 82 71 69 82 71 69 82 72 69 80 79 67 79 80 67 77 80 67 77 80 67 77 80 67 77 80 67 77 80 67 77 80 67 77 73 60 70 73 60 70 73 60 70 73 60 70 73 60 70 73 60 70 73 60 70 73 60 69 83 68 75 83 68 73 83 68 73 83 68 73 83 68 73 83 68 73 83 68 73 83 68 73 90 75 80 90 75 80 90 75 80 90 75 80 90 75 80 90 75 80 90 75 80 91 74 80 90 70 79 91 70 79 91 70 79 91 70 79 91 70 79 91 70 79 91 70 79 91 70 79 83 62 71 83 62 71 83 62 71 83 62 71 83 62 71 83 62 71 83 62 71 84 60 73 92 59 76 90 57 76 88 55 74 82 53 71 78 49 67 72 48 64 69 46 62 64 46 60 53 39 52 51 41 52 49 41 52 46 43 52 46 43 52 44 44 52 44 44 52 42 45 52 44 48 59 42 46 57 40 44 55 37 41 52 33 37 48 30 34 45 28 32 43 26 30 41 23 27 38 23 27 38
57 59 74 57 59 74 57 59 74 57 59 74 57 59 74 60 57 74 60 57 74 60 57 74 60 57 74 60 57 74 60 57 74 60 57 74 60 57 74 68 65 82 68 65 82 68 65 82 68 65 82 68 65 82 68 65 82 68 65 82 69 65 80 73 65 80 75 64 78 75 64 78 75 64 78 75 64 78 75 64 78 75 64 78 75 64 78 72 61 75 72 61 75 72 61 75 72 61 75 72 61 75 72 61 75 72 61 75 72 62 73 74 66 77 74 67 75 74 67 75 74 67 75 74 67 75 74 67 75 74 67 75 74 67 75 79 72 80 79 72 80 79 72 80 79 72 80 79 72 80 79 72 80 79 72 80 79 72 80 69 63 73 69 63 73 69 63 73 69 63 73 69 63 73 69 63 73 69 63 73 69 63 73 63 57 67 65 59 69 67 61 71 70 64 74 74 68 78 77 71 81 79 73 83 81 75 85 78 70 81 76 68 79 74 66 77 71 63 74 67 59 70 64 56 67 62 54 65 60 52 63 72 64 75 72 64 75 72 64 75 72 64 75 72 64 75 72 64 75 72 64 75 72 64 75 65 55 64 65 55 64 65 55 64 65 55 64 65 55 64 65 55 64 65 55 64 65 55 64 56 46 55 56 46 55 56 46 55 56 46 55 56 46 55 56 46 55 56 46 55 56 46 55 60 52 63 60 52 63 60 52 63 60 52 63 60 52 63 60 52 63 60 52 63 60 52 63 66 58 69 66 58 69 66 58 69 66 58 69 66 58 69 66 58 69 66 58 69 65 59 69 70 66 80 69 67 80 69 67 80 69 67 80 69 67 80 69 67 80 69 67 80 69 67 80 71 69 82 71 69 82 71 69 82 71 69 82 71 69 82 71 69 82 71 69 82 72 69 80 79 67 79 80 67 77 80 67 77 80 67 77 80 67 77 80 67 77 80 67 77 80 67 77 73 60 70 73 60 70 73 60 70 73 60 70 73 60 70 73 60 70 73 60 70 73 60 69 83 68 75 83 68 73 83 68 73 83 68 73 83 68 73 83 68 73 83 68 73 83 68 73 93 78 83 93 78 83 93 78 83 93 78 83 93 78 83 93 78 83 93 78 83 94 77 83 90 70 79 91 70 79 91 70 79 91 70 79 91 70 79 91 70 79 91 70 79 91 70 79 83 62 71 83 62 71 83 62 71 83 62 71 83 62 71 83 62 71 83 62 71 84 60 73 92 59 76 90 57 76 88 55 74 82 53 71 78 49 67 72 48 64 69 46 62 64 46 60 53 39 52 51 41 52 49 41 52 46 43 52 46 43 52 44 44 52 44 44 52 42 45 52 44 48 59 42 46 57 40 44 55 37 41 52 33 37 48 30 34 45 28 32 43 26 30 41 23 27 38 23 27 38
57 59 74 57 59 74 57 59 74 57 59 74 57 59 74 60 57 74 60 57 74 60 57 74 60 57 74 60 57 74 60 57 74 60 57 74 60 57 74 68 65 82 68 65 82 68 65 82 68 65 82 68 65 82 68 65 82 68 65 82 69 65 80 73 65 80 75 64 78 75 64 78 75 64 78 75 64 78 75 64 78 75 64 78 75 64 78 72 61 75 72 61 75 72 61 75 72 61 75 72 61 75 72 61 75 72 61 75 72 62 73 74 66 77 74 67 75 74 67 75 74 67 75 74 67 75 74 67 75 74 67 75 74 67 75 79 72 80 79 72 80 79 72 80 79 72 80 79 72 80 79 72 80 79 72 80 79 72 80 67 61 71 67 61 71 67 61 71 67 61 71 67 61 71 67 61 71 67 61 71 67 61 71 66 60 70 67 61 71 69 63 73 73 67 77 76 70 80 79 73 83 82 76 86 83 77 87 78 70 81 76 68 79 74 66 77 71 63 74 67 59 70 64 56 67 62 54 65 60 52 63 77 69 80 77 69 80 77 69 80 77 69 80 77 69 80 77 69 80 77 69 80 77 69 80 75 65 74 75 65 74 75 65 74 75 65 74 75 65 74 75 65 74 75 65 74 75 65 74 62 52 61 62 52 61 62 52 61 62 52 61 62 52 61 62 52 61 62 52 61 62 52 61 55 47 58 55 47 58 55 47 58 55 47 58 55 47 58 55 47 58 55 47 58 55 47 58 64 56 67 64 56 67 64 56 67 64 56 67 64 56 67 64 56 67 64 56 67 63 57 67 60 56 70 59 57 70 59 57 70 59 57 70 59 57 70 59 57 70 59 57 70 59 57 70 71 69 82 71 69 82 71 69 82 71 69 82 71 69 82 71 69 82 71 69 82 72 69 80 79 67 79 80 67 77 80 67 77 80 67 77 80 67 77 80 67 77 80 67 77 80 67 77 73 60 70 73 60 70 73 60 70 73 60 70 73 60 70 73 60 70 73 60 70 73 60 69 83 68 75 83 68 73 83 68 73 83 68 73 83 68 73 83 68 73 83 68 73 83 68 73 95 80 85 95 80 85 95 80 85 95 80 85 95 80 85 95 80 85 95 80 85 96 79 85 90 70 79 91 70 79 91 70 79 91 70 79 91 70 79 91 70 79 91 70 79 91 70 79 83 62 71 83 62 71 83 62 71 83 62 71 83 62 71 83 62 71 83 62 71 84 60 73 92 59 76 90 57 76 88 55 74 82 53 71 78 49 67 72 48 64 69 46 62 64 46 60 53 39 52 51 41 52 49 41 52 46 43 52 46 43 52 44 44 52 44 44 52 42 45 52 44 48 59 42 46 57 40 44 55 37 41 52 33 37 48 30 34 45 28 32 43 26 30 41 23 27 38 23 27 38
54 59 79 54 59 79 54 59 79 54 59 79 54 59 79 57 58 78 57 58 78 57 58 78 57 58 78 57 58 78 57 58 78 57 58 78 57 58 78 65 66 86 65 66 86 65 66 86 65 66 86 65 66 86 65 66 86 65 66 86 67 65 86 70 66 83 72 65 83 72 65 83 72 65 83 72 65 83 72 65 83 72 65 83 72 65 83 69 62 80 69 62 80 69 62 80 69 62 80 69 62 80 69 62 80 69 62 80 69 62 78 73 67 81 73 67 79 73 67 79 73 67 79 73 67 79 73 67 79 73 67 79 73 67 79 78 72 84 78 72 84 78 72 84 78 72 84 78 72 84 78 72 84 78 72 84 78 72 84 63 60 71 63 60 71 63 60 71 63 60 71 63 60 71 63 60 71 63 60 71 63 60 71 65 62 73 66 63 74 69 66 77 72 69 80 75 72 83 79 76 87 81 78 89 84 78 90 78 70 83 78 68 79 76 65 79 73 63 74 69 58 72 66 56 67 64 53 67 62 52 63 81 70 84 81 71 82 81 70 84 81 71 82 81 70 84 81 71 82 81 70 84 81 71 82 83 71 83 83 71 81 84 70 83 83 71 81 84 70 83 83 71 81 84 70 83 83 71 81 68 54 67 67 55 65 68 54 67 67 55 65 68 54 67 67 55 65 68 54 67 67 55 67 56 44 56 56 44 56 56 44 56 56 44 56 56 44 56 56 44 56 56 44 56 56 44 56 65 53 65 65 53 65 65 53 65 65 53 65 65 53 65 65 53 65 65 53 65 64 53 67 56 48 61 55 49 61 56 48 63 55 49 61 56 48 63 55 49 61 56 48 63 55 49 61 75 67 82 74 68 80 75 67 82 74 68 80 75 67 82 74 68 80 75 67 82 75 67 80 78 68 79 78 68 77 79 67 79 78 68 77 79 67 79 78 68 77 79 67 79 78 68 77 72 60 72 71 61 70 72 60 72 71 61 70 72 60 72 71 61 70 72 60 72 72 60 70 80 69 75 80 69 75 80 69 75 80 69 75 80 69 75 80 69 75 80 69 75 80 69 75 94 83 89 94 83 89 94 83 89 94 83 89 94 83 89 94 83 89 94 83 89 95 82 89 90 70 81 91 69 81 91 69 81 91 69 81 91 69 81 91 69 81 91 69 81 91 69 81 83 61 73 83 61 73 83 61 73 83 61 73 83 61 73 83 61 73 83 61 73 84 60 73 88 61 78 87 58 76 84 57 74 79 55 71 75 51 67 71 48 64 68 47 62 63 47 60 53 39 52 51 41 52 49 41 52 48 42 52 48 42 52 46 43 52 45 44 52 44 44 54 45 47 59 42 46 57 40 44 56 37 41 52 33 37 49 30 34 45 28 32 44 26 30 41 23 27 39 23 27 38
50 61 89 50 61 89 50 61 89 50 61 89 50 61 89 53 60 88 53 60 88 53 60 88 53 60 88 53 60 88 53 60 88 53 60 88 53 60 88 55 62 90 55 62 90 55 62 90 55 62 90 55 62 90 55 62 90 55 62 90 56 62 88 59 60 88 60 60 86 60 60 86 60 60 86 60 60 86 60 60 86 60 60 86 60 60 86 64 64 90 64 64 90 64 64 90 64 64 90 64 64 90 64 64 90 64 64 90 64 64 88 71 69 90 71 70 88 71 70 88 71 70 88 71 70 88 71 70 88 71 70 88 71 70 88 76 75 93 76 75 93 76 75 93 76 75 93 76 75 93 76 75 93 76 75 93 76 75 93 63 60 77 63 60 77 63 60 77 63 60 77 63 60 77 63 60 77 63 60 77 63 60 77 79 76 93 79 76 93 79 76 93 79 76 93 79 76 93 79 76 93 79 76 93 80 76 91 85 74 90 80 68 82 72 59 76 66 54 68 66 53 70 72 60 74 80 67 84 86 74 88 86 73 90 84 72 86 82 69 86 79 67 81 75 62 79 72 60 74 70 57 74 69 55 70 83 65 81 83 65 79 85 64 81 83 65 79 85 64 81 83 65 79 85 64 81 83 65 79 87 66 83 85 67 81 87 66 83 85 67 81 87 66 83 85 67 81 87 66 83 85 67 83 88 70 86 88 70 86 88 70 86 88 70 86 88 70 86 88 70 86 88 70 86 88 70 86 69 51 67 69 51 67 69 51 67 69 51 67 69 51 67 69 51 67 69 51 67 69 51 67 59 41 57 58 42 55 59 41 57 58 42 55 59 41 57 58 42 55 59 41 57 58 42 55 55 37 53 54 38 51 55 37 53 54 38 51 55 37 53 54 38 51 55 37 53 52 38 51 66 58 71 63 60 69 65 59 71 63 60 69 65 59 71 63 60 69 65 59 71 63 60 69 71 65 77 69 66 75 71 65 77 69 66 75 71 65 77 69 66 75 71 65 77 69 66 75 79 76 83 79 77 82 79 77 82 79 77 82 79 77 82 79 77 82 79 77 82 79 77 82 82 80 85 82 80 85 82 80 85 82 80 85 82 80 85 82 80 85 82 80 85 85 78 85 85 69 80 88 68 80 88 68 80 88 68 80 88 68 80 88 68 80 88 68 80 88 68 80 87 67 79 87 67 79 87 67 79 87 67 79 87 67 79 87 67 79 87 67 79 87 66 81 78 60 74 76 58 74 73 56 72 70 53 69 66 49 65 63 46 62 59 45 60 57 43 58 52 40 54 52 40 54 51 40 54 51 40 54 51 40 54 51 40 54 49 41 54 48 42 54 47 46 60 42 46 58 40 43 58 37 41 53 33 36 51 30 34 46 28 31 46 26 30 42 26 29 44 26 30 42
47 62 95 47 62 95 47 62 95 47 62 95 47 62 93 50 61 93 50 61 91 50 61 91 50 61 91 50 61 91 50 61 91 50 61 91 50 61 91 52 63 93 52 63 93 52 63 93 52 63 93 52 63 93 52 63 93 52 63 93 53 62 93 56 61 91 57 60 91 57 60 91 57 60 91 57 60 91 57 60 91 57 60 91 57 60 91 61 64 95 61 64 95 61 64 95 61 64 95 61 64 95 61 64 95 61 64 95 61 65 94 69 69 93 69 70 91 69 70 91 69 70 91 69 70 91 69 70 91 69 70 91 69 70 91 74 75 96 74 75 96 74 75 96 74 75 96 74 75 96 74 75 96 74 75 96 74 75 95 62 60 81 62 61 79 62 61 79 62 61 79 62 61 79 62 61 79 62 61 79 62 61 79 78 77 95 78 77 95 78 77 95 78 77 95 78 77 95 78 77 95 78 77 95 80 76 93 85 74 91 81 67 84 73 59 76 67 53 70 67 53 70 73 59 76 81 67 84 87 73 90 87 73 90 85 71 88 83 69 86 80 66 83 76 62 79 73 59 76 71 57 74 71 54 72 83 62 79 84 61 79 84 61 79 84 61 79 84 61 79 84 61 79 84 61 79 84 61 79 86 63 81 86 63 81 86 63 81 86 63 81 86 63 81 86 63 81 86 63 81 86 63 81 89 66 84 89 66 84 89 66 84 89 66 84 89 66 84 89 66 84 89 66 84 89 66 84 78 55 73 78 55 73 78 55 73 78 55 73 78 55 73 78 55 73 78 55 73 78 55 73 69 46 62 69 46 62 69 46 62 69 46 62 69 46 62 69 46 62 69 46 62 69 46 62 60 37 53 60 37 53 60 37 53 60 37 53 60 37 53 60 37 53 60 37 53 57 39 53 62 54 67 58 56 67 59 56 67 58 56 67 59 56 67 58 56 67 59 56 67 58 56 67 63 60 71 62 60 71 63 60 71 62 60 71 63 60 71 62 60 71 63 60 71 62 61 69 71 70 78 70 71 76 71 70 76 70 71 76 71 70 76 70 71 76 71 70 76 70 71 76 79 78 84 78 79 84 79 78 84 78 79 84 79 78 84 78 79 84 79 78 84 82 77 84 83 67 80 86 65 80 86 65 80 86 65 80 86 65 80 86 65 80 86 65 80 86 65 80 85 64 79 85 64 79 85 64 79 85 64 79 85 64 79 85 64 79 85 64 79 83 65 79 75 61 76 72 60 74 70 58 72 67 55 69 63 51 65 60 48 62 58 46 60 56 44 58 52 40 54 52 40 54 52 40 54 52 40 54 52 40 54 52 40 54 52 40 54 49 41 56 47 46 60 42 45 60 40 43 58 37 40 55 33 36 51 30 33 48 28 31 46 26 29 44 26 29 44 26 29 44
47 62 95 47 62 95 47 62 95 47 62 95 47 62 93 50 61 93 50 61 91 50 61 91 50 61 91 50 61 91 50 61 91 50 61 91 50 61 91 52 63 93 52 63 93 52 63 93 52 63 93 52 63 93 52 63 93 52 63 93 53 62 93 56 61 91 57 60 91 57 60 91 57 60 91 57 60 91 57 60 91 57 60 91 57 60 91 61 64 95 61 64 95 61 64 95 61 64 95 61 64 95 61 64 95 61 64 95 61 65 94 69 69 93 69 70 91 69 70 91 69 70 91 69 70 91 69 70 91 69 70 91 69 70 91 74 75 96 74 75 96 74 75 96 74 75 96 74 75 96 74 75 96 74 75 96 74 75 95 62 60 81 62 61 79 62 61 79 62 61 79 62 61 79 62 61 79 62 61 79 62 61 79 78 77 95 78 77 95 78 77 95 78 77 95 78 77 95 78 77 95 78 77 95 80 76 93 85 74 91 81 67 84 73 59 76 67 53 70 67 53 70 73 59 76 81 67 84 87 73 90 87 73 90 85 71 88 83 69 86 80 66 83 76 62 79 73 59 76 71 57 74 71 54 72 81 60 77 82 59 77 82 59 77 82 59 77 82 59 77 82 59 77 82 59 77 82 59 77 84 61 79 84 61 79 84 61 79 84 61 79 84 61 79 84 61 79 84 61 79 84 61 79 87 64 82 87 64 82 87 64 82 87 64 82 87 64 82 87 64 82 87 64 82 87 64 82 86 63 81 86 63 81 86 63 81 86 63 81 86 63 81 86 63 81 86 63 81 86 63 81 79 56 72 79 56 72 79 56 72 79 56 72 79 56 72 79 56 72 79 56 72 79 56 72 65 42 58 65 42 58 65 42 58 65 42 58 65 42 58 65 42 58 65 42 58 62 44 58 58 47 61 53 50 61 55 49 61 53 50 61 55 49 61 53 50 61 55 49 61 53 50 61 57 51 63 55 52 63 57 51 63 55 52 63 57 51 63 55 52 63 57 51 63 55 52 61 62 59 68 61 60 66 62 59 66 61 60 66 62 59 66 61 60 66 62 59 66 61 60 66 75 72 79 74 73 79 75 72 79 74 73 79 75 72 79 74 73 79 75 72 79 78 71 79 81 65 78 84 63 78 84 63 78 84 63 78 84 63 78 84 63 78 84 63 78 84 63 78 83 62 77 83 62 77 83 62 77 83 62 77 83 62 77 83 62 77 83 62 77 81 63 77 75 61 76 72 60 74 70 58 72 67 55 69 63 51 65 60 48 62 58 46 60 56 44 58 52 40 54 52 40 54 52 40 54 52 40 54 52 40 54 52 40 54 52 40 54 49 41 56 47 46 60 42 45 60 40 43 58 37 40 55 33 36 51 30 33 48 28 31 46 26 29 44 26 29 44 26 29 44
47 62 95 47 62 95 47 62 95 47 62 95 47 62 93 50 61 93 50 61 91 50 61 91 50 61 91 50 61 91 50 61 91 50 61 91 50 61 91 52 63 93 52 63 93 52 63 93 52 63 93 52 63 93 52 63 93 52 63 93 53 62 93 56 61 91 57 60 91 57 60 91 57 60 91 57 60 91 57 60 91 57 60 91 57 60 91 61 64 95 61 64 95 61 64 95 61 64 95 61 64 95 61 64 95 61 64 95 61 65 94 69 69 93 69 70 91 69 70 91 69 70 91 69 70 91 69 70 91 69 70 91 69 70 91 74 75 96 74 75 96 74 75 96 74 75 96 74 75 96 74 75 96 74 75 96 74 75 95 62 60 81 62 61 79 62 61 79 62 61 79 62 61 79 62 61 79 62 61 79 62 61 79 78 77 95 78 77 95 78 77 95 78 77 95 78 77 95 78 77 95 78 77 95 80 76 93 85 74 91 81 67 84 73 59 76 67 53 70 67 53 70 73 59 76 81 67 84 87 73 90 87 73 90 85 71 88 83 69 86 80 66 83 76 62 79 73 59 76 71 57 74 71 54 72 78 57 74 79 56 74 79 56 74 79 56 74 79 56 74 79 56 74 79 56 74 79 56 74 81 58 76 81 58 76 81 58 76 81 58 76 81 58 76 81 58 76 81 58 76 81 58 76 84 61 79 84 61 79 84 61 79 84 61 79 84 61 79 84 61 79 84 61 79 84 61 79 92 69 87 92 69 87 92 69 87 92 69 87 92 69 87 92 69 87 92 69 87 92 69 87 88 65 81 88 65 81 88 65 81 88 65 81 88 65 81 88 65 81 88 65 81 88 65 81 72 49 65 72 49 65 72 49 65 72 49 65 72 49 65 72 49 65 72 49 65 69 51 65 56 45 59 53 47 59 54 46 59 53 47 59 54 46 59 53 47 59 54 46 59 53 47 59 52 44 57 51 45 57 52 44 57 51 45 57 52 44 57 51 45 57 52 44 57 51 45 55 55 49 59 53 50 57 55 50 57 53 50 57 55 50 57 53 50 57 55 50 57 53 50 57 70 65 72 68 65 72 70 65 72 68 65 72 70 65 72 68 65 72 70 65 72 71 64 72 78 62 75 81 60 75 81 60 75 81 60 75 81 60 75 81 60 75 81 60 75 81 60 75 80 59 74 80 59 74 80 59 74 80 59 74 80 59 74 80 59 74 80 59 74 78 60 74 75 61 76 72 60 74 70 58 72 67 55 69 63 51 65 60 48 62 58 46 60 56 44 58 52 40 54 52 40 54 52 40 54 52 40 54 52 40 54 52 40 54 52 40 54 49 41 56 47 46 60 42 45 60 40 43 58 37 40 55 33 36 51 30 33 48 28 31 46 26 29 44 26 29 44 26 29 44
47 62 95 47 62 95 47 62 95 47 62 95 47 62 93 50 61 93 50 61 91 50 61 91 50 61 91 50 61 91 50 61 91 50 61 91 50 61 91 52 63 93 52 63 93 52 63 93 52 63 93 52 63 93 52 63 93 52 63 93 53 62 93 56 61 91 57 60 91 57 60 91 57 60 91 57 60 91 57 60 91 57 60 91 57 60 91 61 64 95 61 64 95 61 64 95 61 64 95 61 64 95 61 64 95 61 64 95 61 65 94 69 69 93 69 70 91 69 70 91 69 70 91 69 70 91 69 70 91 69 70 91 69 70 91 74 75 96 74 75 96 74 75 96 74 75 96 74 75 96 74 75 96 74 75 96 74 75 95 62 60 81 62 61 79 62 61 79 62 61 79 62 61 79 62 61 79 62 61 79 62 61 79 78 77 95 78 77 95 78 77 95 78 77 95 78 77 95 78 77 95 78 77 95 80 76 93 85 74 91 81 67 84 73 59 76 67 53 70 67 53 70 73 59 76 81 67 84 87 73 90 87 73 90 85 71 88 83 69 86 80 66 83 76 62 79 73 59 76 71 57 74 71 54 72 74 53 70 75 52 70 75 52 70 75 52 70 75 52 70 75 52 70 75 52 70 75 52 70 77 54 72 77 54 72 77 54 72 77 54 72 77 54 72 77 54 72 77 54 72 77 54 72 80 57 75 80 57 75 80 57 75 80 57 75 80 57 75 80 57 75 80 57 75 80 57 75 92 69 87 92 69 87 92 69 87 92 69 87 92 69 87 92 69 87 92 69 87 92 69 87 91 68 84 91 68 84 91 68 84 91 68 84 91 68 84 91 68 84 91 68 84 91 68 84 78 55 71 78 55 71 78 55 71 78 55 71 78 55 71 78 55 71 78 55 71 75 57 71 60 48 62 57 49 62 59 48 62 57 49 62 59 48 62 57 49 62 59 48 62 57 49 62 54 43 57 52 44 57 54 43 57 52 44 57 54 43 57 52 44 57 54 43 57 52 44 55 53 45 56 52 47 54 53 46 54 52 47 54 53 46 54 52 47 54 53 46 54 52 47 54 65 58 66 64 59 66 65 58 66 64 59 66 65 58 66 64 59 66 65 58 66 67 57 66 74 58 71 77 56 71 77 56 71 77 56 71 77 56 71 77 56 71 77 56 71 77 56 71 76 55 70 76 55 70 76 55 70 76 55 70 76 55 70 76 55 70 76 55 70 74 56 70 75 61 76 72 60 74 70 58 72 67 55 69 63 51 65 60 48 62 58 46 60 56 44 58 52 40 54 52 40 54 52 40 54 52 40 54 52 40 54 52 40 54 52 40 54 49 41 56 47 46 60 42 45 60 40 43 58 37 40 55 33 36 51 30 33 48 28 31 46 26 29 44 26 29 44 26 29 44
47 62 95 47 62 95 47 62 95 47 62 95 47 62 93 50 61 93 50 61 91 50 61 91 50 61 91 50 61 91 50 61 91 50 61 91 50 61 91 52 63 93 52 63 93 52 63 93 52 63 93 52 63 93 52 63 93 52 63 93 53 62 93 56 61 91 57 60 91 57 60 91 57 60 91 57 60 91 57 60 91 57 60 91 57 60 91 61 64 95 61 64 95 61 64 95 61 64 95 61 64 95 61 64 95 61 64 95 61 65 94 69 69 93 69 70 91 69 70 91 69 70 91 69 70 91 69 70 91 69 70 91 69 70 91 74 75 96 74 75 96 74 75 96 74 75 96 74 75 96 74 75 96 74 75 96 74 75 95 62 60 81 62 61 79 62 61 79 62 61 79 62 61 79 62 61 79 62 61 79 62 61 79 78 77 95 78 77 95 78 77 95 78 77 95 78 77 95 78 77 95 78 77 95 80 76 93 85 74 91 81 67 84 73 59 76 67 53 70 67 53 70 73 59 76 81 67 84 87 73 90 87 73 90 85 71 88 83 69 86 80 66 83 76 62 79 73 59 76 71 57 74 71 54 72 71 50 67 72 49 67 72 49 67 72 49 67 72 49 67 72 49 67 72 49 67 72 49 67 74 51 69 74 51 69 74 51 69 74 51 69 74 51 69 74 51 69 74 51 69 74 51 69 77 54 72 77 54 72 77 54 72 77 54 72 77 54 72 77 54 72 77 54 72 77 54 72 86 63 81 86 63 81 86 63 81 86 63 81 86 63 81 86 63 81 86 63 81 86 63 81 89 66 82 89 66 82 89 66 82 89 66 82 89 66 82 89 66 82 89 66 82 89 66 82 85 62 78 85 62 78 85 62 78 85 62 78 85 62 78 85 62 78 85 62 78 84 63 78 70 56 71 69 57 71 69 57 71 69 57 71 69 57 71 69 57 71 69 57 71 69 57 71 61 49 63 61 49 63 61 49 63 61 49 63 61 49 63 61 49 63 61 49 63 60 50 61 57 47 58 57 47 56 57 47 56 57 47 56 57 47 56 57 47 56 57 47 56 57 47 56 60 50 59 60 50 59 60 50 59 60 50 59 60 50 59 60 50 59 60 50 59 61 49 59 72 54 68 74 53 68 74 53 68 74 53 68 74 53 68 74 53 68 74 53 68 74 53 68 73 52 67 73 52 67 73 52 67 73 52 67 73 52 67 73 52 67 73 52 67 71 53 67 75 61 76 72 60 74 70 58 72 67 55 69 63 51 65 60 48 62 58 46 60 56 44 58 52 40 54 52 40 54 52 40 54 52 40 54 52 40 54 52 40 54 52 40 54 49 41 56 47 46 60 42 45 60 40 43 58 37 40 55 33 36 51 30 33 48 28 31 46 26 29 44 26 29 44 26 29 44
47 62 95 47 62 95 47 62 95 47 62 95 47 62 93 50 61 93 50 61 91 50 61 91 50 61 91 50 61 91 50 61 91 50 61 91 50 61 91 52 63 93 52 63 93 52 63 93 52 63 93 52 63 93 52 63 93 52 63 93 53 62 93 56 61 91 57 60 91 57 60 91 57 60 91 57 60 91 57 60 91 57 60 91 57 60 91 61 64 95 61 64 95 61 64 95 61 64 95 61 64 95 61 64 95 61 64 95 61 65 94 69 69 93 69 70 91 69 70 91 69 70 91 69 70 91 69 70 91 69 70 91 69 70 91 74 75 96 74 75 96 74 75 96 74 75 96 74 75 96 74 75 96 74 75 96 74 75 95 62 60 81 62 61 79 62 61 79 62 61 79 62 61 79 62 61 79 62 61 79 62 61 79 78 77 95 78 77 95 78 77 95 78 77 95 78 77 95 78 77 95 78 77 95 80 76 93 85 74 91 81 67 84 73 59 76 67 53 70 67 53 70 73 59 76 81 67 84 87 73 90 87 73 90 85 71 88 83 69 86 80 66 83 76 62 79 73 59 76 71 57 74 71 54 72 69 48 65 70 47 65 70 47 65 70 47 65 70 47 65 70 47 65 70 47 65 70 47 65 72 49 67 72 49 67 72 49 67 72 49 67 72 49 67 72 49 67 72 49 67 72 49 67 75 52 70 75 52 70 75 52 70 75 52 70 75 52 70 75 52 70 75 52 70 75 52 70 78 55 73 78 55 73 78 55 73 78 55 73 78 55 73 78 55 73 78 55 73 78 55 73 83 60 76 83 60 76 83 60 76 83 60 76 83 60 76 83 60 76 83 60 76 83 60 76 90 67 83 90 67 83 90 67 83 90 67 83 90 67 83 90 67 83 90 67 83 89 68 83 82 65 81 80 66 81 80 66 81 80 66 81 80 66 81 80 66 81 80 66 81 80 66 81 70 56 71 70 56 71 70 56 71 70 56 71 70 56 71 70 56 71 70 56 71 70 56 69 65 51 64 64 52 62 64 52 62 64 52 62 64 52 62 64 52 62 64 52 62 64 52 62 56 44 54 56 44 54 56 44 54 56 44 54 56 44 54 56 44 54 56 44 54 57 44 54 70 52 66 72 51 66 72 51 66 72 51 66 72 51 66 72 51 66 72 51 66 72 51 66 71 50 65 71 50 65 71 50 65 71 50 65 71 50 65 71 50 65 71 50 65 69 51 65 75 61 76 72 60 74 70 58 72 67 55 69 63 51 65 60 48 62 58 46 60 56 44 58 52 40 54 52 40 54 52 40 54 52 40 54 52 40 54 52 40 54 52 40 54 49 41 56 47 46 60 42 45 60 40 43 58 37 40 55 33 36 51 30 33 48 28 31 46 26 29 44 26 29 44 26 29 44
47 62 95 47 62 95 47 62 95 47 62 95 47 62 93 50 61 93 50 61 91 50 61 91 50 61 91 50 61 91 50 61 91 50 61 91 50 61 91 52 63 93 52 63 93 52 63 93 52 63 93 52 63 93 52 63 93 52 63 93 53 62 93 56 61 91 57 60 91 57 60 91 57 60 91 57 60 91 57 60 91 57 60 91 57 60 91 61 64 95 61 64 95 61 64 95 61 64 95 61 64 95 61 64 95 61 64 95 61 65 94 69 69 93 69 70 91 69 70 91 69 70 91 69 70 91 69 70 91 69 70 91 69 70 91 74 75 96 74 75 96 74 75 96 74 75 96 74 75 96 74 75 96 74 75 96 74 75 95 62 60 81 62 61 79 62 61 79 62 61 79 62 61 79 62 61 79 62 61 79 62 61 79 78 77 95 78 77 95 78 77 95 78 77 95 78 77 95 78 77 95 78 77 95 80 76 93 85 74 91 81 67 84 73 59 76 67 53 70 67 53 70 73 59 76 81 67 84 87 73 90 87 73 90 85 71 88 83 69 86 80 66 83 76 62 79 73 59 76 71 57 74 71 54 72 67 46 63 68 45 63 68 45 63 68 45 63 68 45 63 68 45 63 68 45 63 68 45 63 70 47 65 70 47 65 70 47 65 70 47 65 70 47 65 70 47 65 70 47 65 70 47 65 73 50 68 73 50 68 73 50 68 73 50 68 73 50 68 73 50 68 73 50 68 73 50 68 72 49 67 72 49 67 72 49 67 72 49 67 72 49 67 72 49 67 72 49 67 72 49 67 79 56 72 79 56 72 79 56 72 79 56 72 79 56 72 79 56 72 79 56 72 79 56 72 92 69 85 92 69 85 92 69 85 92 69 85 92 69 85 92 69 85 92 69 85 91 70 85 92 71 88 90 72 88 90 72 88 90 72 88 90 72 88 90 72 88 90 72 88 90 72 88 79 61 77 79 61 77 79 61 77 79 61 77 79 61 77 79 61 77 79 61 77 79 61 75 71 55 68 71 55 66 71 55 66 71 55 66 71 55 66 71 55 66 71 55 66 71 55 66 57 41 52 57 41 52 57 41 52 57 41 52 57 41 52 57 41 52 57 41 52 57 41 52 70 49 64 70 49 64 70 49 64 70 49 64 70 49 64 70 49 64 70 49 64 70 49 64 69 48 63 69 48 63 69 48 63 69 48 63 69 48 63 69 48 63 69 48 63 67 49 63 75 61 76 72 60 74 70 58 72 67 55 69 63 51 65 60 48 62 58 46 60 56 44 58 52 40 54 52 40 54 52 40 54 52 40 54 52 40 54 52 40 54 52 40 54 49 41 56 47 46 60 42 45 60 40 43 58 37 40 55 33 36 51 30 33 48 28 31 46 26 29 44 26 29 44 26 29 44
54 69 102 54 69 102 54 69 102 54 69 102 54 69 100 47 58 90 47 58 88 47 58 88 47 58 88 47 58 88 47 58 88 47 58 88 47 58 88 55 66 96 55 66 96 55 66 96 55 66 96 55 66 96 55 66 96 55 66 96 56 65 96 58 63 93 59 62 93 59 62 93 59 62 93 59 62 93 59 62 93 59 62 93 59 62 93 58 61 92 58 61 92 58 61 92 58 61 92 58 61 92 58 61 92 58 61 92 58 62 91 61 61 85 61 62 83 61 62 83 61 62 83 61 62 83 61 62 83 61 62 83 61 62 83 60 61 82 60 61 82 60 61 82 60 61 82 60 61 82 60 61 82 60 61 82 60 61 81 62 60 81 62 61 79 62 61 79 62 61 79 62 61 79 62 61 79 62 61 79 62 61 79 77 76 94 77 76 94 77 76 94 77 76 94 77 76 94 77 76 94 77 76 94 79 75 92 64 53 70 68 54 71 70 56 73 73 59 76 77 63 80 80 66 83 82 68 85 84 70 87 75 61 78 75 61 78 75 61 78 75 61 78 75 61 78 75 61 78 75 61 78 77 60 78 71 50 67 72 49 67 72 49 67 72 49 67 72 49 67 72 49 67 72 49 67 72 49 67 69 46 64 69 46 64 69 46 64 69 46 64 69 46 64 69 46 64 69 46 64 69 46 64 72 49 67 72 49 67 72 49 67 72 49 67 72 49 67 72 49 67 72 49 67 72 49 67 75 52 70 75 52 70 75 52 70 75 52 70 75 52 70 75 52 70 75 52 70 75 52 70 76 53 69 76 53 69 76 53 69 76 53 69 76 53 69 76 53 69 76 53 69 76 53 69 78 55 71 78 55 71 78 55 71 78 55 71 78 55 71 78 55 71 78 55 71 78 55 71 90 67 85 90 67 85 90 67 85 90 67 85 90 67 85 90 67 85 90 67 85 90 67 85 94 71 89 94 71 89 94 71 89 94 71 89 94 71 89 94 71 89 94 71 89 94 71 87 94 73 88 94 74 86 94 74 86 94 74 86 94 74 86 94 74 86 94 74 86 94 74 86 74 54 66 74 54 66 74 54 66 74 54 66 74 54 66 74 54 66 74 54 66 74 54 66 63 42 57 63 42 57 63 42 57 63 42 57 63 42 57 63 42 57 63 42 57 63 42 57 60 39 54 60 39 54 60 39 54 60 39 54 60 39 54 60 39 54 60 39 54 58 40 54 54 40 55 53 41 55 53 41 55 53 41 55 53 41 55 53 41 55 53 41 55 53 41 55 56 44 58 56 44 58 56 44 58 56 44 58 56 44 58 56 44 58 56 44 58 53 45 60 48 47 61 45 48 63 45 48 63 45 48 63 45 48 63 45 48 63 45 48 63 45 48 63 26 29 44 26 29 44
51 66 99 51 66 99 51 66 99 51 66 99 51 66 97 49 60 92 49 60 90 49 60 90 49 60 90 49 60 90 49 60 90 49 60 90 49 60 90 55 66 96 55 66 96 55 66 96 55 66 96 55 66 96 55 66 96 55 66 96 56 65 96 58 63 93 59 62 93 59 62 93 59 62 93 59 62 93 59 62 93 59 62 93 59 62 93 58 61 92 58 61 92 58 61 92 58 61 92 58 61 92 58 61 92 58 61 92 58 62 91 61 61 85 61 62 83 61 62 83 61 62 83 61 62 83 61 62 83 61 62 83 61 62 83 60 61 82 60 61 82 60 61 82 60 61 82 60 61 82 60 61 82 60 61 82 60 61 81 62 60 81 62 61 79 62 61 79 62 61 79 62 61 79 62 61 79 62 61 79 62 61 79 75 74 92 75 74 92 75 74 92 75 74 92 75 74 92 75 74 92 75 74 92 77 73 90 64 53 70 68 54 71 70 56 73 73 59 76 77 63 80 80 66 83 82 68 85 84 70 87 75 61 78 75 61 78 75 61 78 75 61 78 75 61 78 75 61 78 75 61 78 77 60 78 71 50 67 72 49 67 72 49 67 72 49 67 72 49 67 72 49 67 72 49 67 72 49 67 69 46 64 69 46 64 69 46 64 69 46 64 69 46 64 69 46 64 69 46 64 69 46 64 72 49 67 72 49 67 72 49 67 72 49 67 72 49 67 72 49 67 72 49 67 72 49 67 75 52 70 75 52 70 75 52 70 75 52 70 75 52 70 75 52 70 75 52 70 75 52 70 76 53 69 76 53 69 76 53 69 76 53 69 76 53 69 76 53 69 76 53 69 76 53 69 78 55 71 78 55 71 78 55 71 78 55 71 78 55 71 78 55 71 78 55 71 78 55 71 89 64 83 91 64 83 91 64 83 91 64 83 91 64 83 91 64 83 91 64 83 91 64 83 95 68 87 95 68 87 95 68 87 95 68 87 95 68 87 95 68 87 95 68 87 93 69 85 94 70 86 94 70 84 94 70 84 94 70 84 94 70 84 94 70 84 94 70 84 94 70 84 82 58 72 82 58 72 82 58 72 82 58 72 82 58 72 82 58 72 82 58 72 81 59 72 70 49 64 70 49 64 70 49 64 70 49 64 70 49 64 70 49 64 70 49 64 70 49 64 62 41 56 62 41 56 62 41 56 62 41 56 62 41 56 62 41 56 62 41 56 60 42 56 56 42 57 55 43 57 55 43 57 55 43 57 55 43 57 55 43 57 55 43 57 55 43 57 53 41 55 53 41 55 53 41 55 53 41 55 53 41 55 53 41 55 53 41 55 50 42 57 44 43 57 41 44 59 41 44 59 41 44 59 41 44 59 41 44 59 41 44 59 41 44 59 28 31 46 28 31 46
48 63 96 48 63 96 48 63 96 48 63 96 48 63 94 51 62 94 51 62 92 51 62 92 51 62 92 51 62 92 51 62 92 51 62 92 51 62 92 55 66 96 55 66 96 55 66 96 55 66 96 55 66 96 55 66 96 55 66 96 56 65 96 58 63 93 59 62 93 59 62 93 59 62 93 59 62 93 59 62 93 59 62 93 59 62 93 58 61 92 58 61 92 58 61 92 58 61 92 58 61 92 58 61 92 58 61 92 58 62 91 61 61 85 61 62 83 61 62 83 61 62 83 61 62 83 61 62 83 61 62 83 61 62 83 60 61 82 60 61 82 60 61 82 60 61 82 60 61 82 60 61 82 60 61 82 60 61 81 62 60 81 62 61 79 62 61 79 62 61 79 62 61 79 62 61 79 62 61 79 62 61 79 73 72 90 73 72 90 73 72 90 73 72 90 73 72 90 73 72 90 73 72 90 75 71 88 64 53 70 68 54 71 70 56 73 73 59 76 77 63 80 80 66 83 82 68 85 84 70 87 75 61 78 75 61 78 75 61 78 75 61 78 75 61 78 75 61 78 75 61 78 77 60 78 71 50 67 72 49 67 72 49 67 72 49 67 72 49 67 72 49 67 72 49 67 72 49 67 69 46 64 69 46 64 69 46 64 69 46 64 69 46 64 69 46 64 69 46 64 69 46 64 72 49 67 72 49 67 72 49 67 72 49 67 72 49 67 72 49 67 72 49 67 72 49 67 75 52 70 75 52 70 75 52 70 75 52 70 75 52 70 75 52 70 75 52 70 75 52 70 76 53 69 76 53 69 76 53 69 76 53 69 76 53 69 76 53 69 76 53 69 76 53 69 78 55 71 78 55 71 78 55 71 78 55 71 78 55 71 78 55 71 78 55 71 79 55 71 89 62 81 90 61 81 90 61 81 90 61 81 90 61 81 90 61 81 90 61 81 90 61 81 94 65 85 94 65 85 94 65 85 94 65 85 94 65 85 94 65 85 94 65 85 94 65 83 95 66 84 94 67 82 94 67 82 94 67 82 94 67 82 94 67 82 94 67 82 94 67 82 92 65 80 92 65 80 92 65 80 92 65 80 92 65 80 92 65 80 92 65 80 90 66 80 81 58 74 80 59 74 80 59 74 80 59 74 80 59 74 80 59 74 80 59 74 80 59 74 67 46 61 67 46 61 67 46 61 67 46 61 67 46 61 67 46 61 67 46 61 65 47 61 61 47 62 60 48 62 60 48 62 60 48 62 60 48 62 60 48 62 60 48 62 60 48 62 50 38 52 50 38 52 50 38 52 50 38 52 50 38 52 50 38 52 50 38 52 47 39 54 38 37 51 35 38 53 35 38 53 35 38 53 35 38 53 35 38 53 35 38 53 35 38 53 30 33 48 30 33 48
49 64 97 49 64 97 49 64 97 49 64 97 49 64 95 54 65 97 54 65 95 54 65 95 54 65 95 54 65 95 54 65 95 54 65 95 54 65 95 55 66 96 55 66 96 55 66 96 55 66 96 55 66 96 55 66 96 55 66 96 56 65 96 58 63 93 59 62 93 59 62 93 59 62 93 59 62 93 59 62 93 59 62 93 59 62 93 58 61 92 58 61 92 58 61 92 58 61 92 58 61 92 58 61 92 58 61 92 58 62 91 61 61 85 61 62 83 61 62 83 61 62 83 61 62 83 61 62 83 61 62 83 61 62 83 60 61 82 60 61 82 60 61 82 60 61 82 60 61 82 60 61 82 60 61 82 60 61 81 62 60 81 62 61 79 62 61 79 62 61 79 62 61 79 62 61 79 62 61 79 62 61 79 70 69 87 70 69 87 70 69 87 70 69 87 70 69 87 70 69 87 70 69 87 72 68 85 64 53 70 68 54 71 70 56 73 73 59 76 77 63 80 80 66 83 82 68 85 84 70 87 75 61 78 75 61 78 75 61 78 75 61 78 75 61 78 75 61 78 75 61 78 77 60 78 71 50 67 72 49 67 72 49 67 72 49 67 72 49 67 72 49 67 72 49 67 72 49 67 69 46 64 69 46 64 69 46 64 69 46 64 69 46 64 69 46 64 69 46 64 69 46 64 72 49 67 72 49 67 72 49 67 72 49 67 72 49 67 72 49 67 72 49 67 72 49 67 75 52 70 75 52 70 75 52 70 75 52 70 75 52 70 75 52 70 75 52 70 75 52 70 76 53 69 76 53 69 76 53 69 76 53 69 76 53 69 76 53 69 76 53 69 76 53 69 78 55 71 78 55 71 78 55 71 78 55 71 78 55 71 78 55 71 78 55 71 79 55 71 87 58 78 89 57 78 90 57 78 89 57 78 90 57 78 89 57 78 90 57 78 89 57 78 94 61 82 93 61 82 94 61 82 93 61 82 94 61 82 93 61 82 94 61 82 93 62 80 94 63 81 92 64 79 94 63 79 92 64 79 94 63 79 92 64 79 94 63 79 92 64 79 101 70 86 99 71 86 101 70 86 99 71 86 101 70 86 99 71 86 101 70 86 98 71 86 90 67 83 89 68 83 89 68 83 89 68 83 89 68 83 89 68 83 89 68 83 89 68 83 74 53 68 74 53 68 74 53 68 74 53 68 74 53 68 74 53 68 74 53 68 72 54 68 68 54 69 67 55 69 67 55 69 67 55 69 67 55 69 67 55 69 67 55 69 67 55 69 51 39 53 51 39 53 51 39 53 51 39 53 51 39 53 51 39 53 51 39 53 48 40 55 36 35 49 33 36 51 33 36 51 33 36 51 33 36 51 33 36 51 33 36 51 33 36 51 33 36 51 33 36 51
56 71 104 56 71 104 56 71 104 56 71 104 56 71 102 58 69 101 58 69 99 58 69 99 58 69 99 58 69 99 58 69 99 58 69 99 58 69 99 55 66 96 55 66 96 55 66 96 55 66 96 55 66 96 55 66 96 55 66 96 56 65 96 58 63 93 59 62 93 59 62 93 59 62 93 59 62 93 59 62 93 59 62 93 59 62 93 58 61 92 58 61 92 58 61 92 58 61 92 58 61 92 58 61 92 58 61 92 58 62 91 61 61 85 61 62 83 61 62 83 61 62 83 61 62 83 61 62 83 61 62 83 61 62 83 60 61 82 60 61 82 60 61 82 60 61 82 60 61 82 60 61 82 60 61 82 60 61 81 62 60 81 62 61 79 62 61 79 62 61 79 62 61 79 62 61 79 62 61 79 62 61 79 66 65 83 66 65 83 66 65 83 66 65 83 66 65 83 66 65 83 66 65 83 68 64 81 64 53 70 68 54 71 70 56 73 73 59 76 77 63 80 80 66 83 82 68 85 84 70 87 75 61 78 75 61 78 75 61 78 75 61 78 75 61 78 75 61 78 75 61 78 77 60 78 71 50 67 72 49 67 72 49 67 72 49 67 72 49 67 72 49 67 72 49 67 72 49 67 69 46 64 69 46 64 69 46 64 69 46 64 69 46 64 69 46 64 69 46 64 69 46 64 72 49 67 72 49 67 72 49 67 72 49 67 72 49 67 72 49 67 72 49 67 72 49 67 75 52 70 75 52 70 75 52 70 75 52 70 75 52 70 75 52 70 75 52 70 75 52 70 76 53 69 76 53 69 76 53 69 76 53 69 76 53 69 76 53 69 76 53 69 76 53 69 78 55 71 78 55 71 78 55 71 78 55 71 78 55 71 78 55 71 78 55 71 79 55 71 85 53 74 86 53 74 87 52 74 86 53 74 87 52 74 86 53 74 87 52 74 86 53 74 91 56 78 90 57 78 91 56 78 90 57 78 91 56 78 90 57 78 91 56 78 90 57 76 91 58 77 90 59 75 91 58 75 90 59 75 91 58 75 90 59 75 91 58 75 90 59 75 102 69 86 101 70 86 102 69 86 101 70 86 102 69 86 101 70 86 102 69 86 99 71 86 93 70 86 92 71 86 92 71 86 92 71 86 92 71 86 92 71 86 92 71 86 92 71 86 80 59 74 80 59 74 80 59 74 80 59 74 80 59 74 80 59 74 80 59 74 78 60 74 74 60 75 73 61 75 73 61 75 73 61 75 73 61 75 73 61 75 73 61 75 73 61 75 58 46 60 58 46 60 58 46 60 58 46 60 58 46 60 58 46 60 58 46 60 55 47 62 39 38 52 36 39 54 36 39 54 36 39 54 36 39 54 36 39 54 36 39 54 36 39 54 37 40 55 37 40 55
68 83 116 68 83 116 68 83 116 68 83 116 68 83 114 61 72 104 61 72 102 61 72 102 61 72 102 61 72 102 61 72 102 61 72 102 61 72 102 55 66 96 55 66 96 55 66 96 55 66 96 55 66 96 55 66 96 55 66 96 56 65 96 58 63 93 59 62 93 59 62 93 59 62 93 59 62 93 59 62 93 59 62 93 59 62 93 58 61 92 58 61 92 58 61 92 58 61 92 58 61 92 58 61 92 58 61 92 58 62 91 61 61 85 61 62 83 61 62 83 61 62 83 61 62 83 61 62 83 61 62 83 61 62 83 60 61 82 60 61 82 60 61 82 60 61 82 60 61 82 60 61 82 60 61 82 60 61 81 62 60 81 62 61 79 62 61 79 62 61 79 62 61 79 62 61 79 62 61 79 62 61 79 63 62 80 63 62 80 63 62 80 63 62 80 63 62 80 63 62 80 63 62 80 65 61 78 64 53 70 68 54 71 70 56 73 73 59 76 77 63 80 80 66 83 82 68 85 84 70 87 75 61 78 75 61 78 75 61 78 75 61 78 75 61 78 75 61 78 75 61 78 77 60 78 71 50 67 72 49 67 72 49 67 72 49 67 72 49 67 72 49 67 72 49 67 72 49 67 69 46 64 69 46 64 69 46 64 69 46 64 69 46 64 69 46 64 69 46 64 69 46 64 72 49 67 72 49 67 72 49 67 72 49 67 72 49 67 72 49 67 72 49 67 72 49 67 75 52 70 75 52 70 75 52 70 75 52 70 75 52 70 75 52 70 75 52 70 75 52 70 76 53 69 76 53 69 76 53 69 76 53 69 76 53 69 76 53 69 76 53 69 76 53 69 78 55 71 78 55 71 78 55 71 78 55 71 78 55 71 78 55 71 78 55 71 81 54 71 83 50 71 84 49 71 86 48 71 84 49 71 86 48 71 84 49 71 86 48 71 84 49 71 90 52 75 88 53 75 90 52 75 88 53 75 90 52 75 88 53 75 90 52 75 88 53 73 89 54 74 88 55 72 89 55 72 88 55 72 89 55 72 88 55 72 89 55 72 88 55 72 97 63 80 96 63 80 97 63 80 96 63 80 97 63 80 96 63 80 97 63 80 95 64 80 92 68 84 90 69 84 90 69 84 90 69 84 90 69 84 90 69 84 90 69 84 90 69 84 87 66 81 87 66 81 87 66 81 87 66 81 87 66 81 87 66 81 87 66 81 85 67 81 81 67 82 80 68 82 80 68 82 80 68 82 80 68 82 80 68 82 80 68 82 80 68 82 70 58 72 70 58 72 70 58 72 70 58 72 70 58 72 70 58 72 70 58 72 67 59 74 48 47 61 45 48 63 45 48 63 45 48 63 45 48 63 45 48 63 45 48 63 45 48 63 40 43 58 40 43 58
81 96 129 81 96 129 81 96 129 81 96 129 81 96 127 63 74 106 63 74 104 63 74 104 63 74 104 63 74 104 63 74 104 63 74 104 63 74 104 55 66 96 55 66 96 55 66 96 55 66 96 55 66 96 55 66 96 55 66 96 56 65 96 58 63 93 59 62 93 59 62 93 59 62 93 59 62 93 59 62 93 59 62 93 59 62 93 58 61 92 58 61 92 58 61 92 58 61 92 58 61 92 58 61 92 58 61 92 58 62 91 61 61 85 61 62 83 61 62 83 61 62 83 61 62 83 61 62 83 61 62 83 61 62 83 60 61 82 60 61 82 60 61 82 60 61 82 60 61 82 60 61 82 60 61 82 60 61 81 62 60 81 62 61 79 62 61 79 62 61 79 62 61 79 62 61 79 62 61 79 62 61 79 61 60 78 61 60 78 61 60 78 61 60 78 61 60 78 61 60 78 61 60 78 63 59 76 64 53 70 68 54 71 70 56 73 73 59 76 77 63 80 80 66 83 82 68 85 84 70 87 75 61 78 75 61 78 75 61 78 75 61 78 75 61 78 75 61 78 75 61 78 77 60 78 71 50 67 72 49 67 72 49 67 72 49 67 72 49 67 72 49 67 72 49 67 72 49 67 69 46 64 69 46 64 69 46 64 69 46 64 69 46 64 69 46 64 69 46 64 69 46 64 72 49 67 72 49 67 72 49 67 72 49 67 72 49 67 72 49 67 72 49 67 72 49 67 75 52 70 75 52 70 75 52 70 75 52 70 75 52 70 75 52 70 75 52 70 75 52 70 76 53 69 76 53 69 76 53 69 76 53 69 76 53 69 76 53 69 76 53 69 76 53 69 78 55 71 78 55 71 78 55 71 78 55 71 78 55 71 78 55 71 78 55 71 81 54 71 82 47 69 84 46 69 85 45 69 84 46 69 85 45 69 84 46 69 85 45 69 84 46 69 89 49 73 88 50 73 89 49 73 88 50 73 89 49 73 88 50 73 89 49 73 88 50 71 89 51 72 87 53 70 89 52 70 87 53 70 89 52 70 87 53 70 89 52 70 87 53 70 91 54 72 89 55 72 91 54 72 89 55 72 91 54 72 89 55 72 91 54 72 88 55 72 86 62 78 84 63 78 84 63 78 84 63 78 84 63 78 84 63 78 84 63 78 84 63 78 92 71 86 92 71 86 92 71 86 92 71 86 92 71 86 92 71 86 92 71 86 90 72 86 86 72 87 85 73 87 85 73 87 85 73 87 85 73 87 85 73 87 85 73 87 85 73 87 83 71 85 83 71 85 83 71 85 83 71 85 83 71 85 83 71 85 83 71 85 80 72 87 58 57 71 55 58 73 55 58 73 55 58 73 55 58 73 55 58 73 55 58 73 55 58 73 42 45 60 42 45 60
88 104 138 88 104 138 88 104 138 88 104 138 88 104 138 62 76 111 62 77 110 62 76 111 62 77 110 62 76 111 62 77 110 62 76 111 62 77 110 52 66 101 52 67 100 52 66 101 52 67 100 52 66 101 52 67 100 52 66 101 53 66 100 54 65 97 55 64 95 55 64 97 55 64 95 55 64 97 55 64 95 55 64 97 55 64 95 54 63 96 54 63 94 54 63 96 54 63 94 54 63 96 54 63 94 54 63 96 56 62 94 57 62 91 57 63 89 58 62 89 57 63 89 58 62 89 57 63 89 58 62 89 57 63 89 57 61 88 56 62 88 57 61 88 56 62 88 57 61 88 56 62 88 57 61 88 57 61 86 57 61 86 57 62 84 59 61 84 57 62 84 59 61 84 57 62 84 59 61 84 57 62 84 56 58 81 54 59 81 56 58 81 54 59 81 56 58 81 54 59 81 56 58 81 57 58 79 59 54 76 63 55 76 66 57 78 68 60 81 73 64 85 75 67 88 78 69 90 79 71 92 71 62 83 70 62 83 71 62 83 70 62 83 71 62 83 70 62 83 71 62 83 73 61 83 68 50 72 71 49 70 71 49 72 71 49 70 71 49 72 71 49 70 71 49 72 71 49 70 68 46 69 68 46 67 68 46 69 68 46 67 68 46 69 68 46 67 68 46 69 68 46 67 72 48 70 72 48 70 72 48 70 72 48 70 72 48 70 72 48 70 72 48 70 72 48 70 75 51 73 75 51 73 75 51 73 75 51 73 75 51 73 75 51 73 75 51 73 75 51 73 76 53 73 76 53 73 76 53 73 76 53 73 76 53 73 76 53 73 76 53 73 76 53 73 78 55 75 78 55 75 78 55 75 78 55 75 78 55 75 78 55 75 78 55 75 81 53 75 80 45 69 83 43 69 83 43 69 83 43 69 83 43 69 83 43 69 83 43 69 83 43 69 87 47 73 87 47 73 87 47 73 87 47 73 87 47 73 87 47 73 87 47 73 87 47 71 87 49 70 87 49 70 87 49 70 87 49 70 87 49 70 87 49 70 87 49 70 87 49 70 85 47 68 85 47 68 85 47 68 85 47 68 85 47 68 85 47 68 85 47 68 82 49 68 82 58 74 80 59 74 81 58 76 80 59 74 81 58 76 80 59 74 81 58 76 80 59 74 95 72 90 94 73 88 95 72 90 94 73 88 95 72 90 94 73 88 95 72 90 94 73 88 91 73 89 90 74 87 90 73 89 90 74 87 90 73 89 90 74 87 90 73 89 90 74 87 94 77 93 94 78 91 94 77 93 94 78 91 94 77 93 94 78 91 94 77 93 91 79 93 69 62 78 66 64 78 67 63 78 66 64 78 67 63 78 66 64 78 67 63 78 66 64 78 49 45 60 48 46 60
89 112 146 93 116 150 98 121 155 101 124 158 103 125 162 84 106 147 84 106 147 84 105 148 84 106 147 84 105 148 84 106 147 84 105 148 84 106 147 60 81 124 60 82 123 60 81 124 60 82 123 60 81 124 60 82 123 60 81 124 60 82 121 61 81 118 61 80 113 59 77 113 55 74 107 52 70 106 49 68 101 46 64 100 45 64 97 53 71 107 53 72 105 53 71 107 53 72 105 53 71 107 53 72 105 53 71 107 53 72 105 46 60 95 46 60 95 47 60 95 46 60 95 47 60 95 46 60 95 47 60 95 46 60 95 52 65 100 51 65 100 52 65 100 51 65 100 52 65 100 51 65 100 52 65 100 52 65 99 50 63 97 50 63 95 52 63 95 50 63 95 52 63 95 50 63 95 52 63 95 50 63 95 49 60 92 47 60 92 49 60 92 47 60 92 49 60 92 47 60 92 49 60 92 49 60 90 52 57 87 52 57 86 53 57 86 52 57 86 53 57 86 52 57 86 53 57 86 52 57 86 54 58 87 53 58 87 54 58 87 53 58 87 54 58 87 53 58 87 54 58 87 57 57 85 65 52 82 69 50 80 69 50 82 69 50 80 69 50 82 69 50 80 69 50 82 69 50 80 68 49 81 68 49 79 68 49 81 68 49 79 68 49 81 68 49 79 68 49 81 69 48 79 72 48 80 72 48 80 72 48 80 72 48 80 72 48 80 72 48 80 72 48 80 72 48 80 75 51 83 75 51 83 75 51 83 75 51 83 75 51 83 75 51 83 75 51 83 76 51 81 76 51 80 77 51 78 77 51 78 77 51 78 77 51 78 77 51 78 77 51 78 77 51 78 77 51 78 77 51 78 77 51 78 77 51 78 77 51 78 77 51 78 77 51 78 79 50 78 88 52 80 90 51 78 90 51 78 90 51 78 90 51 78 90 51 78 90 51 78 90 51 78 91 52 79 91 52 79 91 52 79 91 52 79 91 52 79 91 52 79 91 52 79 91 52 79 92 52 78 92 52 78 92 52 78 92 52 78 92 52 78 92 52 78 92 52 78 92 52 78 90 50 76 90 50 76 90 50 76 90 50 76 90 50 76 90 50 76 90 50 76 87 52 76 81 53 75 78 55 73 79 54 75 78 55 73 79 54 75 78 55 73 79 54 75 78 55 73 79 54 75 78 55 73 79 54 75 78 55 73 79 54 75 78 55 73 79 54 75 79 54 73 81 57 73 81 57 71 81 57 73 81 57 71 81 57 73 81 57 71 81 57 73 81 57 71 93 69 85 93 69 83 93 69 85 93 69 83 93 69 85 93 69 83 93 69 85 92 69 85 91 73 89 90 73 91 91 72 91 90 73 91 91 72 91 90 73 91 91 72 91 90 73 91 97 78 97 96 79 97
84 108 142 88 112 148 91 115 149 94 118 154 96 120 158 82 107 148 82 106 150 82 106 152 82 106 150 82 106 152 82 106 150 82 106 152 82 106 150 65 89 135 65 89 133 65 89 135 65 89 133 65 89 135 65 89 133 65 89 135 65 90 131 61 85 123 60 84 120 57 81 117 54 78 114 51 75 111 47 71 107 45 69 105 44 68 104 46 70 106 46 70 106 46 70 106 46 70 106 46 70 106 46 70 106 46 70 106 47 69 106 44 63 103 45 63 103 45 63 103 45 63 103 45 63 103 45 63 103 45 63 103 45 63 103 48 66 106 48 66 106 48 66 106 48 66 106 48 66 106 48 66 106 48 66 106 48 66 104 48 63 102 48 64 100 48 64 100 48 64 100 48 64 100 48 64 100 48 64 100 48 64 100 45 61 97 45 61 97 45 61 97 45 61 97 45 61 97 45 61 97 45 61 97 46 60 95 46 59 93 48 59 91 48 59 91 48 59 91 48 59 91 48 59 91 48 59 91 48 59 91 49 60 92 49 60 92 49 60 92 49 60 92 49 60 92 49 60 92 49 60 92 53 58 90 62 52 87 66 50 86 67 50 86 66 50 86 67 50 86 66 50 86 67 50 86 66 50 86 66 49 85 65 49 85 66 49 85 65 49 85 66 49 85 65 49 85 66 49 85 66 49 85 70 48 84 70 48 84 72 48 84 70 48 84 72 48 84 70 48 84 72 48 84 70 48 84 75 51 87 73 51 87 75 51 87 73 51 87 75 51 87 73 51 87 75 51 87 75 51 85 76 51 83 76 51 81 77 50 81 76 51 81 77 50 81 76 51 81 77 50 81 76 51 81 77 50 81 76 51 81 77 50 81 76 51 81 77 50 81 76 51 81 77 50 81 79 50 80 87 52 82 88 52 80 90 51 80 88 52 80 90 51 80 88 52 80 90 51 80 88 52 80 91 52 81 89 53 81 91 52 81 89 53 81 91 52 81 89 53 81 91 52 81 91 52 81 91 52 79 91 52 79 92 52 79 91 52 79 92 52 79 91 52 79 92 52 79 91 52 79 90 50 77 89 50 77 90 50 77 89 50 77 90 50 77 89 50 77 90 50 77 87 51 77 82 53 75 79 54 75 79 54 75 79 54 75 79 54 75 79 54 75 79 54 75 79 54 75 79 54 75 79 54 75 79 54 75 79 54 75 79 54 75 79 54 75 79 54 75 79 54 73 84 55 73 84 56 71 84 56 71 84 56 71 84 56 71 84 56 71 84 56 71 84 56 71 94 66 81 94 66 81 94 66 81 94 66 81 94 66 81 94 66 81 94 66 81 93 66 81 95 68 87 93 68 87 93 68 87 93 68 87 93 68 87 93 68 87 93 68 87 93 68 87 99 74 93 99 74 93
79 104 135 81 105 139 84 109 140 86 110 144 87 111 147 82 107 147 82 107 148 82 106 150 82 107 148 82 106 150 82 107 148 82 106 150 82 107 148 75 99 143 75 100 141 75 99 143 75 100 141 75 99 143 75 100 141 75 99 143 75 100 141 66 90 128 65 89 125 62 86 122 59 83 119 55 79 115 52 76 112 50 74 110 49 73 109 43 67 103 43 67 103 43 67 103 43 67 103 43 67 103 43 67 103 43 67 103 44 66 103 46 65 105 47 65 105 47 65 105 47 65 105 47 65 105 47 65 105 47 65 105 47 65 105 48 66 106 48 66 106 48 66 106 48 66 106 48 66 106 48 66 106 48 66 106 48 66 104 48 63 102 48 64 100 48 64 100 48 64 100 48 64 100 48 64 100 48 64 100 48 64 100 45 61 97 45 61 97 45 61 97 45 61 97 45 61 97 45 61 97 45 61 97 46 60 95 46 59 93 48 59 91 48 59 91 48 59 91 48 59 91 48 59 91 48 59 91 48 59 91 49 60 92 49 60 92 49 60 92 49 60 92 49 60 92 49 60 92 49 60 92 53 58 90 60 53 87 65 51 86 66 50 86 65 51 86 66 50 86 65 51 86 66 50 86 65 51 86 65 49 85 64 50 85 65 49 85 64 50 85 65 49 85 64 50 85 65 49 85 65 49 85 69 49 84 69 49 84 70 48 84 69 49 84 70 48 84 69 49 84 70 48 84 69 49 84 73 51 87 72 52 87 73 51 87 72 52 87 73 51 87 72 52 87 73 51 87 73 52 85 75 51 83 75 52 81 76 51 81 75 52 81 76 51 81 75 52 81 76 51 81 75 52 81 76 51 81 75 52 81 76 51 81 75 52 81 76 51 81 75 52 81 76 51 81 77 51 80 86 53 82 87 53 80 88 52 80 87 53 80 88 52 80 87 53 80 88 52 80 87 53 80 89 53 81 88 54 81 89 53 81 88 54 81 89 53 81 88 54 81 89 53 81 89 53 81 89 53 79 89 53 79 91 52 79 89 53 79 91 52 79 89 53 79 91 52 79 89 53 79 89 50 77 87 51 77 89 50 77 87 51 77 89 50 77 87 51 77 89 50 77 86 52 77 81 53 75 79 54 75 79 54 75 79 54 75 79 54 75 79 54 75 79 54 75 79 54 75 79 54 75 79 54 75 79 54 75 79 54 75 79 54 75 79 54 75 79 54 75 79 54 73 84 55 73 84 56 71 84 56 71 84 56 71 84 56 71 84 56 71 84 56 71 84 56 71 92 64 79 92 64 79 92 64 79 92 64 79 92 64 79 92 64 79 92 64 79 91 64 79 93 66 85 91 66 85 91 66 85 91 66 85 91 66 85 91 66 85 91 66 85 91 66 85 94 69 88 94 69 88
77 102 132 78 103 134 79 104 134 80 105 136 80 104 138 82 108 145 82 107 147 82 107 148 82 107 147 82 107 148 82 107 147 82 107 148 82 107 147 84 109 150 84 109 149 84 109 150 84 109 149 84 109 150 84 109 149 84 109 150 84 109 149 72 96 134 71 95 131 68 92 128 65 89 125 62 86 122 59 83 119 56 80 116 55 79 115 44 68 104 44 68 104 44 68 104 44 68 104 44 68 104 44 68 104 44 68 104 45 67 104 49 68 108 50 68 108 50 68 108 50 68 108 50 68 108 50 68 108 50 68 108 50 68 108 48 66 106 48 66 106 48 66 106 48 66 106 48 66 106 48 66 106 48 66 106 48 66 104 48 63 102 48 64 100 48 64 100 48 64 100 48 64 100 48 64 100 48 64 100 48 64 100 45 61 97 45 61 97 45 61 97 45 61 97 45 61 97 45 61 97 45 61 97 46 60 95 46 59 93 48 59 91 48 59 91 48 59 91 48 59 91 48 59 91 48 59 91 48 59 91 49 60 92 49 60 92 49 60 92 49 60 92 49 60 92 49 60 92 49 60 92 53 58 90 60 53 87 63 52 86 65 51 86 63 52 86 65 51 86 63 52 86 65 51 86 63 52 86 64 50 85 62 51 85 64 50 85 62 51 85 64 50 85 62 51 85 64 50 85 64 50 85 67 50 84 67 50 84 69 49 84 67 50 84 69 49 84 67 50 84 69 49 84 67 50 84 72 52 87 70 53 87 72 52 87 70 53 87 72 52 87 70 53 87 72 52 87 72 53 85 73 52 83 73 53 81 75 52 81 73 53 81 75 52 81 73 53 81 75 52 81 73 53 81 75 52 81 73 53 81 75 52 81 73 53 81 75 52 81 73 53 81 75 52 81 76 51 80 84 54 82 86 53 80 87 53 80 86 53 80 87 53 80 86 53 80 87 53 80 86 53 80 88 54 81 87 54 81 88 54 81 87 54 81 88 54 81 87 54 81 88 54 81 88 54 81 88 54 79 88 54 79 89 53 79 88 54 79 89 53 79 88 54 79 89 53 79 88 54 79 87 51 77 86 52 77 87 51 77 86 52 77 87 51 77 86 52 77 87 51 77 85 53 77 81 53 75 79 54 75 79 54 75 79 54 75 79 54 75 79 54 75 79 54 75 79 54 75 79 54 75 79 54 75 79 54 75 79 54 75 79 54 75 79 54 75 79 54 75 79 54 73 84 55 73 84 56 71 84 56 71 84 56 71 84 56 71 84 56 71 84 56 71 84 56 71 89 61 76 89 61 76 89 61 76 89 61 76 89 61 76 89 61 76 89 61 76 88 61 76 90 63 82 88 63 82 88 63 82 88 63 82 88 63 82 88 63 82 88 63 82 88 63 82 87 62 81 87 62 81
82 108 135 81 106 136 80 106 133 79 104 134 79 104 135 82 108 143 82 108 145 82 107 147 82 108 145 82 107 147 82 108 145 82 107 147 82 108 145 87 112 152 87 113 150 87 112 152 87 113 150 87 112 152 87 113 150 87 112 152 87 113 150 79 103 139 78 102 138 75 99 135 72 96 132 69 93 129 66 90 126 63 87 123 62 86 122 51 75 111 51 75 111 51 75 111 51 75 111 51 75 111 51 75 111 51 75 111 52 74 111 53 72 112 54 72 112 54 72 112 54 72 112 54 72 112 54 72 112 54 72 112 54 72 112 48 66 106 48 66 106 48 66 106 48 66 106 48 66 106 48 66 106 48 66 106 48 66 104 48 63 102 48 64 100 48 64 100 48 64 100 48 64 100 48 64 100 48 64 100 48 64 100 45 61 97 45 61 97 45 61 97 45 61 97 45 61 97 45 61 97 45 61 97 46 60 95 46 59 93 48 59 91 48 59 91 48 59 91 48 59 91 48 59 91 48 59 91 48 59 91 49 60 92 49 60 92 49 60 92 49 60 92 49 60 92 49 60 92 49 60 92 53 58 90 59 53 87 62 52 86 63 52 86 62 52 86 63 52 86 62 52 86 63 52 86 62 52 86 62 51 85 61 51 85 62 51 85 61 51 85 62 51 85 61 51 85 62 51 85 62 51 85 66 51 84 66 51 84 67 50 84 66 51 84 67 50 84 66 51 84 67 50 84 66 51 84 70 53 87 69 54 87 70 53 87 69 54 87 70 53 87 69 54 87 70 53 87 70 53 85 72 53 83 72 53 81 73 53 81 72 53 81 73 53 81 72 53 81 73 53 81 72 53 81 73 53 81 72 53 81 73 53 81 72 53 81 73 53 81 72 53 81 73 53 81 75 52 80 83 54 82 84 54 80 86 53 80 84 54 80 86 53 80 84 54 80 86 53 80 84 54 80 87 54 81 85 55 81 87 54 81 85 55 81 87 54 81 85 55 81 87 54 81 87 54 81 87 55 79 87 55 79 88 54 79 87 55 79 88 54 79 87 55 79 88 54 79 87 55 79 86 52 77 85 53 77 86 52 77 85 53 77 86 52 77 85 53 77 86 52 77 85 53 77 81 53 75 79 54 75 79 54 75 79 54 75 79 54 75 79 54 75 79 54 75 79 54 75 79 54 75 79 54 75 79 54 75 79 54 75 79 54 75 79 54 75 79 54 75 79 54 73 84 55 73 84 56 71 84 56 71 84 56 71 84 56 71 84 56 71 84 56 71 84 56 71 85 57 72 85 57 72 85 57 72 85 57 72 85 57 72 85 57 72 85 57 72 84 57 72 86 59 78 84 59 78 84 59 78 84 59 78 84 59 78 84 59 78 84 59 78 84 59 78 81 56 75 81 56 75
91 117 142 89 115 140 86 112 137 84 110 135 83 109 136 82 108 141 82 108 143 82 108 143 82 108 143 82 108 143 82 108 143 82 108 143 82 108 143 85 111 146 85 111 146 85 111 146 85 111 146 85 111 146 85 111 146 85 111 146 85 111 146 85 109 145 84 108 144 82 106 142 79 103 139 75 99 135 72 96 132 69 93 129 68 92 128 63 87 123 63 87 123 63 87 123 63 87 123 63 87 123 63 87 123 63 87 123 64 86 123 56 75 115 57 75 115 57 75 115 57 75 115 57 75 115 57 75 115 57 75 115 57 75 115 48 66 106 48 66 106 48 66 106 48 66 106 48 66 106 48 66 106 48 66 106 48 66 104 48 63 102 48 64 100 48 64 100 48 64 100 48 64 100 48 64 100 48 64 100 48 64 100 45 61 97 45 61 97 45 61 97 45 61 97 45 61 97 45 61 97 45 61 97 46 60 95 46 59 93 48 59 91 48 59 91 48 59 91 48 59 91 48 59 91 48 59 91 48 59 91 49 60 92 49 60 92 49 60 92 49 60 92 49 60 92 49 60 92 49 60 92 52 58 90 58 54 87 60 53 86 60 53 86 60 53 86 60 53 86 60 53 86 60 53 86 60 53 86 59 52 85 59 52 85 59 52 85 59 52 85 59 52 85 59 52 85 59 52 85 61 51 85 65 51 84 65 51 84 65 51 84 65 51 84 65 51 84 65 51 84 65 51 84 65 51 84 68 54 87 68 54 87 68 54 87 68 54 87 68 54 87 68 54 87 68 54 87 69 54 85 70 54 83 70 54 81 70 54 81 70 54 81 70 54 81 70 54 81 70 54 81 70 54 81 70 54 81 70 54 81 70 54 81 70 54 81 70 54 81 70 54 81 70 54 81 73 53 80 81 55 82 83 55 80 83 55 80 83 55 80 83 55 80 83 55 80 83 55 80 83 55 80 84 56 81 84 56 81 84 56 81 84 56 81 84 56 81 84 56 81 84 56 81 84 56 81 85 55 79 85 55 79 85 55 79 85 55 79 85 55 79 85 55 79 85 55 79 85 55 79 83 53 77 83 53 77 83 53 77 83 53 77 83 53 77 83 53 77 83 53 77 83 53 77 81 53 75 79 54 75 79 54 75 79 54 75 79 54 75 79 54 75 79 54 75 79 54 75 79 54 75 79 54 75 79 54 75 79 54 75 79 54 75 79 54 75 79 54 75 79 54 73 84 55 73 84 56 71 84 56 71 84 56 71 84 56 71 84 56 71 84 56 71 84 56 71 82 54 69 82 54 69 82 54 69 82 54 69 82 54 69 82 54 69 82 54 69 81 54 69 83 56 75 81 56 75 81 56 75 81 56 75 81 56 75 81 56 75 81 56 75 81 56 75 74 49 68 74 49 68
102 128 151 98 124 147 95 121 144 92 118 141 90 116 141 82 109 139 82 108 141 82 108 141 82 108 141 82 108 141 82 108 141 82 108 141 82 108 141 79 105 138 79 105 138 79 105 138 79 105 138 79 105 138 79 105 138 79 105 138 79 105 138 90 114 150 89 113 149 87 111 147 83 107 143 80 104 140 77 101 137 74 98 134 73 97 133 76 100 136 76 100 136 76 100 136 76 100 136 76 100 136 76 100 136 76 100 136 77 99 136 58 77 117 59 77 117 59 77 117 59 77 117 59 77 117 59 77 117 59 77 117 59 77 117 48 66 106 48 66 106 48 66 106 48 66 106 48 66 106 48 66 106 48 66 106 48 66 104 48 63 102 48 64 100 48 64 100 48 64 100 48 64 100 48 64 100 48 64 100 48 64 100 45 61 97 45 61 97 45 61 97 45 61 97 45 61 97 45 61 97 45 61 97 46 60 95 46 59 93 48 59 91 48 59 91 48 59 91 48 59 91 48 59 91 48 59 91 48 59 91 49 60 92 49 60 92 49 60 92 49 60 92 49 60 92 49 60 92 49 60 92 52 58 90 56 55 87 59 54 86 59 54 86 59 54 86 59 54 86 59 54 86 59 54 86 59 54 86 58 53 85 58 53 85 58 53 85 58 53 85 58 53 85 58 53 85 58 53 85 58 53 85 62 53 84 63 52 84 63 52 84 63 52 84 63 52 84 63 52 84 63 52 84 63 52 84 66 55 87 66 55 87 66 55 87 66 55 87 66 55 87 66 55 87 66 55 87 66 55 85 68 55 83 69 55 81 69 55 81 69 55 81 69 55 81 69 55 81 69 55 81 69 55 81 69 55 81 69 55 81 69 55 81 69 55 81 69 55 81 69 55 81 69 55 81 70 54 80 79 56 82 81 55 80 81 55 80 81 55 80 81 55 80 81 55 80 81 55 80 81 55 80 82 56 81 82 56 81 82 56 81 82 56 81 82 56 81 82 56 81 82 56 81 82 56 81 84 56 79 84 56 79 84 56 79 84 56 79 84 56 79 84 56 79 84 56 79 84 56 79 82 54 77 82 54 77 82 54 77 82 54 77 82 54 77 82 54 77 82 54 77 82 54 77 79 54 75 79 54 75 79 54 75 79 54 75 79 54 75 79 54 75 79 54 75 79 54 75 79 54 75 79 54 75 79 54 75 79 54 75 79 54 75 79 54 75 79 54 75 79 54 73 84 55 73 84 56 71 84 56 71 84 56 71 84 56 71 84 56 71 84 56 71 84 56 71 80 52 67 80 52 67 80 52 67 80 52 67 80 52 67 80 52 67 80 52 67 79 52 67 81 54 73 79 54 73 79 54 73 79 54 73 79 54 73 79 54 73 79 54 73 79 54 73 69 44 63 69 44 63
110 137 156 105 132 151 101 128 147 97 124 143 95 122 143 82 109 136 82 109 138 82 109 138 82 109 138 82 109 138 82 109 138 82 109 138 82 109 138 75 102 131 75 102 131 75 102 131 75 102 131 75 102 131 75 102 131 75 102 131 75 102 132 93 117 151 92 116 152 89 113 149 86 110 146 83 107 143 79 103 139 77 101 137 76 100 136 84 108 144 84 108 144 84 108 144 84 108 144 84 108 144 84 108 144 84 108 144 85 107 144 60 79 119 61 79 119 61 79 119 61 79 119 61 79 119 61 79 119 61 79 119 61 79 119 48 66 106 48 66 106 48 66 106 48 66 106 48 66 106 48 66 106 48 66 106 48 66 104 48 63 102 48 64 100 48 64 100 48 64 100 48 64 100 48 64 100 48 64 100 48 64 100 45 61 97 45 61 97 45 61 97 45 61 97 45 61 97 45 61 97 45 61 97 46 60 95 46 59 93 48 59 91 48 59 91 48 59 91 48 59 91 48 59 91 48 59 91 48 59 91 49 60 92 49 60 92 49 60 92 49 60 92 49 60 92 49 60 92 49 60 92 50 59 90 55 56 87 56 55 86 56 55 86 56 55 86 56 55 86 56 55 86 56 55 86 56 55 86 55 54 85 55 54 85 55 54 85 55 54 85 55 54 85 55 54 85 55 54 85 57 54 85 59 54 84 60 53 84 60 53 84 60 53 84 60 53 84 60 53 84 60 53 84 60 53 84 63 56 87 63 56 87 63 56 87 63 56 87 63 56 87 63 56 87 63 56 87 63 57 85 66 56 83 66 56 81 66 56 81 66 56 81 66 56 81 66 56 81 66 56 81 66 56 81 66 56 81 66 56 81 66 56 81 66 56 81 66 56 81 66 56 81 66 56 81 68 56 80 77 57 82 79 57 80 79 57 80 79 57 80 79 57 80 79 57 80 79 57 80 79 57 80 80 58 81 80 58 81 80 58 81 80 58 81 80 58 81 80 58 81 80 58 81 80 58 81 81 57 79 81 57 79 81 57 79 81 57 79 81 57 79 81 57 79 81 57 79 81 57 79 79 55 77 79 55 77 79 55 77 79 55 77 79 55 77 79 55 77 79 55 77 79 55 77 79 54 75 79 54 75 79 54 75 79 54 75 79 54 75 79 54 75 79 54 75 79 54 75 79 54 75 79 54 75 79 54 75 79 54 75 79 54 75 79 54 75 79 54 75 79 54 73 84 55 73 84 56 71 84 56 71 84 56 71 84 56 71 84 56 71 84 56 71 84 56 71 78 50 65 78 50 65 78 50 65 78 50 65 78 50 65 78 50 65 78 50 65 77 50 65 79 52 71 77 52 71 77 52 71 77 52 71 77 52 71 77 52 71 77 52 71 77 52 71 67 42 61 67 42 61
