P3
172 37
255
122 113 116 125 116 119 127 118 121 129 120 123 123 114 117 122 113 116 120 111 114 116 107 110 113 104 107 110 101 104 107 98 101 107 96 100 98 85 92 100 85 92 100 85 92 100 85 92 100 85 92 100 85 92 100 85 92 100 85 92 108 93 100 108 93 100 108 93 100 108 93 100 108 93 100 108 93 100 108 93 100 106 93 100 118 109 112 115 111 112 116 110 112 115 111 112 116 110 112 115 111 112 116 110 112 115 111 112 126 120 122 125 121 122 126 120 122 125 121 122 126 120 122 125 121 122 126 120 122 125 121 120 136 130 130 135 131 128 136 131 128 135 131 128 136 131 128 135 131 128 136 131 128 135 131 128 129 124 121 127 123 120 125 120 117 121 117 114 119 114 111 114 110 107 113 108 105 112 107 104 96 84 86 94 82 84 94 79 82 89 77 79 87 72 75 82 70 72 82 67 70 78 66 68 87 72 75 85 73 75 87 72 75 85 73 75 87 72 75 85 73 75 87 72 75 85 73 75 91 76 81 89 77 81 91 76 81 89 77 81 91 76 81 89 77 81 91 76 81 89 77 81 79 64 69 77 65 69 79 64 69 77 65 69 79 64 69 77 65 69 79 64 69 77 65 69 62 50 54 61 50 54 62 50 54 61 50 54 62 50 54 61 50 54 62 50 54 61 50 54 48 36 40 46 35 39 44 32 36 40 29 33 38 26 30 33 22 26 32 20 24 27 21 23 15 21 21 10 22 20 7 19 17 4 16 14 1 13 11 0 9 7 0 7 5 0 6 4 8 20 18 8 20 18 8 20 18 8 20 18 8 20 18 8 20 18 8 20 18 5 22 16 0 23 15 0 26 15 2 28 17 5 31 20 9 35 24 12 38 27 14 40 29 16 42 31 23 49 38 34 60 49 51 77 66 70 96 85 84 110 99 91 117 106 92 118 107 92 118 107 92 116 103 82 104 92 65 87 75 46 68 56 32 54 42 25 47 35 24 46 34 24 46 34 27 49 37 27 49 37 27 49 37 27 49 37 27 49 37 27 49 37 27 49 37 27 49 37 24 45 36 24 45 36 24 45 36 24 45 36 24 45 36 24 45 36 24 45 36 24 45 36 29 50 41 29 50 41 29 50 41 29 50 41 29 50 41 29 50 41 29 50 41 29 50 41
120 114 118 123 117 119 125 119 123 127 121 123 120 114 118 119 113 115 116 110 114 113 107 109 110 104 108 106 100 102 104 98 102 103 97 101 95 84 90 96 83 90 96 83 90 96 83 90 96 83 90 96 83 90 96 83 90 96 83 90 104 91 98 104 91 98 104 91 98 104 91 98 104 91 98 104 91 98 104 91 98 102 93 98 113 111 114 111 113 112 111 112 114 111 113 112 111 112 114 111 113 112 111 112 114 111 113 112 121 122 124 121 123 122 121 122 124 121 123 122 121 122 124 121 123 122 121 122 124 121 123 122 133 135 132 133 135 130 133 135 130 133 135 130 133 135 130 133 135 130 133 135 130 133 135 130 125 127 122 124 126 121 122 124 119 118 120 115 115 117 112 112 114 109 109 111 106 110 109 107 96 84 86 97 80 86 95 78 84 92 75 81 88 71 77 85 68 74 83 66 72 81 64 70 88 71 77 88 71 77 88 71 77 88 71 77 88 71 77 88 71 77 88 71 77 87 72 77 91 76 83 89 76 83 91 76 83 89 76 83 91 76 83 89 76 83 91 76 83 89 76 83 77 62 69 75 62 69 77 62 69 75 62 69 77 62 69 75 62 69 77 62 69 75 62 69 59 48 54 59 48 54 59 48 54 59 48 54 59 48 54 59 48 54 59 48 54 59 48 54 44 33 39 43 32 38 41 30 36 37 26 32 34 23 29 31 20 26 28 17 23 23 18 22 13 17 18 9 18 17 7 15 17 3 12 11 0 8 10 0 6 5 0 2 4 0 3 2 10 18 20 10 19 18 10 18 20 10 19 18 10 18 20 10 19 18 10 18 20 6 21 18 0 24 15 0 29 15 0 31 17 0 34 20 4 38 24 7 41 27 9 43 29 11 45 31 18 52 38 29 63 49 46 80 66 65 99 85 79 113 99 86 120 106 87 121 107 89 119 107 92 116 103 82 104 92 65 87 75 46 68 56 32 54 42 25 47 35 24 46 34 24 46 34 27 49 37 27 49 37 27 49 37 27 49 37 27 49 37 27 49 37 27 49 37 27 49 37 24 45 36 24 45 36 24 45 36 24 45 36 24 45 36 24 45 36 24 45 36 24 45 36 29 50 41 29 50 41 29 50 41 29 50 41 29 50 41 29 50 41 29 50 41 29 50 41
121 108 117 122 109 116 123 110 119 124 111 118 117 104 113 114 101 108 110 97 106 103 90 97 96 83 92 90 77 84 85 72 81 84 68 78 82 62 73 83 63 74 85 65 76 89 69 80 92 72 83 95 75 86 98 78 89 99 79 90 92 72 83 94 74 85 96 76 87 99 79 90 103 83 94 106 86 97 108 88 99 108 91 101 112 96 106 111 98 105 113 100 109 117 104 111 120 107 116 123 110 117 126 113 122 127 114 121 143 130 139 143 130 137 143 130 139 143 130 137 143 130 139 143 130 137 143 130 139 143 130 137 144 132 134 144 132 134 144 132 134 144 132 134 144 132 134 144 132 134 144 132 134 144 132 134 137 125 127 135 123 125 133 121 123 130 118 120 126 114 116 123 111 113 121 109 111 119 107 109 99 84 91 97 82 89 95 80 87 92 77 84 88 73 80 85 70 77 83 68 75 81 66 73 88 73 80 88 73 80 88 73 80 88 73 80 88 73 80 88 73 80 88 73 80 86 73 82 86 76 85 84 77 85 86 76 85 84 77 85 86 76 85 84 77 85 86 76 85 84 77 85 77 67 76 74 67 75 73 63 72 68 61 69 67 57 66 61 54 62 61 51 60 58 51 59 43 41 46 42 41 46 42 41 46 42 41 46 42 41 46 42 41 46 42 41 46 42 41 46 23 22 27 21 20 25 19 18 23 16 15 20 12 11 16 9 8 13 7 6 11 4 5 9 0 4 7 0 4 7 0 4 8 0 4 7 0 4 8 0 4 7 0 4 8 0 4 7 0 3 7 0 5 8 2 7 11 5 10 13 9 14 18 12 17 20 14 19 23 14 22 24 14 26 22 14 29 24 16 31 26 19 34 29 23 38 33 26 41 36 28 43 38 30 45 40 49 64 59 51 66 61 56 71 66 63 78 73 69 84 79 76 91 86 81 96 91 85 98 91 89 99 91 81 88 81 66 73 66 51 58 51 40 47 40 36 43 36 37 44 37 39 46 39 36 43 36 36 43 36 36 43 36 36 43 36 36 43 36 36 43 36 36 43 36 36 43 36 34 40 36 34 40 38 34 40 38 34 40 38 34 40 38 34 40 38 34 40 38 34 40 38 33 39 37 33 39 37 33 39 37 33 39 37 33 39 37 33 39 37 33 39 37 33 39 37
121 104 114 122 105 115 122 105 115 122 105 115 115 98 108 112 95 105 107 90 100 101 84 94 94 77 87 88 71 81 83 66 76 82 62 73 80 58 70 82 58 71 85 61 74 88 64 77 91 67 80 95 71 84 97 73 86 98 74 87 94 70 83 96 72 85 98 74 87 101 77 90 105 81 94 108 84 97 110 86 99 112 88 101 117 95 107 118 96 108 121 99 111 124 102 114 127 105 117 131 109 121 133 111 123 134 112 124 149 127 139 149 127 139 149 127 139 149 127 139 149 127 139 149 127 139 149 127 139 149 128 137 150 129 136 150 129 134 150 129 134 150 129 134 150 129 134 150 129 134 150 129 134 150 129 134 143 122 127 141 120 125 139 118 123 136 115 120 132 111 116 129 108 113 127 106 111 124 105 111 100 83 91 97 81 91 95 79 89 92 76 86 88 72 82 85 69 79 83 67 77 81 65 75 86 70 80 86 70 80 86 70 80 86 70 80 86 70 80 86 70 80 86 70 80 84 71 80 82 74 85 81 75 85 81 75 85 81 75 85 81 75 85 81 75 85 81 75 85 81 75 85 71 65 75 70 64 74 68 62 72 64 58 68 61 55 65 58 52 62 55 49 59 52 49 58 39 40 45 37 40 45 37 40 45 37 40 45 37 40 45 37 40 45 37 40 45 37 40 45 20 23 28 18 21 26 16 19 24 13 16 21 9 12 17 6 9 14 4 7 12 2 5 10 0 3 8 0 3 8 0 3 8 0 3 8 0 3 8 0 3 8 0 3 8 0 3 8 0 2 7 1 4 9 3 6 11 6 9 14 10 13 18 13 16 21 15 18 23 17 21 24 18 24 24 20 26 24 22 28 26 25 31 29 29 35 33 32 38 36 34 40 38 36 42 40 55 61 59 57 63 61 62 68 66 69 75 73 75 81 79 82 88 86 87 93 91 90 95 91 94 96 93 85 86 81 70 71 66 55 56 51 44 45 40 40 41 36 41 42 37 43 44 39 40 41 36 40 41 36 40 41 36 40 41 36 40 41 36 40 41 36 40 41 36 40 41 36 38 38 38 38 38 38 38 38 38 38 38 38 38 38 38 38 38 38 38 38 38 38 38 38 37 37 37 37 37 37 37 37 37 37 37 37 37 37 37 37 37 37 37 37 37 37 37 37
115 98 108 115 98 108 114 97 107 114 97 107 105 88 98 102 85 95 97 80 90 91 74 84 84 67 77 78 61 71 73 56 66 72 52 63 75 53 65 77 53 66 80 56 69 83 59 72 87 63 76 90 66 79 92 68 81 93 69 82 94 70 83 96 72 85 98 74 87 101 77 90 105 81 94 108 84 97 110 86 99 112 88 101 119 97 109 121 99 111 123 101 113 126 104 116 130 108 120 133 111 123 135 113 125 137 115 127 149 127 139 149 127 139 149 127 139 149 127 139 149 127 139 149 127 139 149 127 139 149 128 137 150 129 136 150 129 134 150 129 134 150 129 134 150 129 134 150 129 134 150 129 134 150 129 134 143 122 127 141 120 125 139 118 123 136 115 120 132 111 116 129 108 113 127 106 111 124 105 111 100 83 91 97 81 91 95 79 89 92 76 86 88 72 82 85 69 79 83 67 77 81 65 75 84 68 78 84 68 78 84 68 78 84 68 78 84 68 78 84 68 78 84 68 78 82 69 78 77 69 80 76 70 80 76 70 80 76 70 80 76 70 80 76 70 80 76 70 80 76 70 80 66 60 70 65 59 69 63 57 67 60 54 64 56 50 60 53 47 57 50 44 54 47 44 53 34 35 40 32 35 40 32 35 40 32 35 40 32 35 40 32 35 40 32 35 40 32 35 40 20 23 28 18 21 26 16 19 24 13 16 21 9 12 17 6 9 14 4 7 12 2 5 10 0 3 8 0 3 8 0 3 8 0 3 8 0 3 8 0 3 8 0 3 8 0 3 8 0 2 7 1 4 9 3 6 11 6 9 14 10 13 18 13 16 21 15 18 23 17 21 24 18 24 24 20 26 24 22 28 26 25 31 29 29 35 33 32 38 36 34 40 38 36 42 40 55 61 59 57 63 61 62 68 66 69 75 73 75 81 79 82 88 86 87 93 91 90 95 91 94 96 93 85 86 81 70 71 66 55 56 51 44 45 40 40 41 36 41 42 37 43 44 39 40 41 36 40 41 36 40 41 36 40 41 36 40 41 36 40 41 36 40 41 36 40 41 36 38 38 38 38 38 38 38 38 38 38 38 38 38 38 38 38 38 38 38 38 38 38 38 38 37 37 37 37 37 37 37 37 37 37 37 37 37 37 37 37 37 37 37 37 37 37 37 37
108 91 101 106 89 99 104 87 97 103 86 96 92 75 85 90 73 83 85 68 78 78 61 71 71 54 64 65 48 58 60 43 53 60 40 51 69 47 59 71 47 60 74 50 63 77 53 66 80 56 69 83 59 72 86 62 75 87 63 76 94 70 83 96 72 85 98 74 87 101 77 90 105 81 94 108 84 97 110 86 99 112 88 101 123 101 113 124 102 114 126 104 116 130 108 120 133 111 123 136 114 126 139 117 129 140 118 130 149 127 139 149 127 139 149 127 139 149 127 139 149 127 139 149 127 139 149 127 139 149 128 137 150 129 136 150 129 134 150 129 134 150 129 134 150 129 134 150 129 134 150 129 134 150 129 134 143 122 127 141 120 125 139 118 123 136 115 120 132 111 116 129 108 113 127 106 111 124 105 111 100 83 91 97 81 91 95 79 89 92 76 86 88 72 82 85 69 79 83 67 77 81 65 75 81 65 75 81 65 75 81 65 75 81 65 75 81 65 75 81 65 75 81 65 75 79 66 75 70 62 73 69 63 73 69 63 73 69 63 73 69 63 73 69 63 73 69 63 73 69 63 73 60 54 64 59 53 63 56 50 60 53 47 57 50 44 54 47 41 51 44 38 48 41 38 47 27 28 33 25 28 33 25 28 33 25 28 33 25 28 33 25 28 33 25 28 33 25 28 33 20 23 28 18 21 26 16 19 24 13 16 21 9 12 17 6 9 14 4 7 12 2 5 10 0 3 8 0 3 8 0 3 8 0 3 8 0 3 8 0 3 8 0 3 8 0 3 8 0 2 7 1 4 9 3 6 11 6 9 14 10 13 18 13 16 21 15 18 23 17 21 24 18 24 24 20 26 24 22 28 26 25 31 29 29 35 33 32 38 36 34 40 38 36 42 40 55 61 59 57 63 61 62 68 66 69 75 73 75 81 79 82 88 86 87 93 91 90 95 91 94 96 93 85 86 81 70 71 66 55 56 51 44 45 40 40 41 36 41 42 37 43 44 39 40 41 36 40 41 36 40 41 36 40 41 36 40 41 36 40 41 36 40 41 36 40 41 36 38 38 38 38 38 38 38 38 38 38 38 38 38 38 38 38 38 38 38 38 38 38 38 38 37 37 37 37 37 37 37 37 37 37 37 37 37 37 37 37 37 37 37 37 37 37 37 37
100 83 93 96 79 89 93 76 86 92 75 85 78 61 71 76 59 69 71 54 64 65 48 58 58 41 51 51 34 44 46 29 39 46 26 37 62 40 52 64 40 53 67 43 56 70 46 59 73 49 62 76 52 65 79 55 68 80 56 69 94 70 83 96 72 85 98 74 87 101 77 90 105 81 94 108 84 97 110 86 99 112 88 101 126 104 116 127 105 117 130 108 120 133 111 123 136 114 126 140 118 130 142 120 132 143 121 133 149 127 139 149 127 139 149 127 139 149 127 139 149 127 139 149 127 139 149 127 139 149 128 137 150 129 136 150 129 134 150 129 134 150 129 134 150 129 134 150 129 134 150 129 134 150 129 134 143 122 127 141 120 125 139 118 123 136 115 120 132 111 116 129 108 113 127 106 111 124 105 111 100 83 91 97 81 91 95 79 89 92 76 86 88 72 82 85 69 79 83 67 77 81 65 75 77 61 71 77 61 71 77 61 71 77 61 71 77 61 71 77 61 71 77 61 71 75 62 71 64 56 67 63 57 67 63 57 67 63 57 67 63 57 67 63 57 67 63 57 67 63 57 67 53 47 57 52 46 56 49 43 53 46 40 50 43 37 47 40 34 44 37 31 41 34 31 40 21 22 27 19 22 27 19 22 27 19 22 27 19 22 27 19 22 27 19 22 27 19 22 27 20 23 28 18 21 26 16 19 24 13 16 21 9 12 17 6 9 14 4 7 12 2 5 10 0 3 8 0 3 8 0 3 8 0 3 8 0 3 8 0 3 8 0 3 8 0 3 8 0 2 7 1 4 9 3 6 11 6 9 14 10 13 18 13 16 21 15 18 23 17 21 24 18 24 24 20 26 24 22 28 26 25 31 29 29 35 33 32 38 36 34 40 38 36 42 40 55 61 59 57 63 61 62 68 66 69 75 73 75 81 79 82 88 86 87 93 91 90 95 91 94 96 93 85 86 81 70 71 66 55 56 51 44 45 40 40 41 36 41 42 37 43 44 39 40 41 36 40 41 36 40 41 36 40 41 36 40 41 36 40 41 36 40 41 36 40 41 36 38 38 38 38 38 38 38 38 38 38 38 38 38 38 38 38 38 38 38 38 38 38 38 38 37 37 37 37 37 37 37 37 37 37 37 37 37 37 37 37 37 37 37 37 37 37 37 37
93 76 86 87 70 80 83 66 76 81 64 74 66 49 59 63 46 56 58 41 51 52 35 45 45 28 38 39 22 32 34 17 27 33 13 24 56 34 46 58 34 47 60 36 49 63 39 52 67 43 56 70 46 59 73 49 62 74 50 63 94 70 83 96 72 85 98 74 87 101 77 90 105 81 94 108 84 97 110 86 99 112 88 101 129 107 119 131 109 121 133 111 123 136 114 126 140 118 130 143 121 133 145 123 135 147 125 137 149 127 139 149 127 139 149 127 139 149 127 139 149 127 139 149 127 139 149 127 139 149 128 137 150 129 136 150 129 134 150 129 134 150 129 134 150 129 134 150 129 134 150 129 134 150 129 134 143 122 127 141 120 125 139 118 123 136 115 120 132 111 116 129 108 113 127 106 111 124 105 111 100 83 91 97 81 91 95 79 89 92 76 86 88 72 82 85 69 79 83 67 77 81 65 75 74 58 68 74 58 68 74 58 68 74 58 68 74 58 68 74 58 68 74 58 68 72 59 68 57 49 60 56 50 60 56 50 60 56 50 60 56 50 60 56 50 60 56 50 60 56 50 60 47 41 51 46 40 50 43 37 47 40 34 44 36 30 40 33 27 37 31 25 35 28 25 34 14 15 20 12 15 20 12 15 20 12 15 20 12 15 20 12 15 20 12 15 20 12 15 20 20 23 28 18 21 26 16 19 24 13 16 21 9 12 17 6 9 14 4 7 12 2 5 10 0 3 8 0 3 8 0 3 8 0 3 8 0 3 8 0 3 8 0 3 8 0 3 8 0 2 7 1 4 9 3 6 11 6 9 14 10 13 18 13 16 21 15 18 23 17 21 24 18 24 24 20 26 24 22 28 26 25 31 29 29 35 33 32 38 36 34 40 38 36 42 40 55 61 59 57 63 61 62 68 66 69 75 73 75 81 79 82 88 86 87 93 91 90 95 91 94 96 93 85 86 81 70 71 66 55 56 51 44 45 40 40 41 36 41 42 37 43 44 39 40 41 36 40 41 36 40 41 36 40 41 36 40 41 36 40 41 36 40 41 36 40 41 36 38 38 38 38 38 38 38 38 38 38 38 38 38 38 38 38 38 38 38 38 38 38 38 38 37 37 37 37 37 37 37 37 37 37 37 37 37 37 37 37 37 37 37 37 37 37 37 37
88 71 81 81 64 74 75 58 68 72 55 65 56 39 49 53 36 46 48 31 41 42 25 35 35 18 28 29 12 22 24 7 17 23 3 14 51 29 41 53 29 42 55 31 44 59 35 48 62 38 51 65 41 54 68 44 57 69 45 58 94 70 83 96 72 85 98 74 87 101 77 90 105 81 94 108 84 97 110 86 99 112 88 101 132 110 122 133 111 123 135 113 125 139 117 129 142 120 132 145 123 135 148 126 138 149 127 139 149 127 139 149 127 139 149 127 139 149 127 139 149 127 139 149 127 139 149 127 139 149 128 137 150 129 136 150 129 134 150 129 134 150 129 134 150 129 134 150 129 134 150 129 134 150 129 134 143 122 127 141 120 125 139 118 123 136 115 120 132 111 116 129 108 113 127 106 111 124 105 111 100 83 91 97 81 91 95 79 89 92 76 86 88 72 82 85 69 79 83 67 77 81 65 75 72 56 66 72 56 66 72 56 66 72 56 66 72 56 66 72 56 66 72 56 66 70 57 66 52 44 55 51 45 55 51 45 55 51 45 55 51 45 55 51 45 55 51 45 55 51 45 55 42 36 46 41 35 45 38 32 42 35 29 39 32 26 36 28 22 32 26 20 30 23 20 29 9 10 15 7 10 15 7 10 15 7 10 15 7 10 15 7 10 15 7 10 15 7 10 15 20 23 28 18 21 26 16 19 24 13 16 21 9 12 17 6 9 14 4 7 12 2 5 10 0 3 8 0 3 8 0 3 8 0 3 8 0 3 8 0 3 8 0 3 8 0 3 8 0 2 7 1 4 9 3 6 11 6 9 14 10 13 18 13 16 21 15 18 23 17 21 24 18 24 24 20 26 24 22 28 26 25 31 29 29 35 33 32 38 36 34 40 38 36 42 40 55 61 59 57 63 61 62 68 66 69 75 73 75 81 79 82 88 86 87 93 91 90 95 91 94 96 93 85 86 81 70 71 66 55 56 51 44 45 40 40 41 36 41 42 37 43 44 39 40 41 36 40 41 36 40 41 36 40 41 36 40 41 36 40 41 36 40 41 36 40 41 36 38 38 38 38 38 38 38 38 38 38 38 38 38 38 38 38 38 38 38 38 38 38 38 38 37 37 37 37 37 37 37 37 37 37 37 37 37 37 37 37 37 37 37 37 37 37 37 37
85 68 78 77 60 70 71 54 64 68 51 61 51 34 44 48 31 41 43 26 36 37 20 30 30 13 23 23 6 16 19 2 12 18 0 9 48 26 38 50 26 39 53 29 42 56 32 45 59 35 48 63 39 52 65 41 54 66 42 55 94 70 83 96 72 85 98 74 87 101 77 90 105 81 94 108 84 97 110 86 99 112 88 101 133 111 123 134 112 124 137 115 127 140 118 130 143 121 133 147 125 137 149 127 139 150 128 140 149 127 139 149 127 139 149 127 139 149 127 139 149 127 139 149 127 139 149 127 139 149 128 137 150 129 136 150 129 134 150 129 134 150 129 134 150 129 134 150 129 134 150 129 134 150 129 134 143 122 127 141 120 125 139 118 123 136 115 120 132 111 116 129 108 113 127 106 111 124 105 111 100 83 91 97 81 91 95 79 89 92 76 86 88 72 82 85 69 79 83 67 77 81 65 75 70 54 64 70 54 64 70 54 64 70 54 64 70 54 64 70 54 64 70 54 64 68 55 64 50 42 53 49 43 53 49 43 53 49 43 53 49 43 53 49 43 53 49 43 53 49 43 53 39 33 43 38 32 42 36 30 40 32 26 36 29 23 33 26 20 30 23 17 27 20 17 26 7 8 13 5 8 13 5 8 13 5 8 13 5 8 13 5 8 13 5 8 13 5 8 13 20 23 28 18 21 26 16 19 24 13 16 21 9 12 17 6 9 14 4 7 12 2 5 10 0 3 8 0 3 8 0 3 8 0 3 8 0 3 8 0 3 8 0 3 8 0 3 8 0 2 7 1 4 9 3 6 11 6 9 14 10 13 18 13 16 21 15 18 23 17 21 24 18 24 24 20 26 24 22 28 26 25 31 29 29 35 33 32 38 36 34 40 38 36 42 40 55 61 59 57 63 61 62 68 66 69 75 73 75 81 79 82 88 86 87 93 91 90 95 91 94 96 93 85 86 81 70 71 66 55 56 51 44 45 40 40 41 36 41 42 37 43 44 39 40 41 36 40 41 36 40 41 36 40 41 36 40 41 36 40 41 36 40 41 36 40 41 36 38 38 38 38 38 38 38 38 38 38 38 38 38 38 38 38 38 38 38 38 38 38 38 38 37 37 37 37 37 37 37 37 37 37 37 37 37 37 37 37 37 37 37 37 37 37 37 37
54 37 47 45 28 38 38 21 31 34 17 27 41 24 34 38 21 31 34 17 27 28 11 21 22 5 15 17 0 10 12 0 5 13 0 4 26 4 16 31 7 20 39 15 28 48 24 37 58 34 47 68 44 57 75 51 64 79 55 68 102 78 91 105 81 94 111 87 100 118 94 107 126 102 115 134 110 123 140 116 129 143 119 132 145 123 135 145 123 135 145 123 135 145 123 135 145 123 135 145 123 135 145 123 135 145 123 135 148 126 138 148 126 138 148 126 138 148 126 138 148 126 138 148 126 138 148 126 138 148 127 136 154 133 140 154 133 138 154 133 138 154 133 138 154 133 138 154 133 138 154 133 138 154 133 138 140 119 124 138 117 122 136 115 120 133 112 117 129 108 113 126 105 110 124 103 108 121 102 108 96 79 87 94 78 88 93 77 87 91 75 85 89 73 83 87 71 81 85 69 79 84 68 78 72 56 66 71 55 65 68 52 62 65 49 59 62 46 56 58 42 52 56 40 50 53 40 49 42 34 45 40 34 44 38 32 42 34 28 38 31 25 35 28 22 32 25 19 29 24 18 28 17 11 21 17 11 21 17 11 21 17 11 21 17 11 21 17 11 21 17 11 21 15 12 21 9 10 15 7 10 15 7 10 15 7 10 15 7 10 15 7 10 15 7 10 15 7 10 15 17 20 25 15 18 23 13 16 21 10 13 18 6 9 14 3 6 11 1 4 9 0 2 7 1 4 9 1 4 9 1 4 9 1 4 9 1 4 9 1 4 9 1 4 9 1 4 9 11 14 19 11 14 19 11 14 19 11 14 19 11 14 19 11 14 19 11 14 19 11 15 18 24 30 30 26 32 30 28 34 32 31 37 35 35 41 39 38 44 42 40 46 44 42 48 46 60 66 64 61 67 65 64 70 68 67 73 71 70 76 74 74 80 78 76 82 80 78 83 79 68 70 67 67 68 63 62 63 58 55 56 51 49 50 45 42 43 38 37 38 33 35 36 31 33 34 29 33 34 29 33 34 29 33 34 29 33 34 29 33 34 29 33 34 29 33 34 29 33 33 33 33 33 33 33 33 33 33 33 33 33 33 33 33 33 33 33 33 33 33 33 33 36 36 36 36 36 36 36 36 36 36 36 36 36 36 36 36 36 36 36 36 36 36 36 36
53 36 46 44 27 37 36 19 29 32 15 25 34 17 27 32 15 25 29 12 22 25 8 18 20 3 13 16 0 9 12 0 5 13 0 4 32 10 22 37 13 26 44 20 33 53 29 42 64 40 53 73 49 62 81 57 70 85 61 74 105 81 94 108 84 97 113 89 102 120 96 109 127 103 116 134 110 123 140 116 129 143 119 132 145 123 135 145 123 135 145 123 135 145 123 135 145 123 135 145 123 135 145 123 135 145 123 135 148 126 138 148 126 138 148 126 138 148 126 138 148 126 138 148 126 138 148 126 138 148 127 136 152 131 138 152 131 136 152 131 136 152 131 136 152 131 136 152 131 136 152 131 136 152 131 136 140 119 124 138 117 122 136 115 120 133 112 117 129 108 113 126 105 110 124 103 108 121 102 108 96 79 87 94 78 88 92 76 86 90 74 84 87 71 81 84 68 78 82 66 76 81 65 75 69 53 63 68 52 62 66 50 60 62 46 56 59 43 53 56 40 50 53 37 47 50 37 46 41 33 44 39 33 43 36 30 40 33 27 37 30 24 34 26 20 30 24 18 28 23 17 27 17 11 21 17 11 21 17 11 21 17 11 21 17 11 21 17 11 21 17 11 21 15 12 21 11 12 17 9 12 17 9 12 17 9 12 17 9 12 17 9 12 17 9 12 17 9 12 17 17 20 25 15 18 23 13 16 21 10 13 18 6 9 14 3 6 11 1 4 9 0 2 7 1 4 9 1 4 9 1 4 9 1 4 9 1 4 9 1 4 9 1 4 9 1 4 9 11 14 19 11 14 19 11 14 19 11 14 19 11 14 19 11 14 19 11 14 19 11 15 18 24 30 30 26 32 30 28 34 32 31 37 35 35 41 39 38 44 42 40 46 44 42 48 46 59 65 63 60 66 64 62 68 66 66 72 70 69 75 73 72 78 76 75 81 79 77 82 78 68 70 67 67 68 63 62 63 58 55 56 51 49 50 45 42 43 38 37 38 33 35 36 31 33 34 29 33 34 29 33 34 29 33 34 29 33 34 29 33 34 29 33 34 29 33 34 29 33 33 33 33 33 33 33 33 33 33 33 33 33 33 33 33 33 33 33 33 33 33 33 33 36 36 36 36 36 36 36 36 36 36 36 36 36 36 36 36 36 36 36 36 36 36 36 36
51 34 44 41 24 34 34 17 27 30 13 23 24 7 17 23 6 16 22 5 15 20 3 13 18 1 11 16 0 9 15 0 8 16 0 7 41 19 31 46 22 35 54 30 43 63 39 52 74 50 63 83 59 72 90 66 79 94 70 83 111 87 100 113 89 102 117 93 106 123 99 112 129 105 118 135 111 124 139 115 128 142 118 131 145 123 135 145 123 135 145 123 135 145 123 135 145 123 135 145 123 135 145 123 135 145 123 135 148 126 138 148 126 138 148 126 138 148 126 138 148 126 138 148 126 138 148 126 138 148 127 136 150 129 136 150 129 134 150 129 134 150 129 134 150 129 134 150 129 134 150 129 134 150 129 134 140 119 124 138 117 122 136 115 120 133 112 117 129 108 113 126 105 110 124 103 108 121 102 108 97 80 88 95 79 89 92 76 86 88 72 82 84 68 78 80 64 74 77 61 71 75 59 69 64 48 58 63 47 57 61 45 55 58 42 52 54 38 48 51 35 45 48 32 42 45 32 41 39 31 42 36 30 40 34 28 38 31 25 35 27 21 31 24 18 28 22 16 26 20 14 24 17 11 21 17 11 21 17 11 21 17 11 21 17 11 21 17 11 21 17 11 21 15 12 21 13 14 19 11 14 19 11 14 19 11 14 19 11 14 19 11 14 19 11 14 19 11 14 19 17 20 25 15 18 23 13 16 21 10 13 18 6 9 14 3 6 11 1 4 9 0 2 7 1 4 9 1 4 9 1 4 9 1 4 9 1 4 9 1 4 9 1 4 9 1 4 9 11 14 19 11 14 19 11 14 19 11 14 19 11 14 19 11 14 19 11 14 19 11 15 18 24 30 30 26 32 30 28 34 32 31 37 35 35 41 39 38 44 42 40 46 44 42 48 46 56 62 60 58 64 62 60 66 64 63 69 67 67 73 71 70 76 74 72 78 76 75 80 76 68 70 67 67 68 63 62 63 58 55 56 51 49 50 45 42 43 38 37 38 33 35 36 31 33 34 29 33 34 29 33 34 29 33 34 29 33 34 29 33 34 29 33 34 29 33 34 29 33 33 33 33 33 33 33 33 33 33 33 33 33 33 33 33 33 33 33 33 33 33 33 33 36 36 36 36 36 36 36 36 36 36 36 36 36 36 36 36 36 36 36 36 36 36 36 36
48 31 41 38 21 31 31 14 24 27 10 20 16 0 9 17 0 10 18 1 11 19 2 12 21 4 14 22 5 15 23 6 16 26 6 17 54 32 44 59 35 48 66 42 55 76 52 65 86 62 75 96 72 85 103 79 92 107 83 96 118 94 107 120 96 109 123 99 112 127 103 116 131 107 120 136 112 125 139 115 128 140 116 129 145 123 135 145 123 135 145 123 135 145 123 135 145 123 135 145 123 135 145 123 135 145 123 135 148 126 138 148 126 138 148 126 138 148 126 138 148 126 138 148 126 138 148 126 138 148 127 136 147 126 133 147 126 131 147 126 131 147 126 131 147 126 131 147 126 131 147 126 131 147 126 131 140 119 124 138 117 122 136 115 120 133 112 117 129 108 113 126 105 110 124 103 108 121 102 108 99 82 90 95 79 89 91 75 85 86 70 80 80 64 74 74 58 68 70 54 64 68 52 62 58 42 52 57 41 51 54 38 48 51 35 45 48 32 42 45 29 39 42 26 36 39 26 35 35 27 38 33 27 37 31 25 35 27 21 31 24 18 28 21 15 25 18 12 22 17 11 21 17 11 21 17 11 21 17 11 21 17 11 21 17 11 21 17 11 21 17 11 21 15 12 21 16 17 22 14 17 22 14 17 22 14 17 22 14 17 22 14 17 22 14 17 22 14 17 22 17 20 25 15 18 23 13 16 21 10 13 18 6 9 14 3 6 11 1 4 9 0 2 7 1 4 9 1 4 9 1 4 9 1 4 9 1 4 9 1 4 9 1 4 9 1 4 9 11 14 19 11 14 19 11 14 19 11 14 19 11 14 19 11 14 19 11 14 19 11 15 18 24 30 30 26 32 30 28 34 32 31 37 35 35 41 39 38 44 42 40 46 44 42 48 46 53 59 57 54 60 58 57 63 61 60 66 64 63 69 67 67 73 71 69 75 73 71 76 72 68 70 67 67 68 63 62 63 58 55 56 51 49 50 45 42 43 38 37 38 33 35 36 31 33 34 29 33 34 29 33 34 29 33 34 29 33 34 29 33 34 29 33 34 29 33 34 29 33 33 33 33 33 33 33 33 33 33 33 33 33 33 33 33 33 33 33 33 33 33 33 33 36 36 36 36 36 36 36 36 36 36 36 36 36 36 36 36 36 36 36 36 36 36 36 36
44 27 37 35 18 28 27 10 20 23 6 16 13 0 6 15 0 8 19 2 12 24 7 17 29 12 22 34 17 27 38 21 31 42 22 33 68 46 58 73 49 62 80 56 69 90 66 79 100 76 89 110 86 99 117 93 106 121 97 110 126 102 115 127 103 116 129 105 118 131 107 120 134 110 123 136 112 125 138 114 127 139 115 128 145 123 135 145 123 135 145 123 135 145 123 135 145 123 135 145 123 135 145 123 135 145 123 135 148 126 138 148 126 138 148 126 138 148 126 138 148 126 138 148 126 138 148 126 138 148 127 136 143 122 129 143 122 127 143 122 127 143 122 127 143 122 127 143 122 127 143 122 127 143 122 127 140 119 124 138 117 122 136 115 120 133 112 117 129 108 113 126 105 110 124 103 108 121 102 108 100 83 91 96 80 90 90 74 84 83 67 77 75 59 69 68 52 62 63 47 57 60 44 54 51 35 45 50 34 44 47 31 41 44 28 38 41 25 35 38 22 32 35 19 29 32 19 28 32 24 35 30 24 34 27 21 31 24 18 28 21 15 25 17 11 21 15 9 19 14 8 18 17 11 21 17 11 21 17 11 21 17 11 21 17 11 21 17 11 21 17 11 21 15 12 21 20 21 26 18 21 26 18 21 26 18 21 26 18 21 26 18 21 26 18 21 26 18 21 26 17 20 25 15 18 23 13 16 21 10 13 18 6 9 14 3 6 11 1 4 9 0 2 7 1 4 9 1 4 9 1 4 9 1 4 9 1 4 9 1 4 9 1 4 9 1 4 9 11 14 19 11 14 19 11 14 19 11 14 19 11 14 19 11 14 19 11 14 19 11 15 18 24 30 30 26 32 30 28 34 32 31 37 35 35 41 39 38 44 42 40 46 44 42 48 46 50 56 54 51 57 55 53 59 57 57 63 61 60 66 64 63 69 67 66 72 70 68 73 69 68 70 67 67 68 63 62 63 58 55 56 51 49 50 45 42 43 38 37 38 33 35 36 31 33 34 29 33 34 29 33 34 29 33 34 29 33 34 29 33 34 29 33 34 29 33 34 29 33 33 33 33 33 33 33 33 33 33 33 33 33 33 33 33 33 33 33 33 33 33 33 33 36 36 36 36 36 36 36 36 36 36 36 36 36 36 36 36 36 36 36 36 36 36 36 36
41 24 34 31 14 24 24 7 17 20 3 13 17 0 10 20 3 13 26 9 19 34 17 27 43 26 36 51 34 44 58 41 51 63 43 54 81 59 71 86 62 75 93 69 82 102 78 91 113 89 102 122 98 111 130 106 119 134 110 123 134 110 123 134 110 123 135 111 124 136 112 125 136 112 125 137 113 126 137 113 126 138 114 127 145 123 135 145 123 135 145 123 135 145 123 135 145 123 135 145 123 135 145 123 135 145 123 135 148 126 138 148 126 138 148 126 138 148 126 138 148 126 138 148 126 138 148 126 138 148 127 136 140 119 126 140 119 124 140 119 124 140 119 124 140 119 124 140 119 124 140 119 124 140 119 124 140 119 124 138 117 122 136 115 120 133 112 117 129 108 113 126 105 110 124 103 108 121 102 108 101 84 92 97 81 91 90 74 84 81 65 75 71 55 65 62 46 56 56 40 50 52 36 46 45 29 39 44 28 38 41 25 35 38 22 32 34 18 28 31 15 25 29 13 23 26 13 22 29 21 32 26 20 30 24 18 28 21 15 25 17 11 21 14 8 18 12 6 16 10 4 14 17 11 21 17 11 21 17 11 21 17 11 21 17 11 21 17 11 21 17 11 21 15 12 21 23 24 29 21 24 29 21 24 29 21 24 29 21 24 29 21 24 29 21 24 29 21 24 29 17 20 25 15 18 23 13 16 21 10 13 18 6 9 14 3 6 11 1 4 9 0 2 7 1 4 9 1 4 9 1 4 9 1 4 9 1 4 9 1 4 9 1 4 9 1 4 9 11 14 19 11 14 19 11 14 19 11 14 19 11 14 19 11 14 19 11 14 19 11 15 18 24 30 30 26 32 30 28 34 32 31 37 35 35 41 39 38 44 42 40 46 44 42 48 46 46 52 50 48 54 52 50 56 54 53 59 57 57 63 61 60 66 64 62 68 66 65 70 66 68 70 67 67 68 63 62 63 58 55 56 51 49 50 45 42 43 38 37 38 33 35 36 31 33 34 29 33 34 29 33 34 29 33 34 29 33 34 29 33 34 29 33 34 29 33 34 29 33 33 33 33 33 33 33 33 33 33 33 33 33 33 33 33 33 33 33 33 33 33 33 33 36 36 36 36 36 36 36 36 36 36 36 36 36 36 36 36 36 36 36 36 36 36 36 36
38 21 31 29 12 22 22 5 15 18 1 11 23 6 16 27 10 20 35 18 28 46 29 39 57 40 50 68 51 61 76 59 69 83 63 74 90 68 80 95 71 84 103 79 92 112 88 101 123 99 112 132 108 121 139 115 128 143 119 132 140 116 129 140 116 129 139 115 128 139 115 128 138 114 127 137 113 126 137 113 126 137 113 126 145 123 135 145 123 135 145 123 135 145 123 135 145 123 135 145 123 135 145 123 135 145 123 135 148 126 138 148 126 138 148 126 138 148 126 138 148 126 138 148 126 138 148 126 138 148 127 136 138 117 124 138 117 122 138 117 122 138 117 122 138 117 122 138 117 122 138 117 122 138 117 122 140 119 124 138 117 122 136 115 120 133 112 117 129 108 113 126 105 110 124 103 108 121 102 108 102 85 93 97 81 91 89 73 83 79 63 73 68 52 62 58 42 52 50 34 44 46 30 40 40 24 34 39 23 33 36 20 30 33 17 27 30 14 24 26 10 20 24 8 18 21 8 17 26 18 29 24 18 28 22 16 26 18 12 22 15 9 19 12 6 16 9 3 13 8 2 12 17 11 21 17 11 21 17 11 21 17 11 21 17 11 21 17 11 21 17 11 21 15 12 21 25 26 31 23 26 31 23 26 31 23 26 31 23 26 31 23 26 31 23 26 31 23 26 31 17 20 25 15 18 23 13 16 21 10 13 18 6 9 14 3 6 11 1 4 9 0 2 7 1 4 9 1 4 9 1 4 9 1 4 9 1 4 9 1 4 9 1 4 9 1 4 9 11 14 19 11 14 19 11 14 19 11 14 19 11 14 19 11 14 19 11 14 19 11 15 18 24 30 30 26 32 30 28 34 32 31 37 35 35 41 39 38 44 42 40 46 44 42 48 46 44 50 48 45 51 49 48 54 52 51 57 55 54 60 58 58 64 62 60 66 64 62 67 63 68 70 67 67 68 63 62 63 58 55 56 51 49 50 45 42 43 38 37 38 33 35 36 31 33 34 29 33 34 29 33 34 29 33 34 29 33 34 29 33 34 29 33 34 29 33 34 29 33 33 33 33 33 33 33 33 33 33 33 33 33 33 33 33 33 33 33 33 33 33 33 33 36 36 36 36 36 36 36 36 36 36 36 36 36 36 36 36 36 36 36 36 36 36 36 36
37 19 31 27 11 22 20 2 14 15 0 10 27 9 21 31 15 26 41 23 35 52 36 47 66 48 60 78 62 73 88 70 82 93 75 87 96 74 87 100 78 90 107 85 98 117 95 107 127 105 118 136 114 126 144 122 135 148 126 138 142 120 133 141 119 131 141 119 132 139 117 129 138 116 129 137 115 127 136 114 127 135 113 126 144 124 136 144 124 136 144 124 136 144 124 136 144 124 136 144 124 136 144 124 136 144 124 136 147 127 139 147 127 139 147 127 139 147 127 139 147 127 139 147 127 139 147 127 139 147 127 138 136 115 124 136 115 122 136 115 122 136 115 122 136 115 122 136 115 122 136 115 122 136 115 122 140 119 126 138 117 124 136 115 122 133 112 119 129 108 115 126 105 112 124 103 110 121 101 110 100 87 96 94 83 91 86 75 83 75 64 72 64 53 61 53 42 50 44 33 41 40 29 37 34 23 31 33 22 30 31 20 28 27 16 24 24 13 21 21 10 18 18 7 15 16 6 15 24 18 28 20 19 27 18 15 24 14 13 21 12 9 18 7 6 14 6 3 12 4 3 11 15 12 21 14 13 21 15 12 21 14 13 21 15 12 21 14 13 21 15 12 21 14 13 21 25 28 33 24 29 33 25 28 33 24 29 33 25 28 33 24 29 33 25 28 33 24 29 33 17 20 25 14 19 23 13 16 21 9 14 18 6 9 14 2 7 11 1 4 9 0 2 7 1 4 9 1 5 8 1 4 9 1 5 8 1 4 9 1 5 8 1 4 9 1 5 8 11 14 19 11 15 18 11 14 19 11 15 18 11 14 19 11 15 18 11 14 19 10 15 18 24 30 30 26 32 30 28 34 32 31 37 35 35 41 39 38 44 42 40 46 44 42 48 46 43 49 47 44 50 48 46 52 50 50 56 54 53 59 57 56 62 60 59 65 63 61 65 64 68 70 67 67 68 63 62 63 58 55 56 51 49 50 45 42 43 38 37 38 33 35 36 31 33 34 29 33 34 29 33 34 29 33 34 29 33 34 29 33 34 29 33 34 29 33 33 31 33 33 31 33 33 33 34 32 33 33 33 33 34 32 33 33 33 33 34 32 33 33 33 33 37 35 36 36 36 36 37 35 36 36 36 36 37 35 36 36 36 36 37 35 36 36 36 36
55 38 54 49 35 50 47 30 46 43 29 44 63 46 62 64 50 65 72 55 71 78 64 79 88 71 87 94 80 95 102 85 101 105 88 104 133 115 129 135 115 127 135 114 129 135 115 127 135 114 129 135 115 127 135 114 129 135 115 127 141 120 135 141 121 133 141 120 135 141 121 133 141 120 135 141 121 133 141 120 135 139 121 135 138 122 135 138 122 135 138 122 135 138 122 135 138 122 135 138 122 135 138 122 135 138 122 135 136 120 133 136 120 133 136 120 133 136 120 133 136 120 133 136 120 133 136 120 133 137 119 133 132 112 124 133 111 123 133 111 123 133 111 123 133 111 123 133 111 123 133 111 123 133 111 123 135 113 125 133 111 123 131 109 121 128 106 118 124 102 114 121 99 111 119 97 109 114 97 107 83 73 82 76 71 78 68 63 70 59 54 61 48 43 50 39 34 41 32 27 34 28 23 30 16 11 18 16 11 18 16 11 18 16 11 18 16 11 18 16 11 18 16 11 18 14 11 18 11 11 19 8 13 19 9 12 19 8 13 19 9 12 19 8 13 19 9 12 19 8 13 19 3 6 13 3 8 14 6 9 16 9 14 20 13 16 23 15 20 26 19 22 29 19 24 30 33 38 44 31 38 44 33 38 44 31 38 44 33 38 44 31 38 44 33 38 44 31 38 44 20 25 31 16 23 29 16 21 27 11 18 24 9 14 20 4 11 17 4 9 15 2 7 11 1 6 9 1 7 7 1 6 9 1 7 7 1 6 9 1 7 7 1 6 9 1 7 7 5 10 13 7 13 13 9 14 17 12 18 18 16 21 24 19 25 25 21 26 29 23 29 29 24 30 30 24 33 32 26 35 34 29 38 37 33 42 41 36 45 44 38 47 46 40 49 48 45 54 53 45 54 53 45 54 53 45 54 53 45 54 53 45 54 53 45 54 53 47 53 51 51 53 50 50 50 48 48 48 46 45 45 43 41 41 39 38 38 36 36 36 34 34 34 32 32 32 30 32 32 30 32 32 30 32 32 30 32 32 30 32 32 30 32 32 30 32 32 30 34 33 31 34 33 31 36 32 31 34 33 31 36 32 31 34 33 31 36 32 31 34 33 31 37 33 32 35 34 32 37 33 32 35 34 32 37 33 32 35 34 32 37 33 32 35 34 32
59 45 62 55 41 58 52 38 55 50 36 53 67 53 70 70 56 73 75 61 78 82 68 85 90 76 93 97 83 100 102 88 105 105 91 106 133 115 131 133 115 129 133 115 129 133 115 129 133 115 129 133 115 129 133 115 129 133 115 129 139 121 135 139 121 135 139 121 135 139 121 135 139 121 135 139 121 135 139 121 135 138 122 135 138 121 137 136 122 137 136 122 137 136 122 137 136 122 137 136 122 137 136 122 137 136 122 137 134 120 135 134 120 135 134 120 135 134 120 135 134 120 135 134 120 135 134 120 135 136 120 133 132 111 126 133 111 124 133 111 124 133 111 124 133 111 124 133 111 124 133 111 124 133 111 124 135 113 126 133 111 124 131 109 122 128 106 119 124 102 115 121 99 112 119 97 110 113 97 108 79 72 80 71 70 76 64 63 69 55 54 60 44 43 49 35 34 40 27 26 32 23 22 28 13 12 18 13 12 18 13 12 18 13 12 18 13 12 18 13 12 18 13 12 18 12 13 18 8 13 19 6 13 19 6 13 19 6 13 19 6 13 19 6 13 19 6 13 19 6 13 19 1 8 14 2 9 15 5 12 18 8 15 21 11 18 24 15 22 28 17 24 30 18 25 31 31 38 44 31 38 44 31 38 44 31 38 44 31 38 44 31 38 44 31 38 44 31 38 44 18 25 31 16 23 29 14 21 27 11 18 24 7 14 20 4 11 17 2 9 15 0 8 11 1 6 9 1 7 7 1 7 7 1 7 7 1 7 7 1 7 7 1 7 7 1 7 7 5 11 11 7 13 13 9 15 15 12 18 18 16 22 22 19 25 25 21 27 27 23 29 29 22 31 30 24 33 32 26 35 34 29 38 37 33 42 41 36 45 44 38 47 46 40 49 48 45 54 53 45 54 53 45 54 53 45 54 53 45 54 53 45 54 53 45 54 53 47 53 51 51 53 52 50 50 48 48 48 46 45 45 43 41 41 39 38 38 36 36 36 34 34 34 32 32 32 30 32 32 30 32 32 30 32 32 30 32 32 30 32 32 30 32 32 30 32 32 30 36 32 31 36 32 31 36 32 31 36 32 31 36 32 31 36 32 31 36 32 31 36 32 31 37 33 32 37 33 32 37 33 32 37 33 32 37 33 32 37 33 32 37 33 32 37 33 32
69 55 72 66 52 69 65 51 68 64 50 67 78 64 81 80 66 83 85 71 88 90 76 93 96 82 99 102 88 105 106 92 109 109 95 110 133 115 131 133 115 129 133 115 129 133 115 129 133 115 129 133 115 129 133 115 129 133 115 129 139 121 135 139 121 135 139 121 135 139 121 135 139 121 135 139 121 135 139 121 135 138 122 135 138 121 137 136 122 137 136 122 137 136 122 137 136 122 137 136 122 137 136 122 137 136 122 137 134 120 135 134 120 135 134 120 135 134 120 135 134 120 135 134 120 135 134 120 135 136 120 133 132 111 126 133 111 124 133 111 124 133 111 124 133 111 124 133 111 124 133 111 124 133 111 124 135 113 126 133 111 124 131 109 122 128 106 119 124 102 115 121 99 112 119 97 110 113 97 108 77 70 78 69 68 74 62 61 67 52 51 57 42 41 47 32 31 37 25 24 30 21 20 26 13 12 18 13 12 18 13 12 18 13 12 18 13 12 18 13 12 18 13 12 18 12 13 18 8 13 19 6 13 19 6 13 19 6 13 19 6 13 19 6 13 19 6 13 19 6 13 19 3 10 16 5 12 18 7 14 20 10 17 23 14 21 27 17 24 30 19 26 32 21 28 34 31 38 44 31 38 44 31 38 44 31 38 44 31 38 44 31 38 44 31 38 44 31 38 44 18 25 31 16 23 29 14 21 27 11 18 24 7 14 20 4 11 17 2 9 15 0 8 11 1 6 9 1 7 7 1 7 7 1 7 7 1 7 7 1 7 7 1 7 7 1 7 7 5 11 11 7 13 13 9 15 15 12 18 18 16 22 22 19 25 25 21 27 27 23 29 29 22 31 30 24 33 32 26 35 34 29 38 37 33 42 41 36 45 44 38 47 46 40 49 48 45 54 53 45 54 53 45 54 53 45 54 53 45 54 53 45 54 53 45 54 53 47 53 51 51 53 52 50 50 48 48 48 46 45 45 43 41 41 39 38 38 36 36 36 34 34 34 32 32 32 30 32 32 30 32 32 30 32 32 30 32 32 30 32 32 30 32 32 30 32 32 30 36 32 31 36 32 31 36 32 31 36 32 31 36 32 31 36 32 31 36 32 31 36 32 31 37 33 32 37 33 32 37 33 32 37 33 32 37 33 32 37 33 32 37 33 32 37 33 32
83 69 86 82 68 85 81 67 84 81 67 84 92 78 95 93 79 96 97 83 100 101 87 104 105 91 108 109 95 112 112 98 115 114 100 115 133 115 131 133 115 129 133 115 129 133 115 129 133 115 129 133 115 129 133 115 129 133 115 129 139 121 135 139 121 135 139 121 135 139 121 135 139 121 135 139 121 135 139 121 135 138 122 135 138 121 137 136 122 137 136 122 137 136 122 137 136 122 137 136 122 137 136 122 137 136 122 137 134 120 135 134 120 135 134 120 135 134 120 135 134 120 135 134 120 135 134 120 135 136 120 133 132 111 126 133 111 124 133 111 124 133 111 124 133 111 124 133 111 124 133 111 124 133 111 124 135 113 126 133 111 124 131 109 122 128 106 119 124 102 115 121 99 112 119 97 110 113 97 108 74 67 75 66 65 71 58 57 63 49 48 54 39 38 44 29 28 34 22 21 27 18 17 23 13 12 18 13 12 18 13 12 18 13 12 18 13 12 18 13 12 18 13 12 18 12 13 18 8 13 19 6 13 19 6 13 19 6 13 19 6 13 19 6 13 19 6 13 19 6 13 19 7 14 20 8 15 21 10 17 23 14 21 27 17 24 30 20 27 33 23 30 36 24 31 37 31 38 44 31 38 44 31 38 44 31 38 44 31 38 44 31 38 44 31 38 44 31 38 44 18 25 31 16 23 29 14 21 27 11 18 24 7 14 20 4 11 17 2 9 15 0 8 11 1 6 9 1 7 7 1 7 7 1 7 7 1 7 7 1 7 7 1 7 7 1 7 7 5 11 11 7 13 13 9 15 15 12 18 18 16 22 22 19 25 25 21 27 27 23 29 29 22 31 30 24 33 32 26 35 34 29 38 37 33 42 41 36 45 44 38 47 46 40 49 48 45 54 53 45 54 53 45 54 53 45 54 53 45 54 53 45 54 53 45 54 53 47 53 51 51 53 52 50 50 48 48 48 46 45 45 43 41 41 39 38 38 36 36 36 34 34 34 32 32 32 30 32 32 30 32 32 30 32 32 30 32 32 30 32 32 30 32 32 30 32 32 30 36 32 31 36 32 31 36 32 31 36 32 31 36 32 31 36 32 31 36 32 31 36 32 31 37 33 32 37 33 32 37 33 32 37 33 32 37 33 32 37 33 32 37 33 32 37 33 32
97 83 100 98 84 101 99 85 102 99 85 102 107 93 110 108 94 111 110 96 113 112 98 115 114 100 117 117 103 120 119 105 122 119 105 120 133 115 131 133 115 129 133 115 129 133 115 129 133 115 129 133 115 129 133 115 129 133 115 129 139 121 135 139 121 135 139 121 135 139 121 135 139 121 135 139 121 135 139 121 135 138 122 135 138 121 137 136 122 137 136 122 137 136 122 137 136 122 137 136 122 137 136 122 137 136 122 137 134 120 135 134 120 135 134 120 135 134 120 135 134 120 135 134 120 135 134 120 135 136 120 133 132 111 126 133 111 124 133 111 124 133 111 124 133 111 124 133 111 124 133 111 124 133 111 124 135 113 126 133 111 124 131 109 122 128 106 119 124 102 115 121 99 112 119 97 110 113 97 108 70 63 71 62 61 67 55 54 60 45 44 50 35 34 40 26 25 31 18 17 23 14 13 19 13 12 18 13 12 18 13 12 18 13 12 18 13 12 18 13 12 18 13 12 18 12 13 18 8 13 19 6 13 19 6 13 19 6 13 19 6 13 19 6 13 19 6 13 19 6 13 19 10 17 23 11 18 24 14 21 27 17 24 30 20 27 33 24 31 37 26 33 39 27 34 40 31 38 44 31 38 44 31 38 44 31 38 44 31 38 44 31 38 44 31 38 44 31 38 44 18 25 31 16 23 29 14 21 27 11 18 24 7 14 20 4 11 17 2 9 15 0 8 11 1 6 9 1 7 7 1 7 7 1 7 7 1 7 7 1 7 7 1 7 7 1 7 7 5 11 11 7 13 13 9 15 15 12 18 18 16 22 22 19 25 25 21 27 27 23 29 29 22 31 30 24 33 32 26 35 34 29 38 37 33 42 41 36 45 44 38 47 46 40 49 48 45 54 53 45 54 53 45 54 53 45 54 53 45 54 53 45 54 53 45 54 53 47 53 51 51 53 52 50 50 48 48 48 46 45 45 43 41 41 39 38 38 36 36 36 34 34 34 32 32 32 30 32 32 30 32 32 30 32 32 30 32 32 30 32 32 30 32 32 30 32 32 30 36 32 31 36 32 31 36 32 31 36 32 31 36 32 31 36 32 31 36 32 31 36 32 31 37 33 32 37 33 32 37 33 32 37 33 32 37 33 32 37 33 32 37 33 32 37 33 32
111 97 114 114 100 117 115 101 118 116 102 119 121 107 124 121 107 124 122 108 125 122 108 125 123 109 126 124 110 127 124 110 127 125 111 126 133 115 131 133 115 129 133 115 129 133 115 129 133 115 129 133 115 129 133 115 129 133 115 129 139 121 135 139 121 135 139 121 135 139 121 135 139 121 135 139 121 135 139 121 135 138 122 135 138 121 137 136 122 137 136 122 137 136 122 137 136 122 137 136 122 137 136 122 137 136 122 137 134 120 135 134 120 135 134 120 135 134 120 135 134 120 135 134 120 135 134 120 135 136 120 133 132 111 126 133 111 124 133 111 124 133 111 124 133 111 124 133 111 124 133 111 124 133 111 124 135 113 126 133 111 124 131 109 122 128 106 119 124 102 115 121 99 112 119 97 110 113 97 108 67 60 68 59 58 64 52 51 57 42 41 47 32 31 37 22 21 27 15 14 20 11 10 16 13 12 18 13 12 18 13 12 18 13 12 18 13 12 18 13 12 18 13 12 18 12 13 18 8 13 19 6 13 19 6 13 19 6 13 19 6 13 19 6 13 19 6 13 19 6 13 19 13 20 26 15 22 28 17 24 30 20 27 33 24 31 37 27 34 40 29 36 42 31 38 44 31 38 44 31 38 44 31 38 44 31 38 44 31 38 44 31 38 44 31 38 44 31 38 44 18 25 31 16 23 29 14 21 27 11 18 24 7 14 20 4 11 17 2 9 15 0 8 11 1 6 9 1 7 7 1 7 7 1 7 7 1 7 7 1 7 7 1 7 7 1 7 7 5 11 11 7 13 13 9 15 15 12 18 18 16 22 22 19 25 25 21 27 27 23 29 29 22 31 30 24 33 32 26 35 34 29 38 37 33 42 41 36 45 44 38 47 46 40 49 48 45 54 53 45 54 53 45 54 53 45 54 53 45 54 53 45 54 53 45 54 53 47 53 51 51 53 52 50 50 48 48 48 46 45 45 43 41 41 39 38 38 36 36 36 34 34 34 32 32 32 30 32 32 30 32 32 30 32 32 30 32 32 30 32 32 30 32 32 30 32 32 30 36 32 31 36 32 31 36 32 31 36 32 31 36 32 31 36 32 31 36 32 31 36 32 31 37 33 32 37 33 32 37 33 32 37 33 32 37 33 32 37 33 32 37 33 32 37 33 32
121 107 124 125 111 128 128 114 131 130 116 133 132 118 135 131 117 134 131 117 134 130 116 133 130 116 133 129 115 132 129 115 132 129 115 130 133 115 131 133 115 129 133 115 129 133 115 129 133 115 129 133 115 129 133 115 129 133 115 129 139 121 135 139 121 135 139 121 135 139 121 135 139 121 135 139 121 135 139 121 135 138 122 135 138 121 137 136 122 137 136 122 137 136 122 137 136 122 137 136 122 137 136 122 137 136 122 137 134 120 135 134 120 135 134 120 135 134 120 135 134 120 135 134 120 135 134 120 135 136 120 133 132 111 126 133 111 124 133 111 124 133 111 124 133 111 124 133 111 124 133 111 124 133 111 124 135 113 126 133 111 124 131 109 122 128 106 119 124 102 115 121 99 112 119 97 110 113 97 108 65 58 66 57 56 62 49 48 54 40 39 45 29 28 34 20 19 25 13 12 18 9 8 14 13 12 18 13 12 18 13 12 18 13 12 18 13 12 18 13 12 18 13 12 18 12 13 18 8 13 19 6 13 19 6 13 19 6 13 19 6 13 19 6 13 19 6 13 19 6 13 19 16 23 29 17 24 30 19 26 32 23 30 36 26 33 39 29 36 42 32 39 45 33 40 46 31 38 44 31 38 44 31 38 44 31 38 44 31 38 44 31 38 44 31 38 44 31 38 44 18 25 31 16 23 29 14 21 27 11 18 24 7 14 20 4 11 17 2 9 15 0 8 11 1 6 9 1 7 7 1 7 7 1 7 7 1 7 7 1 7 7 1 7 7 1 7 7 5 11 11 7 13 13 9 15 15 12 18 18 16 22 22 19 25 25 21 27 27 23 29 29 22 31 30 24 33 32 26 35 34 29 38 37 33 42 41 36 45 44 38 47 46 40 49 48 45 54 53 45 54 53 45 54 53 45 54 53 45 54 53 45 54 53 45 54 53 47 53 51 51 53 52 50 50 48 48 48 46 45 45 43 41 41 39 38 38 36 36 36 34 34 34 32 32 32 30 32 32 30 32 32 30 32 32 30 32 32 30 32 32 30 32 32 30 32 32 30 36 32 31 36 32 31 36 32 31 36 32 31 36 32 31 36 32 31 36 32 31 36 32 31 37 33 32 37 33 32 37 33 32 37 33 32 37 33 32 37 33 32 37 33 32 37 33 32
127 113 130 131 117 134 135 121 138 137 123 140 137 123 140 137 123 140 136 122 139 135 121 138 133 119 136 132 118 135 131 117 134 131 117 132 133 115 131 133 115 129 133 115 129 133 115 129 133 115 129 133 115 129 133 115 129 133 115 129 139 121 135 139 121 135 139 121 135 139 121 135 139 121 135 139 121 135 139 121 135 138 122 135 138 121 137 136 122 137 136 122 137 136 122 137 136 122 137 136 122 137 136 122 137 136 122 137 134 120 135 134 120 135 134 120 135 134 120 135 134 120 135 134 120 135 134 120 135 136 120 133 132 111 126 133 111 124 133 111 124 133 111 124 133 111 124 133 111 124 133 111 124 133 111 124 135 113 126 133 111 124 131 109 122 128 106 119 124 102 115 121 99 112 119 97 110 113 97 108 63 56 64 55 54 60 48 47 53 39 38 44 28 27 33 19 18 24 11 10 16 7 6 12 13 12 18 13 12 18 13 12 18 13 12 18 13 12 18 13 12 18 13 12 18 12 13 18 8 13 19 6 13 19 6 13 19 6 13 19 6 13 19 6 13 19 6 13 19 6 13 19 17 24 30 18 25 31 21 28 34 24 31 37 27 34 40 31 38 44 33 40 46 34 41 47 31 38 44 31 38 44 31 38 44 31 38 44 31 38 44 31 38 44 31 38 44 31 38 44 18 25 31 16 23 29 14 21 27 11 18 24 7 14 20 4 11 17 2 9 15 0 8 11 1 6 9 1 7 7 1 7 7 1 7 7 1 7 7 1 7 7 1 7 7 1 7 7 5 11 11 7 13 13 9 15 15 12 18 18 16 22 22 19 25 25 21 27 27 23 29 29 22 31 30 24 33 32 26 35 34 29 38 37 33 42 41 36 45 44 38 47 46 40 49 48 45 54 53 45 54 53 45 54 53 45 54 53 45 54 53 45 54 53 45 54 53 47 53 51 51 53 52 50 50 48 48 48 46 45 45 43 41 41 39 38 38 36 36 36 34 34 34 32 32 32 30 32 32 30 32 32 30 32 32 30 32 32 30 32 32 30 32 32 30 32 32 30 36 32 31 36 32 31 36 32 31 36 32 31 36 32 31 36 32 31 36 32 31 36 32 31 37 33 32 37 33 32 37 33 32 37 33 32 37 33 32 37 33 32 37 33 32 37 33 32
134 120 137 134 120 137 134 120 137 134 120 137 131 117 134 131 117 134 131 117 134 131 117 134 131 117 134 131 117 134 131 117 134 131 117 132 134 116 132 134 116 130 134 116 130 134 116 130 134 116 130 134 116 130 134 116 130 134 116 130 135 117 131 135 117 131 135 117 131 135 117 131 135 117 131 135 117 131 135 117 131 134 118 131 135 118 134 133 119 134 133 119 134 133 119 134 133 119 134 133 119 134 133 119 134 133 119 134 134 120 135 134 120 135 134 120 135 134 120 135 134 120 135 134 120 135 134 120 135 136 120 133 139 118 133 140 118 131 140 118 131 140 118 131 140 118 131 140 118 131 140 118 131 140 118 131 140 118 131 142 120 133 142 120 133 138 116 129 128 106 119 113 91 104 98 76 89 84 68 79 52 45 53 41 40 46 31 30 36 22 21 27 18 17 23 21 20 26 26 25 31 31 30 36 11 10 16 11 10 16 11 10 16 11 10 16 11 10 16 11 10 16 11 10 16 10 11 16 8 13 19 5 12 18 5 12 18 3 10 16 2 9 15 1 8 14 0 7 13 0 6 12 36 43 49 36 43 49 36 43 49 36 43 49 36 43 49 36 43 49 36 43 49 36 43 49 47 54 60 45 52 58 43 50 56 40 47 53 36 43 49 33 40 46 31 38 44 29 36 42 21 28 34 19 26 32 17 24 30 14 21 27 10 17 23 7 14 20 5 12 18 3 11 14 7 12 15 7 13 13 7 13 13 7 13 13 7 13 13 7 13 13 7 13 13 7 13 13 7 13 13 9 15 15 11 17 17 14 20 20 18 24 24 21 27 27 23 29 29 25 31 31 27 36 35 27 36 35 27 36 35 27 36 35 27 36 35 27 36 35 27 36 35 27 36 35 31 40 39 31 40 39 31 40 39 31 40 39 31 40 39 31 40 39 31 40 39 33 39 37 33 35 34 34 34 32 34 34 32 34 34 32 34 34 32 34 34 32 34 34 32 34 34 32 31 31 29 31 31 29 31 31 29 31 31 29 31 31 29 31 31 29 31 31 29 31 31 29 35 31 30 35 31 30 35 31 30 35 31 30 35 31 30 35 31 30 35 31 30 35 31 30 36 32 31 36 32 31 36 32 31 36 32 31 36 32 31 36 32 31 36 32 31 36 32 31
134 120 137 134 120 137 134 120 137 134 120 137 131 117 134 131 117 134 131 117 134 131 117 134 131 117 134 131 117 134 131 117 134 131 117 132 134 116 132 134 116 130 134 116 130 134 116 130 134 116 130 134 116 130 134 116 130 134 116 130 135 117 131 135 117 131 135 117 131 135 117 131 135 117 131 135 117 131 135 117 131 134 118 131 135 118 134 133 119 134 133 119 134 133 119 134 133 119 134 133 119 134 133 119 134 133 119 134 134 120 135 134 120 135 134 120 135 134 120 135 134 120 135 134 120 135 134 120 135 136 120 133 139 118 133 140 118 131 140 118 131 140 118 131 140 118 131 140 118 131 140 118 131 140 118 131 139 117 130 140 118 131 141 119 132 137 115 128 127 105 118 112 90 103 96 74 87 83 67 78 51 44 52 40 39 45 29 28 34 20 19 25 17 16 22 19 18 24 25 24 30 29 28 34 11 10 16 11 10 16 11 10 16 11 10 16 11 10 16 11 10 16 11 10 16 10 11 16 9 14 20 7 14 20 6 13 19 6 13 19 5 12 18 4 11 17 4 11 17 4 11 17 42 49 55 42 49 55 42 49 55 42 49 55 42 49 55 42 49 55 42 49 55 42 49 55 47 54 60 45 52 58 43 50 56 40 47 53 36 43 49 33 40 46 31 38 44 29 36 42 21 28 34 19 26 32 17 24 30 14 21 27 10 17 23 7 14 20 5 12 18 3 11 14 7 12 15 7 13 13 7 13 13 7 13 13 7 13 13 7 13 13 7 13 13 7 13 13 7 13 13 9 15 15 11 17 17 14 20 20 18 24 24 21 27 27 23 29 29 25 31 31 27 36 35 27 36 35 27 36 35 27 36 35 27 36 35 27 36 35 27 36 35 27 36 35 31 40 39 31 40 39 31 40 39 31 40 39 31 40 39 31 40 39 31 40 39 33 39 37 33 35 34 34 34 32 34 34 32 34 34 32 34 34 32 34 34 32 34 34 32 34 34 32 31 31 29 31 31 29 31 31 29 31 31 29 31 31 29 31 31 29 31 31 29 31 31 29 35 31 30 35 31 30 35 31 30 35 31 30 35 31 30 35 31 30 35 31 30 35 31 30 36 32 31 36 32 31 36 32 31 36 32 31 36 32 31 36 32 31 36 32 31 36 32 31
134 120 137 134 120 137 134 120 137 134 120 137 131 117 134 131 117 134 131 117 134 131 117 134 131 117 134 131 117 134 131 117 134 131 117 132 134 116 132 134 116 130 134 116 130 134 116 130 134 116 130 134 116 130 134 116 130 134 116 130 135 117 131 135 117 131 135 117 131 135 117 131 135 117 131 135 117 131 135 117 131 134 118 131 135 118 134 133 119 134 133 119 134 133 119 134 133 119 134 133 119 134 133 119 134 133 119 134 134 120 135 134 120 135 134 120 135 134 120 135 134 120 135 134 120 135 134 120 135 136 120 133 139 118 133 140 118 131 140 118 131 140 118 131 140 118 131 140 118 131 140 118 131 140 118 131 136 114 127 138 116 129 139 117 130 135 113 126 124 102 115 109 87 100 94 72 85 80 64 75 48 41 49 37 36 42 27 26 32 18 17 23 15 14 20 17 16 22 23 22 28 27 26 32 11 10 16 11 10 16 11 10 16 11 10 16 11 10 16 11 10 16 11 10 16 10 11 16 10 15 21 9 16 22 9 16 22 10 17 23 11 18 24 11 18 24 12 19 25 12 19 25 50 57 63 50 57 63 50 57 63 50 57 63 50 57 63 50 57 63 50 57 63 50 57 63 47 54 60 45 52 58 43 50 56 40 47 53 36 43 49 33 40 46 31 38 44 29 36 42 21 28 34 19 26 32 17 24 30 14 21 27 10 17 23 7 14 20 5 12 18 3 11 14 7 12 15 7 13 13 7 13 13 7 13 13 7 13 13 7 13 13 7 13 13 7 13 13 7 13 13 9 15 15 11 17 17 14 20 20 18 24 24 21 27 27 23 29 29 25 31 31 27 36 35 27 36 35 27 36 35 27 36 35 27 36 35 27 36 35 27 36 35 27 36 35 31 40 39 31 40 39 31 40 39 31 40 39 31 40 39 31 40 39 31 40 39 33 39 37 33 35 34 34 34 32 34 34 32 34 34 32 34 34 32 34 34 32 34 34 32 34 34 32 31 31 29 31 31 29 31 31 29 31 31 29 31 31 29 31 31 29 31 31 29 31 31 29 35 31 30 35 31 30 35 31 30 35 31 30 35 31 30 35 31 30 35 31 30 35 31 30 36 32 31 36 32 31 36 32 31 36 32 31 36 32 31 36 32 31 36 32 31 36 32 31
134 120 137 134 120 137 134 120 137 134 120 137 131 117 134 131 117 134 131 117 134 131 117 134 131 117 134 131 117 134 131 117 134 131 117 132 134 116 132 134 116 130 134 116 130 134 116 130 134 116 130 134 116 130 134 116 130 134 116 130 135 117 131 135 117 131 135 117 131 135 117 131 135 117 131 135 117 131 135 117 131 134 118 131 135 118 134 133 119 134 133 119 134 133 119 134 133 119 134 133 119 134 133 119 134 133 119 134 134 120 135 134 120 135 134 120 135 134 120 135 134 120 135 134 120 135 134 120 135 136 120 133 139 118 133 140 118 131 140 118 131 140 118 131 140 118 131 140 118 131 140 118 131 140 118 131 133 111 124 135 113 126 135 113 126 132 110 123 121 99 112 106 84 97 91 69 82 77 61 72 45 38 46 34 33 39 24 23 29 15 14 20 11 10 16 14 13 19 19 18 24 24 23 29 11 10 16 11 10 16 11 10 16 11 10 16 11 10 16 11 10 16 11 10 16 10 11 16 12 17 23 11 18 24 13 20 26 15 22 28 18 25 31 20 27 33 22 29 35 23 30 36 56 63 69 56 63 69 56 63 69 56 63 69 56 63 69 56 63 69 56 63 69 56 63 69 47 54 60 45 52 58 43 50 56 40 47 53 36 43 49 33 40 46 31 38 44 29 36 42 21 28 34 19 26 32 17 24 30 14 21 27 10 17 23 7 14 20 5 12 18 3 11 14 7 12 15 7 13 13 7 13 13 7 13 13 7 13 13 7 13 13 7 13 13 7 13 13 7 13 13 9 15 15 11 17 17 14 20 20 18 24 24 21 27 27 23 29 29 25 31 31 27 36 35 27 36 35 27 36 35 27 36 35 27 36 35 27 36 35 27 36 35 27 36 35 31 40 39 31 40 39 31 40 39 31 40 39 31 40 39 31 40 39 31 40 39 33 39 37 33 35 34 34 34 32 34 34 32 34 34 32 34 34 32 34 34 32 34 34 32 34 34 32 31 31 29 31 31 29 31 31 29 31 31 29 31 31 29 31 31 29 31 31 29 31 31 29 35 31 30 35 31 30 35 31 30 35 31 30 35 31 30 35 31 30 35 31 30 35 31 30 36 32 31 36 32 31 36 32 31 36 32 31 36 32 31 36 32 31 36 32 31 36 32 31
134 120 137 134 120 137 134 120 137 134 120 137 131 117 134 131 117 134 131 117 134 131 117 134 131 117 134 131 117 134 131 117 134 131 117 132 134 116 132 134 116 130 134 116 130 134 116 130 134 116 130 134 116 130 134 116 130 134 116 130 135 117 131 135 117 131 135 117 131 135 117 131 135 117 131 135 117 131 135 117 131 134 118 131 135 118 134 133 119 134 133 119 134 133 119 134 133 119 134 133 119 134 133 119 134 133 119 134 134 120 135 134 120 135 134 120 135 134 120 135 134 120 135 134 120 135 134 120 135 136 120 133 139 118 133 140 118 131 140 118 131 140 118 131 140 118 131 140 118 131 140 118 131 140 118 131 130 108 121 131 109 122 132 110 123 128 106 119 118 96 109 103 81 94 87 65 78 74 58 69 42 35 43 31 30 36 20 19 25 11 10 16 8 7 13 10 9 15 16 15 21 20 19 25 11 10 16 11 10 16 11 10 16 11 10 16 11 10 16 11 10 16 11 10 16 10 11 16 14 19 25 14 21 27 17 24 30 21 28 34 26 33 39 30 37 43 33 40 46 34 41 47 56 63 69 56 63 69 56 63 69 56 63 69 56 63 69 56 63 69 56 63 69 56 63 69 47 54 60 45 52 58 43 50 56 40 47 53 36 43 49 33 40 46 31 38 44 29 36 42 21 28 34 19 26 32 17 24 30 14 21 27 10 17 23 7 14 20 5 12 18 3 11 14 7 12 15 7 13 13 7 13 13 7 13 13 7 13 13 7 13 13 7 13 13 7 13 13 7 13 13 9 15 15 11 17 17 14 20 20 18 24 24 21 27 27 23 29 29 25 31 31 27 36 35 27 36 35 27 36 35 27 36 35 27 36 35 27 36 35 27 36 35 27 36 35 31 40 39 31 40 39 31 40 39 31 40 39 31 40 39 31 40 39 31 40 39 33 39 37 33 35 34 34 34 32 34 34 32 34 34 32 34 34 32 34 34 32 34 34 32 34 34 32 31 31 29 31 31 29 31 31 29 31 31 29 31 31 29 31 31 29 31 31 29 31 31 29 35 31 30 35 31 30 35 31 30 35 31 30 35 31 30 35 31 30 35 31 30 35 31 30 36 32 31 36 32 31 36 32 31 36 32 31 36 32 31 36 32 31 36 32 31 36 32 31
134 120 137 134 120 137 134 120 137 134 120 137 131 117 134 131 117 134 131 117 134 131 117 134 131 117 134 131 117 134 131 117 134 131 117 132 134 116 132 134 116 130 134 116 130 134 116 130 134 116 130 134 116 130 134 116 130 134 116 130 135 117 131 135 117 131 135 117 131 135 117 131 135 117 131 135 117 131 135 117 131 134 118 131 135 118 134 133 119 134 133 119 134 133 119 134 133 119 134 133 119 134 133 119 134 133 119 134 134 120 135 134 120 135 134 120 135 134 120 135 134 120 135 134 120 135 134 120 135 136 120 133 139 118 133 140 118 131 140 118 131 140 118 131 140 118 131 140 118 131 140 118 131 140 118 131 126 104 117 128 106 119 129 107 120 125 103 116 115 93 106 99 77 90 84 62 75 70 54 65 38 31 39 27 26 32 17 16 22 8 7 13 5 4 10 7 6 12 13 12 18 17 16 22 11 10 16 11 10 16 11 10 16 11 10 16 11 10 16 11 10 16 11 10 16 10 11 16 16 21 27 17 24 30 21 28 34 27 34 40 33 40 46 39 46 52 43 50 56 45 52 58 50 57 63 50 57 63 50 57 63 50 57 63 50 57 63 50 57 63 50 57 63 50 57 63 47 54 60 45 52 58 43 50 56 40 47 53 36 43 49 33 40 46 31 38 44 29 36 42 21 28 34 19 26 32 17 24 30 14 21 27 10 17 23 7 14 20 5 12 18 3 11 14 7 12 15 7 13 13 7 13 13 7 13 13 7 13 13 7 13 13 7 13 13 7 13 13 7 13 13 9 15 15 11 17 17 14 20 20 18 24 24 21 27 27 23 29 29 25 31 31 27 36 35 27 36 35 27 36 35 27 36 35 27 36 35 27 36 35 27 36 35 27 36 35 31 40 39 31 40 39 31 40 39 31 40 39 31 40 39 31 40 39 31 40 39 33 39 37 33 35 34 34 34 32 34 34 32 34 34 32 34 34 32 34 34 32 34 34 32 34 34 32 31 31 29 31 31 29 31 31 29 31 31 29 31 31 29 31 31 29 31 31 29 31 31 29 35 31 30 35 31 30 35 31 30 35 31 30 35 31 30 35 31 30 35 31 30 35 31 30 36 32 31 36 32 31 36 32 31 36 32 31 36 32 31 36 32 31 36 32 31 36 32 31
134 120 137 134 120 137 134 120 137 134 120 137 131 117 134 131 117 134 131 117 134 131 117 134 131 117 134 131 117 134 131 117 134 131 117 132 134 116 132 134 116 130 134 116 130 134 116 130 134 116 130 134 116 130 134 116 130 134 116 130 135 117 131 135 117 131 135 117 131 135 117 131 135 117 131 135 117 131 135 117 131 134 118 131 135 118 134 133 119 134 133 119 134 133 119 134 133 119 134 133 119 134 133 119 134 133 119 134 134 120 135 134 120 135 134 120 135 134 120 135 134 120 135 134 120 135 134 120 135 136 120 133 139 118 133 140 118 131 140 118 131 140 118 131 140 118 131 140 118 131 140 118 131 140 118 131 124 102 115 126 104 117 126 104 117 122 100 113 112 90 103 97 75 88 82 60 73 68 52 63 36 29 37 25 24 30 15 14 20 6 5 11 2 1 7 5 4 10 10 9 15 15 14 20 11 10 16 11 10 16 11 10 16 11 10 16 11 10 16 11 10 16 11 10 16 10 11 16 18 23 29 19 26 32 24 31 37 31 38 44 38 45 51 45 52 58 51 58 64 54 61 67 42 49 55 42 49 55 42 49 55 42 49 55 42 49 55 42 49 55 42 49 55 42 49 55 47 54 60 45 52 58 43 50 56 40 47 53 36 43 49 33 40 46 31 38 44 29 36 42 21 28 34 19 26 32 17 24 30 14 21 27 10 17 23 7 14 20 5 12 18 3 11 14 7 12 15 7 13 13 7 13 13 7 13 13 7 13 13 7 13 13 7 13 13 7 13 13 7 13 13 9 15 15 11 17 17 14 20 20 18 24 24 21 27 27 23 29 29 25 31 31 27 36 35 27 36 35 27 36 35 27 36 35 27 36 35 27 36 35 27 36 35 27 36 35 31 40 39 31 40 39 31 40 39 31 40 39 31 40 39 31 40 39 31 40 39 33 39 37 33 35 34 34 34 32 34 34 32 34 34 32 34 34 32 34 34 32 34 34 32 34 34 32 31 31 29 31 31 29 31 31 29 31 31 29 31 31 29 31 31 29 31 31 29 31 31 29 35 31 30 35 31 30 35 31 30 35 31 30 35 31 30 35 31 30 35 31 30 35 31 30 36 32 31 36 32 31 36 32 31 36 32 31 36 32 31 36 32 31 36 32 31 36 32 31
134 120 137 134 120 137 134 120 137 134 120 137 131 117 134 131 117 134 131 117 134 131 117 134 131 117 134 131 117 134 131 117 134 131 117 134 133 116 132 133 117 130 134 116 132 133 117 130 134 116 132 133 117 130 134 116 132 133 117 130 135 117 133 134 118 131 135 117 133 134 118 131 135 117 133 134 118 131 135 117 133 134 117 133 133 119 134 133 119 134 133 119 134 133 119 134 133 119 134 133 119 134 133 119 134 133 119 134 134 120 135 134 120 135 134 120 135 134 120 135 134 120 135 134 120 135 134 120 135 136 119 135 137 119 133 139 119 131 139 119 131 139 119 131 139 119 131 139 119 131 139 119 131 139 119 131 122 102 114 123 103 115 124 104 116 120 100 112 110 90 102 95 75 87 79 59 71 65 52 62 32 29 36 23 24 29 12 13 18 3 4 9 0 1 6 2 3 8 8 9 14 12 13 18 10 11 16 10 11 16 10 11 16 10 11 16 10 11 16 10 11 16 10 11 16 8 11 16 19 24 30 20 27 33 26 33 39 33 40 46 41 48 54 49 56 62 55 62 68 58 65 71 36 43 49 36 43 49 36 43 49 36 43 49 36 43 49 36 43 49 36 43 49 36 43 49 47 54 60 45 52 58 43 50 56 40 47 53 36 43 49 33 40 46 31 38 44 29 36 42 21 28 34 19 26 32 17 24 30 14 21 27 10 17 23 7 14 20 5 12 18 3 11 14 5 13 15 5 14 13 7 12 15 5 14 13 7 12 15 5 14 13 7 12 15 5 14 13 7 12 15 7 16 15 11 16 19 12 21 20 18 23 26 19 28 27 23 28 31 23 32 31 27 35 37 27 36 35 27 35 37 27 36 35 27 35 37 27 36 35 27 35 37 27 36 35 31 39 41 31 40 39 31 39 41 31 40 39 31 39 41 31 40 39 31 39 41 33 39 39 33 35 32 34 34 32 34 34 32 34 34 32 34 34 32 34 34 32 34 34 32 34 34 32 31 31 29 31 31 29 31 31 29 31 31 29 31 31 29 31 31 29 31 31 29 32 31 29 35 31 30 35 31 28 35 31 30 35 31 28 35 31 30 35 31 28 35 31 30 35 31 28 36 32 31 36 32 29 36 32 31 36 32 29 36 32 31 36 32 29 36 32 31 36 32 29
131 118 135 131 118 135 131 118 135 131 118 135 121 108 125 121 108 125 121 108 125 121 108 125 121 108 125 121 108 125 121 108 125 122 108 125 123 109 126 123 109 124 125 108 126 123 109 124 125 108 126 123 109 124 125 108 126 123 109 124 128 111 129 126 112 127 128 111 129 126 112 127 128 111 129 126 112 127 128 111 129 126 112 129 127 113 130 127 113 130 127 113 130 127 113 130 127 113 130 127 113 130 127 113 130 127 113 130 126 112 129 126 112 129 126 112 129 126 112 129 126 112 129 126 112 129 126 112 129 126 112 127 120 106 119 120 107 117 120 107 117 120 107 117 120 107 117 120 107 117 120 107 117 120 107 117 130 117 127 125 112 122 115 102 112 102 89 99 88 75 85 76 63 73 66 53 63 59 49 58 12 12 20 9 14 20 9 14 20 9 14 20 9 14 20 9 14 20 9 14 20 9 14 20 0 3 9 0 4 10 2 7 13 5 10 16 8 13 19 12 17 23 14 19 25 15 20 26 50 57 63 49 58 63 49 58 63 49 58 63 49 58 63 49 58 63 49 58 63 49 58 63 51 60 65 51 60 65 51 60 65 51 60 65 51 60 65 51 60 65 51 60 65 51 60 65 48 57 62 46 55 60 44 53 58 41 50 55 37 46 51 34 43 48 32 41 46 30 39 44 18 27 32 16 25 30 14 23 28 11 20 25 7 16 21 4 13 18 2 11 16 0 9 14 6 16 18 6 16 17 7 15 18 6 16 17 7 15 18 6 16 17 7 15 18 6 16 17 6 14 17 7 17 18 10 18 21 12 22 23 17 25 28 19 29 30 22 30 33 24 32 34 23 31 34 23 31 33 23 31 34 23 31 33 23 31 34 23 31 33 23 31 34 23 31 33 24 32 35 24 32 34 24 32 35 24 32 34 24 32 35 24 32 34 24 32 35 26 32 32 28 28 26 29 28 24 29 28 24 29 28 24 29 28 24 29 28 24 29 28 24 29 28 24 32 31 27 32 31 27 32 31 27 32 31 27 32 31 27 32 31 27 32 31 27 32 31 27 35 31 28 36 31 27 36 31 28 36 31 27 36 31 28 36 31 27 36 31 28 36 31 27 37 32 29 37 32 28 37 32 29 37 32 28 37 32 29 37 32 28 37 32 29 37 32 28
129 116 133 129 116 133 129 116 133 129 116 133 121 108 125 121 108 125 121 108 125 121 108 125 121 108 125 121 108 125 121 108 125 121 108 125 123 109 126 123 109 126 123 109 126 123 109 126 123 109 126 123 109 126 123 109 126 123 109 126 126 112 129 126 112 129 126 112 129 126 112 129 126 112 129 126 112 129 126 112 129 126 112 129 127 113 130 127 113 130 127 113 130 127 113 130 127 113 130 127 113 130 127 113 130 127 113 130 126 112 129 126 112 129 126 112 129 126 112 129 126 112 129 126 112 129 126 112 129 126 112 127 119 107 119 119 107 117 119 107 117 119 107 117 119 107 117 119 107 117 119 107 117 119 107 117 126 114 124 121 109 119 111 99 109 99 87 97 85 73 83 72 60 70 62 50 60 54 47 55 10 13 20 7 14 20 7 14 20 7 14 20 7 14 20 7 14 20 7 14 20 7 14 20 0 6 12 0 7 13 2 9 15 6 13 19 9 16 22 12 19 25 15 22 28 16 23 29 49 58 63 49 58 63 49 58 63 49 58 63 49 58 63 49 58 63 49 58 63 49 58 63 51 60 65 51 60 65 51 60 65 51 60 65 51 60 65 51 60 65 51 60 65 51 60 65 48 57 62 46 55 60 44 53 58 41 50 55 37 46 51 34 43 48 32 41 46 30 39 44 18 27 32 16 25 30 14 23 28 11 20 25 7 16 21 4 13 18 2 11 16 0 9 14 6 16 18 6 16 18 6 16 18 6 16 18 6 16 18 6 16 18 6 16 18 6 16 18 5 15 17 7 17 19 9 19 21 12 22 24 16 26 28 19 29 31 21 31 33 23 33 35 23 31 34 23 31 34 23 31 34 23 31 34 23 31 34 23 31 34 23 31 34 23 31 34 24 32 35 24 32 35 24 32 35 24 32 35 24 32 35 24 32 35 24 32 35 26 31 34 28 28 26 29 28 24 29 28 24 29 28 24 29 28 24 29 28 24 29 28 24 29 28 24 32 31 27 32 31 27 32 31 27 32 31 27 32 31 27 32 31 27 32 31 27 32 31 27 36 31 27 36 31 27 36 31 27 36 31 27 36 31 27 36 31 27 36 31 27 36 31 27 37 32 28 37 32 28 37 32 28 37 32 28 37 32 28 37 32 28 37 32 28 37 32 28
127 114 131 127 114 131 127 114 131 127 114 131 121 108 125 121 108 125 121 108 125 121 108 125 121 108 125 121 108 125 121 108 125 121 108 125 123 109 126 123 109 126 123 109 126 123 109 126 123 109 126 123 109 126 123 109 126 123 109 126 126 112 129 126 112 129 126 112 129 126 112 129 126 112 129 126 112 129 126 112 129 126 112 129 127 113 130 127 113 130 127 113 130 127 113 130 127 113 130 127 113 130 127 113 130 127 113 130 126 112 129 126 112 129 126 112 129 126 112 129 126 112 129 126 112 129 126 112 129 126 112 127 119 107 119 119 107 117 119 107 117 119 107 117 119 107 117 119 107 117 119 107 117 119 107 117 121 109 119 116 104 114 106 94 104 94 82 92 80 68 78 67 55 65 57 45 55 49 42 50 10 13 20 7 14 20 7 14 20 7 14 20 7 14 20 7 14 20 7 14 20 7 14 20 4 11 17 5 12 18 7 14 20 10 17 23 14 21 27 17 24 30 20 27 33 21 28 34 49 58 63 49 58 63 49 58 63 49 58 63 49 58 63 49 58 63 49 58 63 49 58 63 51 60 65 51 60 65 51 60 65 51 60 65 51 60 65 51 60 65 51 60 65 51 60 65 48 57 62 46 55 60 44 53 58 41 50 55 37 46 51 34 43 48 32 41 46 30 39 44 18 27 32 16 25 30 14 23 28 11 20 25 7 16 21 4 13 18 2 11 16 0 9 14 6 16 18 6 16 18 6 16 18 6 16 18 6 16 18 6 16 18 6 16 18 6 16 18 5 15 17 7 17 19 9 19 21 12 22 24 16 26 28 19 29 31 21 31 33 23 33 35 23 31 34 23 31 34 23 31 34 23 31 34 23 31 34 23 31 34 23 31 34 23 31 34 24 32 35 24 32 35 24 32 35 24 32 35 24 32 35 24 32 35 24 32 35 26 31 34 28 28 26 29 28 24 29 28 24 29 28 24 29 28 24 29 28 24 29 28 24 29 28 24 32 31 27 32 31 27 32 31 27 32 31 27 32 31 27 32 31 27 32 31 27 32 31 27 36 31 27 36 31 27 36 31 27 36 31 27 36 31 27 36 31 27 36 31 27 36 31 27 37 32 28 37 32 28 37 32 28 37 32 28 37 32 28 37 32 28 37 32 28 37 32 28
