P3
172 37
255
0 0 0 0 0 0 0 0 0 0 0 0 0 0 0 0 0 0 0 0 0 0 0 0 0 0 0 0 0 0 0 0 0 0 0 0 0 0 0 0 0 0 0 0 0 0 0 0 0 0 0 0 0 0 0 0 0 0 0 0 0 0 0 0 0 0 0 0 0 0 0 0 0 0 0 0 0 0 0 0 0 0 0 0 0 0 0 0 0 0 0 0 0 0 0 0 0 0 0 0 0 0 0 0 0 0 0 0 0 0 0 0 0 0 0 0 0 0 0 0 0 0 0 0 0 0 0 0 0 0 0 0 0 0 0 0 0 0 0 0 0 0 0 0 0 0 0 0 0 0 0 0 0 0 0 0 0 0 0 0 0 0 0 0 0 0 0 0 0 0 0 0 0 0 0 0 0 0 0 0 0 0 0 0 0 0 0 0 0 0 0 0 0 0 0 0 0 0 0 0 0 0 0 0 0 0 0 0 0 0 0 0 0 0 0 0 0 0 0 0 0 0 0 0 0 0 0 0 0 0 0 0 0 0 0 0 0 0 0 0 0 0 0 0 0 0 0 0 0 0 0 0 0 0 0 0 0 0 0 0 0 0 0 0 0 0 0 0 0 0 0 0 0 0 0 0 0 0 0 0 0 0 0 0 0 0 0 0 0 0 0 0 0 0 0 0 0 0 0 0 0 0 0 0 0 0 0 0 0 0 0 0 0 0 0 0 0 0 0 0 0 0 0 0 0 0 0 0 0 0 0 0 0 0 0 0 0 0 0 0 0 0 0 0 0 0 0 0 0 0 0 0 0 0 0 0 0 0 0 0 0 0 0 0 0 0 0 0 0 0 0 0 0 0 0 0 0 0 0 0 0 0 0 0 0 0 0 0 0 0 0 0 0 0 0 0 0 0 0 0 0 0 0 0 0 0 0 0 0 0 0 0 0 0 0 0 0 0 0 0 0 0 0 0 0 0 0 0 0 0 0 0 0 0 0 0 0 0 0 0 0 0 0 0 0 0 0 0 0 0 0 0 0 0 0 0 0 0 0 0 0 0 0 0 0 0 0 0 0 0 0 0 0 0 0 0 0 0 0 0 0 0 0 0 0 0 0 0 0 0 0 0 0 0 0 0 0 0 0 0 0 0 0 0 0 0 0 0 0 0 0 0 0 0 0 0
0 0 4 0 0 4 0 0 4 0 0 4 0 0 4 0 0 4 0 0 4 0 0 4 0 0 4 0 0 4 0 0 4 0 0 4 0 0 2 0 0 2 1 0 2 0 0 2 1 0 2 0 0 2 1 0 2 0 0 2 1 0 2 0 0 2 1 0 2 0 0 2 1 0 2 0 0 2 1 0 2 1 0 2 3 0 2 3 0 0 3 0 0 3 0 0 3 0 0 3 0 0 3 0 0 3 0 0 3 0 0 3 0 0 3 0 0 3 0 0 3 0 0 3 0 0 3 0 0 3 0 0 3 0 0 3 0 0 3 0 0 3 0 0 3 0 0 3 0 0 3 0 0 3 0 0 3 0 0 3 0 0 3 0 0 3 0 0 3 0 0 3 0 0 3 0 0 3 0 0 3 0 0 3 0 0 3 0 0 3 0 0 3 0 0 3 0 0 3 0 0 3 0 0 3 0 0 3 0 0 3 0 0 3 0 0 3 0 0 3 0 0 3 0 0 3 0 0 3 0 0 3 0 0 3 0 0 3 0 0 3 0 0 3 0 0 3 0 0 3 0 0 3 0 0 3 0 0 3 0 0 3 0 0 3 0 0 3 0 0 3 0 0 3 0 0 1 0 2 1 0 2 1 0 2 1 0 2 1 0 2 1 0 2 1 0 2 1 0 2 1 0 2 1 0 2 1 0 2 1 0 2 1 0 2 1 0 2 1 0 2 1 0 2 1 0 2 1 0 2 1 0 2 1 0 2 1 0 2 1 0 2 1 0 2 1 0 2 1 0 2 1 0 2 1 0 2 1 0 2 1 0 2 1 0 2 1 0 2 1 0 2 1 0 2 1 0 2 1 0 2 1 0 2 1 0 2 1 0 2 1 0 2 1 0 2 1 0 2 1 0 2 1 0 2 1 0 2 1 0 2 1 0 2 1 0 2 1 0 2 3 0 2 3 0 2 3 0 2 3 0 2 3 0 2 3 0 2 3 0 2 3 0 2 3 0 2 3 0 2 3 0 2 3 0 2 3 0 2 3 0 2 3 0 2 3 0 2 1 0 2 1 0 2 1 0 2 1 0 2 1 0 2 1 0 2 1 0 2 1 0 2 1 0 2 1 0 2 1 0 2 1 0 2 1 0 2 1 0 2 1 0 2 1 0 2
4 2 13 4 2 13 4 2 13 4 2 13 3 1 12 3 1 12 3 1 12 3 1 12 3 1 12 3 1 12 3 1 12 3 1 12 3 0 9 3 0 9 5 0 9 3 0 9 5 0 9 3 0 9 5 0 9 3 0 9 6 0 10 3 0 9 4 0 8 1 0 7 3 0 7 1 0 7 3 0 7 4 0 5 7 0 4 10 0 2 10 0 2 10 0 2 10 0 2 10 0 2 10 0 2 10 0 2 15 0 7 15 0 7 15 0 7 15 0 7 15 0 7 15 0 7 15 0 7 15 0 5 20 8 12 20 8 10 20 8 10 20 8 10 20 8 10 20 8 10 20 8 10 20 8 10 22 10 12 22 10 12 22 10 12 22 10 12 22 10 12 22 10 12 22 10 12 22 10 12 22 10 12 22 10 12 22 10 12 22 10 12 22 10 12 22 10 12 22 10 12 22 10 12 15 3 5 15 3 5 15 3 5 15 3 5 15 3 5 15 3 5 15 3 5 15 3 7 16 5 9 16 5 11 16 5 11 16 5 11 16 5 11 16 5 11 16 5 11 16 5 11 8 0 3 8 0 3 8 0 3 8 0 3 8 0 3 8 0 3 8 0 3 8 0 3 6 0 4 6 0 5 6 0 5 6 0 5 6 0 5 6 0 5 6 0 5 6 0 5 18 8 17 18 8 17 18 8 17 18 8 17 18 8 17 18 8 17 18 8 17 18 8 17 9 0 8 9 0 8 9 0 8 9 0 8 9 0 8 9 0 8 9 0 8 9 0 8 8 0 7 8 0 7 8 0 7 8 0 7 8 0 7 8 0 7 8 0 7 8 0 7 11 1 9 11 1 9 11 1 9 11 1 9 11 1 9 11 1 9 11 1 9 11 1 9 14 4 12 14 4 12 14 4 12 14 4 12 14 4 12 14 4 12 14 4 12 14 4 12 13 1 11 14 1 11 14 1 11 14 1 11 14 1 11 14 1 11 14 1 11 14 1 11 15 2 12 15 2 12 15 2 12 15 2 12 15 2 12 15 2 12 15 2 12 14 2 12 17 7 15 17 7 15 17 7 15 17 7 15 17 7 15 17 7 15 17 7 15 17 7 15 9 0 7 9 0 7 9 0 7 9 0 7 9 0 7 9 0 7 9 0 7 7 0 7
4 2 16 4 2 16 4 2 16 4 2 16 3 1 15 3 1 15 3 1 15 3 1 15 3 1 15 3 1 15 3 1 15 3 1 14 5 0 13 5 0 11 5 0 11 5 0 11 5 0 11 5 0 11 5 0 11 5 0 11 5 0 11 5 0 11 5 0 11 4 0 10 3 0 9 3 0 9 3 0 9 6 0 7 13 0 7 16 0 5 15 0 4 15 0 4 14 0 3 13 0 2 13 0 2 13 0 2 13 0 2 13 0 2 13 0 2 13 0 2 13 0 2 13 0 2 13 0 2 13 0 0 11 0 0 11 0 0 11 0 0 11 0 0 11 0 0 11 0 0 11 0 0 11 0 0 11 0 0 11 0 0 11 0 0 11 0 0 11 0 0 11 0 0 11 0 0 11 0 0 11 0 0 11 0 0 11 0 0 11 0 0 11 0 0 11 0 0 11 0 0 11 0 0 11 0 0 11 0 0 11 0 0 11 0 0 11 0 0 11 0 0 11 0 0 11 0 0 10 0 2 10 0 2 10 0 2 10 0 2 10 0 2 10 0 2 10 0 2 10 0 2 10 0 2 10 0 2 10 0 2 10 0 2 10 0 2 10 0 2 10 0 2 8 0 4 8 0 5 7 0 7 7 0 7 7 0 7 7 0 7 7 0 7 7 0 7 7 0 7 7 0 7 7 0 7 7 0 7 7 0 7 7 0 7 7 0 7 7 0 7 7 0 7 7 0 7 7 0 7 7 0 7 7 0 7 7 0 7 7 0 7 7 0 7 7 0 7 7 0 7 7 0 7 7 0 7 7 0 7 7 0 7 7 0 7 7 0 7 7 0 7 7 0 5 7 0 5 7 0 5 7 0 5 7 0 5 7 0 5 7 0 5 7 0 5 7 0 5 7 0 5 7 0 5 7 0 5 7 0 5 7 0 5 7 0 5 8 0 5 10 0 7 11 0 7 11 0 7 11 0 7 11 0 7 11 0 7 11 0 7 11 0 7 11 0 7 11 0 7 11 0 7 11 0 7 11 0 7 11 0 7 11 0 7 10 0 7 8 0 5 7 0 5 7 0 5 7 0 5 7 0 5 7 0 5 7 0 5 7 0 5 8 0 6 8 0 6 8 0 6 8 0 6 8 0 6 8 0 6 8 0 6 7 0 6
4 2 16 4 2 16 4 2 16 4 2 16 3 1 15 3 1 15 3 1 15 3 1 15 3 1 15 3 1 15 3 1 15 3 1 14 5 0 13 5 0 11 5 0 11 5 0 11 5 0 11 5 0 11 5 0 11 5 0 11 4 0 10 5 0 11 5 0 11 6 0 12 6 0 12 7 1 13 8 2 14 11 1 12 22 6 16 25 5 14 25 5 14 26 6 15 27 7 16 27 7 16 28 8 17 28 8 17 19 0 8 19 0 8 19 0 8 19 0 8 19 0 8 19 0 8 19 0 8 19 0 6 24 7 13 24 8 11 24 8 11 24 8 11 24 8 11 24 8 11 24 8 11 24 8 11 26 10 13 26 10 13 26 10 13 26 10 13 26 10 13 26 10 13 26 10 13 26 10 13 26 10 13 26 10 13 26 10 13 26 10 13 26 10 13 26 10 13 26 10 13 26 10 13 22 6 9 22 6 9 22 6 9 22 6 9 22 6 9 22 6 9 22 6 9 22 6 9 23 8 15 23 8 15 23 8 15 23 8 15 23 8 15 23 8 15 23 8 15 23 8 15 29 14 21 29 14 21 29 14 21 29 14 21 29 14 21 29 14 21 29 14 21 27 14 23 24 11 21 23 11 23 23 11 23 23 11 23 23 11 23 23 11 23 23 11 23 23 11 23 20 8 20 20 8 20 20 8 20 20 8 20 20 8 20 20 8 20 20 8 20 20 8 20 24 12 24 24 12 24 24 12 24 24 12 24 24 12 24 24 12 24 24 12 24 24 12 24 23 11 23 23 11 23 23 11 23 23 11 23 23 11 23 23 11 23 23 11 23 23 11 23 13 1 11 13 1 11 13 1 11 13 1 11 13 1 11 13 1 11 13 1 11 13 1 11 12 0 10 12 0 10 12 0 10 12 0 10 12 0 10 12 0 10 12 0 10 13 0 10 13 0 10 14 0 10 14 0 10 14 0 10 14 0 10 14 0 10 14 0 10 14 0 10 15 0 11 15 0 11 15 0 11 15 0 11 15 0 11 15 0 11 15 0 11 14 0 11 12 0 9 11 0 9 11 0 9 11 0 9 11 0 9 11 0 9 11 0 9 11 0 9 17 5 15 17 5 15 17 5 15 17 5 15 17 5 15 17 5 15 17 5 15 16 6 15
4 2 16 4 2 16 4 2 16 4 2 16 3 1 15 3 1 15 3 1 15 3 1 15 3 1 15 3 1 15 3 1 15 3 1 14 5 0 13 5 0 11 5 0 11 5 0 11 5 0 11 5 0 11 5 0 11 5 0 11 3 0 9 4 0 10 6 0 12 8 2 14 11 5 17 13 7 19 15 9 21 19 9 20 33 17 27 37 17 26 39 19 28 41 21 30 44 24 33 46 26 35 48 28 37 49 29 38 69 49 58 69 49 58 69 49 58 69 49 58 69 49 58 69 49 58 69 49 58 69 50 56 74 57 63 74 58 61 74 58 61 74 58 61 74 58 61 74 58 61 74 58 61 74 58 61 76 60 63 76 60 63 76 60 63 76 60 63 76 60 63 76 60 63 76 60 63 76 60 63 76 60 63 76 60 63 76 60 63 76 60 63 76 60 63 76 60 63 76 60 63 76 60 63 76 60 63 76 60 63 76 60 63 76 60 63 76 60 63 76 60 63 76 60 63 76 60 63 77 62 69 77 62 69 77 62 69 77 62 69 77 62 69 77 62 69 77 62 69 77 62 69 88 73 80 88 73 80 88 73 80 88 73 80 88 73 80 88 73 80 88 73 80 86 73 82 83 70 80 82 70 82 82 70 82 82 70 82 82 70 82 82 70 82 82 70 82 82 70 82 70 58 70 70 58 70 70 58 70 70 58 70 70 58 70 70 58 70 70 58 70 70 58 70 80 68 80 80 68 80 80 68 80 80 68 80 80 68 80 80 68 80 80 68 80 80 68 80 79 67 79 79 67 79 79 67 79 79 67 79 79 67 79 79 67 79 79 67 79 79 67 79 63 51 61 63 51 61 63 51 61 63 51 61 63 51 61 63 51 61 63 51 61 63 51 61 59 47 57 59 47 57 59 47 57 59 47 57 59 47 57 59 47 57 59 47 57 60 47 57 60 44 57 61 43 57 61 43 57 61 43 57 61 43 57 61 43 57 61 43 57 61 43 57 62 44 58 62 44 58 62 44 58 62 44 58 62 44 58 62 44 58 62 44 58 61 45 58 56 43 53 55 43 53 55 43 53 55 43 53 55 43 53 55 43 53 55 43 53 55 43 53 40 28 38 40 28 38 40 28 38 40 28 38 40 28 38 40 28 38 40 28 38 39 29 38
4 2 16 4 2 16 4 2 16 4 2 16 3 1 15 3 1 15 3 1 15 3 1 15 3 1 15 3 1 15 3 1 15 3 1 14 5 0 13 5 0 11 5 0 11 5 0 11 5 0 11 5 0 11 5 0 11 5 0 11 3 0 9 3 0 9 6 0 12 11 5 17 15 9 21 19 13 25 22 16 28 27 17 28 46 30 40 50 30 39 53 33 42 57 37 46 62 42 51 66 46 55 69 49 58 71 51 60 107 87 96 107 87 96 107 87 96 107 87 96 107 87 96 107 87 96 107 87 96 107 88 94 112 95 101 112 96 99 112 96 99 112 96 99 112 96 99 112 96 99 112 96 99 112 96 99 114 98 101 114 98 101 114 98 101 114 98 101 114 98 101 114 98 101 114 98 101 114 98 101 114 98 101 114 98 101 114 98 101 114 98 101 114 98 101 114 98 101 114 98 101 114 98 101 117 101 104 117 101 104 117 101 104 117 101 104 117 101 104 117 101 104 117 101 104 117 101 104 118 103 110 118 103 110 118 103 110 118 103 110 118 103 110 118 103 110 118 103 110 118 103 110 129 114 121 129 114 121 129 114 121 129 114 121 129 114 121 129 114 121 129 114 121 127 114 123 124 111 121 123 111 123 123 111 123 123 111 123 123 111 123 123 111 123 123 111 123 123 111 123 108 96 108 108 96 108 108 96 108 108 96 108 108 96 108 108 96 108 108 96 108 108 96 108 118 106 118 118 106 118 118 106 118 118 106 118 118 106 118 118 106 118 118 106 118 118 106 118 117 105 117 117 105 117 117 105 117 117 105 117 117 105 117 117 105 117 117 105 117 117 105 117 101 89 99 101 89 99 101 89 99 101 89 99 101 89 99 101 89 99 101 89 99 101 89 99 93 81 91 93 81 91 93 81 91 93 81 91 93 81 91 93 81 91 93 81 91 94 81 91 94 78 91 95 77 91 95 77 91 95 77 91 95 77 91 95 77 91 95 77 91 95 77 91 96 78 92 96 78 92 96 78 92 96 78 92 96 78 92 96 78 92 96 78 92 95 79 92 86 73 83 85 73 83 85 73 83 85 73 83 85 73 83 85 73 83 85 73 83 85 73 83 67 55 65 67 55 65 67 55 65 67 55 65 67 55 65 67 55 65 67 55 65 66 56 65
4 2 16 4 2 16 4 2 16 4 2 16 3 1 15 3 1 15 3 1 15 3 1 15 3 1 15 3 1 15 3 1 15 3 1 14 5 0 13 5 0 11 5 0 11 5 0 11 5 0 11 5 0 11 5 0 11 5 0 11 3 0 9 3 0 9 7 1 13 13 7 19 19 13 25 25 19 31 29 23 35 34 24 35 57 41 51 62 42 51 67 47 56 72 52 61 79 59 68 84 64 73 89 69 78 91 71 80 112 92 101 112 92 101 112 92 101 112 92 101 112 92 101 112 92 101 112 92 101 112 93 99 117 100 106 117 101 104 117 101 104 117 101 104 117 101 104 117 101 104 117 101 104 117 101 104 119 103 106 119 103 106 119 103 106 119 103 106 119 103 106 119 103 106 119 103 106 119 103 106 119 103 106 119 103 106 119 103 106 119 103 106 119 103 106 119 103 106 119 103 106 119 103 106 125 109 112 125 109 112 125 109 112 125 109 112 125 109 112 125 109 112 125 109 112 125 109 112 126 111 118 126 111 118 126 111 118 126 111 118 126 111 118 126 111 118 126 111 118 126 111 118 132 117 124 132 117 124 132 117 124 132 117 124 132 117 124 132 117 124 132 117 124 130 117 126 127 114 124 126 114 126 126 114 126 126 114 126 126 114 126 126 114 126 126 114 126 126 114 126 113 101 113 113 101 113 113 101 113 113 101 113 113 101 113 113 101 113 113 101 113 113 101 113 117 105 117 117 105 117 117 105 117 117 105 117 117 105 117 117 105 117 117 105 117 117 105 117 116 104 116 116 104 116 116 104 116 116 104 116 116 104 116 116 104 116 116 104 116 116 104 116 106 94 104 106 94 104 106 94 104 106 94 104 106 94 104 106 94 104 106 94 104 106 94 104 95 83 93 95 83 93 95 83 93 95 83 93 95 83 93 95 83 93 95 83 93 96 83 93 96 80 93 97 79 93 97 79 93 97 79 93 97 79 93 97 79 93 97 79 93 97 79 93 98 80 94 98 80 94 98 80 94 98 80 94 98 80 94 98 80 94 98 80 94 97 81 94 85 72 82 84 72 82 84 72 82 84 72 82 84 72 82 84 72 82 84 72 82 84 72 82 79 67 77 79 67 77 79 67 77 79 67 77 79 67 77 79 67 77 79 67 77 78 68 77
4 2 16 4 2 16 4 2 16 4 2 16 3 1 15 3 1 15 3 1 15 3 1 15 3 1 15 3 1 15 3 1 15 3 1 14 5 0 13 5 0 11 5 0 11 5 0 11 5 0 11 5 0 11 5 0 11 5 0 11 3 0 9 3 0 9 8 2 14 15 9 21 22 16 28 29 23 35 34 28 40 40 30 41 66 50 60 72 52 61 77 57 66 84 64 73 92 72 81 98 78 87 104 84 93 107 87 96 111 91 100 111 91 100 111 91 100 111 91 100 111 91 100 111 91 100 111 91 100 111 92 98 116 99 105 116 100 103 116 100 103 116 100 103 116 100 103 116 100 103 116 100 103 116 100 103 118 102 105 118 102 105 118 102 105 118 102 105 118 102 105 118 102 105 118 102 105 118 102 105 118 102 105 118 102 105 118 102 105 118 102 105 118 102 105 118 102 105 118 102 105 118 102 105 127 111 114 127 111 114 127 111 114 127 111 114 127 111 114 127 111 114 127 111 114 127 111 114 128 113 120 128 113 120 128 113 120 128 113 120 128 113 120 128 113 120 128 113 120 128 113 120 126 111 118 126 111 118 126 111 118 126 111 118 126 111 118 126 111 118 126 111 118 124 111 120 121 108 118 120 108 120 120 108 120 120 108 120 120 108 120 120 108 120 120 108 120 120 108 120 112 100 112 112 100 112 112 100 112 112 100 112 112 100 112 112 100 112 112 100 112 112 100 112 108 96 108 108 96 108 108 96 108 108 96 108 108 96 108 108 96 108 108 96 108 108 96 108 107 95 107 107 95 107 107 95 107 107 95 107 107 95 107 107 95 107 107 95 107 107 95 107 105 93 103 105 93 103 105 93 103 105 93 103 105 93 103 105 93 103 105 93 103 105 93 103 92 80 90 92 80 90 92 80 90 92 80 90 92 80 90 92 80 90 92 80 90 93 80 90 93 77 90 94 76 90 94 76 90 94 76 90 94 76 90 94 76 90 94 76 90 94 76 90 95 77 91 95 77 91 95 77 91 95 77 91 95 77 91 95 77 91 95 77 91 94 78 91 80 67 77 79 67 77 79 67 77 79 67 77 79 67 77 79 67 77 79 67 77 79 67 77 72 60 70 72 60 70 72 60 70 72 60 70 72 60 70 72 60 70 72 60 70 71 61 70
4 2 16 4 2 16 4 2 16 4 2 16 3 1 15 3 1 15 3 1 15 3 1 15 3 1 15 3 1 15 3 1 15 3 1 14 5 0 13 5 0 11 5 0 11 5 0 11 5 0 11 5 0 11 5 0 11 5 0 11 3 0 9 3 0 9 8 2 14 16 10 22 24 18 30 31 25 37 37 31 43 43 33 44 71 55 65 77 57 66 83 63 72 90 70 79 98 78 87 106 86 95 112 92 101 115 95 104 120 100 109 120 100 109 120 100 109 120 100 109 120 100 109 120 100 109 120 100 109 120 101 107 125 108 114 125 109 112 125 109 112 125 109 112 125 109 112 125 109 112 125 109 112 125 109 112 127 111 114 127 111 114 127 111 114 127 111 114 127 111 114 127 111 114 127 111 114 127 111 114 127 111 114 127 111 114 127 111 114 127 111 114 127 111 114 127 111 114 127 111 114 127 111 114 136 120 123 136 120 123 136 120 123 136 120 123 136 120 123 136 120 123 136 120 123 136 120 123 137 122 129 137 122 129 137 122 129 137 122 129 137 122 129 137 122 129 137 122 129 137 122 129 130 115 122 130 115 122 130 115 122 130 115 122 130 115 122 130 115 122 130 115 122 128 115 124 125 112 122 124 112 124 124 112 124 124 112 124 124 112 124 124 112 124 124 112 124 124 112 124 121 109 121 121 109 121 121 109 121 121 109 121 121 109 121 121 109 121 121 109 121 121 109 121 111 99 111 111 99 111 111 99 111 111 99 111 111 99 111 111 99 111 111 99 111 111 99 111 110 98 110 110 98 110 110 98 110 110 98 110 110 98 110 110 98 110 110 98 110 110 98 110 114 102 112 114 102 112 114 102 112 114 102 112 114 102 112 114 102 112 114 102 112 114 102 112 99 87 97 99 87 97 99 87 97 99 87 97 99 87 97 99 87 97 99 87 97 100 87 97 100 84 97 101 83 97 101 83 97 101 83 97 101 83 97 101 83 97 101 83 97 101 83 97 102 84 98 102 84 98 102 84 98 102 84 98 102 84 98 102 84 98 102 84 98 101 85 98 85 72 82 84 72 82 84 72 82 84 72 82 84 72 82 84 72 82 84 72 82 84 72 82 59 47 57 59 47 57 59 47 57 59 47 57 59 47 57 59 47 57 59 47 57 58 48 57
7 5 19 7 5 19 7 5 19 7 5 19 7 5 19 7 5 19 7 5 19 7 5 19 7 5 19 7 5 19 7 5 19 7 5 18 10 4 18 5 0 11 3 0 9 3 0 9 3 0 9 5 0 11 14 8 20 21 15 27 18 12 24 22 16 28 31 25 37 41 35 47 53 47 59 64 58 70 72 66 78 80 70 81 103 87 97 107 87 96 109 89 98 113 93 102 116 96 105 119 99 108 122 102 111 123 103 112 125 105 114 125 105 114 125 105 114 125 105 114 125 105 114 125 105 114 125 105 114 125 106 112 129 112 118 129 113 116 129 113 116 129 113 116 129 113 116 129 113 116 129 113 116 129 113 116 131 115 118 131 115 118 131 115 118 131 115 118 131 115 118 131 115 118 131 115 118 131 115 118 132 116 119 132 116 119 132 116 119 132 116 119 132 116 119 132 116 119 132 116 119 132 116 119 141 125 128 141 125 128 141 125 128 141 125 128 141 125 128 141 125 128 141 125 128 141 125 128 137 122 129 137 122 129 137 122 129 137 122 129 137 122 129 137 122 129 137 122 129 137 122 129 134 119 126 134 119 126 134 119 126 134 119 126 134 119 126 134 119 126 134 119 126 132 119 128 126 113 123 125 113 125 125 113 125 125 113 125 125 113 125 125 113 125 125 113 125 125 113 125 125 113 125 123 111 123 121 109 121 118 106 118 114 102 114 111 99 111 109 97 109 107 95 107 119 107 119 119 107 119 119 107 119 119 107 119 119 107 119 119 107 119 119 107 119 119 107 119 113 101 113 113 101 113 113 101 113 113 101 113 113 101 113 113 101 113 113 101 113 113 101 113 98 86 96 98 86 96 98 86 96 98 86 96 98 86 96 98 86 96 98 86 96 98 86 96 90 78 88 90 78 88 90 78 88 90 78 88 90 78 88 90 78 88 90 78 88 91 78 88 93 77 90 94 76 90 94 76 90 94 76 90 94 76 90 94 76 90 94 76 90 94 76 90 90 72 86 90 72 86 90 72 86 90 72 86 90 72 86 90 72 86 90 72 86 89 73 86 89 76 86 87 75 85 85 73 83 81 69 79 78 66 76 75 63 73 72 60 70 71 59 69 65 53 63 64 52 62 62 50 60 58 46 56 55 43 53 52 40 50 49 37 47 47 37 46
7 5 19 7 5 19 7 5 19 7 5 19 7 5 19 7 5 19 7 5 19 7 5 19 7 5 19 7 5 19 7 5 19 7 5 18 11 5 19 6 0 12 3 0 9 3 0 9 3 0 9 8 2 14 18 12 24 25 19 31 25 19 31 29 23 35 37 31 43 47 41 53 58 52 64 68 62 74 76 70 82 83 73 84 104 88 98 108 88 97 111 91 100 114 94 103 117 97 106 121 101 110 123 103 112 124 104 113 127 107 116 127 107 116 127 107 116 127 107 116 127 107 116 127 107 116 127 107 116 127 108 114 131 114 120 131 115 118 131 115 118 131 115 118 131 115 118 131 115 118 131 115 118 131 115 118 133 117 120 133 117 120 133 117 120 133 117 120 133 117 120 133 117 120 133 117 120 133 117 120 134 118 121 134 118 121 134 118 121 134 118 121 134 118 121 134 118 121 134 118 121 134 118 121 141 125 128 141 125 128 141 125 128 141 125 128 141 125 128 141 125 128 141 125 128 141 125 128 137 122 129 137 122 129 137 122 129 137 122 129 137 122 129 137 122 129 137 122 129 137 122 129 134 119 126 134 119 126 134 119 126 134 119 126 134 119 126 134 119 126 134 119 126 132 119 128 126 113 123 125 113 125 125 113 125 125 113 125 125 113 125 125 113 125 125 113 125 125 113 125 125 113 125 123 111 123 121 109 121 118 106 118 114 102 114 111 99 111 109 97 109 107 95 107 117 105 117 117 105 117 117 105 117 117 105 117 117 105 117 117 105 117 117 105 117 117 105 117 111 99 111 111 99 111 111 99 111 111 99 111 111 99 111 111 99 111 111 99 111 111 99 111 98 86 96 98 86 96 98 86 96 98 86 96 98 86 96 98 86 96 98 86 96 98 86 96 90 78 88 90 78 88 90 78 88 90 78 88 90 78 88 90 78 88 90 78 88 91 78 88 93 77 90 94 76 90 94 76 90 94 76 90 94 76 90 94 76 90 94 76 90 94 76 90 90 72 86 90 72 86 90 72 86 90 72 86 90 72 86 90 72 86 90 72 86 89 73 86 88 75 85 86 74 84 83 71 81 80 68 78 77 65 75 73 61 71 71 59 69 70 58 68 64 52 62 63 51 61 60 48 58 57 45 55 54 42 52 50 38 48 48 36 46 46 36 45
7 5 19 7 5 19 7 5 19 7 5 19 7 5 19 7 5 19 7 5 19 7 5 19 7 5 19 7 5 19 7 5 19 7 5 18 12 6 20 8 2 14 3 0 9 3 0 9 6 0 12 15 9 21 26 20 32 33 27 39 38 32 44 42 36 48 49 43 55 58 52 64 67 61 73 76 70 82 83 77 89 89 79 90 106 90 100 111 91 100 113 93 102 116 96 105 120 100 109 123 103 112 125 105 114 127 107 116 129 109 118 129 109 118 129 109 118 129 109 118 129 109 118 129 109 118 129 109 118 129 110 116 133 116 122 133 117 120 133 117 120 133 117 120 133 117 120 133 117 120 133 117 120 133 117 120 135 119 122 135 119 122 135 119 122 135 119 122 135 119 122 135 119 122 135 119 122 135 119 122 136 120 123 136 120 123 136 120 123 136 120 123 136 120 123 136 120 123 136 120 123 136 120 123 141 125 128 141 125 128 141 125 128 141 125 128 141 125 128 141 125 128 141 125 128 141 125 128 137 122 129 137 122 129 137 122 129 137 122 129 137 122 129 137 122 129 137 122 129 137 122 129 134 119 126 134 119 126 134 119 126 134 119 126 134 119 126 134 119 126 134 119 126 132 119 128 126 113 123 125 113 125 125 113 125 125 113 125 125 113 125 125 113 125 125 113 125 125 113 125 125 113 125 123 111 123 121 109 121 118 106 118 114 102 114 111 99 111 109 97 109 107 95 107 115 103 115 115 103 115 115 103 115 115 103 115 115 103 115 115 103 115 115 103 115 115 103 115 109 97 109 109 97 109 109 97 109 109 97 109 109 97 109 109 97 109 109 97 109 109 97 109 98 86 96 98 86 96 98 86 96 98 86 96 98 86 96 98 86 96 98 86 96 98 86 96 90 78 88 90 78 88 90 78 88 90 78 88 90 78 88 90 78 88 90 78 88 91 78 88 93 77 90 94 76 90 94 76 90 94 76 90 94 76 90 94 76 90 94 76 90 94 76 90 90 72 86 90 72 86 90 72 86 90 72 86 90 72 86 90 72 86 90 72 86 89 73 86 86 73 83 83 71 81 81 69 79 78 66 76 74 62 72 71 59 69 69 57 67 67 55 65 62 50 60 60 48 58 58 46 56 55 43 53 51 39 49 48 36 46 46 34 44 43 33 42
7 5 19 7 5 19 7 5 19 7 5 19 7 5 19 7 5 19 7 5 19 7 5 19 7 5 19 7 5 19 7 5 19 7 5 18 14 8 22 11 5 17 7 1 13 7 1 13 13 7 19 24 18 30 36 30 42 44 38 50 55 49 61 58 52 64 64 58 70 71 65 77 79 73 85 86 80 92 92 86 98 98 88 99 110 94 104 114 94 103 116 96 105 120 100 109 123 103 112 126 106 115 129 109 118 130 110 119 132 112 121 132 112 121 132 112 121 132 112 121 132 112 121 132 112 121 132 112 121 132 113 119 136 119 125 136 120 123 136 120 123 136 120 123 136 120 123 136 120 123 136 120 123 136 120 123 138 122 125 138 122 125 138 122 125 138 122 125 138 122 125 138 122 125 138 122 125 138 122 125 139 123 126 139 123 126 139 123 126 139 123 126 139 123 126 139 123 126 139 123 126 139 123 126 141 125 128 141 125 128 141 125 128 141 125 128 141 125 128 141 125 128 141 125 128 141 125 128 137 122 129 137 122 129 137 122 129 137 122 129 137 122 129 137 122 129 137 122 129 137 122 129 134 119 126 134 119 126 134 119 126 134 119 126 134 119 126 134 119 126 134 119 126 132 119 128 126 113 123 125 113 125 125 113 125 125 113 125 125 113 125 125 113 125 125 113 125 125 113 125 125 113 125 123 111 123 121 109 121 118 106 118 114 102 114 111 99 111 109 97 109 107 95 107 112 100 112 112 100 112 112 100 112 112 100 112 112 100 112 112 100 112 112 100 112 112 100 112 106 94 106 106 94 106 106 94 106 106 94 106 106 94 106 106 94 106 106 94 106 106 94 106 98 86 96 98 86 96 98 86 96 98 86 96 98 86 96 98 86 96 98 86 96 98 86 96 90 78 88 90 78 88 90 78 88 90 78 88 90 78 88 90 78 88 90 78 88 91 78 88 93 77 90 94 76 90 94 76 90 94 76 90 94 76 90 94 76 90 94 76 90 94 76 90 90 72 86 90 72 86 90 72 86 90 72 86 90 72 86 90 72 86 90 72 86 89 73 86 82 69 79 80 68 78 78 66 76 74 62 72 71 59 69 68 56 66 65 53 63 64 52 62 58 46 56 57 45 55 55 43 53 51 39 49 48 36 46 45 33 43 42 30 40 40 30 39
7 5 19 7 5 19 7 5 19 7 5 19 7 5 19 7 5 19 7 5 19 7 5 19 7 5 19 7 5 19 7 5 19 7 5 18 16 10 24 14 8 20 11 5 17 13 7 19 21 15 27 34 28 40 47 41 53 56 50 62 74 68 80 76 70 82 80 74 86 86 80 92 92 86 98 97 91 103 102 96 108 107 97 108 113 97 107 117 97 106 120 100 109 123 103 112 126 106 115 130 110 119 132 112 121 133 113 122 136 116 125 136 116 125 136 116 125 136 116 125 136 116 125 136 116 125 136 116 125 136 117 123 140 123 129 140 124 127 140 124 127 140 124 127 140 124 127 140 124 127 140 124 127 140 124 127 142 126 129 142 126 129 142 126 129 142 126 129 142 126 129 142 126 129 142 126 129 142 126 129 143 127 130 143 127 130 143 127 130 143 127 130 143 127 130 143 127 130 143 127 130 143 127 130 141 125 128 141 125 128 141 125 128 141 125 128 141 125 128 141 125 128 141 125 128 141 125 128 137 122 129 137 122 129 137 122 129 137 122 129 137 122 129 137 122 129 137 122 129 137 122 129 134 119 126 134 119 126 134 119 126 134 119 126 134 119 126 134 119 126 134 119 126 132 119 128 126 113 123 125 113 125 125 113 125 125 113 125 125 113 125 125 113 125 125 113 125 125 113 125 125 113 125 123 111 123 121 109 121 118 106 118 114 102 114 111 99 111 109 97 109 107 95 107 108 96 108 108 96 108 108 96 108 108 96 108 108 96 108 108 96 108 108 96 108 108 96 108 102 90 102 102 90 102 102 90 102 102 90 102 102 90 102 102 90 102 102 90 102 102 90 102 98 86 96 98 86 96 98 86 96 98 86 96 98 86 96 98 86 96 98 86 96 98 86 96 90 78 88 90 78 88 90 78 88 90 78 88 90 78 88 90 78 88 90 78 88 91 78 88 93 77 90 94 76 90 94 76 90 94 76 90 94 76 90 94 76 90 94 76 90 94 76 90 90 72 86 90 72 86 90 72 86 90 72 86 90 72 86 90 72 86 90 72 86 89 73 86 79 66 76 77 65 75 74 62 72 71 59 69 68 56 66 64 52 62 62 50 60 61 49 59 55 43 53 54 42 52 51 39 49 48 36 46 45 33 43 41 29 39 39 27 37 37 27 36
7 5 19 7 5 19 7 5 19 7 5 19 7 5 19 7 5 19 7 5 19 7 5 19 7 5 19 7 5 19 7 5 19 7 5 18 18 12 26 16 10 22 15 9 21 18 12 24 28 22 34 42 36 48 57 51 63 67 61 73 91 85 97 93 87 99 96 90 102 100 94 106 104 98 110 108 102 114 111 105 117 115 105 116 116 100 110 121 101 110 123 103 112 126 106 115 130 110 119 133 113 122 135 115 124 137 117 126 139 119 128 139 119 128 139 119 128 139 119 128 139 119 128 139 119 128 139 119 128 139 120 126 143 126 132 143 127 130 143 127 130 143 127 130 143 127 130 143 127 130 143 127 130 143 127 130 145 129 132 145 129 132 145 129 132 145 129 132 145 129 132 145 129 132 145 129 132 145 129 132 146 130 133 146 130 133 146 130 133 146 130 133 146 130 133 146 130 133 146 130 133 146 130 133 141 125 128 141 125 128 141 125 128 141 125 128 141 125 128 141 125 128 141 125 128 141 125 128 137 122 129 137 122 129 137 122 129 137 122 129 137 122 129 137 122 129 137 122 129 137 122 129 134 119 126 134 119 126 134 119 126 134 119 126 134 119 126 134 119 126 134 119 126 132 119 128 126 113 123 125 113 125 125 113 125 125 113 125 125 113 125 125 113 125 125 113 125 125 113 125 125 113 125 123 111 123 121 109 121 118 106 118 114 102 114 111 99 111 109 97 109 107 95 107 105 93 105 105 93 105 105 93 105 105 93 105 105 93 105 105 93 105 105 93 105 105 93 105 99 87 99 99 87 99 99 87 99 99 87 99 99 87 99 99 87 99 99 87 99 99 87 99 98 86 96 98 86 96 98 86 96 98 86 96 98 86 96 98 86 96 98 86 96 98 86 96 90 78 88 90 78 88 90 78 88 90 78 88 90 78 88 90 78 88 90 78 88 91 78 88 93 77 90 94 76 90 94 76 90 94 76 90 94 76 90 94 76 90 94 76 90 94 76 90 90 72 86 90 72 86 90 72 86 90 72 86 90 72 86 90 72 86 90 72 86 89 73 86 76 63 73 73 61 71 71 59 69 68 56 66 64 52 62 61 49 59 59 47 57 57 45 55 52 40 50 50 38 48 48 36 46 45 33 43 41 29 39 38 26 36 36 24 34 33 23 32
7 5 19 7 5 19 7 5 19 7 5 19 7 5 19 7 5 19 7 5 19 7 5 19 7 5 19 7 5 19 7 5 19 7 5 18 20 14 28 18 12 24 18 12 24 23 17 29 34 28 40 49 43 55 65 59 71 75 69 81 104 98 110 105 99 111 107 101 113 110 104 116 113 107 119 115 109 121 117 111 123 122 112 123 119 103 113 123 103 112 125 105 114 129 109 118 132 112 121 135 115 124 138 118 127 139 119 128 141 121 130 141 121 130 141 121 130 141 121 130 141 121 130 141 121 130 141 121 130 141 122 128 145 128 134 145 129 132 145 129 132 145 129 132 145 129 132 145 129 132 145 129 132 145 129 132 147 131 134 147 131 134 147 131 134 147 131 134 147 131 134 147 131 134 147 131 134 147 131 134 148 132 135 148 132 135 148 132 135 148 132 135 148 132 135 148 132 135 148 132 135 148 132 135 141 125 128 141 125 128 141 125 128 141 125 128 141 125 128 141 125 128 141 125 128 141 125 128 137 122 129 137 122 129 137 122 129 137 122 129 137 122 129 137 122 129 137 122 129 137 122 129 134 119 126 134 119 126 134 119 126 134 119 126 134 119 126 134 119 126 134 119 126 132 119 128 126 113 123 125 113 125 125 113 125 125 113 125 125 113 125 125 113 125 125 113 125 125 113 125 125 113 125 123 111 123 121 109 121 118 106 118 114 102 114 111 99 111 109 97 109 107 95 107 103 91 103 103 91 103 103 91 103 103 91 103 103 91 103 103 91 103 103 91 103 103 91 103 97 85 97 97 85 97 97 85 97 97 85 97 97 85 97 97 85 97 97 85 97 97 85 97 98 86 96 98 86 96 98 86 96 98 86 96 98 86 96 98 86 96 98 86 96 98 86 96 90 78 88 90 78 88 90 78 88 90 78 88 90 78 88 90 78 88 90 78 88 91 78 88 93 77 90 94 76 90 94 76 90 94 76 90 94 76 90 94 76 90 94 76 90 94 76 90 90 72 86 90 72 86 90 72 86 90 72 86 90 72 86 90 72 86 90 72 86 89 73 86 73 60 70 71 59 69 69 57 67 65 53 63 62 50 60 59 47 57 56 44 54 55 43 53 49 37 47 48 36 46 46 34 44 42 30 40 39 27 37 36 24 34 33 21 31 31 21 30
7 5 19 7 5 19 7 5 19 7 5 19 7 5 19 7 5 19 7 5 19 7 5 19 7 5 19 7 5 19 7 5 19 8 4 18 22 14 27 20 12 23 21 13 26 26 18 29 38 30 43 54 46 57 70 62 75 80 72 83 112 104 117 113 105 116 115 107 120 117 109 120 119 111 124 121 113 124 122 114 127 126 114 126 120 104 114 122 105 113 127 107 116 128 111 119 133 113 122 135 118 126 139 119 128 138 121 129 143 123 132 141 124 132 143 123 132 141 124 132 143 123 132 141 124 132 143 123 132 141 124 132 147 130 136 147 131 134 147 130 136 147 131 134 147 130 136 147 131 134 147 130 136 147 131 134 149 132 138 149 133 136 149 132 138 149 133 136 149 132 138 149 133 136 149 132 138 149 133 136 150 133 139 150 134 137 150 133 139 150 134 137 150 133 139 150 134 137 150 133 139 150 134 137 141 124 130 141 125 128 141 124 130 141 125 128 141 124 130 141 125 128 141 124 130 141 124 130 138 121 129 137 122 129 138 121 129 137 122 129 138 121 129 137 122 129 138 121 129 137 122 129 135 118 126 134 119 126 135 118 126 134 119 126 135 118 126 134 119 126 135 118 126 134 118 128 126 113 123 126 113 123 126 112 125 126 113 123 126 112 125 126 113 123 126 112 125 126 113 123 126 112 125 124 111 121 122 108 121 119 106 116 115 101 114 112 99 109 110 96 109 108 94 107 102 88 101 101 89 101 102 88 101 101 89 101 102 88 101 101 89 101 102 88 101 101 89 101 96 82 95 95 83 95 96 82 95 95 83 95 96 82 95 95 83 95 96 82 95 95 83 95 98 86 96 98 86 96 98 86 96 98 86 96 98 86 96 98 86 96 98 86 96 98 86 96 90 78 88 90 78 88 90 78 88 90 78 88 90 78 88 90 78 88 90 78 88 91 78 88 93 77 90 93 77 90 93 77 90 93 77 90 93 77 90 93 77 90 93 77 90 93 77 90 89 73 86 89 73 86 89 73 86 89 73 86 89 73 86 89 73 86 89 73 86 87 73 86 70 60 71 67 60 68 64 56 67 61 54 62 58 50 61 54 47 55 52 44 55 51 44 52 45 37 48 44 37 45 41 33 44 38 31 39 35 27 38 31 24 32 29 21 32 27 21 31
10 6 20 10 6 20 10 6 20 10 6 20 20 16 30 15 11 25 8 4 18 5 1 15 7 3 17 14 10 24 24 20 34 32 26 40 17 5 17 26 13 23 40 26 39 58 45 55 78 64 77 97 84 94 111 97 110 118 105 115 128 114 127 128 115 125 128 114 127 128 115 125 128 114 127 128 115 125 128 114 127 128 115 125 136 120 130 136 120 130 137 120 130 136 120 130 137 120 130 136 120 130 137 120 130 136 120 130 149 132 142 148 132 142 149 132 142 148 132 142 149 132 142 148 132 142 149 132 142 148 133 140 149 134 141 149 134 139 149 134 141 149 134 139 149 134 141 149 134 139 149 134 141 149 134 139 149 134 141 149 134 139 149 134 141 149 134 139 149 134 141 149 134 139 149 134 141 149 134 139 148 133 140 148 133 138 148 133 140 148 133 138 148 133 140 148 133 138 148 133 140 148 133 138 146 131 138 146 131 136 146 131 138 146 131 136 146 131 138 146 131 136 146 131 138 147 130 138 143 126 134 143 126 134 145 125 134 143 126 134 145 125 134 143 126 134 145 125 134 143 126 134 141 121 130 139 122 130 141 121 130 139 122 130 141 121 130 139 122 130 141 121 130 139 122 130 138 121 131 135 119 129 133 117 128 130 114 124 126 110 121 123 107 117 121 105 116 119 103 113 122 106 117 121 105 115 119 103 114 115 99 109 112 96 107 109 93 103 106 90 101 105 89 100 99 83 96 97 83 96 99 83 96 97 83 96 99 83 96 97 83 96 99 83 96 97 83 96 94 78 91 92 78 91 94 78 91 92 78 91 94 78 91 92 78 91 94 78 91 92 78 91 90 76 89 90 76 89 90 76 89 90 76 89 90 76 89 90 76 89 90 76 89 90 76 89 86 72 85 86 72 85 86 72 85 86 72 85 86 72 85 86 72 85 86 72 85 86 72 85 83 69 84 83 69 84 83 69 84 83 69 84 83 69 84 83 69 84 83 69 84 83 69 84 85 71 86 84 70 85 82 68 83 78 64 79 75 61 76 72 58 73 69 55 70 66 55 69 53 50 61 51 50 58 49 47 58 45 44 52 42 40 51 39 38 46 36 34 45 35 34 42 21 19 30 21 20 28 21 19 30 21 20 28 21 19 30 21 20 28 21 19 30 20 20 28
10 6 20 10 6 20 10 6 20 10 6 20 15 11 25 10 6 20 4 0 14 1 0 11 4 0 14 12 8 22 22 18 32 31 25 37 27 13 26 36 20 31 49 33 44 66 50 61 85 69 80 102 86 97 115 99 110 122 106 117 132 116 127 132 116 127 132 116 127 132 116 127 132 116 127 132 116 127 132 116 127 132 116 127 138 122 132 138 122 132 138 122 132 138 122 132 138 122 132 138 122 132 138 122 132 138 122 132 148 132 142 148 132 142 148 132 142 148 132 142 148 132 142 148 132 142 148 132 142 148 132 142 149 134 141 149 134 141 149 134 141 149 134 141 149 134 141 149 134 141 149 134 141 149 134 141 149 134 141 149 134 141 149 134 141 149 134 141 149 134 141 149 134 141 149 134 141 149 134 141 148 133 140 148 133 140 148 133 140 148 133 140 148 133 140 148 133 140 148 133 140 148 133 140 146 131 138 146 131 138 146 131 138 146 131 138 146 131 138 146 131 138 146 131 138 146 131 138 145 125 134 145 125 134 145 125 134 145 125 134 145 125 134 145 125 134 145 125 134 145 125 134 141 121 130 141 121 130 141 121 130 141 121 130 141 121 130 141 121 130 141 121 130 141 121 130 138 121 131 136 119 129 134 117 127 131 114 124 127 110 120 124 107 117 122 105 115 120 103 113 122 105 115 121 104 114 118 101 111 115 98 108 112 95 105 108 91 101 106 89 99 105 88 98 99 83 96 99 83 96 99 83 96 99 83 96 99 83 96 99 83 96 99 83 96 99 83 96 94 78 91 94 78 91 94 78 91 94 78 91 94 78 91 94 78 91 94 78 91 94 78 91 90 76 89 90 76 89 90 76 89 90 76 89 90 76 89 90 76 89 90 76 89 90 76 89 86 72 85 86 72 85 86 72 85 86 72 85 86 72 85 86 72 85 86 72 85 86 72 85 82 70 84 82 70 84 82 70 84 82 70 84 82 70 84 82 70 84 82 70 84 82 70 84 83 71 85 82 70 84 79 67 81 76 64 78 73 61 75 69 57 71 67 55 69 63 55 68 51 49 60 47 50 59 44 47 56 41 44 53 38 41 50 34 37 46 32 35 44 31 34 43 18 21 30 18 21 30 18 21 30 18 21 30 18 21 30 18 21 30 18 21 30 17 21 30
10 6 20 10 6 20 10 6 20 10 6 20 8 4 18 4 0 14 1 0 11 1 0 11 2 0 12 11 7 21 22 18 32 31 25 37 44 30 43 52 36 47 63 47 58 77 61 72 93 77 88 108 92 103 119 103 114 125 109 120 134 118 129 134 118 129 134 118 129 134 118 129 134 118 129 134 118 129 134 118 129 134 118 129 140 124 134 140 124 134 140 124 134 140 124 134 140 124 134 140 124 134 140 124 134 140 124 134 148 132 142 148 132 142 148 132 142 148 132 142 148 132 142 148 132 142 148 132 142 148 132 142 149 134 141 149 134 141 149 134 141 149 134 141 149 134 141 149 134 141 149 134 141 149 134 141 149 134 141 149 134 141 149 134 141 149 134 141 149 134 141 149 134 141 149 134 141 149 134 141 148 133 140 148 133 140 148 133 140 148 133 140 148 133 140 148 133 140 148 133 140 148 133 140 146 131 138 146 131 138 146 131 138 146 131 138 146 131 138 146 131 138 146 131 138 146 131 138 145 125 134 145 125 134 145 125 134 145 125 134 145 125 134 145 125 134 145 125 134 145 125 134 141 121 130 141 121 130 141 121 130 141 121 130 141 121 130 141 121 130 141 121 130 141 121 130 138 121 131 136 119 129 134 117 127 131 114 124 127 110 120 124 107 117 122 105 115 120 103 113 120 103 113 118 101 111 116 99 109 113 96 106 109 92 102 106 89 99 104 87 97 102 85 95 99 83 96 99 83 96 99 83 96 99 83 96 99 83 96 99 83 96 99 83 96 99 83 96 94 78 91 94 78 91 94 78 91 94 78 91 94 78 91 94 78 91 94 78 91 94 78 91 90 76 89 90 76 89 90 76 89 90 76 89 90 76 89 90 76 89 90 76 89 90 76 89 86 72 85 86 72 85 86 72 85 86 72 85 86 72 85 86 72 85 86 72 85 86 72 85 82 70 84 82 70 84 82 70 84 82 70 84 82 70 84 82 70 84 82 70 84 82 70 84 81 69 83 79 67 81 77 65 79 74 62 76 70 58 72 67 55 69 65 53 67 60 52 65 49 47 58 44 47 56 42 45 54 39 42 51 35 38 47 32 35 44 30 33 42 28 31 40 18 21 30 18 21 30 18 21 30 18 21 30 18 21 30 18 21 30 18 21 30 17 21 30
10 6 20 10 6 20 10 6 20 10 6 20 5 1 15 1 0 11 1 0 11 1 0 11 3 0 13 14 10 24 27 23 37 36 30 42 65 51 64 72 56 67 81 65 76 92 76 87 104 88 99 116 100 111 124 108 119 129 113 124 137 121 132 137 121 132 137 121 132 137 121 132 137 121 132 137 121 132 137 121 132 137 121 132 143 127 137 143 127 137 143 127 137 143 127 137 143 127 137 143 127 137 143 127 137 143 127 137 148 132 142 148 132 142 148 132 142 148 132 142 148 132 142 148 132 142 148 132 142 148 132 142 149 134 141 149 134 141 149 134 141 149 134 141 149 134 141 149 134 141 149 134 141 149 134 141 149 134 141 149 134 141 149 134 141 149 134 141 149 134 141 149 134 141 149 134 141 149 134 141 148 133 140 148 133 140 148 133 140 148 133 140 148 133 140 148 133 140 148 133 140 148 133 140 146 131 138 146 131 138 146 131 138 146 131 138 146 131 138 146 131 138 146 131 138 146 131 138 145 125 134 145 125 134 145 125 134 145 125 134 145 125 134 145 125 134 145 125 134 145 125 134 141 121 130 141 121 130 141 121 130 141 121 130 141 121 130 141 121 130 141 121 130 141 121 130 138 121 131 136 119 129 134 117 127 131 114 124 127 110 120 124 107 117 122 105 115 120 103 113 116 99 109 115 98 108 113 96 106 109 92 102 106 89 99 103 86 96 100 83 93 99 82 92 99 83 96 99 83 96 99 83 96 99 83 96 99 83 96 99 83 96 99 83 96 99 83 96 94 78 91 94 78 91 94 78 91 94 78 91 94 78 91 94 78 91 94 78 91 94 78 91 90 76 89 90 76 89 90 76 89 90 76 89 90 76 89 90 76 89 90 76 89 90 76 89 86 72 85 86 72 85 86 72 85 86 72 85 86 72 85 86 72 85 86 72 85 86 72 85 82 70 84 82 70 84 82 70 84 82 70 84 82 70 84 82 70 84 82 70 84 82 70 84 77 65 79 76 64 78 74 62 76 70 58 72 67 55 69 64 52 66 61 49 63 57 49 62 45 43 54 41 44 53 39 42 51 35 38 47 32 35 44 29 32 41 26 29 38 25 28 37 18 21 30 18 21 30 18 21 30 18 21 30 18 21 30 18 21 30 18 21 30 17 21 30
10 6 20 10 6 20 10 6 20 10 6 20 7 3 17 4 0 14 2 0 12 3 0 13 11 7 21 24 20 34 38 34 48 48 42 54 89 75 88 94 78 89 100 84 95 108 92 103 116 100 111 124 108 119 130 114 125 133 117 128 141 125 136 141 125 136 141 125 136 141 125 136 141 125 136 141 125 136 141 125 136 141 125 136 147 131 141 147 131 141 147 131 141 147 131 141 147 131 141 147 131 141 147 131 141 147 131 141 148 132 142 148 132 142 148 132 142 148 132 142 148 132 142 148 132 142 148 132 142 148 132 142 149 134 141 149 134 141 149 134 141 149 134 141 149 134 141 149 134 141 149 134 141 149 134 141 149 134 141 149 134 141 149 134 141 149 134 141 149 134 141 149 134 141 149 134 141 149 134 141 148 133 140 148 133 140 148 133 140 148 133 140 148 133 140 148 133 140 148 133 140 148 133 140 146 131 138 146 131 138 146 131 138 146 131 138 146 131 138 146 131 138 146 131 138 146 131 138 145 125 134 145 125 134 145 125 134 145 125 134 145 125 134 145 125 134 145 125 134 145 125 134 141 121 130 141 121 130 141 121 130 141 121 130 141 121 130 141 121 130 141 121 130 141 121 130 138 121 131 136 119 129 134 117 127 131 114 124 127 110 120 124 107 117 122 105 115 120 103 113 113 96 106 112 95 105 109 92 102 106 89 99 103 86 96 99 82 92 97 80 90 96 79 89 99 83 96 99 83 96 99 83 96 99 83 96 99 83 96 99 83 96 99 83 96 99 83 96 94 78 91 94 78 91 94 78 91 94 78 91 94 78 91 94 78 91 94 78 91 94 78 91 90 76 89 90 76 89 90 76 89 90 76 89 90 76 89 90 76 89 90 76 89 90 76 89 86 72 85 86 72 85 86 72 85 86 72 85 86 72 85 86 72 85 86 72 85 86 72 85 82 70 84 82 70 84 82 70 84 82 70 84 82 70 84 82 70 84 82 70 84 82 70 84 74 62 76 73 61 75 70 58 72 67 55 69 64 52 66 60 48 62 58 46 60 54 46 59 42 40 51 38 41 50 35 38 47 32 35 44 29 32 41 25 28 37 23 26 35 22 25 34 18 21 30 18 21 30 18 21 30 18 21 30 18 21 30 18 21 30 18 21 30 17 21 30
10 6 20 10 6 20 10 6 20 10 6 20 14 10 24 12 8 22 11 7 21 14 10 24 24 20 34 39 35 49 53 49 63 65 59 71 110 96 109 114 98 109 118 102 113 122 106 117 127 111 122 132 116 127 135 119 130 137 121 132 144 128 139 144 128 139 144 128 139 144 128 139 144 128 139 144 128 139 144 128 139 144 128 139 150 134 144 150 134 144 150 134 144 150 134 144 150 134 144 150 134 144 150 134 144 150 134 144 148 132 142 148 132 142 148 132 142 148 132 142 148 132 142 148 132 142 148 132 142 148 132 142 149 134 141 149 134 141 149 134 141 149 134 141 149 134 141 149 134 141 149 134 141 149 134 141 149 134 141 149 134 141 149 134 141 149 134 141 149 134 141 149 134 141 149 134 141 149 134 141 148 133 140 148 133 140 148 133 140 148 133 140 148 133 140 148 133 140 148 133 140 148 133 140 146 131 138 146 131 138 146 131 138 146 131 138 146 131 138 146 131 138 146 131 138 146 131 138 145 125 134 145 125 134 145 125 134 145 125 134 145 125 134 145 125 134 145 125 134 145 125 134 141 121 130 141 121 130 141 121 130 141 121 130 141 121 130 141 121 130 141 121 130 141 121 130 138 121 131 136 119 129 134 117 127 131 114 124 127 110 120 124 107 117 122 105 115 120 103 113 110 93 103 108 91 101 106 89 99 103 86 96 99 82 92 96 79 89 94 77 87 92 75 85 99 83 96 99 83 96 99 83 96 99 83 96 99 83 96 99 83 96 99 83 96 99 83 96 94 78 91 94 78 91 94 78 91 94 78 91 94 78 91 94 78 91 94 78 91 94 78 91 90 76 89 90 76 89 90 76 89 90 76 89 90 76 89 90 76 89 90 76 89 90 76 89 86 72 85 86 72 85 86 72 85 86 72 85 86 72 85 86 72 85 86 72 85 86 72 85 82 70 84 82 70 84 82 70 84 82 70 84 82 70 84 82 70 84 82 70 84 82 70 84 71 59 73 69 57 71 67 55 69 64 52 66 60 48 62 57 45 59 55 43 57 50 42 55 39 37 48 34 37 46 32 35 44 29 32 41 25 28 37 22 25 34 20 23 32 18 21 30 18 21 30 18 21 30 18 21 30 18 21 30 18 21 30 18 21 30 18 21 30 17 21 30
10 6 20 10 6 20 10 6 20 10 6 20 24 20 34 22 18 32 22 18 32 27 23 37 38 34 48 53 49 63 69 65 79 81 75 87 127 113 126 130 114 125 131 115 126 133 117 128 136 120 131 138 122 133 139 123 134 140 124 135 146 130 141 146 130 141 146 130 141 146 130 141 146 130 141 146 130 141 146 130 141 146 130 141 152 136 146 152 136 146 152 136 146 152 136 146 152 136 146 152 136 146 152 136 146 152 136 146 148 132 142 148 132 142 148 132 142 148 132 142 148 132 142 148 132 142 148 132 142 148 132 142 149 134 141 149 134 141 149 134 141 149 134 141 149 134 141 149 134 141 149 134 141 149 134 141 149 134 141 149 134 141 149 134 141 149 134 141 149 134 141 149 134 141 149 134 141 149 134 141 148 133 140 148 133 140 148 133 140 148 133 140 148 133 140 148 133 140 148 133 140 148 133 140 146 131 138 146 131 138 146 131 138 146 131 138 146 131 138 146 131 138 146 131 138 146 131 138 145 125 134 145 125 134 145 125 134 145 125 134 145 125 134 145 125 134 145 125 134 145 125 134 141 121 130 141 121 130 141 121 130 141 121 130 141 121 130 141 121 130 141 121 130 141 121 130 138 121 131 136 119 129 134 117 127 131 114 124 127 110 120 124 107 117 122 105 115 120 103 113 107 90 100 106 89 99 104 87 97 100 83 93 97 80 90 94 77 87 91 74 84 90 73 83 99 83 96 99 83 96 99 83 96 99 83 96 99 83 96 99 83 96 99 83 96 99 83 96 94 78 91 94 78 91 94 78 91 94 78 91 94 78 91 94 78 91 94 78 91 94 78 91 90 76 89 90 76 89 90 76 89 90 76 89 90 76 89 90 76 89 90 76 89 90 76 89 86 72 85 86 72 85 86 72 85 86 72 85 86 72 85 86 72 85 86 72 85 86 72 85 82 70 84 82 70 84 82 70 84 82 70 84 82 70 84 82 70 84 82 70 84 82 70 84 68 56 70 67 55 69 65 53 67 61 49 63 58 46 60 55 43 57 52 40 54 48 40 53 36 34 45 32 35 44 30 33 42 26 29 38 23 26 35 20 23 32 17 20 29 16 19 28 18 21 30 18 21 30 18 21 30 18 21 30 18 21 30 18 21 30 18 21 30 17 21 30
10 6 20 10 6 20 10 6 20 10 6 20 30 26 40 29 25 39 29 25 39 34 30 44 46 42 56 63 59 73 79 75 89 91 85 97 136 122 135 138 122 133 139 123 134 139 123 134 140 124 135 141 125 136 141 125 136 142 126 137 148 132 143 148 132 143 148 132 143 148 132 143 148 132 143 148 132 143 148 132 143 148 132 143 154 138 148 154 138 148 154 138 148 154 138 148 154 138 148 154 138 148 154 138 148 154 138 148 148 132 142 148 132 142 148 132 142 148 132 142 148 132 142 148 132 142 148 132 142 148 132 142 149 134 141 149 134 141 149 134 141 149 134 141 149 134 141 149 134 141 149 134 141 149 134 141 149 134 141 149 134 141 149 134 141 149 134 141 149 134 141 149 134 141 149 134 141 149 134 141 148 133 140 148 133 140 148 133 140 148 133 140 148 133 140 148 133 140 148 133 140 148 133 140 146 131 138 146 131 138 146 131 138 146 131 138 146 131 138 146 131 138 146 131 138 146 131 138 145 125 134 145 125 134 145 125 134 145 125 134 145 125 134 145 125 134 145 125 134 145 125 134 141 121 130 141 121 130 141 121 130 141 121 130 141 121 130 141 121 130 141 121 130 141 121 130 138 121 131 136 119 129 134 117 127 131 114 124 127 110 120 124 107 117 122 105 115 120 103 113 106 89 99 105 88 98 102 85 95 99 82 92 96 79 89 92 75 85 90 73 83 89 72 82 99 83 96 99 83 96 99 83 96 99 83 96 99 83 96 99 83 96 99 83 96 99 83 96 94 78 91 94 78 91 94 78 91 94 78 91 94 78 91 94 78 91 94 78 91 94 78 91 90 76 89 90 76 89 90 76 89 90 76 89 90 76 89 90 76 89 90 76 89 90 76 89 86 72 85 86 72 85 86 72 85 86 72 85 86 72 85 86 72 85 86 72 85 86 72 85 82 70 84 82 70 84 82 70 84 82 70 84 82 70 84 82 70 84 82 70 84 82 70 84 67 55 69 66 54 68 63 51 65 60 48 62 57 45 59 53 41 55 51 39 53 47 39 52 35 33 44 31 34 43 28 31 40 25 28 37 22 25 34 18 21 30 16 19 28 15 18 27 18 21 30 18 21 30 18 21 30 18 21 30 18 21 30 18 21 30 18 21 30 17 21 30
14 10 24 12 8 22 10 6 20 9 5 19 17 13 27 25 21 35 39 35 49 57 53 67 77 73 87 96 92 106 110 106 120 119 113 125 143 129 142 145 129 140 145 129 140 145 129 140 145 129 140 145 129 140 145 129 140 145 129 140 150 134 145 150 134 145 150 134 145 150 134 145 150 134 145 150 134 145 150 134 145 150 134 145 151 135 145 151 135 145 151 135 145 151 135 145 151 135 145 151 135 145 151 135 145 151 135 145 151 135 145 151 135 145 151 135 145 151 135 145 151 135 145 151 135 145 151 135 145 151 135 145 151 136 143 151 136 143 151 136 143 151 136 143 151 136 143 151 136 143 151 136 143 151 136 143 152 137 144 152 137 144 152 137 144 152 137 144 152 137 144 152 137 144 152 137 144 152 137 144 151 136 143 151 136 143 151 136 143 151 136 143 151 136 143 151 136 143 151 136 143 151 136 143 147 132 139 147 132 139 147 132 139 147 132 139 147 132 139 147 132 139 147 132 139 147 132 139 144 124 133 144 124 133 144 124 133 144 124 133 144 124 133 144 124 133 144 124 133 144 124 133 138 118 127 138 118 127 138 118 127 138 118 127 138 118 127 138 118 127 138 118 127 138 118 127 131 114 124 129 112 122 127 110 120 124 107 117 120 103 113 117 100 110 115 98 108 113 96 106 104 87 97 102 85 95 100 83 93 97 80 90 93 76 86 90 73 83 88 71 81 86 69 79 89 73 86 89 73 86 89 73 86 89 73 86 89 73 86 89 73 86 89 73 86 89 73 86 81 65 78 81 65 78 81 65 78 81 65 78 81 65 78 81 65 78 81 65 78 81 65 78 79 65 78 79 65 78 79 65 78 79 65 78 79 65 78 79 65 78 79 65 78 79 65 78 76 62 75 76 62 75 76 62 75 76 62 75 76 62 75 76 62 75 76 62 75 76 62 75 78 66 80 77 65 79 75 63 77 71 59 73 68 56 70 65 53 67 62 50 64 61 49 63 54 42 56 53 41 55 51 39 53 47 35 49 44 32 46 41 29 43 38 26 40 34 26 39 18 16 27 15 18 27 15 18 27 15 18 27 15 18 27 15 18 27 15 18 27 15 18 27 14 17 26 14 17 26 14 17 26 14 17 26 14 17 26 14 17 26 14 17 26 13 17 26
13 9 23 12 8 22 11 7 21 11 7 21 31 27 41 38 34 48 51 47 61 68 64 78 86 82 96 103 99 113 116 112 126 125 119 131 143 129 142 145 129 140 145 129 140 145 129 140 145 129 140 145 129 140 145 129 140 145 129 140 150 134 145 150 134 145 150 134 145 150 134 145 150 134 145 150 134 145 150 134 145 150 134 145 151 135 145 151 135 145 151 135 145 151 135 145 151 135 145 151 135 145 151 135 145 151 135 145 151 135 145 151 135 145 151 135 145 151 135 145 151 135 145 151 135 145 151 135 145 151 135 145 151 136 143 151 136 143 151 136 143 151 136 143 151 136 143 151 136 143 151 136 143 151 136 143 152 137 144 152 137 144 152 137 144 152 137 144 152 137 144 152 137 144 152 137 144 152 137 144 151 136 143 151 136 143 151 136 143 151 136 143 151 136 143 151 136 143 151 136 143 151 136 143 147 132 139 147 132 139 147 132 139 147 132 139 147 132 139 147 132 139 147 132 139 147 132 139 144 124 133 144 124 133 144 124 133 144 124 133 144 124 133 144 124 133 144 124 133 144 124 133 138 118 127 138 118 127 138 118 127 138 118 127 138 118 127 138 118 127 138 118 127 138 118 127 131 114 124 129 112 122 127 110 120 124 107 117 120 103 113 117 100 110 115 98 108 113 96 106 104 87 97 102 85 95 100 83 93 97 80 90 93 76 86 90 73 83 88 71 81 86 69 79 89 73 86 89 73 86 89 73 86 89 73 86 89 73 86 89 73 86 89 73 86 89 73 86 81 65 78 81 65 78 81 65 78 81 65 78 81 65 78 81 65 78 81 65 78 81 65 78 79 65 78 79 65 78 79 65 78 79 65 78 79 65 78 79 65 78 79 65 78 79 65 78 76 62 75 76 62 75 76 62 75 76 62 75 76 62 75 76 62 75 76 62 75 76 62 75 77 65 79 76 64 78 73 61 75 70 58 72 67 55 69 63 51 65 61 49 63 60 48 62 53 41 55 52 40 54 49 37 51 46 34 48 43 31 45 39 27 41 37 25 39 33 25 38 18 16 27 15 18 27 15 18 27 15 18 27 15 18 27 15 18 27 15 18 27 15 18 27 14 17 26 14 17 26 14 17 26 14 17 26 14 17 26 14 17 26 14 17 26 13 17 26
14 10 24 15 11 25 16 12 26 17 13 27 53 49 63 59 55 69 70 66 80 84 80 94 100 96 110 115 111 125 126 122 136 134 128 140 143 129 142 145 129 140 145 129 140 145 129 140 145 129 140 145 129 140 145 129 140 145 129 140 150 134 145 150 134 145 150 134 145 150 134 145 150 134 145 150 134 145 150 134 145 150 134 145 151 135 145 151 135 145 151 135 145 151 135 145 151 135 145 151 135 145 151 135 145 151 135 145 151 135 145 151 135 145 151 135 145 151 135 145 151 135 145 151 135 145 151 135 145 151 135 145 151 136 143 151 136 143 151 136 143 151 136 143 151 136 143 151 136 143 151 136 143 151 136 143 152 137 144 152 137 144 152 137 144 152 137 144 152 137 144 152 137 144 152 137 144 152 137 144 151 136 143 151 136 143 151 136 143 151 136 143 151 136 143 151 136 143 151 136 143 151 136 143 147 132 139 147 132 139 147 132 139 147 132 139 147 132 139 147 132 139 147 132 139 147 132 139 144 124 133 144 124 133 144 124 133 144 124 133 144 124 133 144 124 133 144 124 133 144 124 133 138 118 127 138 118 127 138 118 127 138 118 127 138 118 127 138 118 127 138 118 127 138 118 127 131 114 124 129 112 122 127 110 120 124 107 117 120 103 113 117 100 110 115 98 108 113 96 106 104 87 97 102 85 95 100 83 93 97 80 90 93 76 86 90 73 83 88 71 81 86 69 79 89 73 86 89 73 86 89 73 86 89 73 86 89 73 86 89 73 86 89 73 86 89 73 86 81 65 78 81 65 78 81 65 78 81 65 78 81 65 78 81 65 78 81 65 78 81 65 78 79 65 78 79 65 78 79 65 78 79 65 78 79 65 78 79 65 78 79 65 78 79 65 78 76 62 75 76 62 75 76 62 75 76 62 75 76 62 75 76 62 75 76 62 75 76 62 75 75 63 77 73 61 75 71 59 73 68 56 70 64 52 66 61 49 63 59 47 61 57 45 59 51 39 53 49 37 51 47 35 49 44 32 46 40 28 42 37 25 39 35 23 37 30 22 35 18 16 27 15 18 27 15 18 27 15 18 27 15 18 27 15 18 27 15 18 27 15 18 27 14 17 26 14 17 26 14 17 26 14 17 26 14 17 26 14 17 26 14 17 26 13 17 26
20 16 30 24 20 34 28 24 38 30 26 40 77 73 87 81 77 91 90 86 100 101 97 111 114 110 124 125 121 135 134 130 144 140 134 146 143 129 142 145 129 140 145 129 140 145 129 140 145 129 140 145 129 140 145 129 140 145 129 140 150 134 145 150 134 145 150 134 145 150 134 145 150 134 145 150 134 145 150 134 145 150 134 145 151 135 145 151 135 145 151 135 145 151 135 145 151 135 145 151 135 145 151 135 145 151 135 145 151 135 145 151 135 145 151 135 145 151 135 145 151 135 145 151 135 145 151 135 145 151 135 145 151 136 143 151 136 143 151 136 143 151 136 143 151 136 143 151 136 143 151 136 143 151 136 143 152 137 144 152 137 144 152 137 144 152 137 144 152 137 144 152 137 144 152 137 144 152 137 144 151 136 143 151 136 143 151 136 143 151 136 143 151 136 143 151 136 143 151 136 143 151 136 143 147 132 139 147 132 139 147 132 139 147 132 139 147 132 139 147 132 139 147 132 139 147 132 139 144 124 133 144 124 133 144 124 133 144 124 133 144 124 133 144 124 133 144 124 133 144 124 133 138 118 127 138 118 127 138 118 127 138 118 127 138 118 127 138 118 127 138 118 127 138 118 127 131 114 124 129 112 122 127 110 120 124 107 117 120 103 113 117 100 110 115 98 108 113 96 106 104 87 97 102 85 95 100 83 93 97 80 90 93 76 86 90 73 83 88 71 81 86 69 79 89 73 86 89 73 86 89 73 86 89 73 86 89 73 86 89 73 86 89 73 86 89 73 86 81 65 78 81 65 78 81 65 78 81 65 78 81 65 78 81 65 78 81 65 78 81 65 78 79 65 78 79 65 78 79 65 78 79 65 78 79 65 78 79 65 78 79 65 78 79 65 78 76 62 75 76 62 75 76 62 75 76 62 75 76 62 75 76 62 75 76 62 75 76 62 75 71 59 73 70 58 72 68 56 70 64 52 66 61 49 63 58 46 60 55 43 57 54 42 56 47 35 49 46 34 48 44 32 46 40 28 42 37 25 39 34 22 36 31 19 33 27 19 32 18 16 27 15 18 27 15 18 27 15 18 27 15 18 27 15 18 27 15 18 27 15 18 27 14 17 26 14 17 26 14 17 26 14 17 26 14 17 26 14 17 26 14 17 26 13 17 26
32 28 42 40 36 50 46 42 56 50 46 60 97 93 107 100 96 110 106 102 116 114 110 124 122 118 132 130 126 140 136 132 146 141 135 147 143 129 142 145 129 140 145 129 140 145 129 140 145 129 140 145 129 140 145 129 140 145 129 140 150 134 145 150 134 145 150 134 145 150 134 145 150 134 145 150 134 145 150 134 145 150 134 145 151 135 145 151 135 145 151 135 145 151 135 145 151 135 145 151 135 145 151 135 145 151 135 145 151 135 145 151 135 145 151 135 145 151 135 145 151 135 145 151 135 145 151 135 145 151 135 145 151 136 143 151 136 143 151 136 143 151 136 143 151 136 143 151 136 143 151 136 143 151 136 143 152 137 144 152 137 144 152 137 144 152 137 144 152 137 144 152 137 144 152 137 144 152 137 144 151 136 143 151 136 143 151 136 143 151 136 143 151 136 143 151 136 143 151 136 143 151 136 143 147 132 139 147 132 139 147 132 139 147 132 139 147 132 139 147 132 139 147 132 139 147 132 139 144 124 133 144 124 133 144 124 133 144 124 133 144 124 133 144 124 133 144 124 133 144 124 133 138 118 127 138 118 127 138 118 127 138 118 127 138 118 127 138 118 127 138 118 127 138 118 127 131 114 124 129 112 122 127 110 120 124 107 117 120 103 113 117 100 110 115 98 108 113 96 106 104 87 97 102 85 95 100 83 93 97 80 90 93 76 86 90 73 83 88 71 81 86 69 79 89 73 86 89 73 86 89 73 86 89 73 86 89 73 86 89 73 86 89 73 86 89 73 86 81 65 78 81 65 78 81 65 78 81 65 78 81 65 78 81 65 78 81 65 78 81 65 78 79 65 78 79 65 78 79 65 78 79 65 78 79 65 78 79 65 78 79 65 78 79 65 78 76 62 75 76 62 75 76 62 75 76 62 75 76 62 75 76 62 75 76 62 75 76 62 75 68 56 70 67 55 69 64 52 66 61 49 63 58 46 60 54 42 56 52 40 54 51 39 53 44 32 46 43 31 45 40 28 42 37 25 39 34 22 36 30 18 32 28 16 30 24 16 29 18 16 27 15 18 27 15 18 27 15 18 27 15 18 27 15 18 27 15 18 27 15 18 27 14 17 26 14 17 26 14 17 26 14 17 26 14 17 26 14 17 26 14 17 26 13 17 26
49 45 59 60 56 70 69 65 79 74 70 84 109 105 119 111 107 121 115 111 125 119 115 129 124 120 134 129 125 139 132 128 142 136 130 142 143 129 142 145 129 140 145 129 140 145 129 140 145 129 140 145 129 140 145 129 140 145 129 140 150 134 145 150 134 145 150 134 145 150 134 145 150 134 145 150 134 145 150 134 145 150 134 145 151 135 145 151 135 145 151 135 145 151 135 145 151 135 145 151 135 145 151 135 145 151 135 145 151 135 145 151 135 145 151 135 145 151 135 145 151 135 145 151 135 145 151 135 145 151 135 145 151 136 143 151 136 143 151 136 143 151 136 143 151 136 143 151 136 143 151 136 143 151 136 143 152 137 144 152 137 144 152 137 144 152 137 144 152 137 144 152 137 144 152 137 144 152 137 144 151 136 143 151 136 143 151 136 143 151 136 143 151 136 143 151 136 143 151 136 143 151 136 143 147 132 139 147 132 139 147 132 139 147 132 139 147 132 139 147 132 139 147 132 139 147 132 139 144 124 133 144 124 133 144 124 133 144 124 133 144 124 133 144 124 133 144 124 133 144 124 133 138 118 127 138 118 127 138 118 127 138 118 127 138 118 127 138 118 127 138 118 127 138 118 127 131 114 124 129 112 122 127 110 120 124 107 117 120 103 113 117 100 110 115 98 108 113 96 106 104 87 97 102 85 95 100 83 93 97 80 90 93 76 86 90 73 83 88 71 81 86 69 79 89 73 86 89 73 86 89 73 86 89 73 86 89 73 86 89 73 86 89 73 86 89 73 86 81 65 78 81 65 78 81 65 78 81 65 78 81 65 78 81 65 78 81 65 78 81 65 78 79 65 78 79 65 78 79 65 78 79 65 78 79 65 78 79 65 78 79 65 78 79 65 78 76 62 75 76 62 75 76 62 75 76 62 75 76 62 75 76 62 75 76 62 75 76 62 75 65 53 67 63 51 65 61 49 63 58 46 60 54 42 56 51 39 53 49 37 51 47 35 49 41 29 43 39 27 41 37 25 39 34 22 36 30 18 32 27 15 29 25 13 27 20 12 25 18 16 27 15 18 27 15 18 27 15 18 27 15 18 27 15 18 27 15 18 27 15 18 27 14 17 26 14 17 26 14 17 26 14 17 26 14 17 26 14 17 26 14 17 26 13 17 26
66 62 76 79 75 89 90 86 100 96 92 106 115 111 125 116 112 126 118 114 128 120 116 130 122 118 132 124 120 134 126 122 136 129 123 135 143 129 142 145 129 140 145 129 140 145 129 140 145 129 140 145 129 140 145 129 140 145 129 140 150 134 145 150 134 145 150 134 145 150 134 145 150 134 145 150 134 145 150 134 145 150 134 145 151 135 145 151 135 145 151 135 145 151 135 145 151 135 145 151 135 145 151 135 145 151 135 145 151 135 145 151 135 145 151 135 145 151 135 145 151 135 145 151 135 145 151 135 145 151 135 145 151 136 143 151 136 143 151 136 143 151 136 143 151 136 143 151 136 143 151 136 143 151 136 143 152 137 144 152 137 144 152 137 144 152 137 144 152 137 144 152 137 144 152 137 144 152 137 144 151 136 143 151 136 143 151 136 143 151 136 143 151 136 143 151 136 143 151 136 143 151 136 143 147 132 139 147 132 139 147 132 139 147 132 139 147 132 139 147 132 139 147 132 139 147 132 139 144 124 133 144 124 133 144 124 133 144 124 133 144 124 133 144 124 133 144 124 133 144 124 133 138 118 127 138 118 127 138 118 127 138 118 127 138 118 127 138 118 127 138 118 127 138 118 127 131 114 124 129 112 122 127 110 120 124 107 117 120 103 113 117 100 110 115 98 108 113 96 106 104 87 97 102 85 95 100 83 93 97 80 90 93 76 86 90 73 83 88 71 81 86 69 79 89 73 86 89 73 86 89 73 86 89 73 86 89 73 86 89 73 86 89 73 86 89 73 86 81 65 78 81 65 78 81 65 78 81 65 78 81 65 78 81 65 78 81 65 78 81 65 78 79 65 78 79 65 78 79 65 78 79 65 78 79 65 78 79 65 78 79 65 78 79 65 78 76 62 75 76 62 75 76 62 75 76 62 75 76 62 75 76 62 75 76 62 75 76 62 75 62 50 64 61 49 63 59 47 61 55 43 57 52 40 54 49 37 51 46 34 48 45 33 47 38 26 40 37 25 39 35 23 37 31 19 33 28 16 30 25 13 27 22 10 24 18 10 23 18 16 27 15 18 27 15 18 27 15 18 27 15 18 27 15 18 27 15 18 27 15 18 27 14 17 26 14 17 26 14 17 26 14 17 26 14 17 26 14 17 26 14 17 26 13 17 26
79 71 86 93 87 99 106 98 113 111 105 117 120 112 127 120 114 126 121 113 128 121 115 127 123 115 130 122 116 128 124 116 131 126 115 129 143 129 142 145 129 140 145 129 140 145 129 140 145 129 140 145 129 140 145 129 140 145 129 140 150 134 145 150 134 145 150 134 145 150 134 145 150 134 145 150 134 145 150 134 145 150 134 145 151 135 146 151 135 146 151 135 146 151 135 146 151 135 146 151 135 146 151 135 146 151 135 146 151 135 146 151 135 146 151 135 146 151 135 146 151 135 146 151 135 146 151 135 146 151 135 145 151 135 145 151 135 145 151 135 145 151 135 145 151 135 145 151 135 145 151 135 145 151 135 145 152 136 146 152 136 146 152 136 146 152 136 146 152 136 146 152 136 146 152 136 146 152 136 146 151 136 143 151 136 143 151 136 143 151 136 143 151 136 143 151 136 143 151 136 143 151 136 143 147 132 139 147 132 139 147 132 139 147 132 139 147 132 139 147 132 139 147 132 139 147 132 139 144 124 133 144 124 133 144 124 133 144 124 133 144 124 133 144 124 133 144 124 133 144 124 133 138 118 127 138 118 127 138 118 127 138 118 127 138 118 127 138 118 127 138 118 127 138 118 127 131 114 124 129 112 122 127 110 120 124 107 117 120 103 113 117 100 110 115 98 108 113 96 106 104 87 97 102 85 95 100 83 93 97 80 90 93 76 86 90 73 83 88 71 81 86 69 79 89 73 84 87 73 86 87 73 86 87 73 86 87 73 86 87 73 86 87 73 86 87 73 86 79 65 78 79 65 78 79 65 78 79 65 78 79 65 78 79 65 78 79 65 78 79 65 78 78 66 78 78 66 78 78 66 78 78 66 78 78 66 78 78 66 78 78 66 78 78 66 78 75 63 75 75 63 75 75 63 75 75 63 75 75 63 75 75 63 75 75 63 75 74 64 75 60 49 63 57 49 62 54 46 59 51 43 56 48 40 53 44 36 49 42 34 47 41 33 46 34 26 39 33 25 38 30 22 35 27 19 32 24 16 29 20 12 25 18 10 23 16 10 22 17 17 27 14 18 27 14 18 27 14 18 27 14 18 27 14 18 27 14 18 27 14 18 27 13 17 26 13 17 26 13 17 26 13 17 26 13 17 26 13 17 26 13 17 26 13 17 26
112 98 113 122 110 122 132 118 133 135 123 135 146 132 147 145 133 145 146 132 147 145 133 145 146 132 147 145 133 145 146 132 147 146 132 145 151 137 150 151 137 150 151 137 150 151 137 150 151 137 150 151 137 150 151 137 150 151 137 150 152 138 151 152 138 151 152 138 151 152 138 151 152 138 151 152 138 151 152 138 151 152 138 151 152 138 151 152 138 151 152 138 151 152 138 151 152 138 151 152 138 151 152 138 151 152 138 151 151 137 150 151 137 150 151 137 150 151 137 150 151 137 150 151 137 150 151 137 150 151 137 150 152 136 149 152 136 147 152 136 147 152 136 147 152 136 147 152 136 147 152 136 147 152 136 147 152 136 147 152 136 147 152 136 147 152 136 147 152 136 147 152 136 147 152 136 147 152 136 147 152 136 146 152 136 146 152 136 146 152 136 146 152 136 146 152 136 146 152 136 146 152 136 146 148 132 142 148 132 142 148 132 142 148 132 142 148 132 142 148 132 142 148 132 142 148 132 142 143 123 134 143 123 134 143 123 134 143 123 134 143 123 134 143 123 134 143 123 134 143 123 134 133 113 124 133 113 124 133 113 124 133 113 124 133 113 124 133 113 124 133 113 124 133 113 124 123 103 114 121 101 112 119 99 110 116 96 107 112 92 103 109 89 100 107 87 98 105 85 96 102 82 93 100 80 91 98 78 89 95 75 86 91 71 82 88 68 79 86 66 77 82 65 75 81 68 78 80 68 78 80 68 78 80 68 78 80 68 78 80 68 78 80 68 78 80 68 78 69 57 67 69 57 67 69 57 67 69 57 67 69 57 67 69 57 67 69 57 67 68 58 69 71 63 74 70 64 76 70 64 76 70 64 76 70 64 76 70 64 76 70 64 76 70 64 76 68 62 74 67 61 73 64 58 70 61 55 67 58 52 64 54 48 60 52 46 58 51 45 57 32 30 41 32 30 41 32 30 41 32 30 41 32 30 41 32 30 41 32 30 41 32 30 41 17 15 26 17 15 26 17 15 26 17 15 26 17 15 26 17 15 26 17 15 26 16 16 26 11 16 22 9 16 22 9 16 22 9 16 22 9 16 22 9 16 22 9 16 22 9 16 22 11 18 24 11 18 24 11 18 24 11 18 24 11 18 24 11 18 24 11 18 24 11 18 24
117 101 114 127 111 124 135 119 132 139 123 136 148 132 145 148 132 145 148 132 145 148 132 145 148 132 145 148 132 145 148 132 145 148 132 145 151 137 150 151 137 150 151 137 150 151 137 150 151 137 150 151 137 150 151 137 150 151 137 150 152 138 151 152 138 151 152 138 151 152 138 151 152 138 151 152 138 151 152 138 151 152 138 151 152 138 153 152 138 153 152 138 153 152 138 153 152 138 153 152 138 153 152 138 153 152 138 153 151 137 152 151 137 152 151 137 152 151 137 152 151 137 152 151 137 152 151 137 152 151 137 152 152 136 149 152 136 149 152 136 149 152 136 149 152 136 149 152 136 149 152 136 149 152 136 149 152 136 149 152 136 149 152 136 149 152 136 149 152 136 149 152 136 149 152 136 149 152 136 147 152 136 147 152 136 146 152 136 146 152 136 146 152 136 146 152 136 146 152 136 146 152 136 146 148 132 142 148 132 142 148 132 142 148 132 142 148 132 142 148 132 142 148 132 142 148 132 142 143 123 134 143 123 134 143 123 134 143 123 134 143 123 134 143 123 134 143 123 134 143 123 134 133 113 124 133 113 124 133 113 124 133 113 124 133 113 124 133 113 124 133 113 124 133 113 124 123 103 114 121 101 112 119 99 110 116 96 107 112 92 103 109 89 100 107 87 98 105 85 96 102 82 93 100 80 91 98 78 89 95 75 86 91 71 82 88 68 79 86 66 77 82 65 75 78 66 76 77 67 76 77 67 76 77 67 76 77 67 76 77 67 76 77 67 76 77 67 76 68 58 67 68 58 67 68 58 67 68 58 67 68 58 67 68 58 67 68 58 67 66 59 67 68 62 74 66 63 74 66 63 74 66 63 74 66 63 74 66 63 74 66 63 74 66 63 74 63 60 71 62 59 70 60 57 68 56 53 64 53 50 61 50 47 58 47 44 55 45 43 54 29 29 39 27 30 39 27 30 39 27 30 39 27 30 39 27 30 39 27 30 39 27 30 39 14 17 26 14 17 26 14 17 26 14 17 26 14 17 26 14 17 26 14 17 26 13 17 26 9 16 22 8 17 22 8 17 22 8 17 22 8 17 22 8 17 22 8 17 22 8 17 22 10 19 24 10 19 24 10 19 24 10 19 24 10 19 24 10 19 24 10 19 24 10 19 24
121 105 118 130 114 127 137 121 134 140 124 137 148 132 145 148 132 145 148 132 145 148 132 145 148 132 145 148 132 145 148 132 145 148 132 145 151 137 150 151 137 150 151 137 150 151 137 150 151 137 150 151 137 150 151 137 150 151 137 150 152 138 151 152 138 151 152 138 151 152 138 151 152 138 151 152 138 151 152 138 151 152 138 151 152 138 153 152 138 153 152 138 153 152 138 153 152 138 153 152 138 153 152 138 153 152 138 153 151 137 152 151 137 152 151 137 152 151 137 152 151 137 152 151 137 152 151 137 152 151 137 152 152 136 149 152 136 149 152 136 149 152 136 149 152 136 149 152 136 149 152 136 149 152 136 149 152 136 149 152 136 149 152 136 149 152 136 149 152 136 149 152 136 149 152 136 149 152 136 147 152 136 147 152 136 146 152 136 146 152 136 146 152 136 146 152 136 146 152 136 146 152 136 146 148 132 142 148 132 142 148 132 142 148 132 142 148 132 142 148 132 142 148 132 142 148 132 142 143 123 134 143 123 134 143 123 134 143 123 134 143 123 134 143 123 134 143 123 134 143 123 134 133 113 124 133 113 124 133 113 124 133 113 124 133 113 124 133 113 124 133 113 124 133 113 124 123 103 114 121 101 112 119 99 110 116 96 107 112 92 103 109 89 100 107 87 98 105 85 96 102 82 93 100 80 91 98 78 89 95 75 86 91 71 82 88 68 79 86 66 77 82 65 75 76 64 74 75 65 74 75 65 74 75 65 74 75 65 74 75 65 74 75 65 74 75 65 74 68 58 67 68 58 67 68 58 67 68 58 67 68 58 67 68 58 67 68 58 67 66 59 67 66 60 72 64 61 72 64 61 72 64 61 72 64 61 72 64 61 72 64 61 72 64 61 72 58 55 66 57 54 65 55 52 63 52 49 60 48 45 56 45 42 53 42 39 50 40 38 49 27 27 37 25 28 37 25 28 37 25 28 37 25 28 37 25 28 37 25 28 37 25 28 37 14 17 26 14 17 26 14 17 26 14 17 26 14 17 26 14 17 26 14 17 26 13 17 26 9 16 22 8 17 22 8 17 22 8 17 22 8 17 22 8 17 22 8 17 22 8 17 22 10 19 24 10 19 24 10 19 24 10 19 24 10 19 24 10 19 24 10 19 24 10 19 24
