P3
172 37
255
38 33 40 38 33 40 38 33 40 38 33 40 46 41 48 44 39 46 43 38 45 47 42 49 58 53 60 73 68 75 88 83 90 99 91 102 109 98 112 111 98 115 114 101 118 117 104 121 120 107 124 124 111 128 126 113 130 127 114 131 132 119 136 132 119 136 132 119 136 132 119 136 132 119 136 132 119 136 132 119 136 132 119 136 116 103 120 116 103 120 116 103 120 116 103 120 116 103 120 116 103 120 116 103 120 116 103 120 132 119 136 132 119 136 132 119 136 132 119 136 132 119 136 132 119 136 132 119 136 132 119 136 143 131 145 143 131 145 143 131 145 143 131 145 143 131 145 143 131 145 143 131 145 143 131 145 142 130 144 142 130 144 142 130 144 142 130 144 142 130 144 142 130 144 142 130 144 142 130 144 137 125 137 137 125 137 137 125 137 137 125 137 137 125 137 137 125 137 137 125 137 137 125 137 136 124 136 136 124 136 136 124 136 136 124 136 136 124 136 136 124 136 136 124 136 136 124 136 134 122 136 134 122 136 134 122 136 134 122 136 134 122 136 134 122 136 134 122 136 134 122 136 126 114 128 126 114 128 126 114 128 126 114 128 126 114 128 126 114 128 126 114 128 126 114 128 119 107 119 119 107 119 119 107 119 119 107 119 119 107 119 119 107 119 119 107 119 119 107 119 112 100 112 112 100 112 112 100 112 112 100 112 112 100 112 112 100 112 112 100 112 112 100 112 95 79 90 95 79 90 95 79 90 95 79 90 95 79 90 95 79 90 95 79 90 95 79 90 93 77 88 92 76 87 90 74 85 86 70 81 83 67 78 80 64 75 77 61 72 74 61 71 54 43 51 55 45 53 58 48 56 62 52 60 66 56 64 69 59 67 72 62 70 74 64 72 100 90 98 101 91 99 103 93 101 106 96 104 108 98 106 111 101 109 113 103 111 112 105 112 100 95 99 88 86 89 73 71 74 58 56 59 47 45 48 43 41 44 44 42 45 46 44 47 44 42 45 44 42 45 44 42 45 44 42 45 44 42 45 44 42 45 44 42 45 44 42 45 40 38 41 40 38 41 40 38 41 40 38 41 40 38 41 40 38 41 40 38 41 40 38 41 45 43 46 45 43 46 45 43 46 45 43 46 45 43 46 45 43 46 45 43 46 45 43 46
38 33 40 36 33 40 38 33 40 36 33 40 46 41 48 42 39 46 43 38 45 45 42 49 58 53 60 71 68 75 88 83 90 98 92 102 108 97 113 110 97 114 112 99 116 116 103 120 119 106 123 122 109 126 125 112 129 126 113 130 130 117 134 130 117 134 130 117 134 130 117 134 130 117 134 130 117 134 130 117 134 130 117 134 108 95 112 108 95 112 109 95 112 108 95 112 109 95 112 108 95 112 109 95 112 108 95 112 131 117 134 130 117 134 131 117 134 130 117 134 131 117 134 130 117 134 131 117 134 130 117 134 143 131 145 143 131 145 143 131 145 143 131 145 143 131 145 143 131 145 143 131 145 143 131 145 142 130 144 142 130 144 142 130 144 142 130 144 142 130 144 142 130 144 142 130 144 142 130 144 137 125 139 137 125 139 137 125 139 137 125 139 137 125 139 137 125 139 137 125 139 137 125 139 136 124 138 136 124 138 136 124 138 136 124 138 136 124 138 136 124 138 136 124 138 136 124 138 134 122 136 134 122 136 134 122 136 134 122 136 134 122 136 134 122 136 134 122 136 134 122 136 126 114 128 126 114 128 126 114 128 126 114 128 126 114 128 126 114 128 126 114 128 126 114 128 119 107 121 119 107 121 119 107 121 119 107 121 119 107 121 119 107 121 119 107 121 119 107 121 112 100 114 112 100 114 112 100 114 112 100 114 112 100 114 112 100 114 112 100 114 112 100 112 91 77 90 91 78 88 91 78 88 91 78 88 91 78 88 91 78 88 91 78 88 91 78 88 90 77 87 89 76 86 86 73 83 83 70 80 80 67 77 76 63 73 74 61 71 72 60 70 48 41 48 49 44 50 54 47 54 57 52 58 63 56 63 66 61 67 71 64 71 71 66 72 100 93 100 99 94 100 102 95 102 103 98 104 106 99 106 107 102 108 110 103 110 109 104 108 98 96 99 88 86 89 73 71 74 58 56 59 47 45 48 43 41 44 44 42 45 46 44 47 44 42 45 44 42 45 44 42 45 44 42 45 44 42 45 44 42 45 44 42 45 44 42 45 40 38 41 40 38 41 40 38 41 40 38 41 40 38 41 40 38 41 40 38 41 40 38 41 45 43 46 45 43 46 45 43 46 45 43 46 45 43 46 45 43 46 45 43 46 45 43 46
33 30 39 32 31 39 33 30 39 32 31 39 30 27 36 31 30 38 34 31 40 36 35 43 41 38 47 43 42 50 46 43 52 48 45 54 88 80 95 91 80 97 95 84 101 99 88 105 104 93 110 108 97 114 112 101 118 114 103 120 88 77 94 86 75 92 83 72 89 79 68 85 74 63 80 70 59 76 66 55 72 65 52 70 59 45 62 63 49 66 72 55 73 79 65 82 92 75 93 99 85 102 109 92 110 111 97 114 126 109 127 126 112 129 130 113 131 131 117 134 137 120 138 138 124 141 142 125 143 142 128 145 142 129 146 142 129 146 142 129 146 142 129 146 142 129 146 142 129 146 142 129 146 142 129 146 140 127 144 140 127 144 140 127 144 140 127 144 140 127 144 140 127 144 140 127 144 140 127 144 133 120 137 133 120 137 133 120 137 133 120 137 133 120 137 133 120 137 133 120 137 133 120 137 131 118 135 131 118 135 131 118 135 131 118 135 131 118 135 131 118 135 131 118 135 131 118 135 129 115 132 129 115 132 129 115 132 129 115 132 129 115 132 129 115 132 129 115 132 129 115 132 124 110 127 124 110 127 124 110 127 124 110 127 124 110 127 124 110 127 124 110 127 124 110 127 128 114 131 127 113 130 125 111 128 121 107 124 118 104 121 115 101 118 112 98 115 111 97 114 105 91 108 105 91 108 105 91 108 105 91 108 105 91 108 105 91 108 105 91 108 104 91 108 97 87 98 96 86 97 94 84 95 90 80 91 87 77 88 84 74 85 81 71 82 80 70 81 81 71 82 80 70 81 77 67 78 74 64 75 71 61 72 67 57 68 65 55 66 62 55 63 46 44 49 46 47 49 49 49 51 51 52 54 56 56 58 58 59 61 61 61 63 62 63 65 86 86 88 86 87 89 90 90 92 92 93 95 96 96 98 99 100 102 102 102 104 103 103 105 97 95 98 87 85 86 72 70 71 57 55 56 46 44 45 42 40 41 43 41 42 45 43 44 42 40 41 42 40 41 42 40 41 42 40 41 42 40 41 42 40 41 42 40 41 42 40 41 41 39 40 41 39 40 41 39 40 41 39 40 41 39 40 41 39 40 41 39 40 41 39 40 39 37 38 39 37 38 39 37 38 39 37 38 39 37 38 39 37 38 39 37 38 39 37 38
32 31 39 32 31 39 32 31 39 32 31 39 29 28 36 31 30 38 33 32 40 36 35 43 40 39 47 43 42 50 45 44 52 48 45 56 80 72 87 83 72 89 86 75 92 90 79 96 94 83 100 98 87 104 101 90 107 102 91 108 80 69 86 78 67 84 75 64 81 71 60 77 67 56 73 64 53 70 61 50 67 60 47 65 61 47 64 67 50 68 75 58 76 84 67 85 94 77 95 104 87 105 111 94 112 115 98 116 126 109 127 128 111 129 130 113 131 133 116 134 137 120 138 140 123 141 142 125 143 142 128 145 143 129 146 142 129 146 142 129 146 142 129 146 142 129 146 142 129 146 142 129 146 142 129 146 140 127 144 140 127 144 140 127 144 140 127 144 140 127 144 140 127 144 140 127 144 140 127 144 133 120 138 133 120 138 133 120 138 133 120 138 133 120 138 133 120 138 133 120 138 133 120 138 131 118 136 131 118 136 131 118 136 131 118 136 131 118 136 131 118 136 131 118 136 131 118 136 129 115 132 129 115 132 129 115 132 129 115 132 129 115 132 129 115 132 129 115 132 129 115 132 124 110 127 124 110 127 124 110 127 124 110 127 124 110 127 124 110 127 124 110 127 124 110 127 127 112 131 126 111 130 123 108 127 120 105 124 117 102 121 113 98 117 111 96 115 110 95 114 103 88 107 103 88 107 103 88 107 103 88 107 103 88 107 103 88 107 103 88 107 102 89 106 96 85 99 93 85 96 90 82 93 87 79 90 84 76 87 80 72 83 78 70 81 77 69 80 76 68 79 75 67 78 73 65 76 69 61 72 66 58 69 63 55 66 60 52 63 58 53 60 44 45 49 44 48 49 46 50 51 49 53 54 53 57 58 56 60 61 58 62 63 60 64 65 82 86 87 83 87 88 85 89 90 89 93 94 92 96 97 95 99 100 98 102 103 101 102 104 96 96 96 87 85 86 72 70 71 57 55 56 46 44 45 42 40 41 43 41 42 45 43 44 42 40 41 42 40 41 42 40 41 42 40 41 42 40 41 42 40 41 42 40 41 42 40 41 41 39 40 41 39 40 41 39 40 41 39 40 41 39 40 41 39 40 41 39 40 41 39 40 39 37 38 39 37 38 39 37 38 39 37 38 39 37 38 39 37 38 39 37 38 39 37 38
32 31 39 32 31 39 32 31 39 32 31 39 29 28 36 31 30 38 33 32 40 36 35 43 40 39 47 43 42 50 45 44 52 48 45 56 68 60 75 71 60 77 73 62 79 75 64 81 78 67 84 81 70 87 83 72 89 84 73 90 66 55 72 65 54 71 63 52 69 60 49 66 58 47 64 55 44 61 53 42 59 53 40 58 66 52 69 72 55 73 79 62 80 89 72 90 99 82 100 109 92 110 116 99 117 120 103 121 126 109 127 128 111 129 130 113 131 133 116 134 137 120 138 140 123 141 142 125 143 142 128 145 143 129 146 142 129 146 142 129 146 142 129 146 142 129 146 142 129 146 142 129 146 142 129 146 140 127 144 140 127 144 140 127 144 140 127 144 140 127 144 140 127 144 140 127 144 140 127 144 133 120 138 133 120 138 133 120 138 133 120 138 133 120 138 133 120 138 133 120 138 133 120 138 131 118 136 131 118 136 131 118 136 131 118 136 131 118 136 131 118 136 131 118 136 131 118 136 129 115 132 129 115 132 129 115 132 129 115 132 129 115 132 129 115 132 129 115 132 129 115 132 124 110 127 124 110 127 124 110 127 124 110 127 124 110 127 124 110 127 124 110 127 124 110 127 125 110 129 123 108 127 121 106 125 118 103 122 114 99 118 111 96 115 109 94 113 107 92 111 101 86 105 101 86 105 101 86 105 101 86 105 101 86 105 101 86 105 101 86 105 100 87 104 94 83 97 90 82 93 88 80 91 85 77 88 81 73 84 78 70 81 76 68 79 74 66 77 71 63 74 70 62 73 68 60 71 65 57 68 61 53 64 58 50 61 55 47 58 53 48 55 44 45 49 44 48 49 46 50 51 49 53 54 53 57 58 56 60 61 58 62 63 60 64 65 79 83 84 81 85 86 83 87 88 86 90 91 90 94 95 93 97 98 95 99 100 99 100 102 96 96 96 87 85 86 72 70 71 57 55 56 46 44 45 42 40 41 43 41 42 45 43 44 42 40 41 42 40 41 42 40 41 42 40 41 42 40 41 42 40 41 42 40 41 42 40 41 41 39 40 41 39 40 41 39 40 41 39 40 41 39 40 41 39 40 41 39 40 41 39 40 39 37 38 39 37 38 39 37 38 39 37 38 39 37 38 39 37 38 39 37 38 39 37 38
32 31 39 32 31 39 32 31 39 32 31 39 29 28 36 31 30 38 33 32 40 36 35 43 40 39 47 43 42 50 45 44 52 48 45 56 57 49 64 60 49 66 60 49 66 61 50 67 62 51 68 63 52 69 64 53 70 64 53 70 52 41 58 52 41 58 51 40 57 51 40 57 50 39 56 49 38 55 48 37 54 49 36 54 73 59 76 79 62 80 86 69 87 95 78 96 106 89 107 115 98 116 123 106 124 127 110 128 126 109 127 128 111 129 130 113 131 133 116 134 137 120 138 140 123 141 142 125 143 142 128 145 143 129 146 142 129 146 142 129 146 142 129 146 142 129 146 142 129 146 142 129 146 142 129 146 140 127 144 140 127 144 140 127 144 140 127 144 140 127 144 140 127 144 140 127 144 140 127 144 133 120 138 133 120 138 133 120 138 133 120 138 133 120 138 133 120 138 133 120 138 133 120 138 131 118 136 131 118 136 131 118 136 131 118 136 131 118 136 131 118 136 131 118 136 131 118 136 129 115 132 129 115 132 129 115 132 129 115 132 129 115 132 129 115 132 129 115 132 129 115 132 124 110 127 124 110 127 124 110 127 124 110 127 124 110 127 124 110 127 124 110 127 124 110 127 121 106 125 120 105 124 118 103 122 114 99 118 111 96 115 108 93 112 105 90 109 104 89 108 98 83 102 98 83 102 98 83 102 98 83 102 98 83 102 98 83 102 98 83 102 97 84 101 90 79 93 87 79 90 85 77 88 81 73 84 78 70 81 75 67 78 72 64 75 71 63 74 65 57 68 64 56 67 61 53 64 58 50 61 55 47 58 52 44 55 49 41 52 47 42 49 44 45 49 44 48 49 46 50 51 49 53 54 53 57 58 56 60 61 58 62 63 60 64 65 76 80 81 77 81 82 80 84 85 83 87 88 86 90 91 90 94 95 92 96 97 95 96 98 96 96 96 87 85 86 72 70 71 57 55 56 46 44 45 42 40 41 43 41 42 45 43 44 42 40 41 42 40 41 42 40 41 42 40 41 42 40 41 42 40 41 42 40 41 42 40 41 41 39 40 41 39 40 41 39 40 41 39 40 41 39 40 41 39 40 41 39 40 41 39 40 39 37 38 39 37 38 39 37 38 39 37 38 39 37 38 39 37 38 39 37 38 39 37 38
32 31 39 32 31 39 32 31 39 32 31 39 29 28 36 31 30 38 33 32 40 36 35 43 40 39 47 43 42 50 45 44 52 48 45 56 52 44 59 53 42 59 53 42 59 52 41 58 51 40 57 50 39 56 49 38 55 49 38 55 44 33 50 45 34 51 45 34 51 46 35 52 47 36 53 48 37 54 49 38 55 50 37 55 79 65 82 85 68 86 93 76 94 102 85 103 113 96 114 122 105 123 129 112 130 133 116 134 126 109 127 128 111 129 130 113 131 133 116 134 137 120 138 140 123 141 142 125 143 142 128 145 143 129 146 142 129 146 142 129 146 142 129 146 142 129 146 142 129 146 142 129 146 142 129 146 140 127 144 140 127 144 140 127 144 140 127 144 140 127 144 140 127 144 140 127 144 140 127 144 133 120 138 133 120 138 133 120 138 133 120 138 133 120 138 133 120 138 133 120 138 133 120 138 131 118 136 131 118 136 131 118 136 131 118 136 131 118 136 131 118 136 131 118 136 131 118 136 129 115 132 129 115 132 129 115 132 129 115 132 129 115 132 129 115 132 129 115 132 129 115 132 124 110 127 124 110 127 124 110 127 124 110 127 124 110 127 124 110 127 124 110 127 124 110 127 118 103 122 117 102 121 114 99 118 111 96 115 108 93 112 104 89 108 102 87 106 101 86 105 94 79 98 94 79 98 94 79 98 94 79 98 94 79 98 94 79 98 94 79 98 93 80 97 87 76 90 84 76 87 81 73 84 78 70 81 75 67 78 71 63 74 69 61 72 68 60 71 58 50 61 57 49 60 54 46 57 51 43 54 48 40 51 45 37 48 42 34 45 40 35 42 44 45 49 44 48 49 46 50 51 49 53 54 53 57 58 56 60 61 58 62 63 60 64 65 73 77 78 74 78 79 76 80 81 80 84 85 83 87 88 86 90 91 89 93 94 92 93 95 96 96 96 87 85 86 72 70 71 57 55 56 46 44 45 42 40 41 43 41 42 45 43 44 42 40 41 42 40 41 42 40 41 42 40 41 42 40 41 42 40 41 42 40 41 42 40 41 41 39 40 41 39 40 41 39 40 41 39 40 41 39 40 41 39 40 41 39 40 41 39 40 39 37 38 39 37 38 39 37 38 39 37 38 39 37 38 39 37 38 39 37 38 39 37 38
32 31 39 32 31 39 32 31 39 32 31 39 29 28 36 31 30 38 33 32 40 36 35 43 40 39 47 43 42 50 45 44 52 48 45 56 52 44 59 53 42 59 51 40 57 49 38 55 46 35 52 43 32 49 42 31 48 40 29 46 42 31 48 43 32 49 45 34 51 48 37 54 50 39 56 53 42 59 55 44 61 57 44 62 86 72 89 92 75 93 99 82 100 109 92 110 119 102 120 129 112 130 136 119 137 140 123 141 126 109 127 128 111 129 130 113 131 133 116 134 137 120 138 140 123 141 142 125 143 142 128 145 143 129 146 142 129 146 142 129 146 142 129 146 142 129 146 142 129 146 142 129 146 142 129 146 140 127 144 140 127 144 140 127 144 140 127 144 140 127 144 140 127 144 140 127 144 140 127 144 133 120 138 133 120 138 133 120 138 133 120 138 133 120 138 133 120 138 133 120 138 133 120 138 131 118 136 131 118 136 131 118 136 131 118 136 131 118 136 131 118 136 131 118 136 131 118 136 129 115 132 129 115 132 129 115 132 129 115 132 129 115 132 129 115 132 129 115 132 129 115 132 124 110 127 124 110 127 124 110 127 124 110 127 124 110 127 124 110 127 124 110 127 124 110 127 115 100 119 113 98 117 111 96 115 108 93 112 104 89 108 101 86 105 99 84 103 97 82 101 91 76 95 91 76 95 91 76 95 91 76 95 91 76 95 91 76 95 91 76 95 90 77 94 84 73 87 80 72 83 78 70 81 75 67 78 71 63 74 68 60 71 66 58 69 64 56 67 52 44 55 51 43 54 48 40 51 45 37 48 41 33 44 38 30 41 36 28 39 34 29 36 44 45 49 44 48 49 46 50 51 49 53 54 53 57 58 56 60 61 58 62 63 60 64 65 69 73 74 71 75 76 73 77 78 76 80 81 80 84 85 83 87 88 85 89 90 89 90 92 96 96 96 87 85 86 72 70 71 57 55 56 46 44 45 42 40 41 43 41 42 45 43 44 42 40 41 42 40 41 42 40 41 42 40 41 42 40 41 42 40 41 42 40 41 42 40 41 41 39 40 41 39 40 41 39 40 41 39 40 41 39 40 41 39 40 41 39 40 41 39 40 39 37 38 39 37 38 39 37 38 39 37 38 39 37 38 39 37 38 39 37 38 39 37 38
32 31 39 32 31 39 32 31 39 32 31 39 29 28 36 31 30 38 33 32 40 36 35 43 40 39 47 43 42 50 45 44 52 48 45 56 56 48 63 57 46 63 54 43 60 50 39 56 46 35 52 42 31 48 39 28 45 38 27 44 44 33 50 46 35 52 49 38 55 53 42 59 57 46 63 60 49 66 63 52 69 66 53 71 91 77 94 97 80 98 104 87 105 114 97 115 124 107 125 133 116 134 141 124 142 145 128 146 126 109 127 128 111 129 130 113 131 133 116 134 137 120 138 140 123 141 142 125 143 142 128 145 143 129 146 142 129 146 142 129 146 142 129 146 142 129 146 142 129 146 142 129 146 142 129 146 140 127 144 140 127 144 140 127 144 140 127 144 140 127 144 140 127 144 140 127 144 140 127 144 133 120 138 133 120 138 133 120 138 133 120 138 133 120 138 133 120 138 133 120 138 133 120 138 131 118 136 131 118 136 131 118 136 131 118 136 131 118 136 131 118 136 131 118 136 131 118 136 129 115 132 129 115 132 129 115 132 129 115 132 129 115 132 129 115 132 129 115 132 129 115 132 124 110 127 124 110 127 124 110 127 124 110 127 124 110 127 124 110 127 124 110 127 124 110 127 112 97 116 111 96 115 109 94 113 105 90 109 102 87 106 99 84 103 96 81 100 95 80 99 89 74 93 89 74 93 89 74 93 89 74 93 89 74 93 89 74 93 89 74 93 88 75 92 81 70 84 78 70 81 76 68 79 72 64 75 69 61 72 66 58 69 63 55 66 62 54 65 47 39 50 46 38 49 43 35 46 40 32 43 37 29 40 33 25 36 31 23 34 29 24 31 44 45 49 44 48 49 46 50 51 49 53 54 53 57 58 56 60 61 58 62 63 60 64 65 67 71 72 68 72 73 71 75 76 74 78 79 77 81 82 81 85 86 83 87 88 86 87 89 96 96 96 87 85 86 72 70 71 57 55 56 46 44 45 42 40 41 43 41 42 45 43 44 42 40 41 42 40 41 42 40 41 42 40 41 42 40 41 42 40 41 42 40 41 42 40 41 41 39 40 41 39 40 41 39 40 41 39 40 41 39 40 41 39 40 41 39 40 41 39 40 39 37 38 39 37 38 39 37 38 39 37 38 39 37 38 39 37 38 39 37 38 39 37 38
32 31 39 32 31 39 32 31 39 32 31 39 29 28 36 31 30 38 33 32 40 36 35 43 40 39 47 43 42 50 45 44 52 48 45 56 60 52 67 60 49 66 56 45 62 52 41 58 47 36 53 43 32 49 39 28 45 38 27 44 47 36 53 49 38 55 52 41 58 57 46 63 61 50 67 66 55 72 69 58 75 72 59 77 93 79 96 99 82 100 107 90 108 116 99 117 127 110 128 136 119 137 143 126 144 147 130 148 126 109 127 128 111 129 130 113 131 133 116 134 137 120 138 140 123 141 142 125 143 142 128 145 143 129 146 142 129 146 142 129 146 142 129 146 142 129 146 142 129 146 142 129 146 142 129 146 140 127 144 140 127 144 140 127 144 140 127 144 140 127 144 140 127 144 140 127 144 140 127 144 133 120 138 133 120 138 133 120 138 133 120 138 133 120 138 133 120 138 133 120 138 133 120 138 131 118 136 131 118 136 131 118 136 131 118 136 131 118 136 131 118 136 131 118 136 131 118 136 129 115 132 129 115 132 129 115 132 129 115 132 129 115 132 129 115 132 129 115 132 129 115 132 124 110 127 124 110 127 124 110 127 124 110 127 124 110 127 124 110 127 124 110 127 124 110 127 111 96 115 110 95 114 107 92 111 104 89 108 101 86 105 97 82 101 95 80 99 94 79 98 87 72 91 87 72 91 87 72 91 87 72 91 87 72 91 87 72 91 87 72 91 86 73 90 80 69 83 77 69 80 74 66 77 71 63 74 68 60 71 64 56 67 62 54 65 61 53 64 44 36 47 43 35 46 41 33 44 37 29 40 34 26 37 31 23 34 28 20 31 26 21 28 44 45 49 44 48 49 46 50 51 49 53 54 53 57 58 56 60 61 58 62 63 60 64 65 66 70 71 67 71 72 69 73 74 73 77 78 76 80 81 79 83 84 82 86 87 85 86 88 96 96 96 87 85 86 72 70 71 57 55 56 46 44 45 42 40 41 43 41 42 45 43 44 42 40 41 42 40 41 42 40 41 42 40 41 42 40 41 42 40 41 42 40 41 42 40 41 41 39 40 41 39 40 41 39 40 41 39 40 41 39 40 41 39 40 41 39 40 41 39 40 39 37 38 39 37 38 39 37 38 39 37 38 39 37 38 39 37 38 39 37 38 39 37 38
32 31 39 32 31 39 32 31 39 32 31 39 34 33 41 34 33 41 34 33 41 34 33 41 34 33 41 34 33 41 34 33 41 35 32 43 44 36 51 45 34 51 41 30 47 37 26 43 32 21 38 28 17 34 24 13 30 22 11 28 40 29 46 44 33 50 51 40 57 60 49 66 71 60 77 80 69 86 88 77 94 93 80 98 114 100 117 117 100 118 119 102 120 123 106 124 126 109 127 129 112 130 132 115 133 133 116 134 147 130 148 147 130 148 147 130 148 147 130 148 147 130 148 147 130 148 147 130 148 145 131 148 144 130 147 143 130 147 143 130 147 143 130 147 143 130 147 143 130 147 143 130 147 143 130 147 133 120 137 133 120 137 133 120 137 133 120 137 133 120 137 133 120 137 133 120 137 133 120 137 129 116 134 129 116 134 129 116 134 129 116 134 129 116 134 129 116 134 129 116 134 129 116 134 123 110 128 123 110 128 123 110 128 123 110 128 123 110 128 123 110 128 123 110 128 123 110 128 126 112 129 126 112 129 126 112 129 126 112 129 126 112 129 126 112 129 126 112 129 126 112 129 120 106 123 119 105 122 117 103 120 113 99 116 110 96 113 107 93 110 104 90 107 103 89 106 104 89 108 103 88 107 101 86 105 97 82 101 94 79 98 91 76 95 88 73 92 87 72 91 91 76 95 90 75 94 87 72 91 84 69 88 81 66 85 77 62 81 75 60 79 73 60 77 59 48 62 56 48 59 53 45 56 50 42 53 47 39 50 43 35 46 41 33 44 40 32 43 17 9 20 19 11 22 21 13 24 24 16 27 28 20 31 31 23 34 33 25 36 34 29 36 38 39 43 38 42 43 40 44 45 43 47 48 47 51 52 50 54 55 52 56 57 54 58 59 63 67 68 64 68 69 67 71 72 70 74 75 73 77 78 77 81 82 79 83 84 82 83 85 70 70 70 69 67 68 64 62 63 57 55 56 51 49 50 44 42 43 39 37 38 37 35 36 37 35 36 37 35 36 37 35 36 37 35 36 37 35 36 37 35 36 37 35 36 37 35 36 35 33 34 35 33 34 35 33 34 35 33 34 35 33 34 35 33 34 35 33 34 35 33 34 39 37 38 39 37 38 39 37 38 39 37 38 39 37 38 39 37 38 39 37 38 39 37 38
32 31 39 32 31 39 32 31 39 32 31 39 34 33 41 34 33 41 34 33 41 34 33 41 34 33 41 34 33 41 34 33 41 35 32 43 44 36 51 44 33 50 41 30 47 38 27 44 34 23 40 30 19 36 27 16 33 25 14 31 42 31 48 46 35 52 54 43 60 63 52 69 73 62 79 83 72 89 90 79 96 95 82 100 115 101 118 118 101 119 121 104 122 124 107 125 127 110 128 131 114 132 133 116 134 134 117 135 147 130 148 147 130 148 147 130 148 147 130 148 147 130 148 147 130 148 147 130 148 145 131 148 144 130 147 143 130 147 143 130 147 143 130 147 143 130 147 143 130 147 143 130 147 143 130 147 133 120 137 133 120 137 133 120 137 133 120 137 133 120 137 133 120 137 133 120 137 133 120 137 129 116 134 129 116 134 129 116 134 129 116 134 129 116 134 129 116 134 129 116 134 129 116 134 123 110 128 123 110 128 123 110 128 123 110 128 123 110 128 123 110 128 123 110 128 123 110 128 124 110 127 124 110 127 124 110 127 124 110 127 124 110 127 124 110 127 124 110 127 124 110 127 119 105 122 118 104 121 115 101 118 112 98 115 109 95 112 105 91 108 103 89 106 102 88 105 103 88 107 102 87 106 99 84 103 96 81 100 93 78 97 89 74 93 87 72 91 86 71 90 88 73 92 87 72 91 85 70 89 81 66 85 78 63 82 75 60 79 72 57 76 70 57 74 56 45 59 53 45 56 51 43 54 47 39 50 44 36 47 41 33 44 38 30 41 37 29 40 17 9 20 19 11 22 21 13 24 24 16 27 28 20 31 31 23 34 33 25 36 34 29 36 38 39 43 38 42 43 40 44 45 43 47 48 47 51 52 50 54 55 52 56 57 54 58 59 62 66 67 63 67 68 65 69 70 69 73 74 72 76 77 75 79 80 78 82 83 81 82 84 70 70 70 69 67 68 64 62 63 57 55 56 51 49 50 44 42 43 39 37 38 37 35 36 37 35 36 37 35 36 37 35 36 37 35 36 37 35 36 37 35 36 37 35 36 37 35 36 35 33 34 35 33 34 35 33 34 35 33 34 35 33 34 35 33 34 35 33 34 35 33 34 39 37 38 39 37 38 39 37 38 39 37 38 39 37 38 39 37 38 39 37 38 39 37 38
32 31 39 32 31 39 32 31 39 32 31 39 34 33 41 34 33 41 34 33 41 34 33 41 34 33 41 34 33 41 34 33 41 35 32 43 43 35 50 44 33 50 42 31 48 39 28 45 37 26 43 34 23 40 32 21 38 31 20 37 47 36 53 51 40 57 58 47 64 68 57 74 78 67 84 88 77 94 95 84 101 100 87 105 117 103 120 121 104 122 123 106 124 126 109 127 130 113 131 133 116 134 135 118 136 137 120 138 147 130 148 147 130 148 147 130 148 147 130 148 147 130 148 147 130 148 147 130 148 145 131 148 144 130 147 143 130 147 143 130 147 143 130 147 143 130 147 143 130 147 143 130 147 143 130 147 133 120 137 133 120 137 133 120 137 133 120 137 133 120 137 133 120 137 133 120 137 133 120 137 129 116 134 129 116 134 129 116 134 129 116 134 129 116 134 129 116 134 129 116 134 129 116 134 123 110 128 123 110 128 123 110 128 123 110 128 123 110 128 123 110 128 123 110 128 123 110 128 122 108 125 122 108 125 122 108 125 122 108 125 122 108 125 122 108 125 122 108 125 122 108 125 117 103 120 115 101 118 113 99 116 110 96 113 106 92 109 103 89 106 101 87 104 99 85 102 101 86 105 99 84 103 97 82 101 94 79 98 90 75 94 87 72 91 85 70 89 83 68 87 83 68 87 82 67 86 80 65 84 77 62 81 73 58 77 70 55 74 67 52 71 65 52 69 51 40 54 48 40 51 46 38 49 43 35 46 39 31 42 36 28 39 33 25 36 32 24 35 17 9 20 19 11 22 21 13 24 24 16 27 28 20 31 31 23 34 33 25 36 34 29 36 38 39 43 38 42 43 40 44 45 43 47 48 47 51 52 50 54 55 52 56 57 54 58 59 59 63 64 61 65 66 63 67 68 66 70 71 70 74 75 73 77 78 75 79 80 79 80 82 70 70 70 69 67 68 64 62 63 57 55 56 51 49 50 44 42 43 39 37 38 37 35 36 37 35 36 37 35 36 37 35 36 37 35 36 37 35 36 37 35 36 37 35 36 37 35 36 35 33 34 35 33 34 35 33 34 35 33 34 35 33 34 35 33 34 35 33 34 35 33 34 39 37 38 39 37 38 39 37 38 39 37 38 39 37 38 39 37 38 39 37 38 39 37 38
32 31 39 32 31 39 32 31 39 32 31 39 34 33 41 34 33 41 34 33 41 34 33 41 34 33 41 34 33 41 34 33 41 35 32 43 42 34 49 43 32 49 43 32 49 42 31 48 41 30 47 40 29 46 39 28 45 39 28 45 54 43 60 58 47 64 65 54 71 74 63 80 85 74 91 94 83 100 102 91 108 107 94 112 121 107 124 124 107 125 126 109 127 130 113 131 133 116 134 136 119 137 139 122 140 140 123 141 147 130 148 147 130 148 147 130 148 147 130 148 147 130 148 147 130 148 147 130 148 145 131 148 144 130 147 143 130 147 143 130 147 143 130 147 143 130 147 143 130 147 143 130 147 143 130 147 133 120 137 133 120 137 133 120 137 133 120 137 133 120 137 133 120 137 133 120 137 133 120 137 129 116 134 129 116 134 129 116 134 129 116 134 129 116 134 129 116 134 129 116 134 129 116 134 123 110 128 123 110 128 123 110 128 123 110 128 123 110 128 123 110 128 123 110 128 123 110 128 119 105 122 119 105 122 119 105 122 119 105 122 119 105 122 119 105 122 119 105 122 119 105 122 113 99 116 112 98 115 110 96 113 106 92 109 103 89 106 100 86 103 97 83 100 96 82 99 97 82 101 96 81 100 94 79 98 90 75 94 87 72 91 84 69 88 81 66 85 80 65 84 77 62 81 76 61 80 73 58 77 70 55 74 67 52 71 64 49 68 61 46 65 59 46 63 45 34 48 42 34 45 39 31 42 36 28 39 33 25 36 30 22 33 27 19 30 26 18 29 17 9 20 19 11 22 21 13 24 24 16 27 28 20 31 31 23 34 33 25 36 34 29 36 38 39 43 38 42 43 40 44 45 43 47 48 47 51 52 50 54 55 52 56 57 54 58 59 56 60 61 57 61 62 60 64 65 63 67 68 66 70 71 70 74 75 72 76 77 75 76 78 70 70 70 69 67 68 64 62 63 57 55 56 51 49 50 44 42 43 39 37 38 37 35 36 37 35 36 37 35 36 37 35 36 37 35 36 37 35 36 37 35 36 37 35 36 37 35 36 35 33 34 35 33 34 35 33 34 35 33 34 35 33 34 35 33 34 35 33 34 35 33 34 39 37 38 39 37 38 39 37 38 39 37 38 39 37 38 39 37 38 39 37 38 39 37 38
32 31 39 32 31 39 32 31 39 32 31 39 34 33 41 34 33 41 34 33 41 34 33 41 34 33 41 34 33 41 34 33 41 35 32 43 40 32 47 43 32 49 43 32 49 44 33 50 45 34 51 46 35 52 47 36 53 47 36 53 60 49 66 64 53 70 72 61 78 81 70 87 92 81 98 101 90 107 108 97 114 113 100 118 124 110 127 127 110 128 130 113 131 133 116 134 136 119 137 140 123 141 142 125 143 143 126 144 147 130 148 147 130 148 147 130 148 147 130 148 147 130 148 147 130 148 147 130 148 145 131 148 144 130 147 143 130 147 143 130 147 143 130 147 143 130 147 143 130 147 143 130 147 143 130 147 133 120 137 133 120 137 133 120 137 133 120 137 133 120 137 133 120 137 133 120 137 133 120 137 129 116 134 129 116 134 129 116 134 129 116 134 129 116 134 129 116 134 129 116 134 129 116 134 123 110 128 123 110 128 123 110 128 123 110 128 123 110 128 123 110 128 123 110 128 123 110 128 115 101 118 115 101 118 115 101 118 115 101 118 115 101 118 115 101 118 115 101 118 115 101 118 110 96 113 109 95 112 106 92 109 103 89 106 100 86 103 96 82 99 94 80 97 93 79 96 94 79 98 93 78 97 90 75 94 87 72 91 84 69 88 80 65 84 78 63 82 77 62 81 70 55 74 69 54 73 66 51 70 63 48 67 60 45 64 57 42 61 54 39 58 52 39 56 38 27 41 35 27 38 32 24 35 29 21 32 26 18 29 23 15 26 20 12 23 19 11 22 17 9 20 19 11 22 21 13 24 24 16 27 28 20 31 31 23 34 33 25 36 34 29 36 38 39 43 38 42 43 40 44 45 43 47 48 47 51 52 50 54 55 52 56 57 54 58 59 53 57 58 54 58 59 56 60 61 60 64 65 63 67 68 66 70 71 69 73 74 72 73 75 70 70 70 69 67 68 64 62 63 57 55 56 51 49 50 44 42 43 39 37 38 37 35 36 37 35 36 37 35 36 37 35 36 37 35 36 37 35 36 37 35 36 37 35 36 37 35 36 35 33 34 35 33 34 35 33 34 35 33 34 35 33 34 35 33 34 35 33 34 35 33 34 39 37 38 39 37 38 39 37 38 39 37 38 39 37 38 39 37 38 39 37 38 39 37 38
32 31 39 32 31 39 32 31 39 32 31 39 34 33 41 34 33 41 34 33 41 34 33 41 34 33 41 34 33 41 34 33 41 35 32 43 39 31 46 42 31 48 44 33 50 47 36 53 49 38 55 52 41 58 54 43 60 55 44 61 67 56 73 71 60 77 78 67 84 88 77 94 98 87 104 108 97 114 115 104 121 120 107 125 127 113 130 131 114 132 133 116 134 136 119 137 140 123 141 143 126 144 145 128 146 147 130 148 147 130 148 147 130 148 147 130 148 147 130 148 147 130 148 147 130 148 147 130 148 145 131 148 144 130 147 143 130 147 143 130 147 143 130 147 143 130 147 143 130 147 143 130 147 143 130 147 133 120 137 133 120 137 133 120 137 133 120 137 133 120 137 133 120 137 133 120 137 133 120 137 129 116 134 129 116 134 129 116 134 129 116 134 129 116 134 129 116 134 129 116 134 129 116 134 123 110 128 123 110 128 123 110 128 123 110 128 123 110 128 123 110 128 123 110 128 123 110 128 112 98 115 112 98 115 112 98 115 112 98 115 112 98 115 112 98 115 112 98 115 112 98 115 107 93 110 105 91 108 103 89 106 100 86 103 96 82 99 93 79 96 91 77 94 89 75 92 91 76 95 89 74 93 87 72 91 84 69 88 80 65 84 77 62 81 75 60 79 73 58 77 64 49 68 63 48 67 60 45 64 57 42 61 53 38 57 50 35 54 48 33 52 46 33 50 32 21 35 29 21 32 26 18 29 23 15 26 19 11 22 16 8 19 14 6 17 13 5 16 17 9 20 19 11 22 21 13 24 24 16 27 28 20 31 31 23 34 33 25 36 34 29 36 38 39 43 38 42 43 40 44 45 43 47 48 47 51 52 50 54 55 52 56 57 54 58 59 49 53 54 51 55 56 53 57 58 56 60 61 60 64 65 63 67 68 65 69 70 69 70 72 70 70 70 69 67 68 64 62 63 57 55 56 51 49 50 44 42 43 39 37 38 37 35 36 37 35 36 37 35 36 37 35 36 37 35 36 37 35 36 37 35 36 37 35 36 37 35 36 35 33 34 35 33 34 35 33 34 35 33 34 35 33 34 35 33 34 35 33 34 35 33 34 39 37 38 39 37 38 39 37 38 39 37 38 39 37 38 39 37 38 39 37 38 39 37 38
32 31 39 32 31 39 32 31 39 32 31 39 34 33 41 34 33 41 34 33 41 34 33 41 34 33 41 34 33 41 34 33 41 35 32 43 38 30 45 42 31 48 45 34 51 48 37 54 52 41 58 56 45 62 59 48 65 61 50 67 72 61 78 76 65 82 83 72 89 93 82 99 103 92 109 112 101 118 120 109 126 125 112 130 130 116 133 133 116 134 135 118 136 139 122 140 142 125 143 145 128 146 148 131 149 149 132 150 147 130 148 147 130 148 147 130 148 147 130 148 147 130 148 147 130 148 147 130 148 145 131 148 144 130 147 143 130 147 143 130 147 143 130 147 143 130 147 143 130 147 143 130 147 143 130 147 133 120 137 133 120 137 133 120 137 133 120 137 133 120 137 133 120 137 133 120 137 133 120 137 129 116 134 129 116 134 129 116 134 129 116 134 129 116 134 129 116 134 129 116 134 129 116 134 123 110 128 123 110 128 123 110 128 123 110 128 123 110 128 123 110 128 123 110 128 123 110 128 110 96 113 110 96 113 110 96 113 110 96 113 110 96 113 110 96 113 110 96 113 110 96 113 104 90 107 103 89 106 101 87 104 97 83 100 94 80 97 91 77 94 88 74 91 87 73 90 88 73 92 87 72 91 85 70 89 81 66 85 78 63 82 75 60 79 72 57 76 71 56 75 59 44 63 58 43 62 55 40 59 52 37 56 49 34 53 45 30 49 43 28 47 41 28 45 27 16 30 24 16 27 21 13 24 18 10 21 15 7 18 11 3 14 9 1 12 8 0 11 17 9 20 19 11 22 21 13 24 24 16 27 28 20 31 31 23 34 33 25 36 34 29 36 38 39 43 38 42 43 40 44 45 43 47 48 47 51 52 50 54 55 52 56 57 54 58 59 47 51 52 48 52 53 51 55 56 54 58 59 57 61 62 61 65 66 63 67 68 66 67 69 70 70 70 69 67 68 64 62 63 57 55 56 51 49 50 44 42 43 39 37 38 37 35 36 37 35 36 37 35 36 37 35 36 37 35 36 37 35 36 37 35 36 37 35 36 37 35 36 35 33 34 35 33 34 35 33 34 35 33 34 35 33 34 35 33 34 35 33 34 35 33 34 39 37 38 39 37 38 39 37 38 39 37 38 39 37 38 39 37 38 39 37 38 39 37 38
33 30 41 33 30 39 33 30 41 33 30 39 35 32 43 35 32 41 35 32 43 35 32 41 35 32 43 35 32 41 35 32 43 37 31 43 40 29 45 41 30 47 46 33 51 49 38 55 55 42 60 58 47 64 63 50 68 64 53 70 75 62 80 78 67 84 87 74 92 95 84 101 107 94 112 115 104 121 123 110 128 127 114 131 131 117 134 134 117 135 137 120 138 140 123 141 143 126 144 147 130 148 149 132 150 150 133 151 147 130 148 147 130 148 147 130 148 147 130 148 147 130 148 147 130 148 147 130 148 145 131 148 144 130 147 143 130 147 144 130 147 143 130 147 144 130 147 143 130 147 144 130 147 143 130 147 134 120 137 133 120 137 134 120 137 133 120 137 134 120 137 133 120 137 134 120 137 133 120 137 129 116 134 129 116 134 129 116 134 129 116 134 129 116 134 129 116 134 129 116 134 129 116 134 123 110 128 123 110 128 123 110 128 123 110 128 123 110 128 123 110 128 123 110 128 123 110 128 107 94 111 107 94 111 107 94 111 107 94 111 107 94 111 107 94 111 107 94 111 107 94 111 102 89 106 101 88 105 98 85 102 95 82 99 92 79 96 88 75 92 86 73 90 85 72 89 85 74 90 84 73 89 81 70 87 78 67 83 75 64 81 71 60 76 69 58 75 68 57 73 54 43 60 53 42 58 51 40 57 47 36 52 44 33 50 41 30 46 38 27 44 35 27 42 21 15 25 18 15 22 16 13 22 12 9 16 9 6 15 6 3 10 3 0 9 2 0 6 14 11 20 16 13 20 18 15 24 21 18 25 25 22 31 28 25 32 30 27 36 31 30 36 38 39 43 38 42 43 40 44 45 43 47 48 47 51 52 50 54 55 52 56 57 54 58 59 46 50 51 47 51 52 49 53 54 53 57 58 56 60 61 59 63 64 62 66 67 65 66 68 70 70 70 69 67 68 64 62 63 57 55 56 51 49 50 44 42 43 39 37 38 37 35 36 37 35 36 37 35 36 37 35 36 37 35 36 37 35 36 37 35 36 37 35 36 37 35 36 37 33 34 37 33 32 37 33 34 37 33 32 37 33 34 37 33 32 37 33 34 37 33 32 41 37 38 41 37 36 41 37 38 41 37 36 41 37 38 41 37 36 41 37 38 41 37 38
29 18 34 33 22 36 39 28 44 44 33 47 43 32 48 44 33 47 45 34 50 47 36 50 49 38 54 51 40 54 53 42 58 54 43 59 64 51 68 66 53 70 72 58 75 78 65 82 85 71 88 91 78 95 97 83 100 98 85 102 131 117 134 130 117 134 131 117 134 130 117 134 131 117 134 130 117 134 131 117 134 131 117 134 144 130 147 144 130 145 144 130 145 144 130 145 144 130 145 144 130 145 144 130 145 144 130 145 148 134 149 148 134 149 148 134 149 148 134 149 148 134 149 148 134 149 148 134 149 148 134 149 132 118 135 132 118 135 134 117 135 132 118 135 134 117 135 132 118 135 134 117 135 132 118 135 129 112 130 127 113 130 129 112 130 127 113 130 129 112 130 127 113 130 129 112 130 127 113 130 130 116 133 130 116 133 130 116 133 130 116 133 130 116 133 130 116 133 130 116 133 130 116 133 126 112 129 125 111 128 123 109 126 119 105 122 116 102 119 113 99 116 110 96 113 108 95 112 103 95 110 101 95 109 99 93 107 95 89 103 92 86 100 89 83 97 86 80 94 85 79 93 85 79 93 84 78 92 82 76 90 78 72 86 75 69 83 72 66 80 69 63 77 68 62 76 65 61 75 64 61 72 62 58 72 58 55 66 55 51 65 52 49 60 49 45 59 48 45 56 30 26 40 28 25 36 26 22 36 23 20 31 19 15 29 16 13 24 14 10 24 11 9 20 11 12 17 9 13 16 9 12 17 9 13 16 9 12 17 9 13 16 9 12 17 9 13 16 9 12 17 11 15 18 13 16 21 16 20 23 20 23 28 23 27 30 25 28 33 27 31 34 29 33 34 31 35 36 33 37 38 36 40 41 40 44 45 43 47 48 45 49 50 47 51 52 48 52 53 48 52 53 48 52 53 48 52 53 48 52 53 48 52 53 48 52 53 50 51 53 53 51 52 53 49 48 51 47 46 48 44 43 44 40 39 41 37 36 39 35 34 37 33 32 36 32 31 36 32 31 36 32 31 36 32 31 36 32 31 36 32 31 36 32 31 36 32 31 39 33 33 39 34 31 39 33 33 39 34 31 39 33 33 39 34 31 39 33 33 39 34 31 40 34 34 40 35 32 40 34 34 40 35 32 40 34 34 40 35 32 40 34 34 40 34 34
26 13 30 29 16 33 35 22 39 39 26 43 39 26 43 40 27 44 42 29 46 45 32 49 48 35 52 50 37 54 52 39 56 53 40 57 69 55 72 71 57 74 76 62 79 82 68 85 89 75 92 96 82 99 101 87 104 103 89 106 133 119 136 133 119 136 133 119 136 133 119 136 133 119 136 133 119 136 133 119 136 133 119 136 144 130 145 144 130 145 144 130 145 144 130 145 144 130 145 144 130 145 144 130 145 144 130 145 146 132 147 146 132 147 146 132 147 146 132 147 146 132 147 146 132 147 146 132 147 146 132 147 134 117 135 134 117 135 134 117 135 134 117 135 134 117 135 134 117 135 134 117 135 134 117 135 129 112 130 129 112 130 129 112 130 129 112 130 129 112 130 129 112 130 129 112 130 129 112 130 128 114 131 128 114 131 128 114 131 128 114 131 128 114 131 128 114 131 128 114 131 128 114 131 125 111 128 124 110 127 121 107 124 118 104 121 115 101 118 111 97 114 109 95 112 107 94 111 101 95 109 98 94 108 95 91 105 92 88 102 89 85 99 85 81 95 83 79 93 82 78 92 82 78 92 81 77 91 78 74 88 75 71 85 72 68 82 68 64 78 66 62 76 64 62 75 63 61 72 61 61 71 58 58 68 55 55 65 52 52 62 48 48 58 46 46 56 45 45 55 28 28 38 26 26 36 24 24 34 21 21 31 17 17 27 14 14 24 12 12 22 8 11 18 8 13 17 6 14 16 6 14 16 6 14 16 6 14 16 6 14 16 6 14 16 6 14 16 6 14 16 8 16 18 10 18 20 13 21 23 17 25 27 20 28 30 22 30 32 24 32 34 29 33 34 31 35 36 33 37 38 36 40 41 40 44 45 43 47 48 45 49 50 47 51 52 48 52 53 48 52 53 48 52 53 48 52 53 48 52 53 48 52 53 48 52 53 50 52 51 53 51 52 53 49 48 51 47 46 48 44 43 44 40 39 41 37 36 39 35 34 37 33 32 36 32 31 36 32 31 36 32 31 36 32 31 36 32 31 36 32 31 36 32 31 36 32 31 41 33 31 41 33 31 41 33 31 41 33 31 41 33 31 41 33 31 41 33 31 41 33 31 42 34 32 42 34 32 42 34 32 42 34 32 42 34 32 42 34 32 42 34 32 40 35 32
19 6 23 21 8 25 26 13 30 30 17 34 33 20 37 34 21 38 37 24 41 41 28 45 45 32 49 49 36 53 52 39 56 54 41 58 76 62 79 79 65 82 83 69 86 90 76 93 97 83 100 103 89 106 108 94 111 111 97 114 135 121 138 135 121 138 135 121 138 135 121 138 135 121 138 135 121 138 135 121 138 135 121 138 144 130 145 144 130 145 144 130 145 144 130 145 144 130 145 144 130 145 144 130 145 144 130 145 144 130 145 144 130 145 144 130 145 144 130 145 144 130 145 144 130 145 144 130 145 144 130 145 134 117 135 134 117 135 134 117 135 134 117 135 134 117 135 134 117 135 134 117 135 134 117 135 129 112 130 129 112 130 129 112 130 129 112 130 129 112 130 129 112 130 129 112 130 129 112 130 126 112 129 126 112 129 126 112 129 126 112 129 126 112 129 126 112 129 126 112 129 126 112 129 123 109 126 121 107 124 119 105 122 116 102 119 112 98 115 109 95 112 107 93 110 104 91 108 99 93 107 95 91 105 93 89 103 90 86 100 86 82 96 83 79 93 81 77 91 79 75 89 80 76 90 78 74 88 76 72 86 73 69 83 69 65 79 66 62 76 64 60 74 61 59 72 61 59 70 58 58 68 56 56 66 53 53 63 49 49 59 46 46 56 44 44 54 42 42 52 28 28 38 26 26 36 24 24 34 21 21 31 17 17 27 14 14 24 12 12 22 8 11 18 8 13 17 6 14 16 6 14 16 6 14 16 6 14 16 6 14 16 6 14 16 6 14 16 6 14 16 8 16 18 10 18 20 13 21 23 17 25 27 20 28 30 22 30 32 24 32 34 29 33 34 31 35 36 33 37 38 36 40 41 40 44 45 43 47 48 45 49 50 47 51 52 48 52 53 48 52 53 48 52 53 48 52 53 48 52 53 48 52 53 48 52 53 50 52 51 53 51 52 53 49 48 51 47 46 48 44 43 44 40 39 41 37 36 39 35 34 37 33 32 36 32 31 36 32 31 36 32 31 36 32 31 36 32 31 36 32 31 36 32 31 36 32 31 41 33 31 41 33 31 41 33 31 41 33 31 41 33 31 41 33 31 41 33 31 41 33 31 42 34 32 42 34 32 42 34 32 42 34 32 42 34 32 42 34 32 42 34 32 40 35 32
16 3 20 16 3 20 20 7 24 23 10 27 29 16 33 31 18 35 35 22 39 41 28 45 47 34 51 52 39 56 57 44 61 59 46 63 85 71 88 88 74 91 93 79 96 99 85 102 106 92 109 113 99 116 118 104 121 120 106 123 138 124 141 138 124 141 138 124 141 138 124 141 138 124 141 138 124 141 138 124 141 138 124 141 144 130 145 144 130 145 144 130 145 144 130 145 144 130 145 144 130 145 144 130 145 144 130 145 141 127 142 141 127 142 141 127 142 141 127 142 141 127 142 141 127 142 141 127 142 141 127 142 134 117 135 134 117 135 134 117 135 134 117 135 134 117 135 134 117 135 134 117 135 134 117 135 129 112 130 129 112 130 129 112 130 129 112 130 129 112 130 129 112 130 129 112 130 129 112 130 123 109 126 123 109 126 123 109 126 123 109 126 123 109 126 123 109 126 123 109 126 123 109 126 119 105 122 118 104 121 116 102 119 112 98 115 109 95 112 106 92 109 103 89 106 101 88 105 95 89 103 92 88 102 90 86 100 86 82 96 83 79 93 80 76 90 77 73 87 76 72 86 76 72 86 75 71 85 73 69 83 69 65 79 66 62 76 63 59 73 60 56 70 58 56 69 57 55 66 55 55 65 53 53 63 49 49 59 46 46 56 43 43 53 40 40 50 39 39 49 28 28 38 26 26 36 24 24 34 21 21 31 17 17 27 14 14 24 12 12 22 8 11 18 8 13 17 6 14 16 6 14 16 6 14 16 6 14 16 6 14 16 6 14 16 6 14 16 6 14 16 8 16 18 10 18 20 13 21 23 17 25 27 20 28 30 22 30 32 24 32 34 29 33 34 31 35 36 33 37 38 36 40 41 40 44 45 43 47 48 45 49 50 47 51 52 48 52 53 48 52 53 48 52 53 48 52 53 48 52 53 48 52 53 48 52 53 50 52 51 53 51 52 53 49 48 51 47 46 48 44 43 44 40 39 41 37 36 39 35 34 37 33 32 36 32 31 36 32 31 36 32 31 36 32 31 36 32 31 36 32 31 36 32 31 36 32 31 41 33 31 41 33 31 41 33 31 41 33 31 41 33 31 41 33 31 41 33 31 41 33 31 42 34 32 42 34 32 42 34 32 42 34 32 42 34 32 42 34 32 42 34 32 40 35 32
19 6 23 17 4 21 19 6 23 22 9 26 31 18 35 34 21 38 40 27 44 47 34 51 55 42 59 62 49 66 68 55 72 71 58 75 96 82 99 98 84 101 103 89 106 110 96 113 117 103 120 123 109 126 128 114 131 131 117 134 142 128 145 142 128 145 142 128 145 142 128 145 142 128 145 142 128 145 142 128 145 142 128 145 144 130 145 144 130 145 144 130 145 144 130 145 144 130 145 144 130 145 144 130 145 144 130 145 137 123 138 137 123 138 137 123 138 137 123 138 137 123 138 137 123 138 137 123 138 137 123 138 134 117 135 134 117 135 134 117 135 134 117 135 134 117 135 134 117 135 134 117 135 134 117 135 129 112 130 129 112 130 129 112 130 129 112 130 129 112 130 129 112 130 129 112 130 129 112 130 119 105 122 119 105 122 119 105 122 119 105 122 119 105 122 119 105 122 119 105 122 119 105 122 116 102 119 115 101 118 112 98 115 109 95 112 106 92 109 102 88 105 100 86 103 98 85 102 92 86 100 89 85 99 86 82 96 83 79 93 80 76 90 76 72 86 74 70 84 73 69 83 73 69 83 72 68 82 69 65 79 66 62 76 63 59 73 59 55 69 57 53 67 55 53 66 54 52 63 52 52 62 49 49 59 46 46 56 43 43 53 39 39 49 37 37 47 36 36 46 28 28 38 26 26 36 24 24 34 21 21 31 17 17 27 14 14 24 12 12 22 8 11 18 8 13 17 6 14 16 6 14 16 6 14 16 6 14 16 6 14 16 6 14 16 6 14 16 6 14 16 8 16 18 10 18 20 13 21 23 17 25 27 20 28 30 22 30 32 24 32 34 29 33 34 31 35 36 33 37 38 36 40 41 40 44 45 43 47 48 45 49 50 47 51 52 48 52 53 48 52 53 48 52 53 48 52 53 48 52 53 48 52 53 48 52 53 50 52 51 53 51 52 53 49 48 51 47 46 48 44 43 44 40 39 41 37 36 39 35 34 37 33 32 36 32 31 36 32 31 36 32 31 36 32 31 36 32 31 36 32 31 36 32 31 36 32 31 41 33 31 41 33 31 41 33 31 41 33 31 41 33 31 41 33 31 41 33 31 41 33 31 42 34 32 42 34 32 42 34 32 42 34 32 42 34 32 42 34 32 42 34 32 40 35 32
26 13 30 23 10 27 24 11 28 26 13 30 39 26 43 42 29 46 49 36 53 58 45 62 68 55 72 77 64 81 83 70 87 87 74 91 105 91 108 108 94 111 113 99 116 119 105 122 126 112 129 133 119 136 137 123 140 140 126 143 145 131 148 145 131 148 145 131 148 145 131 148 145 131 148 145 131 148 145 131 148 145 131 148 144 130 145 144 130 145 144 130 145 144 130 145 144 130 145 144 130 145 144 130 145 144 130 145 134 120 135 134 120 135 134 120 135 134 120 135 134 120 135 134 120 135 134 120 135 134 120 135 134 117 135 134 117 135 134 117 135 134 117 135 134 117 135 134 117 135 134 117 135 134 117 135 129 112 130 129 112 130 129 112 130 129 112 130 129 112 130 129 112 130 129 112 130 129 112 130 116 102 119 116 102 119 116 102 119 116 102 119 116 102 119 116 102 119 116 102 119 116 102 119 113 99 116 111 97 114 109 95 112 106 92 109 102 88 105 99 85 102 97 83 100 94 81 98 89 83 97 85 81 95 83 79 93 80 76 90 76 72 86 73 69 83 71 67 81 69 65 79 70 66 80 68 64 78 66 62 76 63 59 73 59 55 69 56 52 66 54 50 64 51 49 62 51 49 60 48 48 58 46 46 56 43 43 53 39 39 49 36 36 46 34 34 44 32 32 42 28 28 38 26 26 36 24 24 34 21 21 31 17 17 27 14 14 24 12 12 22 8 11 18 8 13 17 6 14 16 6 14 16 6 14 16 6 14 16 6 14 16 6 14 16 6 14 16 6 14 16 8 16 18 10 18 20 13 21 23 17 25 27 20 28 30 22 30 32 24 32 34 29 33 34 31 35 36 33 37 38 36 40 41 40 44 45 43 47 48 45 49 50 47 51 52 48 52 53 48 52 53 48 52 53 48 52 53 48 52 53 48 52 53 48 52 53 50 52 51 53 51 52 53 49 48 51 47 46 48 44 43 44 40 39 41 37 36 39 35 34 37 33 32 36 32 31 36 32 31 36 32 31 36 32 31 36 32 31 36 32 31 36 32 31 36 32 31 41 33 31 41 33 31 41 33 31 41 33 31 41 33 31 41 33 31 41 33 31 41 33 31 42 34 32 42 34 32 42 34 32 42 34 32 42 34 32 42 34 32 42 34 32 40 35 32
36 23 40 32 19 36 32 19 36 33 20 37 48 35 52 52 39 56 60 47 64 70 57 74 81 68 85 91 78 95 99 86 103 103 90 107 113 99 116 115 101 118 120 106 123 127 113 130 134 120 137 140 126 143 145 131 148 147 133 150 147 133 150 147 133 150 147 133 150 147 133 150 147 133 150 147 133 150 147 133 150 147 133 150 144 130 145 144 130 145 144 130 145 144 130 145 144 130 145 144 130 145 144 130 145 144 130 145 132 118 133 132 118 133 132 118 133 132 118 133 132 118 133 132 118 133 132 118 133 132 118 133 134 117 135 134 117 135 134 117 135 134 117 135 134 117 135 134 117 135 134 117 135 134 117 135 129 112 130 129 112 130 129 112 130 129 112 130 129 112 130 129 112 130 129 112 130 129 112 130 114 100 117 114 100 117 114 100 117 114 100 117 114 100 117 114 100 117 114 100 117 114 100 117 110 96 113 109 95 112 107 93 110 103 89 106 100 86 103 97 83 100 94 80 97 92 79 96 86 80 94 83 79 93 81 77 91 77 73 87 74 70 84 71 67 81 68 64 78 67 63 77 67 63 77 66 62 76 64 60 74 60 56 70 57 53 67 54 50 64 51 47 61 49 47 60 48 46 57 46 46 56 44 44 54 40 40 50 37 37 47 34 34 44 31 31 41 30 30 40 28 28 38 26 26 36 24 24 34 21 21 31 17 17 27 14 14 24 12 12 22 8 11 18 8 13 17 6 14 16 6 14 16 6 14 16 6 14 16 6 14 16 6 14 16 6 14 16 6 14 16 8 16 18 10 18 20 13 21 23 17 25 27 20 28 30 22 30 32 24 32 34 29 33 34 31 35 36 33 37 38 36 40 41 40 44 45 43 47 48 45 49 50 47 51 52 48 52 53 48 52 53 48 52 53 48 52 53 48 52 53 48 52 53 48 52 53 50 52 51 53 51 52 53 49 48 51 47 46 48 44 43 44 40 39 41 37 36 39 35 34 37 33 32 36 32 31 36 32 31 36 32 31 36 32 31 36 32 31 36 32 31 36 32 31 36 32 31 41 33 31 41 33 31 41 33 31 41 33 31 41 33 31 41 33 31 41 33 31 41 33 31 42 34 32 42 34 32 42 34 32 42 34 32 42 34 32 42 34 32 42 34 32 40 35 32
43 30 47 38 25 42 37 24 41 39 26 43 55 42 59 59 46 63 67 54 71 78 65 82 90 77 94 101 88 105 109 96 113 113 100 117 117 103 120 119 105 122 124 110 127 131 117 134 137 123 140 144 130 147 149 135 152 151 137 154 149 135 152 149 135 152 149 135 152 149 135 152 149 135 152 149 135 152 149 135 152 149 135 152 144 130 145 144 130 145 144 130 145 144 130 145 144 130 145 144 130 145 144 130 145 144 130 145 130 116 131 130 116 131 130 116 131 130 116 131 130 116 131 130 116 131 130 116 131 130 116 131 134 117 135 134 117 135 134 117 135 134 117 135 134 117 135 134 117 135 134 117 135 134 117 135 129 112 130 129 112 130 129 112 130 129 112 130 129 112 130 129 112 130 129 112 130 129 112 130 112 98 115 112 98 115 112 98 115 112 98 115 112 98 115 112 98 115 112 98 115 112 98 115 109 95 112 108 94 111 105 91 108 102 88 105 99 85 102 95 81 98 93 79 96 91 78 95 85 79 93 82 78 92 79 75 89 76 72 86 73 69 83 69 65 79 67 63 77 66 62 76 66 62 76 65 61 75 62 58 72 59 55 69 56 52 66 52 48 62 50 46 60 48 46 59 47 45 56 45 45 55 42 42 52 39 39 49 36 36 46 32 32 42 30 30 40 29 29 39 28 28 38 26 26 36 24 24 34 21 21 31 17 17 27 14 14 24 12 12 22 8 11 18 8 13 17 6 14 16 6 14 16 6 14 16 6 14 16 6 14 16 6 14 16 6 14 16 6 14 16 8 16 18 10 18 20 13 21 23 17 25 27 20 28 30 22 30 32 24 32 34 29 33 34 31 35 36 33 37 38 36 40 41 40 44 45 43 47 48 45 49 50 47 51 52 48 52 53 48 52 53 48 52 53 48 52 53 48 52 53 48 52 53 48 52 53 50 52 51 53 51 52 53 49 48 51 47 46 48 44 43 44 40 39 41 37 36 39 35 34 37 33 32 36 32 31 36 32 31 36 32 31 36 32 31 36 32 31 36 32 31 36 32 31 36 32 31 41 33 31 41 33 31 41 33 31 41 33 31 41 33 31 41 33 31 41 33 31 41 33 31 42 34 32 42 34 32 42 34 32 42 34 32 42 34 32 42 34 32 42 34 32 40 35 32
64 51 68 77 64 81 92 79 96 102 89 106 98 85 102 101 88 105 107 94 111 114 101 118 122 109 126 130 117 134 136 123 140 139 126 143 141 127 144 141 127 144 141 127 144 141 127 144 141 127 144 141 127 144 141 127 144 141 127 144 144 130 147 144 130 147 144 130 147 144 130 147 144 130 147 144 130 147 144 130 147 144 130 147 136 122 137 136 122 137 136 122 137 136 122 137 136 122 137 136 122 137 136 122 137 136 122 137 130 116 131 130 116 131 130 116 131 130 116 131 130 116 131 130 116 131 130 116 131 130 116 131 126 109 127 126 109 127 126 109 127 126 109 127 126 109 127 126 109 127 126 109 127 126 109 127 131 114 132 130 113 131 128 111 129 124 107 125 121 104 122 118 101 119 115 98 116 114 97 115 116 102 119 115 101 118 112 98 115 109 95 112 106 92 109 102 88 105 100 86 103 99 85 102 102 88 105 100 86 103 98 84 101 95 81 98 91 77 94 88 74 91 86 72 89 83 70 87 65 59 73 63 59 73 63 59 73 63 59 73 63 59 73 63 59 73 63 59 73 63 59 73 51 47 61 51 47 61 51 47 61 51 47 61 51 47 61 51 47 61 51 47 61 50 48 61 46 44 55 43 43 53 41 41 51 38 38 48 34 34 44 31 31 41 29 29 39 27 27 37 23 23 33 21 21 31 19 19 29 16 16 26 12 12 22 9 9 19 7 7 17 3 6 13 8 13 17 6 14 16 6 14 16 6 14 16 6 14 16 6 14 16 6 14 16 6 14 16 6 14 16 8 16 18 10 18 20 13 21 23 17 25 27 20 28 30 22 30 32 24 32 34 30 34 35 30 34 35 30 34 35 30 34 35 30 34 35 30 34 35 30 34 35 30 34 35 36 40 41 36 40 41 36 40 41 36 40 41 36 40 41 36 40 41 36 40 41 38 40 39 36 34 35 38 34 33 38 34 33 38 34 33 38 34 33 38 34 33 38 34 33 38 34 33 36 32 31 36 32 31 36 32 31 36 32 31 36 32 31 36 32 31 36 32 31 36 32 31 39 31 29 39 31 29 39 31 29 39 31 29 39 31 29 39 31 29 39 31 29 39 31 29 41 33 31 41 33 31 41 33 31 41 33 31 41 33 31 41 33 31 41 33 31 39 34 31
71 58 75 81 68 85 95 82 99 104 91 108 101 88 105 104 91 108 109 96 113 116 103 120 123 110 127 130 117 134 136 123 140 139 126 143 141 127 144 141 127 144 141 127 144 141 127 144 141 127 144 141 127 144 141 127 144 141 127 144 144 130 147 144 130 147 144 130 147 144 130 147 144 130 147 144 130 147 144 130 147 144 130 147 136 122 137 136 122 137 136 122 137 136 122 137 136 122 137 136 122 137 136 122 137 136 122 137 130 116 131 130 116 131 130 116 131 130 116 131 130 116 131 130 116 131 130 116 131 130 116 131 126 109 127 126 109 127 126 109 127 126 109 127 126 109 127 126 109 127 126 109 127 126 109 127 130 113 131 129 112 130 126 109 127 123 106 124 120 103 121 116 99 117 114 97 115 113 96 114 118 104 121 116 102 119 114 100 117 111 97 114 107 93 110 104 90 107 102 88 105 100 86 103 98 84 101 96 82 99 94 80 97 91 77 94 87 73 90 84 70 87 82 68 85 79 66 83 63 57 71 61 57 71 61 57 71 61 57 71 61 57 71 61 57 71 61 57 71 61 57 71 51 47 61 51 47 61 51 47 61 51 47 61 51 47 61 51 47 61 51 47 61 50 48 61 46 44 55 43 43 53 41 41 51 38 38 48 34 34 44 31 31 41 29 29 39 27 27 37 23 23 33 21 21 31 19 19 29 16 16 26 12 12 22 9 9 19 7 7 17 3 6 13 8 13 17 6 14 16 6 14 16 6 14 16 6 14 16 6 14 16 6 14 16 6 14 16 6 14 16 8 16 18 10 18 20 13 21 23 17 25 27 20 28 30 22 30 32 24 32 34 30 34 35 30 34 35 30 34 35 30 34 35 30 34 35 30 34 35 30 34 35 30 34 35 36 40 41 36 40 41 36 40 41 36 40 41 36 40 41 36 40 41 36 40 41 38 40 39 36 34 35 38 34 33 38 34 33 38 34 33 38 34 33 38 34 33 38 34 33 38 34 33 36 32 31 36 32 31 36 32 31 36 32 31 36 32 31 36 32 31 36 32 31 36 32 31 39 31 29 39 31 29 39 31 29 39 31 29 39 31 29 39 31 29 39 31 29 39 31 29 41 33 31 41 33 31 41 33 31 41 33 31 41 33 31 41 33 31 41 33 31 39 34 31
82 69 86 91 78 95 100 87 104 107 94 111 107 94 111 109 96 113 113 100 117 119 106 123 125 112 129 131 118 135 135 122 139 138 125 142 141 127 144 141 127 144 141 127 144 141 127 144 141 127 144 141 127 144 141 127 144 141 127 144 144 130 147 144 130 147 144 130 147 144 130 147 144 130 147 144 130 147 144 130 147 144 130 147 136 122 137 136 122 137 136 122 137 136 122 137 136 122 137 136 122 137 136 122 137 136 122 137 130 116 131 130 116 131 130 116 131 130 116 131 130 116 131 130 116 131 130 116 131 130 116 131 126 109 127 126 109 127 126 109 127 126 109 127 126 109 127 126 109 127 126 109 127 126 109 127 128 111 129 126 109 127 124 107 125 121 104 122 117 100 118 114 97 115 112 95 113 110 93 111 118 104 121 117 103 120 115 101 118 111 97 114 108 94 111 105 91 108 102 88 105 101 87 104 90 76 93 89 75 92 87 73 90 83 69 86 80 66 83 77 63 80 74 60 77 72 59 76 61 55 69 59 55 69 59 55 69 59 55 69 59 55 69 59 55 69 59 55 69 59 55 69 51 47 61 51 47 61 51 47 61 51 47 61 51 47 61 51 47 61 51 47 61 50 48 61 46 44 55 43 43 53 41 41 51 38 38 48 34 34 44 31 31 41 29 29 39 27 27 37 23 23 33 21 21 31 19 19 29 16 16 26 12 12 22 9 9 19 7 7 17 3 6 13 8 13 17 6 14 16 6 14 16 6 14 16 6 14 16 6 14 16 6 14 16 6 14 16 6 14 16 8 16 18 10 18 20 13 21 23 17 25 27 20 28 30 22 30 32 24 32 34 30 34 35 30 34 35 30 34 35 30 34 35 30 34 35 30 34 35 30 34 35 30 34 35 36 40 41 36 40 41 36 40 41 36 40 41 36 40 41 36 40 41 36 40 41 38 40 39 36 34 35 38 34 33 38 34 33 38 34 33 38 34 33 38 34 33 38 34 33 38 34 33 36 32 31 36 32 31 36 32 31 36 32 31 36 32 31 36 32 31 36 32 31 36 32 31 39 31 29 39 31 29 39 31 29 39 31 29 39 31 29 39 31 29 39 31 29 39 31 29 41 33 31 41 33 31 41 33 31 41 33 31 41 33 31 41 33 31 41 33 31 39 34 31
97 84 101 102 89 106 107 94 111 111 98 115 114 101 118 116 103 120 119 106 123 123 110 127 127 114 131 132 119 136 135 122 139 136 123 140 141 127 144 141 127 144 141 127 144 141 127 144 141 127 144 141 127 144 141 127 144 141 127 144 144 130 147 144 130 147 144 130 147 144 130 147 144 130 147 144 130 147 144 130 147 144 130 147 136 122 137 136 122 137 136 122 137 136 122 137 136 122 137 136 122 137 136 122 137 136 122 137 130 116 131 130 116 131 130 116 131 130 116 131 130 116 131 130 116 131 130 116 131 130 116 131 126 109 127 126 109 127 126 109 127 126 109 127 126 109 127 126 109 127 126 109 127 126 109 127 124 107 125 123 106 124 121 104 122 117 100 118 114 97 115 111 94 112 108 91 109 107 90 108 114 100 117 113 99 116 111 97 114 108 94 111 104 90 107 101 87 104 98 84 101 97 83 100 81 67 84 80 66 83 77 63 80 74 60 77 70 56 73 67 53 70 65 51 68 63 50 67 58 52 66 56 52 66 56 52 66 56 52 66 56 52 66 56 52 66 56 52 66 56 52 66 51 47 61 51 47 61 51 47 61 51 47 61 51 47 61 51 47 61 51 47 61 50 48 61 46 44 55 43 43 53 41 41 51 38 38 48 34 34 44 31 31 41 29 29 39 27 27 37 23 23 33 21 21 31 19 19 29 16 16 26 12 12 22 9 9 19 7 7 17 3 6 13 8 13 17 6 14 16 6 14 16 6 14 16 6 14 16 6 14 16 6 14 16 6 14 16 6 14 16 8 16 18 10 18 20 13 21 23 17 25 27 20 28 30 22 30 32 24 32 34 30 34 35 30 34 35 30 34 35 30 34 35 30 34 35 30 34 35 30 34 35 30 34 35 36 40 41 36 40 41 36 40 41 36 40 41 36 40 41 36 40 41 36 40 41 38 40 39 36 34 35 38 34 33 38 34 33 38 34 33 38 34 33 38 34 33 38 34 33 38 34 33 36 32 31 36 32 31 36 32 31 36 32 31 36 32 31 36 32 31 36 32 31 36 32 31 39 31 29 39 31 29 39 31 29 39 31 29 39 31 29 39 31 29 39 31 29 39 31 29 41 33 31 41 33 31 41 33 31 41 33 31 41 33 31 41 33 31 41 33 31 39 34 31
114 101 118 115 102 119 115 102 119 115 102 119 122 109 126 123 110 127 125 112 129 127 114 131 130 117 134 132 119 136 134 121 138 135 122 139 141 127 144 141 127 144 141 127 144 141 127 144 141 127 144 141 127 144 141 127 144 141 127 144 144 130 147 144 130 147 144 130 147 144 130 147 144 130 147 144 130 147 144 130 147 144 130 147 136 122 137 136 122 137 136 122 137 136 122 137 136 122 137 136 122 137 136 122 137 136 122 137 130 116 131 130 116 131 130 116 131 130 116 131 130 116 131 130 116 131 130 116 131 130 116 131 126 109 127 126 109 127 126 109 127 126 109 127 126 109 127 126 109 127 126 109 127 126 109 127 121 104 122 120 103 121 117 100 118 114 97 115 111 94 112 107 90 108 105 88 106 104 87 105 104 90 107 103 89 106 100 86 103 97 83 100 94 80 97 91 77 94 88 74 91 87 73 90 70 56 73 69 55 72 67 53 70 64 50 67 60 46 63 57 43 60 54 40 57 52 39 56 54 48 62 52 48 62 52 48 62 52 48 62 52 48 62 52 48 62 52 48 62 52 48 62 51 47 61 51 47 61 51 47 61 51 47 61 51 47 61 51 47 61 51 47 61 50 48 61 46 44 55 43 43 53 41 41 51 38 38 48 34 34 44 31 31 41 29 29 39 27 27 37 23 23 33 21 21 31 19 19 29 16 16 26 12 12 22 9 9 19 7 7 17 3 6 13 8 13 17 6 14 16 6 14 16 6 14 16 6 14 16 6 14 16 6 14 16 6 14 16 6 14 16 8 16 18 10 18 20 13 21 23 17 25 27 20 28 30 22 30 32 24 32 34 30 34 35 30 34 35 30 34 35 30 34 35 30 34 35 30 34 35 30 34 35 30 34 35 36 40 41 36 40 41 36 40 41 36 40 41 36 40 41 36 40 41 36 40 41 38 40 39 36 34 35 38 34 33 38 34 33 38 34 33 38 34 33 38 34 33 38 34 33 38 34 33 36 32 31 36 32 31 36 32 31 36 32 31 36 32 31 36 32 31 36 32 31 36 32 31 39 31 29 39 31 29 39 31 29 39 31 29 39 31 29 39 31 29 39 31 29 39 31 29 41 33 31 41 33 31 41 33 31 41 33 31 41 33 31 41 33 31 41 33 31 39 34 31
129 116 133 127 114 131 122 109 126 119 106 123 130 117 134 130 117 134 131 118 135 132 119 136 132 119 136 133 120 137 133 120 137 134 121 138 141 127 144 141 127 144 141 127 144 141 127 144 141 127 144 141 127 144 141 127 144 141 127 144 144 130 147 144 130 147 144 130 147 144 130 147 144 130 147 144 130 147 144 130 147 144 130 147 136 122 137 136 122 137 136 122 137 136 122 137 136 122 137 136 122 137 136 122 137 136 122 137 130 116 131 130 116 131 130 116 131 130 116 131 130 116 131 130 116 131 130 116 131 130 116 131 126 109 127 126 109 127 126 109 127 126 109 127 126 109 127 126 109 127 126 109 127 126 109 127 118 101 119 116 99 117 114 97 115 111 94 112 107 90 108 104 87 105 102 85 103 100 83 101 89 75 92 88 74 91 85 71 88 82 68 85 79 65 82 75 61 78 73 59 76 72 58 75 61 47 64 60 46 63 57 43 60 54 40 57 51 37 54 47 33 50 45 31 48 43 30 47 51 45 59 49 45 59 49 45 59 49 45 59 49 45 59 49 45 59 49 45 59 49 45 59 51 47 61 51 47 61 51 47 61 51 47 61 51 47 61 51 47 61 51 47 61 50 48 61 46 44 55 43 43 53 41 41 51 38 38 48 34 34 44 31 31 41 29 29 39 27 27 37 23 23 33 21 21 31 19 19 29 16 16 26 12 12 22 9 9 19 7 7 17 3 6 13 8 13 17 6 14 16 6 14 16 6 14 16 6 14 16 6 14 16 6 14 16 6 14 16 6 14 16 8 16 18 10 18 20 13 21 23 17 25 27 20 28 30 22 30 32 24 32 34 30 34 35 30 34 35 30 34 35 30 34 35 30 34 35 30 34 35 30 34 35 30 34 35 36 40 41 36 40 41 36 40 41 36 40 41 36 40 41 36 40 41 36 40 41 38 40 39 36 34 35 38 34 33 38 34 33 38 34 33 38 34 33 38 34 33 38 34 33 38 34 33 36 32 31 36 32 31 36 32 31 36 32 31 36 32 31 36 32 31 36 32 31 36 32 31 39 31 29 39 31 29 39 31 29 39 31 29 39 31 29 39 31 29 39 31 29 39 31 29 41 33 31 41 33 31 41 33 31 41 33 31 41 33 31 41 33 31 41 33 31 39 34 31
141 128 145 136 123 140 128 115 132 122 109 126 136 123 140 136 123 140 135 122 139 135 122 139 134 121 138 133 120 137 133 120 137 133 120 137 141 127 144 141 127 144 141 127 144 141 127 144 141 127 144 141 127 144 141 127 144 141 127 144 144 130 147 144 130 147 144 130 147 144 130 147 144 130 147 144 130 147 144 130 147 144 130 147 136 122 137 136 122 137 136 122 137 136 122 137 136 122 137 136 122 137 136 122 137 136 122 137 130 116 131 130 116 131 130 116 131 130 116 131 130 116 131 130 116 131 130 116 131 130 116 131 126 109 127 126 109 127 126 109 127 126 109 127 126 109 127 126 109 127 126 109 127 126 109 127 115 98 116 114 97 115 112 95 113 108 91 109 105 88 106 102 85 103 99 82 100 98 81 99 74 60 77 72 58 75 70 56 73 67 53 70 63 49 66 60 46 63 58 44 61 56 42 59 54 40 57 52 38 55 50 36 53 47 33 50 43 29 46 40 26 43 38 24 41 35 22 39 49 43 57 47 43 57 47 43 57 47 43 57 47 43 57 47 43 57 47 43 57 47 43 57 51 47 61 51 47 61 51 47 61 51 47 61 51 47 61 51 47 61 51 47 61 50 48 61 46 44 55 43 43 53 41 41 51 38 38 48 34 34 44 31 31 41 29 29 39 27 27 37 23 23 33 21 21 31 19 19 29 16 16 26 12 12 22 9 9 19 7 7 17 3 6 13 8 13 17 6 14 16 6 14 16 6 14 16 6 14 16 6 14 16 6 14 16 6 14 16 6 14 16 8 16 18 10 18 20 13 21 23 17 25 27 20 28 30 22 30 32 24 32 34 30 34 35 30 34 35 30 34 35 30 34 35 30 34 35 30 34 35 30 34 35 30 34 35 36 40 41 36 40 41 36 40 41 36 40 41 36 40 41 36 40 41 36 40 41 38 40 39 36 34 35 38 34 33 38 34 33 38 34 33 38 34 33 38 34 33 38 34 33 38 34 33 36 32 31 36 32 31 36 32 31 36 32 31 36 32 31 36 32 31 36 32 31 36 32 31 39 31 29 39 31 29 39 31 29 39 31 29 39 31 29 39 31 29 39 31 29 39 31 29 41 33 31 41 33 31 41 33 31 41 33 31 41 33 31 41 33 31 41 33 31 39 34 31
147 134 151 141 128 145 131 118 135 123 110 127 139 126 143 138 125 142 138 125 142 136 123 140 135 122 139 134 121 138 133 120 137 132 119 136 140 127 144 140 127 144 141 127 144 140 127 144 141 127 144 140 127 144 141 127 144 140 127 144 144 130 147 143 130 147 144 130 147 143 130 147 144 130 147 143 130 147 144 130 147 144 130 147 136 122 137 136 122 137 136 122 137 136 122 137 136 122 137 136 122 137 136 122 137 136 122 137 130 116 131 130 116 131 130 116 131 130 116 131 130 116 131 130 116 131 130 116 131 130 116 131 124 110 127 123 110 127 124 110 127 123 110 127 124 110 127 123 110 127 124 110 127 123 110 127 112 98 115 110 97 114 108 94 111 104 91 108 102 88 105 97 84 101 96 82 99 94 81 98 62 51 67 61 50 66 58 47 63 55 44 60 52 41 57 48 37 53 46 35 51 45 34 50 48 37 53 46 35 51 44 33 49 41 30 46 37 26 42 34 23 39 32 21 37 28 20 35 45 41 55 44 42 55 44 42 55 44 42 55 44 42 55 44 42 55 44 42 55 44 42 55 50 48 61 50 48 61 50 48 61 50 48 61 50 48 61 50 48 61 50 48 61 49 49 61 45 45 55 41 44 53 39 42 51 36 39 48 32 35 44 29 32 41 27 30 39 25 28 37 21 24 33 19 22 31 17 20 29 14 17 26 10 13 22 7 10 19 5 8 17 3 6 13 6 14 17 6 14 16 6 14 17 6 14 16 6 14 17 6 14 16 6 14 17 6 14 16 6 14 17 8 16 18 10 18 21 13 21 23 17 25 28 20 28 30 22 30 33 24 32 34 29 34 37 30 34 35 30 34 37 30 34 35 30 34 37 30 34 35 30 34 37 30 34 35 36 40 43 36 40 41 36 40 43 36 40 41 36 40 43 36 40 41 36 40 43 38 39 41 36 34 35 38 34 33 38 34 33 38 34 33 38 34 33 38 34 33 38 34 33 38 34 33 36 32 31 36 32 31 36 32 31 36 32 31 36 32 31 36 32 31 36 32 31 37 31 31 39 31 29 39 31 29 39 31 29 39 31 29 39 31 29 39 31 29 39 31 29 39 31 29 41 33 31 41 33 31 41 33 31 41 33 31 41 33 31 41 33 31 41 33 31 41 33 31
136 122 137 136 122 137 136 122 137 136 122 137 118 104 119 120 106 121 124 110 125 128 114 129 133 119 134 137 123 138 141 127 142 141 129 143 124 111 128 123 112 128 124 111 128 123 112 128 124 111 128 123 112 128 124 111 128 123 112 128 150 137 154 147 136 152 145 132 149 139 128 144 136 123 140 130 119 135 128 115 132 126 113 130 125 113 127 125 113 127 125 113 127 125 113 127 125 113 127 125 113 127 125 113 127 125 113 127 124 112 126 124 112 126 125 113 127 126 114 128 128 116 130 129 117 131 130 118 132 130 118 132 110 102 117 108 102 116 107 99 114 102 96 110 100 92 107 96 90 104 94 86 101 92 86 100 76 68 83 73 67 81 72 64 79 68 62 76 65 57 72 61 55 69 60 52 67 57 51 65 51 49 60 48 48 58 44 44 54 40 40 50 35 35 45 31 31 41 27 27 37 26 26 36 26 26 36 27 27 37 29 29 39 33 33 43 36 36 46 39 39 49 42 42 52 43 43 53 50 53 62 49 53 62 49 53 62 49 53 62 49 53 62 49 53 62 49 53 62 49 53 62 43 47 56 43 47 56 43 47 56 43 47 56 43 47 56 43 47 56 43 47 56 43 47 56 41 45 54 41 45 54 41 45 54 41 45 54 41 45 54 41 45 54 41 45 54 41 45 54 23 27 36 23 27 36 23 27 36 23 27 36 23 27 36 23 27 36 23 27 36 21 28 36 0 1 7 0 3 5 0 5 10 0 10 12 5 14 19 9 19 21 13 22 27 14 24 26 7 16 21 9 19 21 11 20 25 14 24 26 18 27 32 21 31 33 23 32 37 26 34 37 27 32 36 27 32 35 27 32 36 27 32 35 27 32 36 27 32 35 27 32 36 27 32 35 26 31 35 26 31 34 26 31 35 26 31 34 26 31 35 26 31 34 26 31 35 27 31 34 29 27 28 31 27 26 31 27 26 31 27 26 31 27 26 31 27 26 31 27 26 31 27 26 35 31 30 35 31 30 35 31 30 35 31 30 35 31 30 35 31 30 35 31 30 36 30 30 40 32 30 41 31 29 41 31 29 41 31 29 41 31 29 41 31 29 41 31 29 41 31 29 41 31 29 41 31 29 41 31 29 41 31 29 41 31 29 41 31 29 41 31 29 40 32 30
134 120 135 134 120 135 134 120 135 134 120 135 122 108 123 123 109 124 126 112 127 130 116 131 134 120 135 138 124 139 141 127 142 141 129 143 129 116 133 128 117 133 128 117 133 128 117 133 128 117 133 128 117 133 128 117 133 128 117 133 143 132 148 142 131 147 139 128 144 135 124 140 131 120 136 127 116 132 124 113 129 123 112 128 123 111 125 123 111 125 123 111 125 123 111 125 123 111 125 123 111 125 123 111 125 123 111 125 122 110 124 122 110 124 122 110 124 123 111 125 123 111 125 124 112 126 124 112 126 124 113 127 104 98 112 101 97 111 98 94 108 95 91 105 92 88 102 88 84 98 86 82 96 85 81 95 69 65 79 67 63 77 65 61 75 62 58 72 58 54 68 55 51 65 53 49 63 50 48 61 40 43 52 38 42 51 35 39 48 31 35 44 27 31 40 23 27 36 20 24 33 19 23 32 24 28 37 25 29 38 28 32 41 31 35 44 34 38 47 38 42 51 40 44 53 41 45 54 47 54 62 47 54 62 47 54 62 47 54 62 47 54 62 47 54 62 47 54 62 47 54 62 43 50 58 43 50 58 43 50 58 43 50 58 43 50 58 43 50 58 43 50 58 43 50 58 41 48 56 41 48 56 41 48 56 41 48 56 41 48 56 41 48 56 41 48 56 41 48 56 21 28 36 21 28 36 21 28 36 21 28 36 21 28 36 21 28 36 21 28 36 21 28 36 0 2 7 0 4 9 0 7 12 2 11 16 6 15 20 9 18 23 12 21 26 14 23 28 7 16 21 9 18 23 11 20 25 14 23 28 18 27 32 21 30 35 23 32 37 25 34 39 27 32 36 27 32 36 27 32 36 27 32 36 27 32 36 27 32 36 27 32 36 27 32 36 26 31 35 26 31 35 26 31 35 26 31 35 26 31 35 26 31 35 26 31 35 27 31 34 29 27 28 31 27 26 31 27 26 31 27 26 31 27 26 31 27 26 31 27 26 31 27 26 35 31 30 35 31 30 35 31 30 35 31 30 35 31 30 35 31 30 35 31 30 36 31 28 40 32 30 41 31 29 41 31 29 41 31 29 41 31 29 41 31 29 41 31 29 41 31 29 41 31 29 41 31 29 41 31 29 41 31 29 41 31 29 41 31 29 41 31 29 40 32 29
129 115 130 129 115 130 129 115 130 129 115 130 126 112 127 127 113 128 129 115 130 131 117 132 134 120 135 137 123 138 138 124 139 139 127 141 133 120 137 132 121 137 132 121 137 132 121 137 132 121 137 132 121 137 132 121 137 132 121 137 133 122 138 131 120 136 130 119 135 127 116 132 124 113 129 122 111 127 120 109 125 119 108 124 121 109 123 121 109 123 121 109 123 121 109 123 121 109 123 121 109 123 121 109 123 121 109 123 118 106 120 117 105 119 117 105 119 116 104 118 115 103 117 115 103 117 114 102 116 113 102 116 94 88 102 91 87 101 89 85 99 85 81 95 82 78 92 79 75 89 76 72 86 75 71 85 61 57 71 60 56 70 58 54 68 54 50 64 51 47 61 48 44 58 45 41 55 43 41 54 29 32 41 27 31 40 25 29 38 22 26 35 20 24 33 17 21 30 15 19 28 14 18 27 26 30 39 28 32 41 30 34 43 33 37 46 37 41 50 40 44 53 42 46 55 44 48 57 47 54 62 47 54 62 47 54 62 47 54 62 47 54 62 47 54 62 47 54 62 47 54 62 45 52 60 45 52 60 45 52 60 45 52 60 45 52 60 45 52 60 45 52 60 45 52 60 43 50 58 43 50 58 43 50 58 43 50 58 43 50 58 43 50 58 43 50 58 43 50 58 21 28 36 21 28 36 21 28 36 21 28 36 21 28 36 21 28 36 21 28 36 21 28 36 0 8 13 0 9 14 2 11 16 5 14 19 7 16 21 10 19 24 12 21 26 13 22 27 7 16 21 9 18 23 11 20 25 14 23 28 18 27 32 21 30 35 23 32 37 25 34 39 27 32 36 27 32 36 27 32 36 27 32 36 27 32 36 27 32 36 27 32 36 27 32 36 26 31 35 26 31 35 26 31 35 26 31 35 26 31 35 26 31 35 26 31 35 27 31 34 29 27 28 31 27 26 31 27 26 31 27 26 31 27 26 31 27 26 31 27 26 31 27 26 35 31 30 35 31 30 35 31 30 35 31 30 35 31 30 35 31 30 35 31 30 36 31 28 40 32 30 41 31 29 41 31 29 41 31 29 41 31 29 41 31 29 41 31 29 41 31 29 41 31 29 41 31 29 41 31 29 41 31 29 41 31 29 41 31 29 41 31 29 40 32 29
