P3
172 37
255
3 0 5 3 0 5 3 0 5 3 0 5 6 1 8 6 1 8 6 1 8 6 1 8 6 1 8 6 1 8 6 1 8 4 1 8 3 0 9 2 1 9 2 1 9 2 1 9 2 1 9 2 1 9 2 1 9 2 1 9 3 2 10 3 2 10 3 2 10 3 2 10 3 2 10 3 2 10 3 2 10 3 2 10 3 1 12 3 1 12 3 1 12 3 1 12 3 1 12 3 1 12 3 1 12 3 1 12 4 2 13 4 2 13 4 2 13 4 2 13 4 2 13 4 2 13 4 2 13 3 3 11 6 6 14 4 7 12 4 7 12 4 7 12 4 7 12 4 7 12 4 7 12 4 7 12 4 7 12 4 7 12 4 7 12 4 7 12 4 7 12 4 7 12 4 7 12 4 7 12 5 10 13 5 10 13 5 10 13 5 10 13 5 10 13 5 10 13 5 10 13 5 10 13 8 13 16 8 13 16 8 13 16 8 13 16 8 13 16 8 13 16 8 13 16 8 13 16 6 9 14 6 9 14 6 9 14 6 9 14 6 9 14 6 9 14 6 9 14 6 9 14 8 11 16 8 11 16 8 11 16 8 11 16 8 11 16 8 11 16 8 11 16 8 11 16 7 11 14 7 11 14 7 11 14 7 11 14 7 11 14 7 11 14 7 11 14 7 11 14 0 4 7 0 4 7 0 4 7 0 4 7 0 4 7 0 4 7 0 4 7 0 4 7 3 7 8 5 9 10 7 11 12 10 14 15 14 18 19 17 21 22 19 23 24 21 25 26 30 34 35 32 36 37 37 41 42 44 48 49 50 54 55 57 61 62 62 66 67 64 68 67 61 65 64 64 69 65 69 74 70 75 80 76 82 87 83 88 93 89 93 98 94 96 101 97 101 106 102 105 110 106 111 116 112 113 118 114 110 115 111 101 106 102 90 95 91 85 87 84 55 55 53 54 53 51 52 51 49 49 48 46 45 44 42 42 41 39 40 39 37 38 37 35 43 42 40 43 42 40 43 42 40 43 42 40 43 42 40 43 42 40 43 42 40 43 42 40 39 38 36 39 38 36 39 38 36 39 38 36 39 38 36 39 38 36 39 38 36 39 38 36 43 42 40 43 42 40 43 42 40 43 42 40 43 42 40 43 42 40 43 42 40 43 42 40
3 0 4 1 0 4 3 0 4 1 0 4 6 1 7 4 2 7 6 1 7 4 2 7 6 1 7 4 2 7 6 1 7 4 1 8 2 1 7 2 1 7 2 1 9 2 1 7 2 1 9 2 1 7 2 1 9 2 1 7 3 2 10 3 2 8 3 2 10 3 2 8 3 2 10 3 2 8 3 2 10 3 2 10 3 2 10 3 2 10 3 1 12 3 2 10 3 1 12 3 2 10 3 1 12 3 2 10 4 2 13 4 3 11 4 2 13 4 3 11 4 2 13 4 3 11 4 2 13 3 3 11 6 7 12 4 7 12 4 7 12 4 7 12 4 7 12 4 7 12 4 7 12 4 7 12 4 7 12 4 7 12 4 7 12 4 7 12 4 7 12 4 7 12 4 7 12 4 7 12 5 10 13 5 10 13 5 10 13 5 10 13 5 10 13 5 10 13 5 10 13 5 10 13 8 13 16 8 13 16 8 13 16 8 13 16 8 13 16 8 13 16 8 13 16 8 13 16 6 9 14 6 9 14 6 9 14 6 9 14 6 9 14 6 9 14 6 9 14 6 9 14 8 11 16 8 11 16 8 11 16 8 11 16 8 11 16 8 11 16 8 11 16 8 12 15 7 11 14 7 11 14 7 11 14 7 11 14 7 11 14 7 11 14 7 11 14 7 11 14 0 4 7 0 4 7 0 4 7 0 4 7 0 4 7 0 4 7 0 4 7 0 4 7 3 7 8 5 9 10 7 11 12 10 14 15 14 18 19 17 21 22 19 23 24 21 25 26 30 34 35 32 36 37 37 41 42 44 48 49 50 54 55 57 61 62 62 66 67 64 68 67 60 65 61 63 68 64 68 73 69 74 79 75 81 86 82 87 92 88 92 97 93 95 100 96 99 104 100 104 109 105 109 114 110 112 117 113 108 113 109 99 104 100 89 94 90 84 86 83 55 55 53 54 53 49 52 51 49 49 48 44 45 44 42 42 41 37 40 39 37 38 37 33 43 42 40 43 42 38 43 42 40 43 42 38 43 42 40 43 42 38 43 42 40 43 42 40 39 38 36 39 38 36 39 38 36 39 38 36 39 38 36 39 38 36 39 38 36 39 38 36 43 42 40 43 42 40 43 42 40 43 42 40 43 42 40 43 42 40 43 42 40 43 42 40
1 0 2 0 0 2 1 0 2 0 0 2 2 0 3 1 1 3 2 0 3 1 1 3 2 0 3 1 1 3 2 0 3 1 1 3 3 2 7 3 2 7 3 2 8 3 2 7 3 2 8 3 2 7 3 2 8 3 2 7 1 0 6 1 0 5 1 0 6 1 0 5 1 0 6 1 0 5 1 0 6 1 0 6 1 0 6 1 0 6 1 0 8 1 0 6 1 0 8 1 0 6 1 0 8 1 0 6 3 2 10 3 2 8 3 2 10 3 2 8 3 2 10 3 2 8 3 2 10 2 3 8 6 7 12 4 7 12 4 7 12 4 7 12 4 7 12 4 7 12 4 7 12 4 7 12 6 9 14 6 9 14 6 9 14 6 9 14 6 9 14 6 9 14 6 9 14 6 9 14 4 9 13 4 9 13 4 9 13 4 9 13 4 9 13 4 9 13 4 9 13 4 9 13 4 9 13 4 9 13 4 9 13 4 9 13 4 9 13 4 9 13 4 9 13 4 9 13 6 11 14 6 11 14 6 11 14 6 11 14 6 11 14 6 11 14 6 11 14 6 11 14 6 11 14 6 11 14 6 11 14 6 11 14 6 11 14 6 11 14 6 11 14 6 11 14 11 16 19 11 17 17 11 17 17 11 17 17 11 17 17 11 17 17 11 17 17 11 17 17 0 6 6 0 6 6 0 6 6 0 6 6 0 6 6 0 6 6 0 6 6 0 6 6 0 5 5 1 7 7 3 9 9 6 12 12 10 16 16 13 19 19 15 21 21 17 23 23 32 38 38 34 40 40 36 42 42 39 45 45 43 49 49 46 52 52 48 54 54 50 56 54 70 75 71 71 76 70 74 79 73 77 82 76 80 85 79 84 89 83 86 91 85 87 92 86 96 101 95 96 101 95 96 101 95 96 101 95 96 101 95 96 101 95 96 101 95 98 100 95 64 65 60 58 57 52 48 47 43 39 38 33 36 35 31 38 37 32 44 43 39 48 47 42 40 39 35 40 39 34 40 39 35 40 39 34 40 39 35 40 39 34 40 39 35 40 39 35 38 37 35 38 37 35 38 37 35 38 37 35 38 37 35 38 37 35 38 37 35 38 37 35 39 38 36 39 38 36 39 38 36 39 38 36 39 38 36 39 38 36 39 38 36 39 38 36
0 0 0 0 0 0 0 0 0 0 0 0 1 1 1 1 1 1 1 1 1 1 1 1 1 1 1 1 1 1 1 1 1 1 1 1 3 2 7 3 2 7 3 2 7 3 2 7 3 2 7 3 2 7 3 2 7 3 2 7 1 0 5 1 0 5 1 0 5 1 0 5 1 0 5 1 0 5 1 0 5 1 0 5 1 0 6 1 0 6 1 0 6 1 0 6 1 0 6 1 0 6 1 0 6 1 0 6 3 2 8 3 2 8 3 2 8 3 2 8 3 2 8 3 2 8 3 2 8 2 3 8 6 7 12 4 7 12 4 7 12 4 7 12 4 7 12 4 7 12 4 7 12 4 7 12 6 9 14 6 9 14 6 9 14 6 9 14 6 9 14 6 9 14 6 9 14 6 9 14 4 9 13 4 9 13 4 9 13 4 9 13 4 9 13 4 9 13 4 9 13 4 9 13 4 9 13 4 9 13 4 9 13 4 9 13 4 9 13 4 9 13 4 9 13 4 9 13 6 11 14 6 11 14 6 11 14 6 11 14 6 11 14 6 11 14 6 11 14 6 11 14 6 11 14 6 11 14 6 11 14 6 11 14 6 11 14 6 11 14 6 11 14 6 11 14 11 17 17 11 17 17 11 17 17 11 17 17 11 17 17 11 17 17 11 17 17 11 17 17 0 6 6 0 6 6 0 6 6 0 6 6 0 6 6 0 6 6 0 6 6 0 6 6 0 5 5 1 7 7 3 9 9 6 12 12 10 16 16 13 19 19 15 21 21 17 23 23 32 38 38 34 40 40 36 42 42 39 45 45 43 49 49 46 52 52 48 54 54 50 56 54 69 74 70 70 75 69 72 77 71 76 81 75 79 84 78 82 87 81 85 90 84 86 91 85 94 99 93 94 99 93 94 99 93 94 99 93 94 99 93 94 99 93 94 99 93 96 98 93 64 65 59 58 57 52 48 47 42 39 38 33 36 35 30 38 37 32 44 43 38 48 47 42 40 39 34 40 39 34 40 39 34 40 39 34 40 39 34 40 39 34 40 39 34 40 39 34 38 37 35 38 37 35 38 37 35 38 37 35 38 37 35 38 37 35 38 37 35 38 37 35 39 38 36 39 38 36 39 38 36 39 38 36 39 38 36 39 38 36 39 38 36 39 38 36
0 0 0 0 0 0 0 0 0 0 0 0 1 1 1 1 1 1 1 1 1 1 1 1 1 1 1 1 1 1 1 1 1 1 1 1 3 2 7 3 2 7 3 2 7 3 2 7 3 2 7 3 2 7 3 2 7 3 2 7 1 0 5 1 0 5 1 0 5 1 0 5 1 0 5 1 0 5 1 0 5 1 0 5 1 0 6 1 0 6 1 0 6 1 0 6 1 0 6 1 0 6 1 0 6 1 0 6 3 2 8 3 2 8 3 2 8 3 2 8 3 2 8 3 2 8 3 2 8 2 3 8 6 7 12 4 7 12 4 7 12 4 7 12 4 7 12 4 7 12 4 7 12 4 7 12 6 9 14 6 9 14 6 9 14 6 9 14 6 9 14 6 9 14 6 9 14 6 9 14 4 9 13 4 9 13 4 9 13 4 9 13 4 9 13 4 9 13 4 9 13 4 9 13 4 9 13 4 9 13 4 9 13 4 9 13 4 9 13 4 9 13 4 9 13 4 9 13 6 11 14 6 11 14 6 11 14 6 11 14 6 11 14 6 11 14 6 11 14 6 11 14 6 11 14 6 11 14 6 11 14 6 11 14 6 11 14 6 11 14 6 11 14 6 11 14 11 17 17 11 17 17 11 17 17 11 17 17 11 17 17 11 17 17 11 17 17 11 17 17 0 6 6 0 6 6 0 6 6 0 6 6 0 6 6 0 6 6 0 6 6 0 6 6 0 5 5 1 7 7 3 9 9 6 12 12 10 16 16 13 19 19 15 21 21 17 23 23 32 38 38 34 40 40 36 42 42 39 45 45 43 49 49 46 52 52 48 54 54 50 56 54 66 71 67 68 73 67 70 75 69 73 78 72 77 82 76 80 85 79 82 87 81 84 89 83 92 97 91 92 97 91 92 97 91 92 97 91 92 97 91 92 97 91 92 97 91 94 96 91 64 65 59 58 57 52 48 47 42 39 38 33 36 35 30 38 37 32 44 43 38 48 47 42 40 39 34 40 39 34 40 39 34 40 39 34 40 39 34 40 39 34 40 39 34 40 39 34 38 37 35 38 37 35 38 37 35 38 37 35 38 37 35 38 37 35 38 37 35 38 37 35 39 38 36 39 38 36 39 38 36 39 38 36 39 38 36 39 38 36 39 38 36 39 38 36
0 0 0 0 0 0 0 0 0 0 0 0 1 1 1 1 1 1 1 1 1 1 1 1 1 1 1 1 1 1 1 1 1 1 1 1 3 2 7 3 2 7 3 2 7 3 2 7 3 2 7 3 2 7 3 2 7 3 2 7 1 0 5 1 0 5 1 0 5 1 0 5 1 0 5 1 0 5 1 0 5 1 0 5 1 0 6 1 0 6 1 0 6 1 0 6 1 0 6 1 0 6 1 0 6 1 0 6 3 2 8 3 2 8 3 2 8 3 2 8 3 2 8 3 2 8 3 2 8 2 3 8 6 7 12 4 7 12 4 7 12 4 7 12 4 7 12 4 7 12 4 7 12 4 7 12 6 9 14 6 9 14 6 9 14 6 9 14 6 9 14 6 9 14 6 9 14 6 9 14 4 9 13 4 9 13 4 9 13 4 9 13 4 9 13 4 9 13 4 9 13 4 9 13 4 9 13 4 9 13 4 9 13 4 9 13 4 9 13 4 9 13 4 9 13 4 9 13 6 11 14 6 11 14 6 11 14 6 11 14 6 11 14 6 11 14 6 11 14 6 11 14 6 11 14 6 11 14 6 11 14 6 11 14 6 11 14 6 11 14 6 11 14 6 11 14 11 17 17 11 17 17 11 17 17 11 17 17 11 17 17 11 17 17 11 17 17 11 17 17 0 6 6 0 6 6 0 6 6 0 6 6 0 6 6 0 6 6 0 6 6 0 6 6 0 5 5 1 7 7 3 9 9 6 12 12 10 16 16 13 19 19 15 21 21 17 23 23 32 38 38 34 40 40 36 42 42 39 45 45 43 49 49 46 52 52 48 54 54 50 56 54 63 68 64 64 69 63 67 72 66 70 75 69 73 78 72 77 82 76 79 84 78 80 85 79 89 94 88 89 94 88 89 94 88 89 94 88 89 94 88 89 94 88 89 94 88 91 93 88 64 65 59 58 57 52 48 47 42 39 38 33 36 35 30 38 37 32 44 43 38 48 47 42 40 39 34 40 39 34 40 39 34 40 39 34 40 39 34 40 39 34 40 39 34 40 39 34 38 37 35 38 37 35 38 37 35 38 37 35 38 37 35 38 37 35 38 37 35 38 37 35 39 38 36 39 38 36 39 38 36 39 38 36 39 38 36 39 38 36 39 38 36 39 38 36
0 0 0 0 0 0 0 0 0 0 0 0 1 1 1 1 1 1 1 1 1 1 1 1 1 1 1 1 1 1 1 1 1 1 1 1 3 2 7 3 2 7 3 2 7 3 2 7 3 2 7 3 2 7 3 2 7 3 2 7 1 0 5 1 0 5 1 0 5 1 0 5 1 0 5 1 0 5 1 0 5 1 0 5 1 0 6 1 0 6 1 0 6 1 0 6 1 0 6 1 0 6 1 0 6 1 0 6 3 2 8 3 2 8 3 2 8 3 2 8 3 2 8 3 2 8 3 2 8 2 3 8 6 7 12 4 7 12 4 7 12 4 7 12 4 7 12 4 7 12 4 7 12 4 7 12 6 9 14 6 9 14 6 9 14 6 9 14 6 9 14 6 9 14 6 9 14 6 9 14 4 9 13 4 9 13 4 9 13 4 9 13 4 9 13 4 9 13 4 9 13 4 9 13 4 9 13 4 9 13 4 9 13 4 9 13 4 9 13 4 9 13 4 9 13 4 9 13 6 11 14 6 11 14 6 11 14 6 11 14 6 11 14 6 11 14 6 11 14 6 11 14 6 11 14 6 11 14 6 11 14 6 11 14 6 11 14 6 11 14 6 11 14 6 11 14 11 17 17 11 17 17 11 17 17 11 17 17 11 17 17 11 17 17 11 17 17 11 17 17 0 6 6 0 6 6 0 6 6 0 6 6 0 6 6 0 6 6 0 6 6 0 6 6 0 5 5 1 7 7 3 9 9 6 12 12 10 16 16 13 19 19 15 21 21 17 23 23 32 38 38 34 40 40 36 42 42 39 45 45 43 49 49 46 52 52 48 54 54 50 56 54 60 65 61 61 66 60 63 68 62 67 72 66 70 75 69 73 78 72 76 81 75 77 82 76 85 90 84 85 90 84 85 90 84 85 90 84 85 90 84 85 90 84 85 90 84 87 89 84 64 65 59 58 57 52 48 47 42 39 38 33 36 35 30 38 37 32 44 43 38 48 47 42 40 39 34 40 39 34 40 39 34 40 39 34 40 39 34 40 39 34 40 39 34 40 39 34 38 37 35 38 37 35 38 37 35 38 37 35 38 37 35 38 37 35 38 37 35 38 37 35 39 38 36 39 38 36 39 38 36 39 38 36 39 38 36 39 38 36 39 38 36 39 38 36
0 0 0 0 0 0 0 0 0 0 0 0 1 1 1 1 1 1 1 1 1 1 1 1 1 1 1 1 1 1 1 1 1 1 1 1 3 2 7 3 2 7 3 2 7 3 2 7 3 2 7 3 2 7 3 2 7 3 2 7 1 0 5 1 0 5 1 0 5 1 0 5 1 0 5 1 0 5 1 0 5 1 0 5 1 0 6 1 0 6 1 0 6 1 0 6 1 0 6 1 0 6 1 0 6 1 0 6 3 2 8 3 2 8 3 2 8 3 2 8 3 2 8 3 2 8 3 2 8 2 3 8 6 7 12 4 7 12 4 7 12 4 7 12 4 7 12 4 7 12 4 7 12 4 7 12 6 9 14 6 9 14 6 9 14 6 9 14 6 9 14 6 9 14 6 9 14 6 9 14 4 9 13 4 9 13 4 9 13 4 9 13 4 9 13 4 9 13 4 9 13 4 9 13 4 9 13 4 9 13 4 9 13 4 9 13 4 9 13 4 9 13 4 9 13 4 9 13 6 11 14 6 11 14 6 11 14 6 11 14 6 11 14 6 11 14 6 11 14 6 11 14 6 11 14 6 11 14 6 11 14 6 11 14 6 11 14 6 11 14 6 11 14 6 11 14 11 17 17 11 17 17 11 17 17 11 17 17 11 17 17 11 17 17 11 17 17 11 17 17 0 6 6 0 6 6 0 6 6 0 6 6 0 6 6 0 6 6 0 6 6 0 6 6 0 5 5 1 7 7 3 9 9 6 12 12 10 16 16 13 19 19 15 21 21 17 23 23 32 38 38 34 40 40 36 42 42 39 45 45 43 49 49 46 52 52 48 54 54 50 56 54 56 61 57 58 63 57 60 65 59 63 68 62 67 72 66 70 75 69 72 77 71 74 79 73 82 87 81 82 87 81 82 87 81 82 87 81 82 87 81 82 87 81 82 87 81 84 86 81 64 65 59 58 57 52 48 47 42 39 38 33 36 35 30 38 37 32 44 43 38 48 47 42 40 39 34 40 39 34 40 39 34 40 39 34 40 39 34 40 39 34 40 39 34 40 39 34 38 37 35 38 37 35 38 37 35 38 37 35 38 37 35 38 37 35 38 37 35 38 37 35 39 38 36 39 38 36 39 38 36 39 38 36 39 38 36 39 38 36 39 38 36 39 38 36
0 0 0 0 0 0 0 0 0 0 0 0 1 1 1 1 1 1 1 1 1 1 1 1 1 1 1 1 1 1 1 1 1 1 1 1 3 2 7 3 2 7 3 2 7 3 2 7 3 2 7 3 2 7 3 2 7 3 2 7 1 0 5 1 0 5 1 0 5 1 0 5 1 0 5 1 0 5 1 0 5 1 0 5 1 0 6 1 0 6 1 0 6 1 0 6 1 0 6 1 0 6 1 0 6 1 0 6 3 2 8 3 2 8 3 2 8 3 2 8 3 2 8 3 2 8 3 2 8 2 3 8 6 7 12 4 7 12 4 7 12 4 7 12 4 7 12 4 7 12 4 7 12 4 7 12 6 9 14 6 9 14 6 9 14 6 9 14 6 9 14 6 9 14 6 9 14 6 9 14 4 9 13 4 9 13 4 9 13 4 9 13 4 9 13 4 9 13 4 9 13 4 9 13 4 9 13 4 9 13 4 9 13 4 9 13 4 9 13 4 9 13 4 9 13 4 9 13 6 11 14 6 11 14 6 11 14 6 11 14 6 11 14 6 11 14 6 11 14 6 11 14 6 11 14 6 11 14 6 11 14 6 11 14 6 11 14 6 11 14 6 11 14 6 11 14 11 17 17 11 17 17 11 17 17 11 17 17 11 17 17 11 17 17 11 17 17 11 17 17 0 6 6 0 6 6 0 6 6 0 6 6 0 6 6 0 6 6 0 6 6 0 6 6 0 5 5 1 7 7 3 9 9 6 12 12 10 16 16 13 19 19 15 21 21 17 23 23 32 38 38 34 40 40 36 42 42 39 45 45 43 49 49 46 52 52 48 54 54 50 56 54 54 59 55 55 60 54 58 63 57 61 66 60 64 69 63 68 73 67 70 75 69 71 76 70 80 85 79 80 85 79 80 85 79 80 85 79 80 85 79 80 85 79 80 85 79 82 84 79 64 65 59 58 57 52 48 47 42 39 38 33 36 35 30 38 37 32 44 43 38 48 47 42 40 39 34 40 39 34 40 39 34 40 39 34 40 39 34 40 39 34 40 39 34 40 39 34 38 37 35 38 37 35 38 37 35 38 37 35 38 37 35 38 37 35 38 37 35 38 37 35 39 38 36 39 38 36 39 38 36 39 38 36 39 38 36 39 38 36 39 38 36 39 38 36
0 0 0 0 0 0 0 0 0 0 0 0 1 1 1 1 1 1 1 1 1 1 1 1 1 1 1 1 1 1 1 1 1 1 1 1 3 2 7 3 2 7 3 2 7 3 2 7 3 2 7 3 2 7 3 2 7 3 2 7 1 0 5 1 0 5 1 0 5 1 0 5 1 0 5 1 0 5 1 0 5 1 0 5 1 0 6 1 0 6 1 0 6 1 0 6 1 0 6 1 0 6 1 0 6 1 0 6 3 2 8 3 2 8 3 2 8 3 2 8 3 2 8 3 2 8 3 2 8 2 3 8 6 7 12 4 7 12 4 7 12 4 7 12 4 7 12 4 7 12 4 7 12 4 7 12 6 9 14 6 9 14 6 9 14 6 9 14 6 9 14 6 9 14 6 9 14 6 9 14 4 9 13 4 9 13 4 9 13 4 9 13 4 9 13 4 9 13 4 9 13 4 9 13 4 9 13 4 9 13 4 9 13 4 9 13 4 9 13 4 9 13 4 9 13 4 9 13 6 11 14 6 11 14 6 11 14 6 11 14 6 11 14 6 11 14 6 11 14 6 11 14 6 11 14 6 11 14 6 11 14 6 11 14 6 11 14 6 11 14 6 11 14 6 11 14 11 17 17 11 17 17 11 17 17 11 17 17 11 17 17 11 17 17 11 17 17 11 17 17 0 6 6 0 6 6 0 6 6 0 6 6 0 6 6 0 6 6 0 6 6 0 6 6 0 5 5 1 7 7 3 9 9 6 12 12 10 16 16 13 19 19 15 21 21 17 23 23 32 38 38 34 40 40 36 42 42 39 45 45 43 49 49 46 52 52 48 54 54 50 56 54 53 58 54 54 59 53 56 61 55 60 65 59 63 68 62 66 71 65 69 74 68 70 75 69 78 83 77 78 83 77 78 83 77 78 83 77 78 83 77 78 83 77 78 83 77 80 82 77 64 65 59 58 57 52 48 47 42 39 38 33 36 35 30 38 37 32 44 43 38 48 47 42 40 39 34 40 39 34 40 39 34 40 39 34 40 39 34 40 39 34 40 39 34 40 39 34 38 37 35 38 37 35 38 37 35 38 37 35 38 37 35 38 37 35 38 37 35 38 37 35 39 38 36 39 38 36 39 38 36 39 38 36 39 38 36 39 38 36 39 38 36 39 38 36
0 0 0 0 0 0 0 0 0 0 0 0 1 1 1 1 1 1 1 1 1 1 1 1 1 1 1 1 1 1 1 1 1 1 1 1 2 1 6 2 1 6 2 1 6 2 1 6 2 1 6 2 1 6 2 1 6 2 1 6 1 0 5 1 0 5 1 0 5 1 0 5 1 0 5 1 0 5 1 0 5 1 0 5 1 0 6 1 0 6 1 0 6 1 0 6 1 0 6 1 0 6 1 0 6 1 0 6 2 1 7 2 1 7 2 1 7 2 1 7 2 1 7 2 1 7 2 1 7 1 2 7 4 5 10 2 5 10 2 5 10 2 5 10 2 5 10 2 5 10 2 5 10 2 5 10 4 7 12 4 7 12 4 7 12 4 7 12 4 7 12 4 7 12 4 7 12 4 7 12 4 9 13 4 9 13 4 9 13 4 9 13 4 9 13 4 9 13 4 9 13 4 9 13 6 11 15 6 11 15 6 11 15 6 11 15 6 11 15 6 11 15 6 11 15 6 11 15 5 10 13 5 10 13 5 10 13 5 10 13 5 10 13 5 10 13 5 10 13 5 10 13 5 10 13 5 10 13 5 10 13 5 10 13 5 10 13 5 10 13 5 10 13 5 10 13 8 14 14 8 14 14 8 14 14 8 14 14 8 14 14 8 14 14 8 14 14 8 14 14 0 5 5 0 5 5 0 5 5 0 5 5 0 5 5 0 5 5 0 5 5 0 5 5 0 4 4 0 6 6 2 8 8 5 11 11 9 15 15 12 18 18 14 20 20 16 22 22 25 31 31 27 33 33 29 35 35 32 38 38 36 42 42 39 45 45 41 47 47 43 49 47 64 69 65 64 69 63 64 69 63 64 69 63 64 69 63 64 69 63 64 69 63 64 69 63 75 80 74 75 80 74 75 80 74 75 80 74 75 80 74 75 80 74 75 80 74 77 79 74 49 50 44 48 47 42 46 45 40 43 42 37 39 38 33 36 35 30 34 33 28 32 31 26 34 33 28 34 33 28 34 33 28 34 33 28 34 33 28 34 33 28 34 33 28 34 33 28 34 33 31 34 33 31 34 33 31 34 33 31 34 33 31 34 33 31 34 33 31 34 33 31 37 36 34 37 36 34 37 36 34 37 36 34 37 36 34 37 36 34 37 36 34 37 36 34
0 0 0 0 0 0 0 0 0 0 0 0 1 1 1 1 1 1 1 1 1 1 1 1 1 1 1 1 1 1 1 1 1 1 1 1 2 1 6 2 1 6 2 1 6 2 1 6 2 1 6 2 1 6 2 1 6 2 1 6 1 0 5 1 0 5 1 0 5 1 0 5 1 0 5 1 0 5 1 0 5 1 0 5 1 0 6 1 0 6 1 0 6 1 0 6 1 0 6 1 0 6 1 0 6 1 0 6 2 1 7 2 1 7 2 1 7 2 1 7 2 1 7 2 1 7 2 1 7 1 2 7 4 5 10 2 5 10 2 5 10 2 5 10 2 5 10 2 5 10 2 5 10 2 5 10 4 7 12 4 7 12 4 7 12 4 7 12 4 7 12 4 7 12 4 7 12 4 7 12 4 9 13 4 9 13 4 9 13 4 9 13 4 9 13 4 9 13 4 9 13 4 9 13 6 11 15 6 11 15 6 11 15 6 11 15 6 11 15 6 11 15 6 11 15 6 11 15 5 10 13 5 10 13 5 10 13 5 10 13 5 10 13 5 10 13 5 10 13 5 10 13 5 10 13 5 10 13 5 10 13 5 10 13 5 10 13 5 10 13 5 10 13 5 10 13 8 14 14 8 14 14 8 14 14 8 14 14 8 14 14 8 14 14 8 14 14 8 14 14 0 5 5 0 5 5 0 5 5 0 5 5 0 5 5 0 5 5 0 5 5 0 5 5 0 4 4 0 6 6 2 8 8 5 11 11 9 15 15 12 18 18 14 20 20 16 22 22 25 31 31 27 33 33 29 35 35 32 38 38 36 42 42 39 45 45 41 47 47 43 49 47 62 67 63 62 67 61 62 67 61 62 67 61 62 67 61 62 67 61 62 67 61 62 67 61 73 78 72 73 78 72 73 78 72 73 78 72 73 78 72 73 78 72 73 78 72 75 77 72 49 50 44 48 47 42 46 45 40 43 42 37 39 38 33 36 35 30 34 33 28 32 31 26 34 33 28 34 33 28 34 33 28 34 33 28 34 33 28 34 33 28 34 33 28 34 33 28 34 33 31 34 33 31 34 33 31 34 33 31 34 33 31 34 33 31 34 33 31 34 33 31 37 36 34 37 36 34 37 36 34 37 36 34 37 36 34 37 36 34 37 36 34 37 36 34
0 0 0 0 0 0 0 0 0 0 0 0 1 1 1 1 1 1 1 1 1 1 1 1 1 1 1 1 1 1 1 1 1 1 1 1 2 1 6 2 1 6 2 1 6 2 1 6 2 1 6 2 1 6 2 1 6 2 1 6 1 0 5 1 0 5 1 0 5 1 0 5 1 0 5 1 0 5 1 0 5 1 0 5 1 0 6 1 0 6 1 0 6 1 0 6 1 0 6 1 0 6 1 0 6 1 0 6 2 1 7 2 1 7 2 1 7 2 1 7 2 1 7 2 1 7 2 1 7 1 2 7 4 5 10 2 5 10 2 5 10 2 5 10 2 5 10 2 5 10 2 5 10 2 5 10 4 7 12 4 7 12 4 7 12 4 7 12 4 7 12 4 7 12 4 7 12 4 7 12 4 9 13 4 9 13 4 9 13 4 9 13 4 9 13 4 9 13 4 9 13 4 9 13 6 11 15 6 11 15 6 11 15 6 11 15 6 11 15 6 11 15 6 11 15 6 11 15 5 10 13 5 10 13 5 10 13 5 10 13 5 10 13 5 10 13 5 10 13 5 10 13 5 10 13 5 10 13 5 10 13 5 10 13 5 10 13 5 10 13 5 10 13 5 10 13 8 14 14 8 14 14 8 14 14 8 14 14 8 14 14 8 14 14 8 14 14 8 14 14 0 5 5 0 5 5 0 5 5 0 5 5 0 5 5 0 5 5 0 5 5 0 5 5 0 4 4 0 6 6 2 8 8 5 11 11 9 15 15 12 18 18 14 20 20 16 22 22 25 31 31 27 33 33 29 35 35 32 38 38 36 42 42 39 45 45 41 47 47 43 49 47 60 65 61 60 65 59 60 65 59 60 65 59 60 65 59 60 65 59 60 65 59 60 65 59 71 76 70 71 76 70 71 76 70 71 76 70 71 76 70 71 76 70 71 76 70 73 75 70 49 50 44 48 47 42 46 45 40 43 42 37 39 38 33 36 35 30 34 33 28 32 31 26 34 33 28 34 33 28 34 33 28 34 33 28 34 33 28 34 33 28 34 33 28 34 33 28 34 33 31 34 33 31 34 33 31 34 33 31 34 33 31 34 33 31 34 33 31 34 33 31 37 36 34 37 36 34 37 36 34 37 36 34 37 36 34 37 36 34 37 36 34 37 36 34
0 0 0 0 0 0 0 0 0 0 0 0 1 1 1 1 1 1 1 1 1 1 1 1 1 1 1 1 1 1 1 1 1 1 1 1 2 1 6 2 1 6 2 1 6 2 1 6 2 1 6 2 1 6 2 1 6 2 1 6 1 0 5 1 0 5 1 0 5 1 0 5 1 0 5 1 0 5 1 0 5 1 0 5 1 0 6 1 0 6 1 0 6 1 0 6 1 0 6 1 0 6 1 0 6 1 0 6 2 1 7 2 1 7 2 1 7 2 1 7 2 1 7 2 1 7 2 1 7 1 2 7 4 5 10 2 5 10 2 5 10 2 5 10 2 5 10 2 5 10 2 5 10 2 5 10 4 7 12 4 7 12 4 7 12 4 7 12 4 7 12 4 7 12 4 7 12 4 7 12 4 9 13 4 9 13 4 9 13 4 9 13 4 9 13 4 9 13 4 9 13 4 9 13 6 11 15 6 11 15 6 11 15 6 11 15 6 11 15 6 11 15 6 11 15 6 11 15 5 10 13 5 10 13 5 10 13 5 10 13 5 10 13 5 10 13 5 10 13 5 10 13 5 10 13 5 10 13 5 10 13 5 10 13 5 10 13 5 10 13 5 10 13 5 10 13 8 14 14 8 14 14 8 14 14 8 14 14 8 14 14 8 14 14 8 14 14 8 14 14 0 5 5 0 5 5 0 5 5 0 5 5 0 5 5 0 5 5 0 5 5 0 5 5 0 4 4 0 6 6 2 8 8 5 11 11 9 15 15 12 18 18 14 20 20 16 22 22 25 31 31 27 33 33 29 35 35 32 38 38 36 42 42 39 45 45 41 47 47 43 49 47 57 62 58 57 62 56 57 62 56 57 62 56 57 62 56 57 62 56 57 62 56 57 62 56 68 73 67 68 73 67 68 73 67 68 73 67 68 73 67 68 73 67 68 73 67 70 72 67 49 50 44 48 47 42 46 45 40 43 42 37 39 38 33 36 35 30 34 33 28 32 31 26 34 33 28 34 33 28 34 33 28 34 33 28 34 33 28 34 33 28 34 33 28 34 33 28 34 33 31 34 33 31 34 33 31 34 33 31 34 33 31 34 33 31 34 33 31 34 33 31 37 36 34 37 36 34 37 36 34 37 36 34 37 36 34 37 36 34 37 36 34 37 36 34
0 0 0 0 0 0 0 0 0 0 0 0 1 1 1 1 1 1 1 1 1 1 1 1 1 1 1 1 1 1 1 1 1 1 1 1 2 1 6 2 1 6 2 1 6 2 1 6 2 1 6 2 1 6 2 1 6 2 1 6 1 0 5 1 0 5 1 0 5 1 0 5 1 0 5 1 0 5 1 0 5 1 0 5 1 0 6 1 0 6 1 0 6 1 0 6 1 0 6 1 0 6 1 0 6 1 0 6 2 1 7 2 1 7 2 1 7 2 1 7 2 1 7 2 1 7 2 1 7 1 2 7 4 5 10 2 5 10 2 5 10 2 5 10 2 5 10 2 5 10 2 5 10 2 5 10 4 7 12 4 7 12 4 7 12 4 7 12 4 7 12 4 7 12 4 7 12 4 7 12 4 9 13 4 9 13 4 9 13 4 9 13 4 9 13 4 9 13 4 9 13 4 9 13 6 11 15 6 11 15 6 11 15 6 11 15 6 11 15 6 11 15 6 11 15 6 11 15 5 10 13 5 10 13 5 10 13 5 10 13 5 10 13 5 10 13 5 10 13 5 10 13 5 10 13 5 10 13 5 10 13 5 10 13 5 10 13 5 10 13 5 10 13 5 10 13 8 14 14 8 14 14 8 14 14 8 14 14 8 14 14 8 14 14 8 14 14 8 14 14 0 5 5 0 5 5 0 5 5 0 5 5 0 5 5 0 5 5 0 5 5 0 5 5 0 4 4 0 6 6 2 8 8 5 11 11 9 15 15 12 18 18 14 20 20 16 22 22 25 31 31 27 33 33 29 35 35 32 38 38 36 42 42 39 45 45 41 47 47 43 49 47 53 58 54 53 58 52 53 58 52 53 58 52 53 58 52 53 58 52 53 58 52 53 58 52 64 69 63 64 69 63 64 69 63 64 69 63 64 69 63 64 69 63 64 69 63 66 68 63 49 50 44 48 47 42 46 45 40 43 42 37 39 38 33 36 35 30 34 33 28 32 31 26 34 33 28 34 33 28 34 33 28 34 33 28 34 33 28 34 33 28 34 33 28 34 33 28 34 33 31 34 33 31 34 33 31 34 33 31 34 33 31 34 33 31 34 33 31 34 33 31 37 36 34 37 36 34 37 36 34 37 36 34 37 36 34 37 36 34 37 36 34 37 36 34
0 0 0 0 0 0 0 0 0 0 0 0 1 1 1 1 1 1 1 1 1 1 1 1 1 1 1 1 1 1 1 1 1 1 1 1 2 1 6 2 1 6 2 1 6 2 1 6 2 1 6 2 1 6 2 1 6 2 1 6 1 0 5 1 0 5 1 0 5 1 0 5 1 0 5 1 0 5 1 0 5 1 0 5 1 0 6 1 0 6 1 0 6 1 0 6 1 0 6 1 0 6 1 0 6 1 0 6 2 1 7 2 1 7 2 1 7 2 1 7 2 1 7 2 1 7 2 1 7 1 2 7 4 5 10 2 5 10 2 5 10 2 5 10 2 5 10 2 5 10 2 5 10 2 5 10 4 7 12 4 7 12 4 7 12 4 7 12 4 7 12 4 7 12 4 7 12 4 7 12 4 9 13 4 9 13 4 9 13 4 9 13 4 9 13 4 9 13 4 9 13 4 9 13 6 11 15 6 11 15 6 11 15 6 11 15 6 11 15 6 11 15 6 11 15 6 11 15 5 10 13 5 10 13 5 10 13 5 10 13 5 10 13 5 10 13 5 10 13 5 10 13 5 10 13 5 10 13 5 10 13 5 10 13 5 10 13 5 10 13 5 10 13 5 10 13 8 14 14 8 14 14 8 14 14 8 14 14 8 14 14 8 14 14 8 14 14 8 14 14 0 5 5 0 5 5 0 5 5 0 5 5 0 5 5 0 5 5 0 5 5 0 5 5 0 4 4 0 6 6 2 8 8 5 11 11 9 15 15 12 18 18 14 20 20 16 22 22 25 31 31 27 33 33 29 35 35 32 38 38 36 42 42 39 45 45 41 47 47 43 49 47 50 55 51 50 55 49 50 55 49 50 55 49 50 55 49 50 55 49 50 55 49 50 55 49 61 66 60 61 66 60 61 66 60 61 66 60 61 66 60 61 66 60 61 66 60 63 65 60 49 50 44 48 47 42 46 45 40 43 42 37 39 38 33 36 35 30 34 33 28 32 31 26 34 33 28 34 33 28 34 33 28 34 33 28 34 33 28 34 33 28 34 33 28 34 33 28 34 33 31 34 33 31 34 33 31 34 33 31 34 33 31 34 33 31 34 33 31 34 33 31 37 36 34 37 36 34 37 36 34 37 36 34 37 36 34 37 36 34 37 36 34 37 36 34
0 0 0 0 0 0 0 0 0 0 0 0 1 1 1 1 1 1 1 1 1 1 1 1 1 1 1 1 1 1 1 1 1 1 1 1 2 1 6 2 1 6 2 1 6 2 1 6 2 1 6 2 1 6 2 1 6 2 1 6 1 0 5 1 0 5 1 0 5 1 0 5 1 0 5 1 0 5 1 0 5 1 0 5 1 0 6 1 0 6 1 0 6 1 0 6 1 0 6 1 0 6 1 0 6 1 0 6 2 1 7 2 1 7 2 1 7 2 1 7 2 1 7 2 1 7 2 1 7 1 2 7 4 5 10 2 5 10 2 5 10 2 5 10 2 5 10 2 5 10 2 5 10 2 5 10 4 7 12 4 7 12 4 7 12 4 7 12 4 7 12 4 7 12 4 7 12 4 7 12 4 9 13 4 9 13 4 9 13 4 9 13 4 9 13 4 9 13 4 9 13 4 9 13 6 11 15 6 11 15 6 11 15 6 11 15 6 11 15 6 11 15 6 11 15 6 11 15 5 10 13 5 10 13 5 10 13 5 10 13 5 10 13 5 10 13 5 10 13 5 10 13 5 10 13 5 10 13 5 10 13 5 10 13 5 10 13 5 10 13 5 10 13 5 10 13 8 14 14 8 14 14 8 14 14 8 14 14 8 14 14 8 14 14 8 14 14 8 14 14 0 5 5 0 5 5 0 5 5 0 5 5 0 5 5 0 5 5 0 5 5 0 5 5 0 4 4 0 6 6 2 8 8 5 11 11 9 15 15 12 18 18 14 20 20 16 22 22 25 31 31 27 33 33 29 35 35 32 38 38 36 42 42 39 45 45 41 47 47 43 49 47 48 53 49 48 53 47 48 53 47 48 53 47 48 53 47 48 53 47 48 53 47 48 53 47 59 64 58 59 64 58 59 64 58 59 64 58 59 64 58 59 64 58 59 64 58 61 63 58 49 50 44 48 47 42 46 45 40 43 42 37 39 38 33 36 35 30 34 33 28 32 31 26 34 33 28 34 33 28 34 33 28 34 33 28 34 33 28 34 33 28 34 33 28 34 33 28 34 33 31 34 33 31 34 33 31 34 33 31 34 33 31 34 33 31 34 33 31 34 33 31 37 36 34 37 36 34 37 36 34 37 36 34 37 36 34 37 36 34 37 36 34 37 36 34
0 0 0 0 0 0 0 0 0 0 0 0 1 1 1 1 1 1 1 1 1 1 1 1 1 1 1 1 1 1 1 1 1 1 1 3 2 1 6 2 1 6 2 1 6 2 1 6 2 1 6 2 1 6 2 1 6 2 1 6 1 0 5 1 0 5 1 0 5 1 0 5 1 0 5 1 0 5 1 0 5 1 0 5 1 0 6 1 0 6 1 0 6 1 0 6 1 0 6 1 0 6 1 0 6 1 0 6 2 1 7 2 1 7 2 1 7 2 1 7 2 1 7 2 1 7 2 1 7 1 2 7 4 5 10 2 5 10 2 5 10 2 5 10 2 5 10 2 5 10 2 5 10 2 5 10 4 7 12 4 7 12 4 7 12 4 7 12 4 7 12 4 7 12 4 7 12 4 7 12 4 9 13 4 9 13 4 9 13 4 9 13 4 9 13 4 9 13 4 9 13 4 9 13 6 11 15 6 11 15 6 11 15 6 11 15 6 11 15 6 11 15 6 11 15 6 11 14 5 10 13 5 10 13 5 10 13 5 10 13 5 10 13 5 10 13 5 10 13 5 10 13 5 10 13 5 10 13 5 10 13 5 10 13 5 10 13 5 10 13 5 10 13 5 10 13 8 14 14 8 14 14 8 14 14 8 14 14 8 14 14 8 14 14 8 14 14 8 14 14 0 5 5 0 5 5 0 5 5 0 5 5 0 5 5 0 5 5 0 5 5 0 5 5 0 4 4 0 6 6 2 8 8 5 11 11 9 15 15 12 18 18 14 20 20 16 22 22 25 31 31 27 33 33 29 35 35 32 38 38 36 42 42 39 45 45 41 47 47 43 49 47 46 51 47 46 51 45 46 51 45 46 51 45 46 51 45 46 51 45 46 51 45 46 51 45 57 62 56 57 62 56 57 62 56 57 62 56 57 62 56 57 62 56 57 62 56 59 61 56 49 50 44 48 47 42 46 45 40 43 42 37 39 38 33 36 35 30 34 33 28 32 31 26 34 33 28 34 33 28 34 33 28 34 33 28 34 33 28 34 33 28 34 33 28 34 33 28 34 33 29 34 33 29 36 32 31 34 33 29 36 32 31 34 33 29 36 32 31 34 33 29 39 35 34 37 36 32 39 35 34 37 36 32 39 35 34 37 36 32 39 35 34 37 36 32
1 1 3 1 1 3 1 1 3 1 1 3 0 0 2 0 0 2 0 0 2 0 0 2 0 0 2 0 0 2 0 0 2 0 0 2 2 1 6 2 1 7 2 1 7 2 1 7 2 1 7 2 1 7 2 1 7 2 1 7 3 2 8 3 2 8 3 2 8 3 2 8 3 2 8 3 2 8 3 2 8 3 2 8 1 0 5 1 0 5 1 0 5 1 0 5 1 0 5 1 0 5 1 0 5 1 0 5 3 2 7 3 2 7 3 2 7 3 2 7 3 2 7 3 2 7 3 2 7 2 3 7 4 5 9 2 6 9 2 6 9 2 6 9 2 6 9 2 6 9 2 6 9 2 6 9 6 10 13 6 10 13 6 10 13 6 10 13 6 10 13 6 10 13 6 10 13 6 10 13 7 12 15 5 13 15 5 13 15 5 13 15 5 13 15 5 13 15 5 13 15 5 13 15 6 14 16 6 14 16 6 14 16 6 14 16 6 14 16 6 14 16 6 14 16 6 14 16 10 18 20 9 18 17 8 17 16 7 16 15 6 15 14 4 13 12 3 12 11 3 12 11 6 15 14 6 15 14 6 15 14 6 15 14 6 15 14 6 15 14 6 15 14 6 15 14 10 18 20 12 20 22 16 24 26 20 28 30 25 33 35 29 37 39 33 41 43 34 42 44 13 21 23 11 19 21 9 17 19 6 14 16 2 10 12 0 7 9 0 5 7 0 4 3 0 6 5 0 8 5 1 10 7 4 13 10 8 17 14 11 20 17 13 22 19 15 24 21 17 26 23 19 28 25 21 30 27 24 33 30 28 37 34 31 40 37 33 42 39 37 43 41 41 46 42 41 46 42 41 46 42 41 46 42 41 46 42 41 46 42 41 46 42 41 46 42 54 59 55 54 59 55 54 59 55 54 59 55 54 59 55 54 59 55 54 59 55 56 58 53 44 43 38 44 41 36 42 39 34 39 36 31 35 32 27 32 29 24 30 27 22 28 25 20 35 32 27 35 32 27 35 32 27 35 32 27 35 32 27 35 32 27 35 32 27 35 32 27 36 33 28 36 33 28 37 32 29 36 33 28 37 32 29 36 33 28 37 32 29 36 33 28 38 33 30 37 34 29 38 33 30 37 34 29 38 33 30 37 34 29 38 33 30 37 33 30
1 1 3 1 1 3 1 1 3 1 1 3 0 0 2 0 0 2 0 0 2 0 0 2 0 0 2 0 0 2 0 0 2 0 0 2 2 1 7 2 1 7 2 1 7 2 1 7 2 1 7 2 1 7 2 1 7 2 1 7 3 2 8 3 2 8 3 2 8 3 2 8 3 2 8 3 2 8 3 2 8 3 2 8 1 0 5 1 0 5 1 0 5 1 0 5 1 0 5 1 0 5 1 0 5 1 0 5 3 2 7 3 2 7 3 2 7 3 2 7 3 2 7 3 2 7 3 2 7 2 3 7 4 5 9 2 6 9 2 6 9 2 6 9 2 6 9 2 6 9 2 6 9 2 6 9 6 10 13 6 10 13 6 10 13 6 10 13 6 10 13 6 10 13 6 10 13 5 10 13 7 12 15 5 13 15 5 13 15 5 13 15 5 13 15 5 13 15 5 13 15 5 13 15 6 14 16 6 14 16 6 14 16 6 14 16 6 14 16 6 14 16 6 14 16 6 14 16 5 14 13 5 14 13 4 13 12 4 13 12 3 12 11 2 11 10 2 11 10 2 11 10 10 19 18 10 19 18 10 19 18 10 19 18 10 19 18 10 19 18 10 19 18 10 19 18 13 21 23 15 23 25 18 26 28 22 30 32 26 34 36 29 37 39 32 40 42 34 42 44 13 21 23 11 19 21 9 17 19 6 14 16 2 10 12 0 7 9 0 5 7 0 4 3 0 6 5 0 8 5 1 10 7 4 13 10 8 17 14 11 20 17 13 22 19 15 24 21 17 26 23 19 28 25 21 30 27 24 33 30 28 37 34 31 40 37 33 42 39 35 44 41 41 46 42 41 46 42 41 46 42 41 46 42 41 46 42 41 46 42 41 46 42 41 46 42 52 57 53 52 57 53 52 57 53 52 57 53 52 57 53 52 57 53 52 57 53 54 56 51 44 43 39 44 41 36 42 39 34 39 36 31 35 32 27 32 29 24 30 27 22 28 25 20 35 32 27 35 32 27 35 32 27 35 32 27 35 32 27 35 32 27 35 32 27 35 32 27 37 32 28 37 32 28 37 32 28 37 32 28 37 32 28 37 32 28 37 32 28 37 32 28 38 33 29 38 33 29 38 33 29 38 33 29 38 33 29 38 33 29 38 33 29 38 33 29
1 1 3 1 1 3 1 1 3 1 1 3 0 0 2 0 0 2 0 0 2 0 0 2 0 0 2 0 0 2 0 0 2 0 0 2 2 1 7 2 1 7 2 1 7 2 1 7 2 1 7 2 1 7 2 1 7 2 1 7 3 2 8 3 2 8 3 2 8 3 2 8 3 2 8 3 2 8 3 2 8 3 2 8 1 0 5 1 0 5 1 0 5 1 0 5 1 0 5 1 0 5 1 0 5 1 0 5 3 2 7 3 2 7 3 2 7 3 2 7 3 2 7 3 2 7 3 2 7 2 3 7 4 5 9 2 6 9 2 6 9 2 6 9 2 6 9 2 6 9 2 6 9 2 6 9 6 10 13 6 10 13 6 10 13 6 10 13 6 10 13 6 10 13 6 10 13 5 10 13 7 12 15 5 13 15 5 13 15 5 13 15 5 13 15 5 13 15 5 13 15 5 13 15 6 14 16 6 14 16 6 14 16 6 14 16 6 14 16 6 14 16 6 14 16 6 14 16 0 7 6 0 8 7 0 8 7 0 9 8 1 10 9 1 10 9 2 11 10 2 11 10 17 26 25 17 26 25 17 26 25 17 26 25 17 26 25 17 26 25 17 26 25 17 26 25 19 27 29 20 28 30 22 30 32 25 33 35 27 35 37 30 38 40 32 40 42 33 41 43 13 21 23 11 19 21 9 17 19 6 14 16 2 10 12 0 7 9 0 5 7 0 4 3 0 6 5 0 8 5 1 10 7 4 13 10 8 17 14 11 20 17 13 22 19 15 24 21 17 26 23 19 28 25 21 30 27 24 33 30 28 37 34 31 40 37 33 42 39 35 44 41 41 46 42 41 46 42 41 46 42 41 46 42 41 46 42 41 46 42 41 46 42 41 46 42 50 55 51 50 55 51 50 55 51 50 55 51 50 55 51 50 55 51 50 55 51 52 54 49 44 43 39 44 41 36 42 39 34 39 36 31 35 32 27 32 29 24 30 27 22 28 25 20 35 32 27 35 32 27 35 32 27 35 32 27 35 32 27 35 32 27 35 32 27 35 32 27 37 32 28 37 32 28 37 32 28 37 32 28 37 32 28 37 32 28 37 32 28 37 32 28 38 33 29 38 33 29 38 33 29 38 33 29 38 33 29 38 33 29 38 33 29 38 33 29
1 1 3 1 1 3 1 1 3 1 1 3 0 0 2 0 0 2 0 0 2 0 0 2 0 0 2 0 0 2 0 0 2 0 0 2 2 1 7 2 1 7 2 1 7 2 1 7 2 1 7 2 1 7 2 1 7 2 1 7 3 2 8 3 2 8 3 2 8 3 2 8 3 2 8 3 2 8 3 2 8 3 2 8 1 0 5 1 0 5 1 0 5 1 0 5 1 0 5 1 0 5 1 0 5 1 0 5 3 2 7 3 2 7 3 2 7 3 2 7 3 2 7 3 2 7 3 2 7 2 3 7 4 5 9 2 6 9 2 6 9 2 6 9 2 6 9 2 6 9 2 6 9 2 6 9 6 10 13 6 10 13 6 10 13 6 10 13 6 10 13 6 10 13 6 10 13 5 10 13 7 12 15 5 13 15 5 13 15 5 13 15 5 13 15 5 13 15 5 13 15 5 13 15 6 14 16 6 14 16 6 14 16 6 14 16 6 14 16 6 14 16 6 14 16 6 14 16 0 4 3 0 5 4 0 6 5 0 9 8 2 11 10 4 13 12 6 15 14 7 16 15 27 36 35 27 36 35 27 36 35 27 36 35 27 36 35 27 36 35 27 36 35 27 36 35 27 35 37 27 35 37 28 36 38 29 37 39 30 38 40 31 39 41 31 39 41 32 40 42 13 21 23 11 19 21 9 17 19 6 14 16 2 10 12 0 7 9 0 5 7 0 4 3 0 6 5 0 8 5 1 10 7 4 13 10 8 17 14 11 20 17 13 22 19 15 24 21 17 26 23 19 28 25 21 30 27 24 33 30 28 37 34 31 40 37 33 42 39 35 44 41 41 46 42 41 46 42 41 46 42 41 46 42 41 46 42 41 46 42 41 46 42 41 46 42 47 52 48 47 52 48 47 52 48 47 52 48 47 52 48 47 52 48 47 52 48 49 51 46 44 43 39 44 41 36 42 39 34 39 36 31 35 32 27 32 29 24 30 27 22 28 25 20 35 32 27 35 32 27 35 32 27 35 32 27 35 32 27 35 32 27 35 32 27 35 32 27 37 32 28 37 32 28 37 32 28 37 32 28 37 32 28 37 32 28 37 32 28 37 32 28 38 33 29 38 33 29 38 33 29 38 33 29 38 33 29 38 33 29 38 33 29 38 33 29
1 1 3 1 1 3 1 1 3 1 1 3 0 0 2 0 0 2 0 0 2 0 0 2 0 0 2 0 0 2 0 0 2 0 0 2 2 1 7 2 1 7 2 1 7 2 1 7 2 1 7 2 1 7 2 1 7 2 1 7 3 2 8 3 2 8 3 2 8 3 2 8 3 2 8 3 2 8 3 2 8 3 2 8 1 0 5 1 0 5 1 0 5 1 0 5 1 0 5 1 0 5 1 0 5 1 0 5 3 2 7 3 2 7 3 2 7 3 2 7 3 2 7 3 2 7 3 2 7 2 3 7 4 5 9 2 6 9 2 6 9 2 6 9 2 6 9 2 6 9 2 6 9 2 6 9 6 10 13 6 10 13 6 10 13 6 10 13 6 10 13 6 10 13 6 10 13 5 10 13 7 12 15 5 13 15 5 13 15 5 13 15 5 13 15 5 13 15 5 13 15 5 13 15 6 14 16 6 14 16 6 14 16 6 14 16 6 14 16 6 14 16 6 14 16 6 14 16 0 6 5 0 7 6 2 11 10 6 15 14 10 19 18 14 23 22 17 26 25 19 28 27 37 46 45 37 46 45 37 46 45 37 46 45 37 46 45 37 46 45 37 46 45 37 46 45 35 43 45 35 43 45 34 42 44 33 41 43 32 40 42 31 39 41 31 39 41 30 38 40 13 21 23 11 19 21 9 17 19 6 14 16 2 10 12 0 7 9 0 5 7 0 4 3 0 6 5 0 8 5 1 10 7 4 13 10 8 17 14 11 20 17 13 22 19 15 24 21 17 26 23 19 28 25 21 30 27 24 33 30 28 37 34 31 40 37 33 42 39 35 44 41 41 46 42 41 46 42 41 46 42 41 46 42 41 46 42 41 46 42 41 46 42 41 46 42 43 48 44 43 48 44 43 48 44 43 48 44 43 48 44 43 48 44 43 48 44 45 47 42 44 43 39 44 41 36 42 39 34 39 36 31 35 32 27 32 29 24 30 27 22 28 25 20 35 32 27 35 32 27 35 32 27 35 32 27 35 32 27 35 32 27 35 32 27 35 32 27 37 32 28 37 32 28 37 32 28 37 32 28 37 32 28 37 32 28 37 32 28 37 32 28 38 33 29 38 33 29 38 33 29 38 33 29 38 33 29 38 33 29 38 33 29 38 33 29
1 1 3 1 1 3 1 1 3 1 1 3 0 0 2 0 0 2 0 0 2 0 0 2 0 0 2 0 0 2 0 0 2 0 0 2 2 1 7 2 1 7 2 1 7 2 1 7 2 1 7 2 1 7 2 1 7 2 1 7 3 2 8 3 2 8 3 2 8 3 2 8 3 2 8 3 2 8 3 2 8 3 2 8 1 0 5 1 0 5 1 0 5 1 0 5 1 0 5 1 0 5 1 0 5 1 0 5 3 2 7 3 2 7 3 2 7 3 2 7 3 2 7 3 2 7 3 2 7 2 3 7 4 5 9 2 6 9 2 6 9 2 6 9 2 6 9 2 6 9 2 6 9 2 6 9 6 10 13 6 10 13 6 10 13 6 10 13 6 10 13 6 10 13 6 10 13 5 10 13 7 12 15 5 13 15 5 13 15 5 13 15 5 13 15 5 13 15 5 13 15 5 13 15 6 14 16 6 14 16 6 14 16 6 14 16 6 14 16 6 14 16 6 14 16 6 14 16 4 13 12 7 16 15 11 20 19 17 26 25 23 32 31 29 38 37 33 42 41 35 44 43 47 56 55 47 56 55 47 56 55 47 56 55 47 56 55 47 56 55 47 56 55 47 56 55 43 51 53 42 50 52 40 48 50 37 45 47 35 43 45 32 40 42 30 38 40 29 37 39 13 21 23 11 19 21 9 17 19 6 14 16 2 10 12 0 7 9 0 5 7 0 4 3 0 6 5 0 8 5 1 10 7 4 13 10 8 17 14 11 20 17 13 22 19 15 24 21 17 26 23 19 28 25 21 30 27 24 33 30 28 37 34 31 40 37 33 42 39 35 44 41 41 46 42 41 46 42 41 46 42 41 46 42 41 46 42 41 46 42 41 46 42 41 46 42 40 45 41 40 45 41 40 45 41 40 45 41 40 45 41 40 45 41 40 45 41 42 44 39 44 43 39 44 41 36 42 39 34 39 36 31 35 32 27 32 29 24 30 27 22 28 25 20 35 32 27 35 32 27 35 32 27 35 32 27 35 32 27 35 32 27 35 32 27 35 32 27 37 32 28 37 32 28 37 32 28 37 32 28 37 32 28 37 32 28 37 32 28 37 32 28 38 33 29 38 33 29 38 33 29 38 33 29 38 33 29 38 33 29 38 33 29 38 33 29
1 1 3 1 1 3 1 1 3 1 1 3 0 0 2 0 0 2 0 0 2 0 0 2 0 0 2 0 0 2 0 0 2 0 0 2 2 1 7 2 1 7 2 1 7 2 1 7 2 1 7 2 1 7 2 1 7 2 1 7 3 2 8 3 2 8 3 2 8 3 2 8 3 2 8 3 2 8 3 2 8 3 2 8 1 0 5 1 0 5 1 0 5 1 0 5 1 0 5 1 0 5 1 0 5 1 0 5 3 2 7 3 2 7 3 2 7 3 2 7 3 2 7 3 2 7 3 2 7 2 3 7 4 5 9 2 6 9 2 6 9 2 6 9 2 6 9 2 6 9 2 6 9 2 6 9 6 10 13 6 10 13 6 10 13 6 10 13 6 10 13 6 10 13 6 10 13 5 10 13 7 12 15 5 13 15 5 13 15 5 13 15 5 13 15 5 13 15 5 13 15 5 13 15 6 14 16 6 14 16 6 14 16 6 14 16 6 14 16 6 14 16 6 14 16 6 14 16 14 23 22 17 26 25 22 31 30 29 38 37 36 45 44 43 52 51 49 58 57 52 61 60 54 63 62 54 63 62 54 63 62 54 63 62 54 63 62 54 63 62 54 63 62 54 63 62 49 57 59 47 55 57 44 52 54 40 48 50 36 44 46 33 41 43 30 38 40 28 36 38 13 21 23 11 19 21 9 17 19 6 14 16 2 10 12 0 7 9 0 5 7 0 4 3 0 6 5 0 8 5 1 10 7 4 13 10 8 17 14 11 20 17 13 22 19 15 24 21 17 26 23 19 28 25 21 30 27 24 33 30 28 37 34 31 40 37 33 42 39 35 44 41 41 46 42 41 46 42 41 46 42 41 46 42 41 46 42 41 46 42 41 46 42 41 46 42 38 43 39 38 43 39 38 43 39 38 43 39 38 43 39 38 43 39 38 43 39 40 42 37 44 43 39 44 41 36 42 39 34 39 36 31 35 32 27 32 29 24 30 27 22 28 25 20 35 32 27 35 32 27 35 32 27 35 32 27 35 32 27 35 32 27 35 32 27 35 32 27 37 32 28 37 32 28 37 32 28 37 32 28 37 32 28 37 32 28 37 32 28 37 32 28 38 33 29 38 33 29 38 33 29 38 33 29 38 33 29 38 33 29 38 33 29 38 33 29
1 1 3 1 1 3 1 1 3 1 1 3 0 0 2 0 0 2 0 0 2 0 0 2 0 0 2 0 0 2 0 0 2 0 0 2 2 1 7 2 1 7 2 1 7 2 1 7 2 1 7 2 1 7 2 1 7 2 1 7 3 2 8 3 2 8 3 2 8 3 2 8 3 2 8 3 2 8 3 2 8 3 2 8 1 0 5 1 0 5 1 0 5 1 0 5 1 0 5 1 0 5 1 0 5 1 0 5 3 2 7 3 2 7 3 2 7 3 2 7 3 2 7 3 2 7 3 2 7 2 3 7 4 5 9 2 6 9 2 6 9 2 6 9 2 6 9 2 6 9 2 6 9 2 6 9 6 10 13 6 10 13 6 10 13 6 10 13 6 10 13 6 10 13 6 10 13 5 10 13 7 12 15 5 13 15 5 13 15 5 13 15 5 13 15 5 13 15 5 13 15 5 13 15 6 14 16 6 14 16 6 14 16 6 14 16 6 14 16 6 14 16 6 14 16 6 14 16 20 29 28 23 32 31 29 38 37 37 46 45 45 54 53 53 62 61 58 67 66 62 71 70 58 67 66 58 67 66 58 67 66 58 67 66 58 67 66 58 67 66 58 67 66 58 67 66 52 60 62 50 58 60 46 54 56 42 50 52 37 45 47 33 41 43 29 37 39 28 36 38 13 21 23 11 19 21 9 17 19 6 14 16 2 10 12 0 7 9 0 5 7 0 4 3 0 6 5 0 8 5 1 10 7 4 13 10 8 17 14 11 20 17 13 22 19 15 24 21 17 26 23 19 28 25 21 30 27 24 33 30 28 37 34 31 40 37 33 42 39 35 44 41 41 46 42 41 46 42 41 46 42 41 46 42 41 46 42 41 46 42 41 46 42 41 46 42 36 41 37 36 41 37 36 41 37 36 41 37 36 41 37 36 41 37 36 41 37 38 40 35 44 43 39 44 41 36 42 39 34 39 36 31 35 32 27 32 29 24 30 27 22 28 25 20 35 32 27 35 32 27 35 32 27 35 32 27 35 32 27 35 32 27 35 32 27 35 32 27 37 32 28 37 32 28 37 32 28 37 32 28 37 32 28 37 32 28 37 32 28 37 32 28 38 33 29 38 33 29 38 33 29 38 33 29 38 33 29 38 33 29 38 33 29 38 33 29
1 1 3 1 1 3 1 1 3 1 1 3 0 0 2 0 0 2 0 0 2 0 0 2 0 0 2 0 0 2 0 0 2 0 0 2 1 0 6 1 0 6 1 0 6 1 0 6 1 0 6 1 0 6 1 0 6 1 0 6 2 1 7 2 1 7 2 1 7 2 1 7 2 1 7 2 1 7 2 1 7 2 1 7 1 0 5 1 0 5 1 0 5 1 0 5 1 0 5 1 0 5 1 0 5 1 0 5 2 1 6 2 1 6 2 1 6 2 1 6 2 1 6 2 1 6 2 1 6 1 2 6 6 7 11 4 8 11 4 8 11 4 8 11 4 8 11 4 8 11 4 8 11 4 8 11 4 8 11 4 8 11 4 8 11 4 8 11 4 8 11 4 8 11 4 8 11 3 8 11 10 15 18 7 15 17 6 14 16 5 13 15 4 12 14 2 10 12 1 9 11 1 9 11 4 12 14 6 14 16 8 16 18 11 19 21 15 23 25 18 26 28 20 28 30 22 30 32 57 66 65 57 66 65 57 66 65 57 66 65 57 66 65 57 66 65 57 66 65 57 66 65 72 81 80 71 80 79 68 77 76 65 74 73 62 71 70 58 67 66 56 65 64 55 64 63 44 52 54 43 51 53 40 48 50 37 45 47 34 42 44 30 38 40 28 36 38 27 35 37 8 16 18 8 16 18 8 16 18 8 16 18 8 16 18 8 16 18 8 16 18 8 17 16 9 18 17 9 18 15 9 18 15 9 18 15 9 18 15 9 18 15 9 18 15 9 18 15 22 31 28 22 31 28 22 31 28 22 31 28 22 31 28 22 31 28 22 31 28 22 31 28 30 35 31 30 35 31 30 35 31 30 35 31 30 35 31 30 35 31 30 35 31 30 35 31 30 35 31 30 35 31 30 35 31 30 35 31 30 35 31 30 35 31 30 35 31 32 34 29 30 29 25 32 29 24 32 29 24 32 29 24 32 29 24 32 29 24 32 29 24 32 29 24 33 30 25 33 30 25 33 30 25 33 30 25 33 30 25 33 30 25 33 30 25 33 30 25 36 31 27 36 31 27 36 31 27 36 31 27 36 31 27 36 31 27 36 31 27 36 31 27 37 32 28 37 32 28 37 32 28 37 32 28 37 32 28 37 32 28 37 32 28 37 32 28
1 1 3 1 1 3 1 1 3 1 1 3 0 0 2 0 0 2 0 0 2 0 0 2 0 0 2 0 0 2 0 0 2 0 0 2 1 0 6 1 0 6 1 0 6 1 0 6 1 0 6 1 0 6 1 0 6 1 0 6 2 1 7 2 1 7 2 1 7 2 1 7 2 1 7 2 1 7 2 1 7 2 1 7 1 0 5 1 0 5 1 0 5 1 0 5 1 0 5 1 0 5 1 0 5 1 0 5 2 1 6 2 1 6 2 1 6 2 1 6 2 1 6 2 1 6 2 1 6 1 2 6 6 7 11 4 8 11 4 8 11 4 8 11 4 8 11 4 8 11 4 8 11 4 8 11 4 8 11 4 8 11 4 8 11 4 8 11 4 8 11 4 8 11 4 8 11 3 8 11 5 10 13 3 11 13 2 10 12 2 10 12 1 9 11 0 8 10 0 8 10 0 8 10 8 16 18 10 18 20 12 20 22 15 23 25 19 27 29 22 30 32 24 32 34 26 34 36 59 68 67 59 68 67 59 68 67 59 68 67 59 68 67 59 68 67 59 68 67 59 68 67 73 82 81 72 81 80 70 79 78 66 75 74 63 72 71 60 69 68 57 66 65 56 65 64 45 53 55 44 52 54 42 50 52 38 46 48 35 43 45 32 40 42 29 37 39 28 36 38 8 16 18 8 16 18 8 16 18 8 16 18 8 16 18 8 16 18 8 16 18 8 17 16 9 18 17 9 18 15 9 18 15 9 18 15 9 18 15 9 18 15 9 18 15 9 18 15 22 31 28 22 31 28 22 31 28 22 31 28 22 31 28 22 31 28 22 31 28 22 31 28 30 35 31 30 35 31 30 35 31 30 35 31 30 35 31 30 35 31 30 35 31 30 35 31 30 35 31 30 35 31 30 35 31 30 35 31 30 35 31 30 35 31 30 35 31 32 34 29 30 29 25 32 29 24 32 29 24 32 29 24 32 29 24 32 29 24 32 29 24 32 29 24 33 30 25 33 30 25 33 30 25 33 30 25 33 30 25 33 30 25 33 30 25 33 30 25 36 31 27 36 31 27 36 31 27 36 31 27 36 31 27 36 31 27 36 31 27 36 31 27 37 32 28 37 32 28 37 32 28 37 32 28 37 32 28 37 32 28 37 32 28 37 32 28
1 1 3 1 1 3 1 1 3 1 1 3 0 0 2 0 0 2 0 0 2 0 0 2 0 0 2 0 0 2 0 0 2 0 0 2 1 0 6 1 0 6 1 0 6 1 0 6 1 0 6 1 0 6 1 0 6 1 0 6 2 1 7 2 1 7 2 1 7 2 1 7 2 1 7 2 1 7 2 1 7 2 1 7 1 0 5 1 0 5 1 0 5 1 0 5 1 0 5 1 0 5 1 0 5 1 0 5 2 1 6 2 1 6 2 1 6 2 1 6 2 1 6 2 1 6 2 1 6 1 2 6 6 7 11 4 8 11 4 8 11 4 8 11 4 8 11 4 8 11 4 8 11 4 8 11 4 8 11 4 8 11 4 8 11 4 8 11 4 8 11 4 8 11 4 8 11 3 8 11 0 3 6 0 5 7 0 5 7 0 6 8 0 7 9 0 7 9 0 8 10 0 8 10 16 24 26 17 25 27 19 27 29 23 31 33 26 34 36 29 37 39 32 40 42 33 41 43 61 70 69 61 70 69 61 70 69 61 70 69 61 70 69 61 70 69 61 70 69 61 70 69 76 85 84 74 83 82 72 81 80 69 78 77 65 74 73 62 71 70 60 69 68 58 67 66 48 56 58 46 54 56 44 52 54 41 49 51 37 45 47 34 42 44 32 40 42 30 38 40 8 16 18 8 16 18 8 16 18 8 16 18 8 16 18 8 16 18 8 16 18 8 17 16 9 18 17 9 18 15 9 18 15 9 18 15 9 18 15 9 18 15 9 18 15 9 18 15 22 31 28 22 31 28 22 31 28 22 31 28 22 31 28 22 31 28 22 31 28 22 31 28 30 35 31 30 35 31 30 35 31 30 35 31 30 35 31 30 35 31 30 35 31 30 35 31 30 35 31 30 35 31 30 35 31 30 35 31 30 35 31 30 35 31 30 35 31 32 34 29 30 29 25 32 29 24 32 29 24 32 29 24 32 29 24 32 29 24 32 29 24 32 29 24 33 30 25 33 30 25 33 30 25 33 30 25 33 30 25 33 30 25 33 30 25 33 30 25 36 31 27 36 31 27 36 31 27 36 31 27 36 31 27 36 31 27 36 31 27 36 31 27 37 32 28 37 32 28 37 32 28 37 32 28 37 32 28 37 32 28 37 32 28 37 32 28
1 1 3 1 1 3 1 1 3 1 1 3 0 0 2 0 0 2 0 0 2 0 0 2 0 0 2 0 0 2 0 0 2 0 0 2 1 0 6 1 0 6 1 0 6 1 0 6 1 0 6 1 0 6 1 0 6 1 0 6 2 1 7 2 1 7 2 1 7 2 1 7 2 1 7 2 1 7 2 1 7 2 1 7 1 0 5 1 0 5 1 0 5 1 0 5 1 0 5 1 0 5 1 0 5 1 0 5 2 1 6 2 1 6 2 1 6 2 1 6 2 1 6 2 1 6 2 1 6 1 2 6 6 7 11 4 8 11 4 8 11 4 8 11 4 8 11 4 8 11 4 8 11 4 8 11 4 8 11 4 8 11 4 8 11 4 8 11 4 8 11 4 8 11 4 8 11 3 8 11 0 1 4 0 2 4 0 3 5 0 6 8 0 8 10 2 10 12 4 12 14 5 13 15 25 33 35 26 34 36 29 37 39 32 40 42 36 44 46 39 47 49 41 49 51 42 50 52 64 73 72 64 73 72 64 73 72 64 73 72 64 73 72 64 73 72 64 73 72 64 73 72 79 88 87 78 87 86 75 84 83 72 81 80 69 78 77 65 74 73 63 72 71 62 71 70 51 59 61 50 58 60 47 55 57 44 52 54 41 49 51 37 45 47 35 43 45 34 42 44 8 16 18 8 16 18 8 16 18 8 16 18 8 16 18 8 16 18 8 16 18 8 17 16 9 18 17 9 18 15 9 18 15 9 18 15 9 18 15 9 18 15 9 18 15 9 18 15 22 31 28 22 31 28 22 31 28 22 31 28 22 31 28 22 31 28 22 31 28 22 31 28 30 35 31 30 35 31 30 35 31 30 35 31 30 35 31 30 35 31 30 35 31 30 35 31 30 35 31 30 35 31 30 35 31 30 35 31 30 35 31 30 35 31 30 35 31 32 34 29 30 29 25 32 29 24 32 29 24 32 29 24 32 29 24 32 29 24 32 29 24 32 29 24 33 30 25 33 30 25 33 30 25 33 30 25 33 30 25 33 30 25 33 30 25 33 30 25 36 31 27 36 31 27 36 31 27 36 31 27 36 31 27 36 31 27 36 31 27 36 31 27 37 32 28 37 32 28 37 32 28 37 32 28 37 32 28 37 32 28 37 32 28 37 32 28
1 1 3 1 1 3 1 1 3 1 1 3 0 0 2 0 0 2 0 0 2 0 0 2 0 0 2 0 0 2 0 0 2 0 0 2 1 0 6 1 0 6 1 0 6 1 0 6 1 0 6 1 0 6 1 0 6 1 0 6 2 1 7 2 1 7 2 1 7 2 1 7 2 1 7 2 1 7 2 1 7 2 1 7 1 0 5 1 0 5 1 0 5 1 0 5 1 0 5 1 0 5 1 0 5 1 0 5 2 1 6 2 1 6 2 1 6 2 1 6 2 1 6 2 1 6 2 1 6 1 2 6 6 7 11 4 8 11 4 8 11 4 8 11 4 8 11 4 8 11 4 8 11 4 8 11 4 8 11 4 8 11 4 8 11 4 8 11 4 8 11 4 8 11 4 8 11 3 8 11 0 2 5 0 4 6 0 8 10 4 12 14 8 16 18 12 20 22 15 23 25 17 25 27 36 44 46 37 45 47 39 47 49 42 50 52 46 54 56 49 57 59 52 60 62 53 61 63 68 77 76 68 77 76 68 77 76 68 77 76 68 77 76 68 77 76 68 77 76 68 77 76 82 91 90 81 90 89 79 88 87 75 84 83 72 81 80 69 78 77 66 75 74 65 74 73 54 62 64 53 61 63 51 59 61 47 55 57 44 52 54 41 49 51 38 46 48 37 45 47 8 16 18 8 16 18 8 16 18 8 16 18 8 16 18 8 16 18 8 16 18 8 17 16 9 18 17 9 18 15 9 18 15 9 18 15 9 18 15 9 18 15 9 18 15 9 18 15 22 31 28 22 31 28 22 31 28 22 31 28 22 31 28 22 31 28 22 31 28 22 31 28 30 35 31 30 35 31 30 35 31 30 35 31 30 35 31 30 35 31 30 35 31 30 35 31 30 35 31 30 35 31 30 35 31 30 35 31 30 35 31 30 35 31 30 35 31 32 34 29 30 29 25 32 29 24 32 29 24 32 29 24 32 29 24 32 29 24 32 29 24 32 29 24 33 30 25 33 30 25 33 30 25 33 30 25 33 30 25 33 30 25 33 30 25 33 30 25 36 31 27 36 31 27 36 31 27 36 31 27 36 31 27 36 31 27 36 31 27 36 31 27 37 32 28 37 32 28 37 32 28 37 32 28 37 32 28 37 32 28 37 32 28 37 32 28
1 1 3 1 1 3 1 1 3 1 1 3 0 0 2 0 0 2 0 0 2 0 0 2 0 0 2 0 0 2 0 0 2 0 0 2 1 0 6 1 0 6 1 0 6 1 0 6 1 0 6 1 0 6 1 0 6 1 0 6 2 1 7 2 1 7 2 1 7 2 1 7 2 1 7 2 1 7 2 1 7 2 1 7 1 0 5 1 0 5 1 0 5 1 0 5 1 0 5 1 0 5 1 0 5 1 0 5 2 1 6 2 1 6 2 1 6 2 1 6 2 1 6 2 1 6 2 1 6 1 2 6 6 7 11 4 8 11 4 8 11 4 8 11 4 8 11 4 8 11 4 8 11 4 8 11 4 8 11 4 8 11 4 8 11 4 8 11 4 8 11 4 8 11 4 8 11 3 8 11 4 9 12 5 13 15 9 17 19 15 23 25 21 29 31 27 35 37 31 39 41 33 41 43 45 53 55 46 54 56 49 57 59 52 60 62 55 63 65 59 67 69 61 69 71 62 70 72 71 80 79 71 80 79 71 80 79 71 80 79 71 80 79 71 80 79 71 80 79 71 80 79 86 95 94 84 93 92 82 91 90 79 88 87 75 84 83 72 81 80 70 79 78 68 77 76 58 66 68 56 64 66 54 62 64 51 59 61 47 55 57 44 52 54 42 50 52 40 48 50 8 16 18 8 16 18 8 16 18 8 16 18 8 16 18 8 16 18 8 16 18 8 17 16 9 18 17 9 18 15 9 18 15 9 18 15 9 18 15 9 18 15 9 18 15 9 18 15 22 31 28 22 31 28 22 31 28 22 31 28 22 31 28 22 31 28 22 31 28 22 31 28 30 35 31 30 35 31 30 35 31 30 35 31 30 35 31 30 35 31 30 35 31 30 35 31 30 35 31 30 35 31 30 35 31 30 35 31 30 35 31 30 35 31 30 35 31 32 34 29 30 29 25 32 29 24 32 29 24 32 29 24 32 29 24 32 29 24 32 29 24 32 29 24 33 30 25 33 30 25 33 30 25 33 30 25 33 30 25 33 30 25 33 30 25 33 30 25 36 31 27 36 31 27 36 31 27 36 31 27 36 31 27 36 31 27 36 31 27 36 31 27 37 32 28 37 32 28 37 32 28 37 32 28 37 32 28 37 32 28 37 32 28 37 32 28
1 1 3 1 1 3 1 1 3 1 1 3 0 0 2 0 0 2 0 0 2 0 0 2 0 0 2 0 0 2 0 0 2 0 0 2 1 0 6 1 0 6 1 0 6 1 0 6 1 0 6 1 0 6 1 0 6 1 0 6 2 1 7 2 1 7 2 1 7 2 1 7 2 1 7 2 1 7 2 1 7 2 1 7 1 0 5 1 0 5 1 0 5 1 0 5 1 0 5 1 0 5 1 0 5 1 0 5 2 1 6 2 1 6 2 1 6 2 1 6 2 1 6 2 1 6 2 1 6 1 2 6 6 7 11 4 8 11 4 8 11 4 8 11 4 8 11 4 8 11 4 8 11 4 8 11 4 8 11 4 8 11 4 8 11 4 8 11 4 8 11 4 8 11 4 8 11 3 8 11 14 19 22 15 23 25 20 28 30 27 35 37 34 42 44 41 49 51 47 55 57 50 58 60 52 60 62 54 62 64 56 64 66 59 67 69 63 71 73 66 74 76 68 76 78 70 78 80 73 82 81 73 82 81 73 82 81 73 82 81 73 82 81 73 82 81 73 82 81 73 82 81 88 97 96 87 96 95 84 93 92 81 90 89 78 87 86 74 83 82 72 81 80 71 80 79 60 68 70 59 67 69 56 64 66 53 61 63 50 58 60 46 54 56 44 52 54 43 51 53 8 16 18 8 16 18 8 16 18 8 16 18 8 16 18 8 16 18 8 16 18 8 17 16 9 18 17 9 18 15 9 18 15 9 18 15 9 18 15 9 18 15 9 18 15 9 18 15 22 31 28 22 31 28 22 31 28 22 31 28 22 31 28 22 31 28 22 31 28 22 31 28 30 35 31 30 35 31 30 35 31 30 35 31 30 35 31 30 35 31 30 35 31 30 35 31 30 35 31 30 35 31 30 35 31 30 35 31 30 35 31 30 35 31 30 35 31 32 34 29 30 29 25 32 29 24 32 29 24 32 29 24 32 29 24 32 29 24 32 29 24 32 29 24 33 30 25 33 30 25 33 30 25 33 30 25 33 30 25 33 30 25 33 30 25 33 30 25 36 31 27 36 31 27 36 31 27 36 31 27 36 31 27 36 31 27 36 31 27 36 31 27 37 32 28 37 32 28 37 32 28 37 32 28 37 32 28 37 32 28 37 32 28 37 32 28
1 1 3 1 1 3 1 1 3 1 1 3 0 0 2 0 0 2 0 0 2 0 0 2 0 0 2 0 0 2 0 0 2 0 0 2 1 0 5 1 0 5 1 0 6 1 0 5 1 0 6 1 0 5 1 0 6 1 0 5 2 1 7 2 1 6 2 1 7 2 1 6 2 1 7 2 1 6 2 1 7 2 1 6 1 0 5 0 1 5 1 0 5 0 1 5 1 0 5 0 1 5 1 0 5 0 1 5 2 1 6 1 2 6 2 1 6 1 2 6 2 1 6 1 2 6 2 1 6 1 2 6 4 8 11 3 8 11 4 8 11 3 8 11 4 8 11 3 8 11 4 8 11 3 8 11 4 8 11 3 8 11 4 8 11 3 8 11 4 8 11 3 8 11 4 8 11 3 8 11 18 26 28 21 29 31 27 35 37 35 43 45 43 51 53 51 59 61 56 64 66 60 68 70 56 64 66 58 66 68 60 68 70 63 71 73 67 75 77 70 78 80 72 80 82 74 82 84 75 84 83 75 84 83 75 84 83 75 84 83 75 84 83 75 84 83 75 84 83 75 84 83 89 98 97 88 97 96 86 95 94 82 91 90 79 88 87 76 85 84 73 82 81 72 81 80 61 69 71 60 68 70 58 66 68 54 62 64 51 59 61 48 56 58 45 53 55 44 52 54 8 16 18 8 16 18 8 16 18 8 16 18 8 16 18 8 16 18 8 16 18 8 16 18 9 18 17 9 18 17 9 18 17 9 18 17 9 18 17 9 18 17 9 18 17 9 18 17 22 31 30 22 31 30 22 31 30 22 31 30 22 31 30 22 31 30 22 31 30 22 31 28 29 35 33 30 35 31 30 34 33 30 35 31 30 34 33 30 35 31 30 34 33 30 35 31 30 34 33 30 35 31 30 34 33 30 35 31 30 34 33 30 35 31 30 34 33 32 34 31 30 29 25 32 29 24 32 29 24 32 29 24 32 29 24 32 29 24 32 29 24 32 29 24 33 30 25 33 30 25 33 30 25 33 30 25 33 30 25 33 30 25 33 30 25 34 29 25 36 31 27 36 31 27 38 30 27 36 31 27 38 30 27 36 31 27 38 30 27 36 31 27 39 31 28 37 32 28 39 31 28 37 32 28 39 31 28 37 32 28 39 31 28 37 32 28
0 0 0 0 0 0 0 0 0 0 0 0 0 0 0 0 0 0 0 0 0 0 0 0 0 0 0 0 0 0 0 0 0 0 0 2 0 0 2 0 0 2 0 0 4 0 0 2 0 0 4 0 0 2 0 0 4 0 0 2 0 0 4 0 0 2 0 0 4 0 0 2 0 0 4 0 0 2 0 0 4 0 0 4 0 1 5 0 2 5 0 1 5 0 2 5 0 1 5 0 2 5 0 1 5 0 2 5 4 5 9 2 6 9 4 5 9 2 6 9 4 5 9 2 6 9 4 5 9 2 6 9 3 8 11 0 8 10 2 7 10 0 6 8 0 4 7 0 4 6 0 2 5 0 2 4 6 11 14 6 14 16 10 15 18 11 19 21 17 22 25 18 26 28 22 27 30 22 30 32 52 60 62 52 60 62 52 60 62 52 60 62 52 60 62 52 60 62 52 60 62 52 60 62 73 81 83 73 81 83 73 81 83 73 81 83 73 81 83 73 81 83 73 81 83 73 81 83 70 76 76 71 77 77 73 79 79 77 83 83 80 86 86 83 89 89 86 92 92 87 93 93 92 98 98 91 97 97 88 94 94 85 91 91 82 88 88 78 84 84 76 82 82 75 81 81 72 77 80 70 75 78 65 70 73 58 63 66 52 57 60 45 50 53 40 45 48 38 43 46 11 16 19 11 16 19 11 16 19 11 16 19 11 16 19 11 16 19 11 16 19 9 17 19 12 20 22 11 21 22 11 21 22 11 21 22 11 21 22 11 21 22 11 21 22 11 21 22 26 36 37 26 36 37 26 36 37 26 36 37 26 36 37 26 36 37 26 36 37 27 35 37 31 37 37 31 37 35 31 37 37 31 37 35 31 37 37 31 37 35 31 37 37 31 37 35 20 26 26 20 26 24 20 26 26 20 26 24 20 26 26 20 26 24 20 26 26 23 25 24 30 29 25 33 28 24 33 28 24 33 28 24 33 28 24 33 28 24 33 28 24 33 28 24 34 29 25 34 29 25 34 29 25 34 29 25 34 29 25 34 29 25 34 29 25 34 29 25 37 29 26 37 29 26 38 28 26 37 29 26 38 28 26 37 29 26 38 28 26 37 29 26 40 30 28 39 31 28 40 30 28 39 31 28 40 30 28 39 31 28 40 30 28 39 31 28
0 0 0 0 0 0 0 0 0 0 0 0 0 0 0 0 0 0 0 0 0 0 0 0 0 0 0 0 0 0 0 0 0 0 0 0 0 0 2 0 0 2 0 0 2 0 0 2 0 0 2 0 0 2 0 0 2 0 0 2 0 0 2 0 0 2 0 0 2 0 0 2 0 0 2 0 0 2 0 0 2 0 0 2 0 1 5 0 2 5 0 2 5 0 2 5 0 2 5 0 2 5 0 2 5 0 2 5 2 6 9 2 6 9 2 6 9 2 6 9 2 6 9 2 6 9 2 6 9 1 6 9 4 9 12 2 10 12 1 9 11 1 9 11 0 8 10 0 7 9 0 7 9 0 7 9 8 16 18 10 18 20 12 20 22 15 23 25 19 27 29 22 30 32 24 32 34 26 34 36 54 62 64 54 62 64 54 62 64 54 62 64 54 62 64 54 62 64 54 62 64 54 62 64 73 81 83 73 81 83 73 81 83 73 81 83 73 81 83 73 81 83 73 81 83 73 81 83 71 77 77 72 78 78 75 81 81 78 84 84 81 87 87 85 91 91 87 93 93 88 94 94 93 99 99 92 98 98 90 96 96 86 92 92 83 89 89 80 86 86 77 83 83 76 82 82 72 77 80 70 75 78 65 70 73 58 63 66 52 57 60 45 50 53 40 45 48 38 43 46 11 16 19 11 16 19 11 16 19 11 16 19 11 16 19 11 16 19 11 16 19 9 17 19 12 20 23 11 21 23 11 21 23 11 21 23 11 21 23 11 21 23 11 21 23 11 21 23 24 34 36 24 34 36 24 34 36 24 34 36 24 34 36 24 34 36 24 34 36 24 34 35 29 34 37 29 35 35 29 35 35 29 35 35 29 35 35 29 35 35 29 35 35 29 35 35 20 26 26 20 26 26 20 26 26 20 26 26 20 26 26 20 26 26 20 26 26 21 25 24 32 28 25 33 28 24 33 28 24 33 28 24 33 28 24 33 28 24 33 28 24 33 28 24 34 29 25 34 29 25 34 29 25 34 29 25 34 29 25 34 29 25 34 29 25 34 29 25 38 28 26 38 28 26 38 28 26 38 28 26 38 28 26 38 28 26 38 28 26 38 28 26 40 30 28 40 30 28 40 30 28 40 30 28 40 30 28 40 30 28 40 30 28 40 30 28
0 0 0 0 0 0 0 0 0 0 0 0 0 0 0 0 0 0 0 0 0 0 0 0 0 0 0 0 0 0 0 0 0 0 0 0 0 0 2 0 0 2 0 0 2 0 0 2 0 0 2 0 0 2 0 0 2 0 0 2 0 0 2 0 0 2 0 0 2 0 0 2 0 0 2 0 0 2 0 0 2 0 0 2 0 1 5 0 2 5 0 2 5 0 2 5 0 2 5 0 2 5 0 2 5 0 2 5 2 6 9 2 6 9 2 6 9 2 6 9 2 6 9 2 6 9 2 6 9 1 6 9 5 10 13 4 12 14 4 12 14 5 13 15 6 14 16 6 14 16 7 15 17 7 15 17 16 24 26 17 25 27 19 27 29 23 31 33 26 34 36 29 37 39 32 40 42 33 41 43 56 64 66 56 64 66 56 64 66 56 64 66 56 64 66 56 64 66 56 64 66 56 64 66 73 81 83 73 81 83 73 81 83 73 81 83 73 81 83 73 81 83 73 81 83 73 81 83 73 79 79 75 81 81 77 83 83 80 86 86 84 90 90 87 93 93 89 95 95 91 97 97 96 102 102 94 100 100 92 98 98 89 95 95 85 91 91 82 88 88 80 86 86 78 84 84 72 77 80 70 75 78 65 70 73 58 63 66 52 57 60 45 50 53 40 45 48 38 43 46 11 16 19 11 16 19 11 16 19 11 16 19 11 16 19 11 16 19 11 16 19 9 17 19 12 20 23 11 21 23 11 21 23 11 21 23 11 21 23 11 21 23 11 21 23 11 21 23 22 32 34 22 32 34 22 32 34 22 32 34 22 32 34 22 32 34 22 32 34 22 32 33 27 32 35 27 33 33 27 33 33 27 33 33 27 33 33 27 33 33 27 33 33 27 33 33 20 26 26 20 26 26 20 26 26 20 26 26 20 26 26 20 26 26 20 26 26 21 25 24 32 28 25 33 28 24 33 28 24 33 28 24 33 28 24 33 28 24 33 28 24 33 28 24 34 29 25 34 29 25 34 29 25 34 29 25 34 29 25 34 29 25 34 29 25 34 29 25 38 28 26 38 28 26 38 28 26 38 28 26 38 28 26 38 28 26 38 28 26 38 28 26 40 30 28 40 30 28 40 30 28 40 30 28 40 30 28 40 30 28 40 30 28 40 30 28
