P3
172 37
255
2 1 7 2 1 7 2 1 7 2 1 7 1 0 6 1 0 6 1 0 6 1 0 6 1 0 6 1 0 6 1 0 6 1 0 6 1 0 5 1 0 5 1 0 5 1 0 5 1 0 5 1 0 5 1 0 5 1 0 5 1 0 5 1 0 5 1 0 5 1 0 5 1 0 5 1 0 5 1 0 5 1 0 5 2 1 6 2 1 6 2 1 6 2 1 6 2 1 6 2 1 6 2 1 6 2 1 6 2 1 6 2 1 6 2 1 6 2 1 6 2 1 6 2 1 6 2 1 6 2 1 6 3 2 8 3 2 8 3 2 8 3 2 8 3 2 8 3 2 8 3 2 8 3 2 8 4 3 9 4 3 9 4 3 9 4 3 9 4 3 9 4 3 9 4 3 9 4 3 9 4 3 9 4 3 9 4 3 9 4 3 9 4 3 9 4 3 9 4 3 9 4 3 9 4 3 9 4 3 9 4 3 9 4 3 9 4 3 9 4 3 9 4 3 9 3 4 8 10 14 17 9 15 15 9 15 15 9 15 15 9 15 15 9 15 15 9 15 15 9 15 15 13 19 19 15 21 21 17 23 23 20 26 26 24 30 30 27 33 33 29 35 35 31 37 37 21 25 26 21 25 26 21 25 26 21 25 26 21 25 26 21 25 26 21 25 26 21 25 26 1 5 6 1 5 6 1 5 6 1 5 6 1 5 6 1 5 6 1 5 6 1 5 6 0 4 5 2 6 7 4 8 9 7 11 12 11 15 16 14 18 19 16 20 21 18 22 23 28 32 33 30 34 35 35 39 40 42 46 47 48 52 53 55 59 60 60 64 65 62 66 65 67 69 66 68 70 65 71 73 68 74 76 71 77 79 74 81 83 78 83 85 80 84 86 81 105 107 102 105 107 102 105 107 102 105 107 102 105 107 102 105 107 102 105 107 102 105 107 104 91 89 90 81 79 82 66 64 67 51 49 52 40 38 41 36 34 37 37 35 38 39 37 40 39 37 40 39 37 40 39 37 40 39 37 40 39 37 40 39 37 40 39 37 40 39 37 40 36 34 37 36 34 37 36 34 37 36 34 37 36 34 37 36 34 37 36 34 37 36 34 37 40 38 41 40 38 41 40 38 41 40 38 41 40 38 41 40 38 41 40 38 41 40 38 41
2 1 7 2 1 6 2 1 7 2 1 6 1 0 6 1 0 5 1 0 6 1 0 5 1 0 6 1 0 5 1 0 6 1 0 5 1 0 5 1 0 5 1 0 5 1 0 5 1 0 5 1 0 5 1 0 5 1 0 5 1 0 5 1 0 5 1 0 5 1 0 5 1 0 5 1 0 5 1 0 5 1 0 5 2 1 6 2 1 6 2 1 6 2 1 6 2 1 6 2 1 6 2 1 6 2 1 6 2 1 6 2 1 6 2 1 6 2 1 6 2 1 6 2 1 6 2 1 6 2 1 6 3 2 8 3 2 8 3 2 8 3 2 8 3 2 8 3 2 8 3 2 8 3 2 8 4 3 9 4 3 9 4 3 9 4 3 9 4 3 9 4 3 9 4 3 9 4 3 9 4 3 9 3 4 9 4 3 9 3 4 9 4 3 9 3 4 9 4 3 9 3 4 9 4 3 9 3 4 9 4 3 9 3 4 9 4 3 9 3 4 9 4 3 9 3 4 8 9 14 17 9 15 15 9 14 17 9 15 15 9 14 17 9 15 15 9 14 17 9 15 15 13 18 21 15 21 21 17 22 25 20 26 26 24 29 32 27 33 33 29 34 37 31 37 37 20 25 28 20 26 26 21 25 28 20 26 26 21 25 28 20 26 26 21 25 28 20 26 26 1 5 8 0 6 6 1 5 8 0 6 6 1 5 8 0 6 6 1 5 8 1 5 6 0 4 5 2 6 7 4 8 9 7 11 12 11 15 16 14 18 19 16 20 21 18 22 23 28 32 33 30 34 35 35 39 40 42 46 47 48 52 53 55 59 60 60 64 65 62 66 65 64 69 65 65 70 64 69 71 66 71 76 70 76 78 73 77 82 76 82 84 79 81 86 80 103 105 100 101 106 100 103 105 100 101 106 100 103 105 100 101 106 100 103 105 100 103 105 102 90 90 90 81 79 80 66 64 65 51 49 50 40 38 39 36 34 35 37 35 36 39 37 38 39 37 38 39 37 38 39 37 38 39 37 38 39 37 38 39 37 38 39 37 38 39 37 38 36 34 35 36 34 35 36 34 35 36 34 35 36 34 35 36 34 35 36 34 35 36 34 35 40 38 39 40 38 39 40 38 39 40 38 39 40 38 39 40 38 39 40 38 39 40 38 39
1 0 5 1 1 3 1 0 5 1 1 3 0 0 4 0 0 2 0 0 4 0 0 2 0 0 4 0 0 2 0 0 4 0 0 4 0 0 4 0 0 4 0 0 4 0 0 4 0 0 4 0 0 4 0 0 4 0 0 4 2 1 6 2 1 6 2 1 6 2 1 6 2 1 6 2 1 6 2 1 6 2 1 6 2 1 6 2 1 6 2 1 6 2 1 6 2 1 6 2 1 6 2 1 6 2 1 6 3 2 7 3 2 7 3 2 7 3 2 7 3 2 7 3 2 7 3 2 7 3 2 7 2 1 7 2 1 9 2 1 9 2 1 9 2 1 9 2 1 9 2 1 9 2 1 9 3 2 10 3 2 10 3 2 10 3 2 10 3 2 10 3 2 10 3 2 10 3 2 8 6 7 12 4 8 11 6 7 11 4 8 11 6 7 11 4 8 11 6 7 11 4 8 11 8 9 13 6 10 13 8 9 13 6 10 13 8 9 13 6 10 13 8 9 13 6 10 13 9 14 17 7 15 17 7 15 18 7 15 17 7 15 18 7 15 17 7 15 18 7 15 17 18 26 29 18 26 28 18 26 29 18 26 28 18 26 29 18 26 28 18 26 29 18 26 28 10 18 21 10 18 20 12 17 21 10 18 20 12 17 21 10 18 20 12 17 21 10 18 20 11 16 20 7 15 17 7 12 16 2 10 12 0 5 9 0 3 5 0 1 5 0 1 4 0 2 2 0 2 2 0 3 3 0 6 6 4 10 10 7 13 13 9 15 15 11 17 17 25 31 31 27 33 33 29 35 35 32 38 38 36 42 42 39 45 45 41 47 47 43 49 47 62 68 64 63 70 63 67 72 66 69 76 69 73 78 72 76 83 76 79 84 78 79 86 79 83 88 82 83 90 83 87 92 86 89 96 89 93 98 92 96 103 96 99 104 98 100 105 99 89 89 87 79 79 77 64 64 62 49 49 47 38 38 36 34 34 32 35 35 33 37 37 35 37 37 35 37 37 35 37 37 35 37 37 35 37 37 35 37 37 35 37 37 35 37 37 35 37 36 34 37 36 34 37 36 34 37 36 34 37 36 34 37 36 34 37 36 34 37 36 34 36 35 33 36 35 33 36 35 33 36 35 33 36 35 33 36 35 33 36 35 33 36 35 33
1 1 3 1 1 3 1 1 3 1 1 3 0 0 2 0 0 2 0 0 2 0 0 2 0 0 2 0 0 2 0 0 2 0 0 2 0 0 4 0 0 4 0 0 4 0 0 4 0 0 4 0 0 4 0 0 4 0 0 4 2 1 6 2 1 6 2 1 6 2 1 6 2 1 6 2 1 6 2 1 6 2 1 6 2 1 6 2 1 6 2 1 6 2 1 6 2 1 6 2 1 6 2 1 6 2 1 6 3 2 7 3 2 7 3 2 7 3 2 7 3 2 7 3 2 7 3 2 7 3 2 7 2 1 9 2 1 9 2 1 9 2 1 9 2 1 9 2 1 9 2 1 9 2 1 9 3 2 10 3 2 10 3 2 10 3 2 10 3 2 10 3 2 10 3 2 10 2 3 8 6 7 12 4 8 11 4 8 11 4 8 11 4 8 11 4 8 11 4 8 11 4 8 11 6 10 13 6 10 13 6 10 13 6 10 13 6 10 13 6 10 13 6 10 13 5 10 13 9 14 18 7 15 18 7 15 18 7 15 18 7 15 18 7 15 18 7 15 18 7 15 18 18 26 29 18 26 29 18 26 29 18 26 29 18 26 29 18 26 29 18 26 29 18 26 29 10 18 21 10 18 21 10 18 21 10 18 21 10 18 21 10 18 21 10 18 21 10 18 21 9 17 20 7 15 18 5 13 16 2 10 13 0 6 9 0 3 6 0 2 5 0 2 4 0 1 4 0 2 2 0 3 3 0 6 6 4 10 10 7 13 13 9 15 15 11 17 17 25 31 31 27 33 33 29 35 35 32 38 38 36 42 42 39 45 45 41 47 47 43 49 47 61 67 63 62 69 62 64 71 64 68 75 68 71 78 71 74 81 74 77 84 77 78 85 78 81 88 81 82 89 82 84 91 84 88 95 88 91 98 91 94 101 94 97 104 97 99 104 98 88 90 85 79 80 75 64 65 60 49 50 45 38 39 34 34 35 30 35 36 31 37 38 33 37 38 33 37 38 33 37 38 33 37 38 33 37 38 33 37 38 33 37 38 33 37 38 33 37 36 32 37 36 32 37 36 32 37 36 32 37 36 32 37 36 32 37 36 32 37 36 32 36 35 31 36 35 31 36 35 31 36 35 31 36 35 31 36 35 31 36 35 31 36 35 31
1 1 3 1 1 3 1 1 3 1 1 3 0 0 2 0 0 2 0 0 2 0 0 2 0 0 2 0 0 2 0 0 2 0 0 2 0 0 4 0 0 4 0 0 4 0 0 4 0 0 4 0 0 4 0 0 4 0 0 4 2 1 6 2 1 6 2 1 6 2 1 6 2 1 6 2 1 6 2 1 6 2 1 6 2 1 6 2 1 6 2 1 6 2 1 6 2 1 6 2 1 6 2 1 6 2 1 6 3 2 7 3 2 7 3 2 7 3 2 7 3 2 7 3 2 7 3 2 7 3 2 7 2 1 9 2 1 9 2 1 9 2 1 9 2 1 9 2 1 9 2 1 9 2 1 9 3 2 10 3 2 10 3 2 10 3 2 10 3 2 10 3 2 10 3 2 10 2 3 8 6 7 12 4 8 11 4 8 11 4 8 11 4 8 11 4 8 11 4 8 11 4 8 11 6 10 13 6 10 13 6 10 13 6 10 13 6 10 13 6 10 13 6 10 13 5 10 13 9 14 18 7 15 18 7 15 18 7 15 18 7 15 18 7 15 18 7 15 18 7 15 18 18 26 29 18 26 29 18 26 29 18 26 29 18 26 29 18 26 29 18 26 29 18 26 29 10 18 21 10 18 21 10 18 21 10 18 21 10 18 21 10 18 21 10 18 21 10 18 21 9 17 20 7 15 18 5 13 16 2 10 13 0 6 9 0 3 6 0 2 5 0 2 4 0 1 4 0 2 2 0 3 3 0 6 6 4 10 10 7 13 13 9 15 15 11 17 17 25 31 31 27 33 33 29 35 35 32 38 38 36 42 42 39 45 45 41 47 47 43 49 47 58 64 60 60 67 60 62 69 62 65 72 65 69 76 69 72 79 72 74 81 74 76 83 76 78 85 78 80 87 80 82 89 82 85 92 85 89 96 89 92 99 92 94 101 94 97 102 96 88 90 85 79 80 75 64 65 60 49 50 45 38 39 34 34 35 30 35 36 31 37 38 33 37 38 33 37 38 33 37 38 33 37 38 33 37 38 33 37 38 33 37 38 33 37 38 33 37 36 32 37 36 32 37 36 32 37 36 32 37 36 32 37 36 32 37 36 32 37 36 32 36 35 31 36 35 31 36 35 31 36 35 31 36 35 31 36 35 31 36 35 31 36 35 31
1 1 3 1 1 3 1 1 3 1 1 3 0 0 2 0 0 2 0 0 2 0 0 2 0 0 2 0 0 2 0 0 2 0 0 2 0 0 4 0 0 4 0 0 4 0 0 4 0 0 4 0 0 4 0 0 4 0 0 4 2 1 6 2 1 6 2 1 6 2 1 6 2 1 6 2 1 6 2 1 6 2 1 6 2 1 6 2 1 6 2 1 6 2 1 6 2 1 6 2 1 6 2 1 6 2 1 6 3 2 7 3 2 7 3 2 7 3 2 7 3 2 7 3 2 7 3 2 7 3 2 7 2 1 9 2 1 9 2 1 9 2 1 9 2 1 9 2 1 9 2 1 9 2 1 9 3 2 10 3 2 10 3 2 10 3 2 10 3 2 10 3 2 10 3 2 10 2 3 8 6 7 12 4 8 11 4 8 11 4 8 11 4 8 11 4 8 11 4 8 11 4 8 11 6 10 13 6 10 13 6 10 13 6 10 13 6 10 13 6 10 13 6 10 13 5 10 13 9 14 18 7 15 18 7 15 18 7 15 18 7 15 18 7 15 18 7 15 18 7 15 18 18 26 29 18 26 29 18 26 29 18 26 29 18 26 29 18 26 29 18 26 29 18 26 29 10 18 21 10 18 21 10 18 21 10 18 21 10 18 21 10 18 21 10 18 21 10 18 21 9 17 20 7 15 18 5 13 16 2 10 13 0 6 9 0 3 6 0 2 5 0 2 4 0 1 4 0 2 2 0 3 3 0 6 6 4 10 10 7 13 13 9 15 15 11 17 17 25 31 31 27 33 33 29 35 35 32 38 38 36 42 42 39 45 45 41 47 47 43 49 47 55 61 57 56 63 56 59 66 59 62 69 62 65 72 65 69 76 69 71 78 71 72 79 72 75 82 75 76 83 76 79 86 79 82 89 82 85 92 85 89 96 89 91 98 91 93 98 92 88 90 85 79 80 75 64 65 60 49 50 45 38 39 34 34 35 30 35 36 31 37 38 33 37 38 33 37 38 33 37 38 33 37 38 33 37 38 33 37 38 33 37 38 33 37 38 33 37 36 32 37 36 32 37 36 32 37 36 32 37 36 32 37 36 32 37 36 32 37 36 32 36 35 31 36 35 31 36 35 31 36 35 31 36 35 31 36 35 31 36 35 31 36 35 31
1 1 3 1 1 3 1 1 3 1 1 3 0 0 2 0 0 2 0 0 2 0 0 2 0 0 2 0 0 2 0 0 2 0 0 2 0 0 4 0 0 4 0 0 4 0 0 4 0 0 4 0 0 4 0 0 4 0 0 4 2 1 6 2 1 6 2 1 6 2 1 6 2 1 6 2 1 6 2 1 6 2 1 6 2 1 6 2 1 6 2 1 6 2 1 6 2 1 6 2 1 6 2 1 6 2 1 6 3 2 7 3 2 7 3 2 7 3 2 7 3 2 7 3 2 7 3 2 7 3 2 7 2 1 9 2 1 9 2 1 9 2 1 9 2 1 9 2 1 9 2 1 9 2 1 9 3 2 10 3 2 10 3 2 10 3 2 10 3 2 10 3 2 10 3 2 10 2 3 8 6 7 12 4 8 11 4 8 11 4 8 11 4 8 11 4 8 11 4 8 11 4 8 11 6 10 13 6 10 13 6 10 13 6 10 13 6 10 13 6 10 13 6 10 13 5 10 13 9 14 18 7 15 18 7 15 18 7 15 18 7 15 18 7 15 18 7 15 18 7 15 18 18 26 29 18 26 29 18 26 29 18 26 29 18 26 29 18 26 29 18 26 29 18 26 29 10 18 21 10 18 21 10 18 21 10 18 21 10 18 21 10 18 21 10 18 21 10 18 21 9 17 20 7 15 18 5 13 16 2 10 13 0 6 9 0 3 6 0 2 5 0 2 4 0 1 4 0 2 2 0 3 3 0 6 6 4 10 10 7 13 13 9 15 15 11 17 17 25 31 31 27 33 33 29 35 35 32 38 38 36 42 42 39 45 45 41 47 47 43 49 47 52 58 54 53 60 53 55 62 55 59 66 59 62 69 62 65 72 65 68 75 68 69 76 69 72 79 72 73 80 73 75 82 75 79 86 79 82 89 82 85 92 85 88 95 88 90 95 89 88 90 85 79 80 75 64 65 60 49 50 45 38 39 34 34 35 30 35 36 31 37 38 33 37 38 33 37 38 33 37 38 33 37 38 33 37 38 33 37 38 33 37 38 33 37 38 33 37 36 32 37 36 32 37 36 32 37 36 32 37 36 32 37 36 32 37 36 32 37 36 32 36 35 31 36 35 31 36 35 31 36 35 31 36 35 31 36 35 31 36 35 31 36 35 31
1 1 3 1 1 3 1 1 3 1 1 3 0 0 2 0 0 2 0 0 2 0 0 2 0 0 2 0 0 2 0 0 2 0 0 2 0 0 4 0 0 4 0 0 4 0 0 4 0 0 4 0 0 4 0 0 4 0 0 4 2 1 6 2 1 6 2 1 6 2 1 6 2 1 6 2 1 6 2 1 6 2 1 6 2 1 6 2 1 6 2 1 6 2 1 6 2 1 6 2 1 6 2 1 6 2 1 6 3 2 7 3 2 7 3 2 7 3 2 7 3 2 7 3 2 7 3 2 7 3 2 7 2 1 9 2 1 9 2 1 9 2 1 9 2 1 9 2 1 9 2 1 9 2 1 9 3 2 10 3 2 10 3 2 10 3 2 10 3 2 10 3 2 10 3 2 10 2 3 8 6 7 12 4 8 11 4 8 11 4 8 11 4 8 11 4 8 11 4 8 11 4 8 11 6 10 13 6 10 13 6 10 13 6 10 13 6 10 13 6 10 13 6 10 13 5 10 13 9 14 18 7 15 18 7 15 18 7 15 18 7 15 18 7 15 18 7 15 18 7 15 18 18 26 29 18 26 29 18 26 29 18 26 29 18 26 29 18 26 29 18 26 29 18 26 29 10 18 21 10 18 21 10 18 21 10 18 21 10 18 21 10 18 21 10 18 21 10 18 21 9 17 20 7 15 18 5 13 16 2 10 13 0 6 9 0 3 6 0 2 5 0 2 4 0 1 4 0 2 2 0 3 3 0 6 6 4 10 10 7 13 13 9 15 15 11 17 17 25 31 31 27 33 33 29 35 35 32 38 38 36 42 42 39 45 45 41 47 47 43 49 47 48 54 50 50 57 50 52 59 52 55 62 55 59 66 59 62 69 62 64 71 64 66 73 66 68 75 68 70 77 70 72 79 72 75 82 75 79 86 79 82 89 82 84 91 84 87 92 86 88 90 85 79 80 75 64 65 60 49 50 45 38 39 34 34 35 30 35 36 31 37 38 33 37 38 33 37 38 33 37 38 33 37 38 33 37 38 33 37 38 33 37 38 33 37 38 33 37 36 32 37 36 32 37 36 32 37 36 32 37 36 32 37 36 32 37 36 32 37 36 32 36 35 31 36 35 31 36 35 31 36 35 31 36 35 31 36 35 31 36 35 31 36 35 31
1 1 3 1 1 3 1 1 3 1 1 3 0 0 2 0 0 2 0 0 2 0 0 2 0 0 2 0 0 2 0 0 2 0 0 2 0 0 4 0 0 4 0 0 4 0 0 4 0 0 4 0 0 4 0 0 4 0 0 4 2 1 6 2 1 6 2 1 6 2 1 6 2 1 6 2 1 6 2 1 6 2 1 6 2 1 6 2 1 6 2 1 6 2 1 6 2 1 6 2 1 6 2 1 6 2 1 6 3 2 7 3 2 7 3 2 7 3 2 7 3 2 7 3 2 7 3 2 7 3 2 7 2 1 9 2 1 9 2 1 9 2 1 9 2 1 9 2 1 9 2 1 9 2 1 9 3 2 10 3 2 10 3 2 10 3 2 10 3 2 10 3 2 10 3 2 10 2 3 8 6 7 12 4 8 11 4 8 11 4 8 11 4 8 11 4 8 11 4 8 11 4 8 11 6 10 13 6 10 13 6 10 13 6 10 13 6 10 13 6 10 13 6 10 13 5 10 13 9 14 18 7 15 18 7 15 18 7 15 18 7 15 18 7 15 18 7 15 18 7 15 18 18 26 29 18 26 29 18 26 29 18 26 29 18 26 29 18 26 29 18 26 29 18 26 29 10 18 21 10 18 21 10 18 21 10 18 21 10 18 21 10 18 21 10 18 21 10 18 21 9 17 20 7 15 18 5 13 16 2 10 13 0 6 9 0 3 6 0 2 5 0 2 4 0 1 4 0 2 2 0 3 3 0 6 6 4 10 10 7 13 13 9 15 15 11 17 17 25 31 31 27 33 33 29 35 35 32 38 38 36 42 42 39 45 45 41 47 47 43 49 47 46 52 48 47 54 47 50 57 50 53 60 53 56 63 56 60 67 60 62 69 62 63 70 63 66 73 66 67 74 67 70 77 70 73 80 73 76 83 76 80 87 80 82 89 82 84 89 83 88 90 85 79 80 75 64 65 60 49 50 45 38 39 34 34 35 30 35 36 31 37 38 33 37 38 33 37 38 33 37 38 33 37 38 33 37 38 33 37 38 33 37 38 33 37 38 33 37 36 32 37 36 32 37 36 32 37 36 32 37 36 32 37 36 32 37 36 32 37 36 32 36 35 31 36 35 31 36 35 31 36 35 31 36 35 31 36 35 31 36 35 31 36 35 31
1 1 3 1 1 3 1 1 3 1 1 3 0 0 2 0 0 2 0 0 2 0 0 2 0 0 2 0 0 2 0 0 2 0 0 2 0 0 4 0 0 4 0 0 4 0 0 4 0 0 4 0 0 4 0 0 4 0 0 4 2 1 6 2 1 6 2 1 6 2 1 6 2 1 6 2 1 6 2 1 6 2 1 6 2 1 6 2 1 6 2 1 6 2 1 6 2 1 6 2 1 6 2 1 6 2 1 6 3 2 7 3 2 7 3 2 7 3 2 7 3 2 7 3 2 7 3 2 7 3 2 7 2 1 9 2 1 9 2 1 9 2 1 9 2 1 9 2 1 9 2 1 9 2 1 9 3 2 10 3 2 10 3 2 10 3 2 10 3 2 10 3 2 10 3 2 10 2 3 8 6 7 12 4 8 11 4 8 11 4 8 11 4 8 11 4 8 11 4 8 11 4 8 11 6 10 13 6 10 13 6 10 13 6 10 13 6 10 13 6 10 13 6 10 13 5 10 13 9 14 18 7 15 18 7 15 18 7 15 18 7 15 18 7 15 18 7 15 18 7 15 18 18 26 29 18 26 29 18 26 29 18 26 29 18 26 29 18 26 29 18 26 29 18 26 29 10 18 21 10 18 21 10 18 21 10 18 21 10 18 21 10 18 21 10 18 21 10 18 21 9 17 20 7 15 18 5 13 16 2 10 13 0 6 9 0 3 6 0 2 5 0 2 4 0 1 4 0 2 2 0 3 3 0 6 6 4 10 10 7 13 13 9 15 15 11 17 17 25 31 31 27 33 33 29 35 35 32 38 38 36 42 42 39 45 45 41 47 47 43 49 47 45 51 47 46 53 46 48 55 48 52 59 52 55 62 55 58 65 58 61 68 61 62 69 62 65 72 65 66 73 66 68 75 68 72 79 72 75 82 75 78 85 78 81 88 81 83 88 82 88 90 85 79 80 75 64 65 60 49 50 45 38 39 34 34 35 30 35 36 31 37 38 33 37 38 33 37 38 33 37 38 33 37 38 33 37 38 33 37 38 33 37 38 33 37 38 33 37 36 32 37 36 32 37 36 32 37 36 32 37 36 32 37 36 32 37 36 32 37 36 32 36 35 31 36 35 31 36 35 31 36 35 31 36 35 31 36 35 31 36 35 31 36 35 31
0 0 2 0 0 2 0 0 2 0 0 2 1 1 3 1 1 3 1 1 3 1 1 3 1 1 3 1 1 3 1 1 3 1 1 3 1 0 5 1 0 5 1 0 5 1 0 5 1 0 5 1 0 5 1 0 5 1 0 5 1 0 5 1 0 5 1 0 5 1 0 5 1 0 5 1 0 5 1 0 5 1 0 5 0 0 4 0 0 4 0 0 4 0 0 4 0 0 4 0 0 4 0 0 4 0 0 4 1 0 5 1 0 5 1 0 5 1 0 5 1 0 5 1 0 5 1 0 5 1 0 5 2 1 9 2 1 9 2 1 9 2 1 9 2 1 9 2 1 9 2 1 9 2 1 9 3 2 10 3 2 10 3 2 10 3 2 10 3 2 10 3 2 10 3 2 10 2 3 8 6 7 12 4 8 11 4 8 11 4 8 11 4 8 11 4 8 11 4 8 11 4 8 11 8 12 15 8 12 15 8 12 15 8 12 15 8 12 15 8 12 15 8 12 15 7 12 15 15 20 24 13 21 24 13 21 24 13 21 24 13 21 24 13 21 24 13 21 24 13 21 24 15 23 26 15 23 26 15 23 26 15 23 26 15 23 26 15 23 26 15 23 26 15 23 26 29 37 40 28 36 39 25 33 36 22 30 33 19 27 30 15 23 26 13 21 24 12 20 23 11 19 22 9 17 20 7 15 18 4 12 15 0 8 11 0 5 8 0 3 6 0 2 4 1 6 9 1 7 7 1 7 7 1 7 7 1 7 7 1 7 7 1 7 7 1 7 7 15 21 21 17 23 23 19 25 25 22 28 28 26 32 32 29 35 35 31 37 37 33 39 37 48 54 50 49 56 49 52 59 52 55 62 55 58 65 58 62 69 62 64 71 64 65 72 65 70 77 70 70 77 70 70 77 70 70 77 70 70 77 70 70 77 70 70 77 70 71 76 70 62 64 59 61 62 57 56 57 52 49 50 45 43 44 39 36 37 32 31 32 27 29 30 25 31 32 27 31 32 27 31 32 27 31 32 27 31 32 27 31 32 27 31 32 27 31 32 27 31 30 26 31 30 26 31 30 26 31 30 26 31 30 26 31 30 26 31 30 26 31 30 26 35 34 30 35 34 30 35 34 30 35 34 30 35 34 30 35 34 30 35 34 30 35 34 30
0 0 2 0 0 2 0 0 2 0 0 2 1 1 3 1 1 3 1 1 3 1 1 3 1 1 3 1 1 3 1 1 3 1 1 3 1 0 5 1 0 5 1 0 5 1 0 5 1 0 5 1 0 5 1 0 5 1 0 5 1 0 5 1 0 5 1 0 5 1 0 5 1 0 5 1 0 5 1 0 5 1 0 5 0 0 4 0 0 4 0 0 4 0 0 4 0 0 4 0 0 4 0 0 4 0 0 4 1 0 5 1 0 5 1 0 5 1 0 5 1 0 5 1 0 5 1 0 5 1 0 5 2 1 9 2 1 9 2 1 9 2 1 9 2 1 9 2 1 9 2 1 9 2 1 9 3 2 10 3 2 10 3 2 10 3 2 10 3 2 10 3 2 10 3 2 10 2 3 8 6 7 12 4 8 11 4 8 11 4 8 11 4 8 11 4 8 11 4 8 11 4 8 11 8 12 15 8 12 15 8 12 15 8 12 15 8 12 15 8 12 15 8 12 15 7 12 15 15 20 24 13 21 24 13 21 24 13 21 24 13 21 24 13 21 24 13 21 24 13 21 24 17 25 28 17 25 28 17 25 28 17 25 28 17 25 28 17 25 28 17 25 28 17 25 28 30 38 41 29 37 40 27 35 38 23 31 34 20 28 31 17 25 28 14 22 25 13 21 24 11 19 22 9 17 20 7 15 18 4 12 15 0 8 11 0 5 8 0 3 6 0 2 4 1 6 9 1 7 7 1 7 7 1 7 7 1 7 7 1 7 7 1 7 7 1 7 7 15 21 21 17 23 23 19 25 25 22 28 28 26 32 32 29 35 35 31 37 37 33 39 37 47 53 49 48 55 48 50 57 50 54 61 54 57 64 57 60 67 60 63 70 63 64 71 64 68 75 68 68 75 68 68 75 68 68 75 68 68 75 68 68 75 68 68 75 68 69 74 68 62 64 59 61 62 57 56 57 52 49 50 45 43 44 39 36 37 32 31 32 27 29 30 25 31 32 27 31 32 27 31 32 27 31 32 27 31 32 27 31 32 27 31 32 27 31 32 27 31 30 26 31 30 26 31 30 26 31 30 26 31 30 26 31 30 26 31 30 26 31 30 26 35 34 30 35 34 30 35 34 30 35 34 30 35 34 30 35 34 30 35 34 30 35 34 30
0 0 2 0 0 2 0 0 2 0 0 2 1 1 3 1 1 3 1 1 3 1 1 3 1 1 3 1 1 3 1 1 3 1 1 3 1 0 5 1 0 5 1 0 5 1 0 5 1 0 5 1 0 5 1 0 5 1 0 5 1 0 5 1 0 5 1 0 5 1 0 5 1 0 5 1 0 5 1 0 5 1 0 5 0 0 4 0 0 4 0 0 4 0 0 4 0 0 4 0 0 4 0 0 4 0 0 4 1 0 5 1 0 5 1 0 5 1 0 5 1 0 5 1 0 5 1 0 5 1 0 5 2 1 9 2 1 9 2 1 9 2 1 9 2 1 9 2 1 9 2 1 9 2 1 9 3 2 10 3 2 10 3 2 10 3 2 10 3 2 10 3 2 10 3 2 10 2 3 8 6 7 12 4 8 11 4 8 11 4 8 11 4 8 11 4 8 11 4 8 11 4 8 11 8 12 15 8 12 15 8 12 15 8 12 15 8 12 15 8 12 15 8 12 15 7 12 15 15 20 24 13 21 24 13 21 24 13 21 24 13 21 24 13 21 24 13 21 24 13 21 24 22 30 33 22 30 33 22 30 33 22 30 33 22 30 33 22 30 33 22 30 33 22 30 33 33 41 44 31 39 42 29 37 40 26 34 37 22 30 33 19 27 30 17 25 28 15 23 26 11 19 22 9 17 20 7 15 18 4 12 15 0 8 11 0 5 8 0 3 6 0 2 4 1 6 9 1 7 7 1 7 7 1 7 7 1 7 7 1 7 7 1 7 7 1 7 7 15 21 21 17 23 23 19 25 25 22 28 28 26 32 32 29 35 35 31 37 37 33 39 37 44 50 46 46 53 46 48 55 48 51 58 51 55 62 55 58 65 58 60 67 60 62 69 62 66 73 66 66 73 66 66 73 66 66 73 66 66 73 66 66 73 66 66 73 66 67 72 66 62 64 59 61 62 57 56 57 52 49 50 45 43 44 39 36 37 32 31 32 27 29 30 25 31 32 27 31 32 27 31 32 27 31 32 27 31 32 27 31 32 27 31 32 27 31 32 27 31 30 26 31 30 26 31 30 26 31 30 26 31 30 26 31 30 26 31 30 26 31 30 26 35 34 30 35 34 30 35 34 30 35 34 30 35 34 30 35 34 30 35 34 30 35 34 30
0 0 2 0 0 2 0 0 2 0 0 2 1 1 3 1 1 3 1 1 3 1 1 3 1 1 3 1 1 3 1 1 3 1 1 3 1 0 5 1 0 5 1 0 5 1 0 5 1 0 5 1 0 5 1 0 5 1 0 5 1 0 5 1 0 5 1 0 5 1 0 5 1 0 5 1 0 5 1 0 5 1 0 5 0 0 4 0 0 4 0 0 4 0 0 4 0 0 4 0 0 4 0 0 4 0 0 4 1 0 5 1 0 5 1 0 5 1 0 5 1 0 5 1 0 5 1 0 5 1 0 5 2 1 9 2 1 9 2 1 9 2 1 9 2 1 9 2 1 9 2 1 9 2 1 9 3 2 10 3 2 10 3 2 10 3 2 10 3 2 10 3 2 10 3 2 10 2 3 8 6 7 12 4 8 11 4 8 11 4 8 11 4 8 11 4 8 11 4 8 11 4 8 11 8 12 15 8 12 15 8 12 15 8 12 15 8 12 15 8 12 15 8 12 15 7 12 15 15 20 24 13 21 24 13 21 24 13 21 24 13 21 24 13 21 24 13 21 24 13 21 24 29 37 40 29 37 40 29 37 40 29 37 40 29 37 40 29 37 40 29 37 40 29 37 40 36 44 47 35 43 46 32 40 43 29 37 40 26 34 37 22 30 33 20 28 31 19 27 30 11 19 22 9 17 20 7 15 18 4 12 15 0 8 11 0 5 8 0 3 6 0 2 4 1 6 9 1 7 7 1 7 7 1 7 7 1 7 7 1 7 7 1 7 7 1 7 7 15 21 21 17 23 23 19 25 25 22 28 28 26 32 32 29 35 35 31 37 37 33 39 37 41 47 43 42 49 42 45 52 45 48 55 48 51 58 51 55 62 55 57 64 57 58 65 58 63 70 63 63 70 63 63 70 63 63 70 63 63 70 63 63 70 63 63 70 63 64 69 63 62 64 59 61 62 57 56 57 52 49 50 45 43 44 39 36 37 32 31 32 27 29 30 25 31 32 27 31 32 27 31 32 27 31 32 27 31 32 27 31 32 27 31 32 27 31 32 27 31 30 26 31 30 26 31 30 26 31 30 26 31 30 26 31 30 26 31 30 26 31 30 26 35 34 30 35 34 30 35 34 30 35 34 30 35 34 30 35 34 30 35 34 30 35 34 30
0 0 2 0 0 2 0 0 2 0 0 2 1 1 3 1 1 3 1 1 3 1 1 3 1 1 3 1 1 3 1 1 3 1 1 3 1 0 5 1 0 5 1 0 5 1 0 5 1 0 5 1 0 5 1 0 5 1 0 5 1 0 5 1 0 5 1 0 5 1 0 5 1 0 5 1 0 5 1 0 5 1 0 5 0 0 4 0 0 4 0 0 4 0 0 4 0 0 4 0 0 4 0 0 4 0 0 4 1 0 5 1 0 5 1 0 5 1 0 5 1 0 5 1 0 5 1 0 5 1 0 5 2 1 9 2 1 9 2 1 9 2 1 9 2 1 9 2 1 9 2 1 9 2 1 9 3 2 10 3 2 10 3 2 10 3 2 10 3 2 10 3 2 10 3 2 10 2 3 8 6 7 12 4 8 11 4 8 11 4 8 11 4 8 11 4 8 11 4 8 11 4 8 11 8 12 15 8 12 15 8 12 15 8 12 15 8 12 15 8 12 15 8 12 15 7 12 15 15 20 24 13 21 24 13 21 24 13 21 24 13 21 24 13 21 24 13 21 24 13 21 24 35 43 46 35 43 46 35 43 46 35 43 46 35 43 46 35 43 46 35 43 46 35 43 46 39 47 50 38 46 49 36 44 47 32 40 43 29 37 40 26 34 37 23 31 34 22 30 33 11 19 22 9 17 20 7 15 18 4 12 15 0 8 11 0 5 8 0 3 6 0 2 4 1 6 9 1 7 7 1 7 7 1 7 7 1 7 7 1 7 7 1 7 7 1 7 7 15 21 21 17 23 23 19 25 25 22 28 28 26 32 32 29 35 35 31 37 37 33 39 37 38 44 40 39 46 39 41 48 41 45 52 45 48 55 48 51 58 51 54 61 54 55 62 55 59 66 59 59 66 59 59 66 59 59 66 59 59 66 59 59 66 59 59 66 59 60 65 59 62 64 59 61 62 57 56 57 52 49 50 45 43 44 39 36 37 32 31 32 27 29 30 25 31 32 27 31 32 27 31 32 27 31 32 27 31 32 27 31 32 27 31 32 27 31 32 27 31 30 26 31 30 26 31 30 26 31 30 26 31 30 26 31 30 26 31 30 26 31 30 26 35 34 30 35 34 30 35 34 30 35 34 30 35 34 30 35 34 30 35 34 30 35 34 30
0 0 2 0 0 2 0 0 2 0 0 2 1 1 3 1 1 3 1 1 3 1 1 3 1 1 3 1 1 3 1 1 3 1 1 3 1 0 5 1 0 5 1 0 5 1 0 5 1 0 5 1 0 5 1 0 5 1 0 5 1 0 5 1 0 5 1 0 5 1 0 5 1 0 5 1 0 5 1 0 5 1 0 5 0 0 4 0 0 4 0 0 4 0 0 4 0 0 4 0 0 4 0 0 4 0 0 4 1 0 5 1 0 5 1 0 5 1 0 5 1 0 5 1 0 5 1 0 5 1 0 5 2 1 9 2 1 9 2 1 9 2 1 9 2 1 9 2 1 9 2 1 9 2 1 9 3 2 10 3 2 10 3 2 10 3 2 10 3 2 10 3 2 10 3 2 10 2 3 8 6 7 12 4 8 11 4 8 11 4 8 11 4 8 11 4 8 11 4 8 11 4 8 11 8 12 15 8 12 15 8 12 15 8 12 15 8 12 15 8 12 15 8 12 15 7 12 15 15 20 24 13 21 24 13 21 24 13 21 24 13 21 24 13 21 24 13 21 24 13 21 24 42 50 53 42 50 53 42 50 53 42 50 53 42 50 53 42 50 53 42 50 53 42 50 53 43 51 54 41 49 52 39 47 50 36 44 47 32 40 43 29 37 40 27 35 38 25 33 36 11 19 22 9 17 20 7 15 18 4 12 15 0 8 11 0 5 8 0 3 6 0 2 4 1 6 9 1 7 7 1 7 7 1 7 7 1 7 7 1 7 7 1 7 7 1 7 7 15 21 21 17 23 23 19 25 25 22 28 28 26 32 32 29 35 35 31 37 37 33 39 37 34 40 36 36 43 36 38 45 38 41 48 41 45 52 45 48 55 48 50 57 50 52 59 52 56 63 56 56 63 56 56 63 56 56 63 56 56 63 56 56 63 56 56 63 56 57 62 56 62 64 59 61 62 57 56 57 52 49 50 45 43 44 39 36 37 32 31 32 27 29 30 25 31 32 27 31 32 27 31 32 27 31 32 27 31 32 27 31 32 27 31 32 27 31 32 27 31 30 26 31 30 26 31 30 26 31 30 26 31 30 26 31 30 26 31 30 26 31 30 26 35 34 30 35 34 30 35 34 30 35 34 30 35 34 30 35 34 30 35 34 30 35 34 30
0 0 2 0 0 2 0 0 2 0 0 2 1 1 3 1 1 3 1 1 3 1 1 3 1 1 3 1 1 3 1 1 3 1 1 3 1 0 5 1 0 5 1 0 5 1 0 5 1 0 5 1 0 5 1 0 5 1 0 5 1 0 5 1 0 5 1 0 5 1 0 5 1 0 5 1 0 5 1 0 5 1 0 5 0 0 4 0 0 4 0 0 4 0 0 4 0 0 4 0 0 4 0 0 4 0 0 4 1 0 5 1 0 5 1 0 5 1 0 5 1 0 5 1 0 5 1 0 5 1 0 5 2 1 9 2 1 9 2 1 9 2 1 9 2 1 9 2 1 9 2 1 9 2 1 9 3 2 10 3 2 10 3 2 10 3 2 10 3 2 10 3 2 10 3 2 10 2 3 8 6 7 12 4 8 11 4 8 11 4 8 11 4 8 11 4 8 11 4 8 11 4 8 11 8 12 15 8 12 15 8 12 15 8 12 15 8 12 15 8 12 15 8 12 15 7 12 15 15 20 24 13 21 24 13 21 24 13 21 24 13 21 24 13 21 24 13 21 24 13 21 24 47 55 58 47 55 58 47 55 58 47 55 58 47 55 58 47 55 58 47 55 58 47 55 58 45 53 56 44 52 55 41 49 52 38 46 49 35 43 46 31 39 42 29 37 40 28 36 39 11 19 22 9 17 20 7 15 18 4 12 15 0 8 11 0 5 8 0 3 6 0 2 4 1 6 9 1 7 7 1 7 7 1 7 7 1 7 7 1 7 7 1 7 7 1 7 7 15 21 21 17 23 23 19 25 25 22 28 28 26 32 32 29 35 35 31 37 37 33 39 37 32 38 34 33 40 33 36 43 36 39 46 39 42 49 42 46 53 46 48 55 48 49 56 49 54 61 54 54 61 54 54 61 54 54 61 54 54 61 54 54 61 54 54 61 54 55 60 54 62 64 59 61 62 57 56 57 52 49 50 45 43 44 39 36 37 32 31 32 27 29 30 25 31 32 27 31 32 27 31 32 27 31 32 27 31 32 27 31 32 27 31 32 27 31 32 27 31 30 26 31 30 26 31 30 26 31 30 26 31 30 26 31 30 26 31 30 26 31 30 26 35 34 30 35 34 30 35 34 30 35 34 30 35 34 30 35 34 30 35 34 30 35 34 30
0 0 2 0 0 2 0 0 2 0 0 2 1 1 3 1 1 3 1 1 3 1 1 3 1 1 3 1 1 3 1 1 3 1 1 3 1 1 3 1 1 3 1 0 5 1 1 3 1 0 5 1 1 3 1 0 5 1 1 3 1 0 5 1 1 3 1 0 5 1 1 3 1 0 5 1 1 3 1 0 5 1 0 5 0 0 4 0 0 4 0 0 4 0 0 4 0 0 4 0 0 4 0 0 4 0 0 4 1 0 5 1 0 5 1 0 5 1 0 5 1 0 5 1 0 5 1 0 5 1 0 5 2 1 7 2 1 7 2 1 9 2 1 7 2 1 9 2 1 7 2 1 9 2 1 7 3 2 10 3 2 8 3 2 10 3 2 8 3 2 10 3 2 8 3 2 10 2 3 8 4 8 11 4 8 11 4 8 11 4 8 11 4 8 11 4 8 11 4 8 11 4 8 11 8 12 15 8 12 15 8 12 15 8 12 15 8 12 15 8 12 15 8 12 15 7 12 15 15 20 23 13 21 23 13 21 24 13 21 23 13 21 24 13 21 23 13 21 24 13 21 23 49 57 60 49 57 59 49 57 60 49 57 59 49 57 60 49 57 59 49 57 60 49 57 59 46 54 57 45 53 55 43 51 54 39 47 49 36 44 47 33 41 43 30 38 41 29 37 39 11 19 22 9 17 19 7 15 18 4 12 14 0 8 11 0 5 7 0 3 6 0 2 4 1 7 7 1 7 7 1 7 7 1 7 7 1 7 7 1 7 7 1 7 7 1 7 7 15 21 21 17 23 23 19 25 25 22 28 28 26 32 32 29 35 35 31 37 37 33 39 37 31 37 33 32 39 32 34 40 36 38 45 38 41 47 43 44 51 44 47 53 49 48 55 48 52 58 54 52 59 52 52 58 54 52 59 52 52 58 54 52 59 52 52 58 54 53 58 52 62 64 59 61 62 57 56 57 52 49 50 45 43 44 39 36 37 32 31 32 27 29 30 25 31 32 27 31 32 27 31 32 27 31 32 27 31 32 27 31 32 27 31 32 27 32 31 27 31 30 26 31 30 26 33 29 26 31 30 26 33 29 26 31 30 26 33 29 26 31 30 26 37 33 30 35 34 30 37 33 30 35 34 30 37 33 30 35 34 30 37 33 30 35 34 30
0 0 0 0 0 0 0 0 0 0 0 0 0 0 0 0 0 0 0 0 0 0 0 0 0 0 0 0 0 0 0 0 0 0 0 0 0 0 0 0 0 0 0 0 2 0 0 0 0 0 2 0 0 0 0 0 2 0 0 0 1 1 3 1 1 1 1 1 3 1 1 1 1 1 3 1 1 1 1 1 3 1 1 3 0 0 2 0 0 2 0 0 2 0 0 2 0 0 2 0 0 2 0 0 2 0 0 2 0 0 2 0 0 2 0 0 2 0 0 2 0 0 2 0 0 2 0 0 2 0 0 4 2 1 6 2 1 6 2 1 7 2 1 6 2 1 7 2 1 6 2 1 7 2 1 6 3 2 8 3 2 7 3 2 8 3 2 7 3 2 8 3 2 7 3 2 8 2 3 7 4 8 11 3 8 11 3 8 11 3 8 11 3 8 11 3 8 11 3 8 11 3 8 11 11 16 19 11 16 19 11 16 19 11 16 19 11 16 19 11 16 19 11 16 19 11 16 19 0 4 7 0 4 4 0 4 7 4 10 10 17 22 25 34 40 40 51 56 59 61 67 67 89 94 97 85 91 91 78 83 86 69 75 75 58 63 66 49 55 55 41 46 49 37 43 43 54 62 64 52 61 60 50 58 60 47 56 55 43 51 53 40 49 48 38 46 48 36 45 44 18 26 28 16 25 24 14 22 24 11 20 19 7 15 17 4 13 12 2 10 12 0 9 8 0 8 7 0 8 7 0 8 7 0 8 7 0 8 7 0 8 7 0 8 7 0 8 7 9 18 17 11 20 19 13 22 21 16 25 24 20 29 28 23 32 31 25 34 33 27 36 35 34 43 40 34 43 38 34 43 40 34 43 38 34 43 40 34 43 38 34 43 40 34 43 38 42 51 48 42 51 46 42 51 48 42 51 46 42 51 48 42 51 46 42 51 48 44 50 46 48 48 46 47 46 44 45 44 42 42 41 39 38 37 35 35 34 32 33 32 30 31 30 28 30 29 27 30 29 27 30 29 27 30 29 27 30 29 27 30 29 27 30 29 27 30 29 27 33 29 26 33 29 26 34 29 26 33 29 26 34 29 26 33 29 26 34 29 26 33 29 26 36 31 28 35 31 28 36 31 28 35 31 28 36 31 28 35 31 28 36 31 28 35 31 28
0 0 0 0 0 0 0 0 0 0 0 0 0 0 0 0 0 0 0 0 0 0 0 0 0 0 0 0 0 0 0 0 0 0 0 0 0 0 0 0 0 0 0 0 0 0 0 0 0 0 0 0 0 0 0 0 0 0 0 0 1 1 1 1 1 1 1 1 1 1 1 1 1 1 1 1 1 1 1 1 1 1 1 1 0 0 2 0 0 2 0 0 2 0 0 2 0 0 2 0 0 2 0 0 2 0 0 2 0 0 2 0 0 2 0 0 2 0 0 2 0 0 2 0 0 2 0 0 2 0 0 2 2 1 6 2 1 6 2 1 6 2 1 6 2 1 6 2 1 6 2 1 6 2 1 6 3 2 7 3 2 7 3 2 7 3 2 7 3 2 7 3 2 7 3 2 7 2 3 7 4 8 11 3 8 11 3 8 11 3 8 11 3 8 11 3 8 11 3 8 11 3 8 11 11 16 19 11 16 19 11 16 19 11 16 19 11 16 19 11 16 19 11 16 19 11 16 19 2 8 8 1 7 7 3 9 9 9 15 15 23 29 29 40 46 46 58 64 64 68 74 74 99 105 105 95 101 101 88 94 94 78 84 84 68 74 74 58 64 64 51 57 57 47 53 53 54 63 62 52 61 60 50 59 58 47 56 55 43 52 51 40 49 48 38 47 46 36 45 44 18 27 26 16 25 24 14 23 22 11 20 19 7 16 15 4 13 12 2 11 10 0 9 8 0 8 7 0 8 7 0 8 7 0 8 7 0 8 7 0 8 7 0 8 7 0 8 7 9 18 17 11 20 19 13 22 21 16 25 24 20 29 28 23 32 31 25 34 33 27 36 35 34 43 40 34 43 40 34 43 40 34 43 40 34 43 40 34 43 40 34 43 40 34 43 40 42 51 48 42 51 48 42 51 48 42 51 48 42 51 48 42 51 48 42 51 48 44 50 48 48 48 46 47 46 44 45 44 42 42 41 39 38 37 35 35 34 32 33 32 30 31 30 28 30 29 27 30 29 27 30 29 27 30 29 27 30 29 27 30 29 27 30 29 27 30 29 27 34 29 26 34 29 26 34 29 26 34 29 26 34 29 26 34 29 26 34 29 26 34 29 26 36 31 28 36 31 28 36 31 28 36 31 28 36 31 28 36 31 28 36 31 28 36 31 28
0 0 0 0 0 0 0 0 0 0 0 0 0 0 0 0 0 0 0 0 0 0 0 0 0 0 0 0 0 0 0 0 0 0 0 0 0 0 0 0 0 0 0 0 0 0 0 0 0 0 0 0 0 0 0 0 0 0 0 0 1 1 1 1 1 1 1 1 1 1 1 1 1 1 1 1 1 1 1 1 1 1 1 1 0 0 2 0 0 2 0 0 2 0 0 2 0 0 2 0 0 2 0 0 2 0 0 2 0 0 2 0 0 2 0 0 2 0 0 2 0 0 2 0 0 2 0 0 2 0 0 2 2 1 6 2 1 6 2 1 6 2 1 6 2 1 6 2 1 6 2 1 6 2 1 6 3 2 7 3 2 7 3 2 7 3 2 7 3 2 7 3 2 7 3 2 7 2 3 7 4 8 11 3 8 11 3 8 11 3 8 11 3 8 11 3 8 11 3 8 11 3 8 11 11 16 19 11 16 19 11 16 19 11 16 19 11 16 19 11 16 19 11 16 19 11 16 19 8 14 14 8 14 14 11 17 17 18 24 24 33 39 39 52 58 58 70 76 76 82 88 88 114 120 120 110 116 116 103 109 109 93 99 99 83 89 89 74 80 80 66 72 72 62 68 68 54 63 62 52 61 60 50 59 58 47 56 55 43 52 51 40 49 48 38 47 46 36 45 44 18 27 26 16 25 24 14 23 22 11 20 19 7 16 15 4 13 12 2 11 10 0 9 8 0 8 7 0 8 7 0 8 7 0 8 7 0 8 7 0 8 7 0 8 7 0 8 7 9 18 17 11 20 19 13 22 21 16 25 24 20 29 28 23 32 31 25 34 33 27 36 35 34 43 40 34 43 40 34 43 40 34 43 40 34 43 40 34 43 40 34 43 40 34 43 40 42 51 48 42 51 48 42 51 48 42 51 48 42 51 48 42 51 48 42 51 48 44 50 48 48 48 46 47 46 44 45 44 42 42 41 39 38 37 35 35 34 32 33 32 30 31 30 28 30 29 27 30 29 27 30 29 27 30 29 27 30 29 27 30 29 27 30 29 27 30 29 27 34 29 26 34 29 26 34 29 26 34 29 26 34 29 26 34 29 26 34 29 26 34 29 26 36 31 28 36 31 28 36 31 28 36 31 28 36 31 28 36 31 28 36 31 28 36 31 28
0 0 0 0 0 0 0 0 0 0 0 0 0 0 0 0 0 0 0 0 0 0 0 0 0 0 0 0 0 0 0 0 0 0 0 0 0 0 0 0 0 0 0 0 0 0 0 0 0 0 0 0 0 0 0 0 0 0 0 0 1 1 1 1 1 1 1 1 1 1 1 1 1 1 1 1 1 1 1 1 1 1 1 1 0 0 2 0 0 2 0 0 2 0 0 2 0 0 2 0 0 2 0 0 2 0 0 2 0 0 2 0 0 2 0 0 2 0 0 2 0 0 2 0 0 2 0 0 2 0 0 2 2 1 6 2 1 6 2 1 6 2 1 6 2 1 6 2 1 6 2 1 6 2 1 6 3 2 7 3 2 7 3 2 7 3 2 7 3 2 7 3 2 7 3 2 7 2 3 7 4 8 11 3 8 11 3 8 11 3 8 11 3 8 11 3 8 11 3 8 11 3 8 11 11 16 19 11 16 19 11 16 19 11 16 19 11 16 19 11 16 19 11 16 19 11 16 19 17 23 23 17 23 23 21 27 27 30 36 36 47 53 53 67 73 73 87 93 93 99 105 105 129 135 135 126 132 132 118 124 124 109 115 115 98 104 104 89 95 95 81 87 87 77 83 83 54 63 62 52 61 60 50 59 58 47 56 55 43 52 51 40 49 48 38 47 46 36 45 44 18 27 26 16 25 24 14 23 22 11 20 19 7 16 15 4 13 12 2 11 10 0 9 8 0 8 7 0 8 7 0 8 7 0 8 7 0 8 7 0 8 7 0 8 7 0 8 7 9 18 17 11 20 19 13 22 21 16 25 24 20 29 28 23 32 31 25 34 33 27 36 35 34 43 40 34 43 40 34 43 40 34 43 40 34 43 40 34 43 40 34 43 40 34 43 40 42 51 48 42 51 48 42 51 48 42 51 48 42 51 48 42 51 48 42 51 48 44 50 48 48 48 46 47 46 44 45 44 42 42 41 39 38 37 35 35 34 32 33 32 30 31 30 28 30 29 27 30 29 27 30 29 27 30 29 27 30 29 27 30 29 27 30 29 27 30 29 27 34 29 26 34 29 26 34 29 26 34 29 26 34 29 26 34 29 26 34 29 26 34 29 26 36 31 28 36 31 28 36 31 28 36 31 28 36 31 28 36 31 28 36 31 28 36 31 28
0 0 0 0 0 0 0 0 0 0 0 0 0 0 0 0 0 0 0 0 0 0 0 0 0 0 0 0 0 0 0 0 0 0 0 0 0 0 0 0 0 0 0 0 0 0 0 0 0 0 0 0 0 0 0 0 0 0 0 0 1 1 1 1 1 1 1 1 1 1 1 1 1 1 1 1 1 1 1 1 1 1 1 1 0 0 2 0 0 2 0 0 2 0 0 2 0 0 2 0 0 2 0 0 2 0 0 2 0 0 2 0 0 2 0 0 2 0 0 2 0 0 2 0 0 2 0 0 2 0 0 2 2 1 6 2 1 6 2 1 6 2 1 6 2 1 6 2 1 6 2 1 6 2 1 6 3 2 7 3 2 7 3 2 7 3 2 7 3 2 7 3 2 7 3 2 7 2 3 7 4 8 11 3 8 11 3 8 11 3 8 11 3 8 11 3 8 11 3 8 11 3 8 11 11 16 19 11 16 19 11 16 19 11 16 19 11 16 19 11 16 19 11 16 19 11 16 19 26 32 32 27 33 33 32 38 38 43 49 49 61 67 67 84 90 90 105 111 111 117 123 123 140 146 146 136 142 142 129 135 135 119 125 125 109 115 115 99 105 105 92 98 98 88 94 94 54 63 62 52 61 60 50 59 58 47 56 55 43 52 51 40 49 48 38 47 46 36 45 44 18 27 26 16 25 24 14 23 22 11 20 19 7 16 15 4 13 12 2 11 10 0 9 8 0 8 7 0 8 7 0 8 7 0 8 7 0 8 7 0 8 7 0 8 7 0 8 7 9 18 17 11 20 19 13 22 21 16 25 24 20 29 28 23 32 31 25 34 33 27 36 35 34 43 40 34 43 40 34 43 40 34 43 40 34 43 40 34 43 40 34 43 40 34 43 40 42 51 48 42 51 48 42 51 48 42 51 48 42 51 48 42 51 48 42 51 48 44 50 48 48 48 46 47 46 44 45 44 42 42 41 39 38 37 35 35 34 32 33 32 30 31 30 28 30 29 27 30 29 27 30 29 27 30 29 27 30 29 27 30 29 27 30 29 27 30 29 27 34 29 26 34 29 26 34 29 26 34 29 26 34 29 26 34 29 26 34 29 26 34 29 26 36 31 28 36 31 28 36 31 28 36 31 28 36 31 28 36 31 28 36 31 28 36 31 28
0 0 0 0 0 0 0 0 0 0 0 0 0 0 0 0 0 0 0 0 0 0 0 0 0 0 0 0 0 0 0 0 0 0 0 0 0 0 0 0 0 0 0 0 0 0 0 0 0 0 0 0 0 0 0 0 0 0 0 0 1 1 1 1 1 1 1 1 1 1 1 1 1 1 1 1 1 1 1 1 1 1 1 1 0 0 2 0 0 2 0 0 2 0 0 2 0 0 2 0 0 2 0 0 2 0 0 2 0 0 2 0 0 2 0 0 2 0 0 2 0 0 2 0 0 2 0 0 2 0 0 2 2 1 6 2 1 6 2 1 6 2 1 6 2 1 6 2 1 6 2 1 6 2 1 6 3 2 7 3 2 7 3 2 7 3 2 7 3 2 7 3 2 7 3 2 7 2 3 7 4 8 11 3 8 11 3 8 11 3 8 11 3 8 11 3 8 11 3 8 11 3 8 11 11 16 19 11 16 19 11 16 19 11 16 19 11 16 19 11 16 19 11 16 19 11 16 19 34 40 40 36 42 42 42 48 48 55 61 61 75 81 81 99 105 105 121 127 127 134 140 140 144 150 150 140 146 146 132 138 138 123 129 129 113 119 119 103 109 109 96 102 102 92 98 98 54 63 62 52 61 60 50 59 58 47 56 55 43 52 51 40 49 48 38 47 46 36 45 44 18 27 26 16 25 24 14 23 22 11 20 19 7 16 15 4 13 12 2 11 10 0 9 8 0 8 7 0 8 7 0 8 7 0 8 7 0 8 7 0 8 7 0 8 7 0 8 7 9 18 17 11 20 19 13 22 21 16 25 24 20 29 28 23 32 31 25 34 33 27 36 35 34 43 40 34 43 40 34 43 40 34 43 40 34 43 40 34 43 40 34 43 40 34 43 40 42 51 48 42 51 48 42 51 48 42 51 48 42 51 48 42 51 48 42 51 48 44 50 48 48 48 46 47 46 44 45 44 42 42 41 39 38 37 35 35 34 32 33 32 30 31 30 28 30 29 27 30 29 27 30 29 27 30 29 27 30 29 27 30 29 27 30 29 27 30 29 27 34 29 26 34 29 26 34 29 26 34 29 26 34 29 26 34 29 26 34 29 26 34 29 26 36 31 28 36 31 28 36 31 28 36 31 28 36 31 28 36 31 28 36 31 28 36 31 28
0 0 0 0 0 0 0 0 0 0 0 0 0 0 0 0 0 0 0 0 0 0 0 0 0 0 0 0 0 0 0 0 0 0 0 0 0 0 0 0 0 0 0 0 0 0 0 0 0 0 0 0 0 0 0 0 0 0 0 0 1 1 1 1 1 1 1 1 1 1 1 1 1 1 1 1 1 1 1 1 1 1 1 1 0 0 2 0 0 2 0 0 2 0 0 2 0 0 2 0 0 2 0 0 2 0 0 2 0 0 2 0 0 2 0 0 2 0 0 2 0 0 2 0 0 2 0 0 2 0 0 2 2 1 6 2 1 6 2 1 6 2 1 6 2 1 6 2 1 6 2 1 6 2 1 6 3 2 7 3 2 7 3 2 7 3 2 7 3 2 7 3 2 7 3 2 7 2 3 7 4 8 11 3 8 11 3 8 11 3 8 11 3 8 11 3 8 11 3 8 11 3 8 11 11 16 19 11 16 19 11 16 19 11 16 19 11 16 19 11 16 19 11 16 19 11 16 19 41 47 47 43 49 49 50 56 56 64 70 70 85 91 91 111 117 117 134 140 140 148 154 154 143 149 149 139 145 145 132 138 138 122 128 128 112 118 118 102 108 108 95 101 101 91 97 97 54 63 62 52 61 60 50 59 58 47 56 55 43 52 51 40 49 48 38 47 46 36 45 44 18 27 26 16 25 24 14 23 22 11 20 19 7 16 15 4 13 12 2 11 10 0 9 8 0 8 7 0 8 7 0 8 7 0 8 7 0 8 7 0 8 7 0 8 7 0 8 7 9 18 17 11 20 19 13 22 21 16 25 24 20 29 28 23 32 31 25 34 33 27 36 35 34 43 40 34 43 40 34 43 40 34 43 40 34 43 40 34 43 40 34 43 40 34 43 40 42 51 48 42 51 48 42 51 48 42 51 48 42 51 48 42 51 48 42 51 48 44 50 48 48 48 46 47 46 44 45 44 42 42 41 39 38 37 35 35 34 32 33 32 30 31 30 28 30 29 27 30 29 27 30 29 27 30 29 27 30 29 27 30 29 27 30 29 27 30 29 27 34 29 26 34 29 26 34 29 26 34 29 26 34 29 26 34 29 26 34 29 26 34 29 26 36 31 28 36 31 28 36 31 28 36 31 28 36 31 28 36 31 28 36 31 28 36 31 28
0 0 0 0 0 0 0 0 0 0 0 0 0 0 0 0 0 0 0 0 0 0 0 0 0 0 0 0 0 0 0 0 0 0 0 0 0 0 0 0 0 0 0 0 0 0 0 0 0 0 0 0 0 0 0 0 0 0 0 0 1 1 1 1 1 1 1 1 1 1 1 1 1 1 1 1 1 1 1 1 1 1 1 1 0 0 2 0 0 2 0 0 2 0 0 2 0 0 2 0 0 2 0 0 2 0 0 2 0 0 2 0 0 2 0 0 2 0 0 2 0 0 2 0 0 2 0 0 2 0 0 2 2 1 6 2 1 6 2 1 6 2 1 6 2 1 6 2 1 6 2 1 6 2 1 6 3 2 7 3 2 7 3 2 7 3 2 7 3 2 7 3 2 7 3 2 7 2 3 7 4 8 11 3 8 11 3 8 11 3 8 11 3 8 11 3 8 11 3 8 11 3 8 11 11 16 19 11 16 19 11 16 19 11 16 19 11 16 19 11 16 19 11 16 19 11 16 19 44 50 50 47 53 53 54 60 60 69 75 75 91 97 97 117 123 123 141 147 147 155 161 161 141 147 147 137 143 143 130 136 136 121 127 127 110 116 116 101 107 107 93 99 99 89 95 95 54 63 62 52 61 60 50 59 58 47 56 55 43 52 51 40 49 48 38 47 46 36 45 44 18 27 26 16 25 24 14 23 22 11 20 19 7 16 15 4 13 12 2 11 10 0 9 8 0 8 7 0 8 7 0 8 7 0 8 7 0 8 7 0 8 7 0 8 7 0 8 7 9 18 17 11 20 19 13 22 21 16 25 24 20 29 28 23 32 31 25 34 33 27 36 35 34 43 40 34 43 40 34 43 40 34 43 40 34 43 40 34 43 40 34 43 40 34 43 40 42 51 48 42 51 48 42 51 48 42 51 48 42 51 48 42 51 48 42 51 48 44 50 48 48 48 46 47 46 44 45 44 42 42 41 39 38 37 35 35 34 32 33 32 30 31 30 28 30 29 27 30 29 27 30 29 27 30 29 27 30 29 27 30 29 27 30 29 27 30 29 27 34 29 26 34 29 26 34 29 26 34 29 26 34 29 26 34 29 26 34 29 26 34 29 26 36 31 28 36 31 28 36 31 28 36 31 28 36 31 28 36 31 28 36 31 28 36 31 28
0 0 0 0 0 0 0 0 0 0 0 0 0 0 0 0 0 0 0 0 0 0 0 0 0 0 0 0 0 0 0 0 0 0 0 0 0 0 0 0 0 0 0 0 0 0 0 0 0 0 0 0 0 0 0 0 0 0 0 0 0 0 0 0 0 0 0 0 0 0 0 0 0 0 0 0 0 0 0 0 0 0 0 0 0 0 2 0 0 2 0 0 2 0 0 2 0 0 2 0 0 2 0 0 2 0 0 2 0 0 2 0 0 2 0 0 2 0 0 2 0 0 2 0 0 2 0 0 2 0 0 2 1 0 5 1 0 5 1 0 5 1 0 5 1 0 5 1 0 5 1 0 5 1 0 5 4 3 8 4 3 8 4 3 8 4 3 8 4 3 8 4 3 8 4 3 8 3 4 8 8 12 15 7 12 15 7 12 15 7 12 15 7 12 15 7 12 15 7 12 15 7 12 15 0 2 5 0 4 7 3 8 11 9 14 17 14 19 22 19 24 27 23 28 31 25 30 33 61 67 67 73 79 79 94 100 100 116 122 122 134 140 140 145 151 151 149 155 155 150 156 156 116 122 122 119 125 125 122 128 128 121 127 127 115 121 121 103 109 109 90 96 96 81 87 87 67 76 75 65 74 73 60 69 68 53 62 61 47 56 55 40 49 48 35 44 43 33 42 41 21 30 29 19 28 27 17 26 25 14 23 22 10 19 18 7 16 15 5 14 13 3 12 11 6 15 14 6 15 14 6 15 14 6 15 14 6 15 14 6 15 14 6 15 14 6 15 14 17 26 25 17 26 25 17 26 25 17 26 25 17 26 25 17 26 25 17 26 25 17 26 25 25 34 31 25 34 31 25 34 31 25 34 31 25 34 31 25 34 31 25 34 31 25 34 31 28 37 34 28 37 34 28 37 34 28 37 34 28 37 34 28 37 34 28 37 34 30 36 34 30 30 28 31 30 28 31 30 28 31 30 28 31 30 28 31 30 28 31 30 28 31 30 28 29 28 26 29 28 26 29 28 26 29 28 26 29 28 26 29 28 26 29 28 26 29 28 26 33 28 25 33 28 25 33 28 25 33 28 25 33 28 25 33 28 25 33 28 25 33 28 25 35 30 27 35 30 27 35 30 27 35 30 27 35 30 27 35 30 27 35 30 27 35 30 27
0 0 0 0 0 0 0 0 0 0 0 0 0 0 0 0 0 0 0 0 0 0 0 0 0 0 0 0 0 0 0 0 0 0 0 0 0 0 0 0 0 0 0 0 0 0 0 0 0 0 0 0 0 0 0 0 0 0 0 0 0 0 0 0 0 0 0 0 0 0 0 0 0 0 0 0 0 0 0 0 0 0 0 0 0 0 2 0 0 2 0 0 2 0 0 2 0 0 2 0 0 2 0 0 2 0 0 2 0 0 2 0 0 2 0 0 2 0 0 2 0 0 2 0 0 2 0 0 2 0 0 2 1 0 5 1 0 5 1 0 5 1 0 5 1 0 5 1 0 5 1 0 5 1 0 5 4 3 8 4 3 8 4 3 8 4 3 8 4 3 8 4 3 8 4 3 8 3 4 8 8 12 15 7 12 15 7 12 15 7 12 15 7 12 15 7 12 15 7 12 15 7 12 15 1 6 9 3 8 11 8 13 16 13 18 21 20 25 28 26 31 34 30 35 38 32 37 40 73 79 79 84 90 90 101 107 107 120 126 126 133 139 139 140 146 146 141 147 147 141 147 147 117 123 123 120 126 126 123 129 129 123 129 129 116 122 122 104 110 110 91 97 97 83 89 89 67 76 75 65 74 73 60 69 68 53 62 61 47 56 55 40 49 48 35 44 43 33 42 41 21 30 29 19 28 27 17 26 25 14 23 22 10 19 18 7 16 15 5 14 13 3 12 11 6 15 14 6 15 14 6 15 14 6 15 14 6 15 14 6 15 14 6 15 14 6 15 14 17 26 25 17 26 25 17 26 25 17 26 25 17 26 25 17 26 25 17 26 25 17 26 25 25 34 31 25 34 31 25 34 31 25 34 31 25 34 31 25 34 31 25 34 31 25 34 31 28 37 34 28 37 34 28 37 34 28 37 34 28 37 34 28 37 34 28 37 34 30 36 34 30 30 28 31 30 28 31 30 28 31 30 28 31 30 28 31 30 28 31 30 28 31 30 28 29 28 26 29 28 26 29 28 26 29 28 26 29 28 26 29 28 26 29 28 26 29 28 26 33 28 25 33 28 25 33 28 25 33 28 25 33 28 25 33 28 25 33 28 25 33 28 25 35 30 27 35 30 27 35 30 27 35 30 27 35 30 27 35 30 27 35 30 27 35 30 27
0 0 0 0 0 0 0 0 0 0 0 0 0 0 0 0 0 0 0 0 0 0 0 0 0 0 0 0 0 0 0 0 0 0 0 0 0 0 0 0 0 0 0 0 0 0 0 0 0 0 0 0 0 0 0 0 0 0 0 0 0 0 0 0 0 0 0 0 0 0 0 0 0 0 0 0 0 0 0 0 0 0 0 0 0 0 2 0 0 2 0 0 2 0 0 2 0 0 2 0 0 2 0 0 2 0 0 2 0 0 2 0 0 2 0 0 2 0 0 2 0 0 2 0 0 2 0 0 2 0 0 2 1 0 5 1 0 5 1 0 5 1 0 5 1 0 5 1 0 5 1 0 5 1 0 5 4 3 8 4 3 8 4 3 8 4 3 8 4 3 8 4 3 8 4 3 8 3 4 8 8 12 15 7 12 15 7 12 15 7 12 15 7 12 15 7 12 15 7 12 15 7 12 15 7 12 15 10 15 18 15 20 23 23 28 31 30 35 38 37 42 45 43 48 51 46 51 54 92 98 98 100 106 106 113 119 119 125 131 131 132 138 138 133 139 139 130 136 136 127 133 133 120 126 126 123 129 129 126 132 132 125 131 131 118 124 124 106 112 112 93 99 99 85 91 91 67 76 75 65 74 73 60 69 68 53 62 61 47 56 55 40 49 48 35 44 43 33 42 41 21 30 29 19 28 27 17 26 25 14 23 22 10 19 18 7 16 15 5 14 13 3 12 11 6 15 14 6 15 14 6 15 14 6 15 14 6 15 14 6 15 14 6 15 14 6 15 14 17 26 25 17 26 25 17 26 25 17 26 25 17 26 25 17 26 25 17 26 25 17 26 25 25 34 31 25 34 31 25 34 31 25 34 31 25 34 31 25 34 31 25 34 31 25 34 31 28 37 34 28 37 34 28 37 34 28 37 34 28 37 34 28 37 34 28 37 34 30 36 34 30 30 28 31 30 28 31 30 28 31 30 28 31 30 28 31 30 28 31 30 28 31 30 28 29 28 26 29 28 26 29 28 26 29 28 26 29 28 26 29 28 26 29 28 26 29 28 26 33 28 25 33 28 25 33 28 25 33 28 25 33 28 25 33 28 25 33 28 25 33 28 25 35 30 27 35 30 27 35 30 27 35 30 27 35 30 27 35 30 27 35 30 27 35 30 27
0 0 0 0 0 0 0 0 0 0 0 0 0 0 0 0 0 0 0 0 0 0 0 0 0 0 0 0 0 0 0 0 0 0 0 0 0 0 0 0 0 0 0 0 0 0 0 0 0 0 0 0 0 0 0 0 0 0 0 0 0 0 0 0 0 0 0 0 0 0 0 0 0 0 0 0 0 0 0 0 0 0 0 0 0 0 2 0 0 2 0 0 2 0 0 2 0 0 2 0 0 2 0 0 2 0 0 2 0 0 2 0 0 2 0 0 2 0 0 2 0 0 2 0 0 2 0 0 2 0 0 2 1 0 5 1 0 5 1 0 5 1 0 5 1 0 5 1 0 5 1 0 5 1 0 5 4 3 8 4 3 8 4 3 8 4 3 8 4 3 8 4 3 8 4 3 8 3 4 8 8 12 15 7 12 15 7 12 15 7 12 15 7 12 15 7 12 15 7 12 15 7 12 15 15 20 23 19 24 27 26 31 34 34 39 42 44 49 52 52 57 60 59 64 67 63 68 71 108 114 114 115 121 121 124 130 130 131 137 137 133 139 139 129 135 135 122 128 128 117 123 123 123 129 129 126 132 132 129 135 135 128 134 134 121 127 127 109 115 115 97 103 103 88 94 94 67 76 75 65 74 73 60 69 68 53 62 61 47 56 55 40 49 48 35 44 43 33 42 41 21 30 29 19 28 27 17 26 25 14 23 22 10 19 18 7 16 15 5 14 13 3 12 11 6 15 14 6 15 14 6 15 14 6 15 14 6 15 14 6 15 14 6 15 14 6 15 14 17 26 25 17 26 25 17 26 25 17 26 25 17 26 25 17 26 25 17 26 25 17 26 25 25 34 31 25 34 31 25 34 31 25 34 31 25 34 31 25 34 31 25 34 31 25 34 31 28 37 34 28 37 34 28 37 34 28 37 34 28 37 34 28 37 34 28 37 34 30 36 34 30 30 28 31 30 28 31 30 28 31 30 28 31 30 28 31 30 28 31 30 28 31 30 28 29 28 26 29 28 26 29 28 26 29 28 26 29 28 26 29 28 26 29 28 26 29 28 26 33 28 25 33 28 25 33 28 25 33 28 25 33 28 25 33 28 25 33 28 25 33 28 25 35 30 27 35 30 27 35 30 27 35 30 27 35 30 27 35 30 27 35 30 27 35 30 27
0 0 0 0 0 0 0 0 0 0 0 0 0 0 0 0 0 0 0 0 0 0 0 0 0 0 0 0 0 0 0 0 0 0 0 0 0 0 0 0 0 0 0 0 0 0 0 0 0 0 0 0 0 0 0 0 0 0 0 0 0 0 0 0 0 0 0 0 0 0 0 0 0 0 0 0 0 0 0 0 0 0 0 0 0 0 2 0 0 2 0 0 2 0 0 2 0 0 2 0 0 2 0 0 2 0 0 2 0 0 2 0 0 2 0 0 2 0 0 2 0 0 2 0 0 2 0 0 2 0 0 2 1 0 5 1 0 5 1 0 5 1 0 5 1 0 5 1 0 5 1 0 5 1 0 5 4 3 8 4 3 8 4 3 8 4 3 8 4 3 8 4 3 8 4 3 8 3 4 8 8 12 15 7 12 15 7 12 15 7 12 15 7 12 15 7 12 15 7 12 15 7 12 15 25 30 33 29 34 37 37 42 45 47 52 55 59 64 67 69 74 77 77 82 85 81 86 89 117 123 123 122 128 128 130 136 136 135 141 141 135 141 141 129 135 135 121 127 127 116 122 122 126 132 132 129 135 135 133 139 139 132 138 138 125 131 131 113 119 119 100 106 106 92 98 98 67 76 75 65 74 73 60 69 68 53 62 61 47 56 55 40 49 48 35 44 43 33 42 41 21 30 29 19 28 27 17 26 25 14 23 22 10 19 18 7 16 15 5 14 13 3 12 11 6 15 14 6 15 14 6 15 14 6 15 14 6 15 14 6 15 14 6 15 14 6 15 14 17 26 25 17 26 25 17 26 25 17 26 25 17 26 25 17 26 25 17 26 25 17 26 25 25 34 31 25 34 31 25 34 31 25 34 31 25 34 31 25 34 31 25 34 31 25 34 31 28 37 34 28 37 34 28 37 34 28 37 34 28 37 34 28 37 34 28 37 34 30 36 34 30 30 28 31 30 28 31 30 28 31 30 28 31 30 28 31 30 28 31 30 28 31 30 28 29 28 26 29 28 26 29 28 26 29 28 26 29 28 26 29 28 26 29 28 26 29 28 26 33 28 25 33 28 25 33 28 25 33 28 25 33 28 25 33 28 25 33 28 25 33 28 25 35 30 27 35 30 27 35 30 27 35 30 27 35 30 27 35 30 27 35 30 27 35 30 27
0 0 0 0 0 0 0 0 0 0 0 0 0 0 0 0 0 0 0 0 0 0 0 0 0 0 0 0 0 0 0 0 0 0 0 0 0 0 0 0 0 0 0 0 0 0 0 0 0 0 0 0 0 0 0 0 0 0 0 0 0 0 0 0 0 0 0 0 0 0 0 0 0 0 0 0 0 0 0 0 0 0 0 0 0 0 2 0 0 2 0 0 2 0 0 2 0 0 2 0 0 2 0 0 2 0 0 2 0 0 2 0 0 2 0 0 2 0 0 2 0 0 2 0 0 2 0 0 2 0 0 2 1 0 5 1 0 5 1 0 5 1 0 5 1 0 5 1 0 5 1 0 5 1 0 5 4 3 8 4 3 8 4 3 8 4 3 8 4 3 8 4 3 8 4 3 8 3 4 8 8 12 15 7 12 15 7 12 15 7 12 15 7 12 15 7 12 15 7 12 15 7 12 15 33 38 41 38 43 46 47 52 55 59 64 67 72 77 80 84 89 92 93 98 101 98 103 106 115 121 121 121 127 127 131 137 137 138 144 144 139 145 145 135 141 141 128 134 134 123 129 129 130 136 136 133 139 139 136 142 142 135 141 141 128 134 134 116 122 122 103 109 109 95 101 101 67 76 75 65 74 73 60 69 68 53 62 61 47 56 55 40 49 48 35 44 43 33 42 41 21 30 29 19 28 27 17 26 25 14 23 22 10 19 18 7 16 15 5 14 13 3 12 11 6 15 14 6 15 14 6 15 14 6 15 14 6 15 14 6 15 14 6 15 14 6 15 14 17 26 25 17 26 25 17 26 25 17 26 25 17 26 25 17 26 25 17 26 25 17 26 25 25 34 31 25 34 31 25 34 31 25 34 31 25 34 31 25 34 31 25 34 31 25 34 31 28 37 34 28 37 34 28 37 34 28 37 34 28 37 34 28 37 34 28 37 34 30 36 34 30 30 28 31 30 28 31 30 28 31 30 28 31 30 28 31 30 28 31 30 28 31 30 28 29 28 26 29 28 26 29 28 26 29 28 26 29 28 26 29 28 26 29 28 26 29 28 26 33 28 25 33 28 25 33 28 25 33 28 25 33 28 25 33 28 25 33 28 25 33 28 25 35 30 27 35 30 27 35 30 27 35 30 27 35 30 27 35 30 27 35 30 27 35 30 27
0 0 0 0 0 0 0 0 0 0 0 0 0 0 0 0 0 0 0 0 0 0 0 0 0 0 0 0 0 0 0 0 0 0 0 0 0 0 0 0 0 0 0 0 0 0 0 0 0 0 0 0 0 0 0 0 0 0 0 0 0 0 0 0 0 0 0 0 0 0 0 0 0 0 0 0 0 0 0 0 0 0 0 0 0 0 2 0 0 2 0 0 2 0 0 2 0 0 2 0 0 2 0 0 2 0 0 2 0 0 2 0 0 2 0 0 2 0 0 2 0 0 2 0 0 2 0 0 2 0 0 2 1 0 5 1 0 5 1 0 5 1 0 5 1 0 5 1 0 5 1 0 5 1 0 5 4 3 8 4 3 8 4 3 8 4 3 8 4 3 8 4 3 8 4 3 8 3 4 8 8 12 15 7 12 15 7 12 15 7 12 15 7 12 15 7 12 15 7 12 15 7 12 15 39 44 47 45 50 53 55 60 63 68 73 76 83 88 91 96 101 104 106 111 114 112 117 120 108 114 114 116 122 122 128 134 134 138 144 144 144 150 150 143 149 149 139 145 145 135 141 141 132 138 138 135 141 141 138 144 144 137 143 143 131 137 137 119 125 125 106 112 112 97 103 103 67 76 75 65 74 73 60 69 68 53 62 61 47 56 55 40 49 48 35 44 43 33 42 41 21 30 29 19 28 27 17 26 25 14 23 22 10 19 18 7 16 15 5 14 13 3 12 11 6 15 14 6 15 14 6 15 14 6 15 14 6 15 14 6 15 14 6 15 14 6 15 14 17 26 25 17 26 25 17 26 25 17 26 25 17 26 25 17 26 25 17 26 25 17 26 25 25 34 31 25 34 31 25 34 31 25 34 31 25 34 31 25 34 31 25 34 31 25 34 31 28 37 34 28 37 34 28 37 34 28 37 34 28 37 34 28 37 34 28 37 34 30 36 34 30 30 28 31 30 28 31 30 28 31 30 28 31 30 28 31 30 28 31 30 28 31 30 28 29 28 26 29 28 26 29 28 26 29 28 26 29 28 26 29 28 26 29 28 26 29 28 26 33 28 25 33 28 25 33 28 25 33 28 25 33 28 25 33 28 25 33 28 25 33 28 25 35 30 27 35 30 27 35 30 27 35 30 27 35 30 27 35 30 27 35 30 27 35 30 27
0 0 0 0 0 0 0 0 0 0 0 0 0 0 0 0 0 0 0 0 0 0 0 0 0 0 0 0 0 0 0 0 0 0 0 0 0 0 0 0 0 0 0 0 0 0 0 0 0 0 0 0 0 0 0 0 0 0 0 0 0 0 0 0 0 0 0 0 0 0 0 0 0 0 0 0 0 0 0 0 0 0 0 0 0 0 2 0 0 2 0 0 2 0 0 2 0 0 2 0 0 2 0 0 2 0 0 2 0 0 2 0 0 2 0 0 2 0 0 2 0 0 2 0 0 2 0 0 2 0 0 2 0 1 5 0 1 5 0 1 5 0 1 5 0 1 5 0 1 5 0 1 5 0 1 5 3 4 8 3 4 8 3 4 8 3 4 8 3 4 8 3 4 8 3 4 8 3 4 8 7 12 15 7 12 15 7 12 15 7 12 15 7 12 15 7 12 15 7 12 15 7 12 15 43 48 51 48 53 56 59 64 67 73 78 81 88 93 96 102 107 110 113 118 121 119 125 125 102 108 108 111 117 117 125 131 131 138 144 144 146 152 152 148 154 154 146 152 152 144 150 150 133 139 139 136 142 142 139 145 145 139 145 145 132 138 138 120 126 126 107 113 113 99 105 105 69 75 75 65 74 73 60 69 68 53 62 61 47 56 55 40 49 48 35 44 43 33 42 41 21 30 29 19 28 27 17 26 25 14 23 22 10 19 18 7 16 15 5 14 13 3 12 11 6 15 14 6 15 14 6 14 16 6 15 14 6 14 16 6 15 14 6 14 16 6 15 14 17 25 27 17 26 25 17 25 27 17 26 25 17 25 27 17 26 25 17 25 27 17 26 25 25 34 33 25 34 31 25 34 33 25 34 31 25 34 33 25 34 31 25 34 33 25 34 31 28 37 36 28 37 34 28 37 36 28 37 34 28 37 36 28 37 34 28 37 36 30 36 34 30 30 28 31 30 28 33 29 28 31 30 28 33 29 28 31 30 28 33 29 28 31 30 28 31 27 26 29 28 26 31 27 26 29 28 26 31 27 26 29 28 26 31 27 26 31 27 26 33 28 25 33 28 25 33 28 25 33 28 25 33 28 25 33 28 25 33 28 25 33 28 25 35 30 27 35 30 27 35 30 27 35 30 27 35 30 27 35 30 27 35 30 27 35 30 27
0 0 0 0 0 0 0 0 0 0 0 0 0 0 0 0 0 0 0 0 0 0 0 0 0 0 0 0 0 0 0 0 0 0 0 0 0 0 0 0 0 0 0 0 0 0 0 0 0 0 0 0 0 0 0 0 0 0 0 0 0 0 0 0 0 0 0 0 0 0 0 0 0 0 0 0 0 0 0 0 0 0 0 0 1 1 1 1 1 1 1 1 1 1 1 1 1 1 1 1 1 1 1 1 1 1 1 1 1 1 1 1 1 1 1 1 1 1 1 1 1 1 1 1 1 1 1 1 1 0 1 3 0 2 5 0 2 5 0 2 5 0 2 5 0 2 5 0 2 5 0 2 5 0 2 5 5 9 12 4 8 11 3 7 10 2 6 9 1 5 8 0 3 6 0 3 6 0 2 5 7 13 13 7 16 15 12 21 20 19 28 27 25 34 33 32 41 40 37 46 45 39 48 47 57 66 65 61 70 69 69 78 77 80 89 88 92 101 100 103 112 111 111 120 119 117 123 123 143 149 149 144 148 147 144 148 147 144 148 147 144 148 147 144 148 147 144 148 147 144 148 147 136 140 139 133 137 136 127 131 130 120 124 123 112 116 115 104 108 107 98 102 101 94 100 98 85 91 89 81 87 85 74 80 78 64 70 68 54 60 58 44 50 48 37 43 41 33 39 37 14 20 18 14 20 18 14 20 18 14 20 18 14 20 18 14 20 18 14 20 18 12 21 20 9 17 19 8 18 19 8 18 20 8 18 19 8 18 20 8 18 19 8 18 20 8 18 19 5 15 17 7 17 18 9 19 21 12 22 23 16 26 28 19 29 30 21 31 33 23 33 34 22 30 32 22 31 30 22 30 32 22 31 30 22 30 32 22 31 30 22 30 32 22 31 30 20 28 30 20 29 28 20 28 30 20 29 28 20 28 30 20 29 28 20 28 30 23 27 28 27 25 26 29 25 24 30 24 24 29 25 24 30 24 24 29 25 24 30 24 24 29 25 24 32 26 26 31 27 26 32 26 26 31 27 26 32 26 26 31 27 26 32 26 26 32 26 26 34 29 26 36 28 25 36 28 25 36 28 25 36 28 25 36 28 25 36 28 25 36 28 25 36 28 25 36 28 25 36 28 25 36 28 25 36 28 25 36 28 25 36 28 25 36 28 25
0 0 0 0 0 0 0 0 0 0 0 0 0 0 0 0 0 0 0 0 0 0 0 0 0 0 0 0 0 0 0 0 0 0 0 0 0 0 0 0 0 0 0 0 0 0 0 0 0 0 0 0 0 0 0 0 0 0 0 0 0 0 0 0 0 0 0 0 0 0 0 0 0 0 0 0 0 0 0 0 0 0 0 0 1 1 1 1 1 1 1 1 1 1 1 1 1 1 1 1 1 1 1 1 1 1 1 1 1 1 1 1 1 1 1 1 1 1 1 1 1 1 1 1 1 1 1 1 1 0 2 1 0 2 5 0 2 5 0 2 5 0 2 5 0 2 5 0 2 5 0 2 5 0 2 5 3 8 11 3 8 11 3 8 11 2 7 10 1 6 9 1 6 9 0 5 8 0 5 8 9 18 17 11 20 19 16 25 24 22 31 30 29 38 37 36 45 44 41 50 49 43 52 51 62 71 70 67 76 75 74 83 82 84 93 92 95 104 103 106 115 114 113 122 121 117 126 125 144 148 147 144 148 147 144 148 147 144 148 147 144 148 147 144 148 147 144 148 147 144 148 147 137 141 140 134 138 137 129 133 132 122 126 125 115 119 118 108 112 111 102 106 105 99 103 102 89 95 93 85 91 89 78 84 82 68 74 72 58 64 62 48 54 52 41 47 45 37 43 41 16 22 20 16 22 20 16 22 20 16 22 20 16 22 20 16 22 20 16 22 20 14 23 22 9 17 19 8 18 20 8 18 20 8 18 20 8 18 20 8 18 20 8 18 20 8 18 20 5 15 17 7 17 19 9 19 21 12 22 24 16 26 28 19 29 31 21 31 33 23 33 35 22 30 32 22 30 32 22 30 32 22 30 32 22 30 32 22 30 32 22 30 32 22 30 32 20 28 30 20 28 30 20 28 30 20 28 30 20 28 30 20 28 30 20 28 30 23 27 28 27 25 26 30 24 24 30 24 24 30 24 24 30 24 24 30 24 24 30 24 24 30 24 24 32 26 26 32 26 26 32 26 26 32 26 26 32 26 26 32 26 26 32 26 26 32 27 24 36 28 26 36 28 25 36 28 25 36 28 25 36 28 25 36 28 25 36 28 25 36 28 25 36 28 25 36 28 25 36 28 25 36 28 25 36 28 25 36 28 25 36 28 25 36 28 25
0 0 0 0 0 0 0 0 0 0 0 0 0 0 0 0 0 0 0 0 0 0 0 0 0 0 0 0 0 0 0 0 0 0 0 0 0 0 0 0 0 0 0 0 0 0 0 0 0 0 0 0 0 0 0 0 0 0 0 0 0 0 0 0 0 0 0 0 0 0 0 0 0 0 0 0 0 0 0 0 0 0 0 0 1 1 1 1 1 1 1 1 1 1 1 1 1 1 1 1 1 1 1 1 1 1 1 1 1 1 1 1 1 1 1 1 1 1 1 1 1 1 1 1 1 1 1 1 1 0 2 1 0 2 5 0 2 5 0 2 5 0 2 5 0 2 5 0 2 5 0 2 5 0 2 5 2 7 10 3 8 11 3 8 11 4 9 12 4 9 12 5 10 13 6 11 14 6 11 14 16 25 24 19 28 27 23 32 31 30 39 38 37 46 45 43 52 51 48 57 56 51 60 59 73 82 81 77 86 85 84 93 92 92 101 100 102 111 110 111 120 119 118 127 126 121 130 129 144 148 147 144 148 147 144 148 147 144 148 147 144 148 147 144 148 147 144 148 147 144 148 147 139 143 142 136 140 139 132 136 135 126 130 129 120 124 123 114 118 117 110 114 113 108 112 111 96 102 100 92 98 96 85 91 89 75 81 79 65 71 69 56 62 60 48 54 52 44 50 48 18 24 22 18 24 22 18 24 22 18 24 22 18 24 22 18 24 22 18 24 22 16 25 24 9 17 19 8 18 20 8 18 20 8 18 20 8 18 20 8 18 20 8 18 20 8 18 20 5 15 17 7 17 19 9 19 21 12 22 24 16 26 28 19 29 31 21 31 33 23 33 35 22 30 32 22 30 32 22 30 32 22 30 32 22 30 32 22 30 32 22 30 32 22 30 32 20 28 30 20 28 30 20 28 30 20 28 30 20 28 30 20 28 30 20 28 30 23 27 28 27 25 26 30 24 24 30 24 24 30 24 24 30 24 24 30 24 24 30 24 24 30 24 24 32 26 26 32 26 26 32 26 26 32 26 26 32 26 26 32 26 26 32 26 26 32 27 24 36 28 26 36 28 25 36 28 25 36 28 25 36 28 25 36 28 25 36 28 25 36 28 25 36 28 25 36 28 25 36 28 25 36 28 25 36 28 25 36 28 25 36 28 25 36 28 25
