P3
172 37
255
133 118 139 133 118 139 133 118 139 133 118 139 122 107 128 122 107 128 122 107 128 122 107 128 122 107 128 122 107 128 122 107 128 122 107 128 114 96 118 113 95 117 111 93 115 107 89 111 104 86 108 101 83 105 98 80 102 97 79 101 103 85 107 99 81 103 91 73 95 81 63 85 70 52 74 60 42 64 52 34 56 46 31 52 17 8 25 15 8 24 13 6 22 11 4 20 8 1 17 5 0 14 3 0 12 3 0 12 9 2 18 9 2 18 9 2 18 9 2 18 9 2 18 9 2 18 9 2 18 7 3 18 8 4 19 7 5 19 7 5 19 7 5 19 7 5 19 7 5 19 7 5 19 7 5 19 8 6 20 8 6 20 8 6 20 8 6 20 8 6 20 8 6 20 8 6 20 8 6 19 7 7 19 7 7 17 7 7 17 7 7 17 7 7 17 7 7 17 7 7 17 7 7 17 8 8 18 8 8 18 8 8 18 8 8 18 8 8 18 8 8 18 8 8 18 6 9 18 8 11 20 7 11 20 7 11 20 7 11 20 7 11 20 7 11 20 7 11 20 7 11 20 8 12 21 8 12 21 8 12 21 8 12 21 8 12 21 8 12 21 8 12 21 8 13 19 13 16 23 13 16 21 13 16 21 13 16 21 13 16 21 13 16 21 13 16 21 13 16 21 26 29 34 23 26 31 18 21 26 11 14 19 3 6 11 0 0 5 0 0 5 0 1 4 5 9 12 5 9 10 5 9 10 5 9 10 5 9 10 5 9 10 5 9 10 5 9 10 18 22 23 20 24 25 25 29 30 32 36 37 38 42 43 45 49 50 50 54 55 52 56 57 58 62 61 59 63 62 62 66 65 65 69 68 68 72 71 72 76 75 74 78 77 75 79 78 93 97 96 94 98 97 97 101 100 100 104 103 103 107 106 107 111 110 109 113 112 112 114 113 95 95 97 86 84 87 71 69 72 56 54 57 45 43 46 41 39 42 42 40 43 44 42 45 42 40 43 42 40 43 42 40 43 42 40 43 42 40 43 42 40 43 42 40 43 42 40 43 40 38 39 40 38 39 40 38 39 40 38 39 40 38 39 40 38 39 40 38 39 40 38 39 42 40 41 42 40 41 42 40 41 42 40 41 42 40 41 42 40 41 42 40 41 42 40 41
133 118 141 133 118 141 133 118 141 133 118 141 120 105 128 120 105 128 120 105 128 120 105 128 120 105 128 120 105 128 120 105 128 120 105 128 111 96 119 110 95 116 107 92 115 104 89 110 101 86 109 97 82 103 95 80 103 94 79 100 100 85 108 96 81 102 87 72 95 76 61 82 65 50 73 54 39 60 46 31 54 40 27 47 12 5 21 9 5 20 8 4 19 6 2 17 4 0 15 2 0 13 1 0 12 1 0 12 7 3 18 7 3 18 7 3 18 7 3 18 7 3 18 7 3 18 7 3 18 7 3 18 7 5 19 6 6 18 7 5 19 6 6 18 7 5 19 6 6 18 7 5 19 6 6 18 8 6 20 7 7 19 8 6 20 7 7 19 8 6 20 7 7 19 8 6 20 7 7 19 7 7 17 5 8 17 5 8 17 5 8 17 5 8 17 5 8 17 5 8 17 5 8 17 6 9 18 6 9 18 6 9 18 6 9 18 6 9 18 6 9 18 6 9 18 6 9 18 7 11 20 7 11 20 7 11 20 7 11 20 7 11 20 7 11 20 7 11 20 7 11 20 8 12 21 8 12 21 8 12 21 8 12 21 8 12 21 8 12 21 8 12 21 8 13 19 13 16 21 13 16 21 13 16 21 13 16 21 13 16 21 13 16 21 13 16 21 13 16 21 28 31 36 25 28 33 19 22 27 11 14 19 3 6 11 0 0 5 0 0 5 0 0 5 5 9 12 5 9 10 5 9 12 5 9 10 5 9 12 5 9 10 5 9 12 5 9 10 18 22 25 20 24 25 25 29 32 32 36 37 38 42 45 45 49 50 50 54 57 52 56 57 57 61 62 58 62 61 60 64 63 64 68 67 67 71 70 70 74 73 73 77 76 74 78 77 92 96 95 93 97 96 95 99 98 99 103 102 102 106 105 105 109 108 108 112 111 111 113 112 95 95 97 86 84 87 71 69 72 56 54 57 45 43 46 41 39 42 42 40 43 44 42 45 42 40 43 42 40 43 42 40 43 42 40 43 42 40 43 42 40 43 42 40 43 42 40 43 40 38 39 40 38 39 40 38 39 40 38 39 40 38 39 40 38 39 40 38 39 40 38 39 42 40 41 42 40 41 42 40 41 42 40 41 42 40 41 42 40 41 42 40 41 42 40 41
126 108 134 126 108 134 126 108 134 126 108 134 122 104 130 122 104 130 122 104 130 122 104 130 122 104 130 122 104 130 122 104 130 120 104 130 102 88 113 100 88 110 98 86 110 96 84 106 94 82 106 92 80 102 91 79 103 90 78 100 82 70 94 78 66 88 70 58 82 59 47 69 47 35 59 36 24 46 28 16 40 22 13 34 7 3 18 6 4 17 6 4 17 6 4 17 6 4 17 6 4 17 6 4 17 6 4 17 7 5 18 7 5 18 7 5 18 7 5 18 7 5 18 7 5 18 7 5 18 6 6 18 9 9 21 7 10 19 9 9 21 7 10 19 9 9 21 7 10 19 9 9 21 7 10 19 9 9 21 7 10 19 9 9 21 7 10 19 9 9 21 7 10 19 9 9 21 7 10 19 7 11 20 7 11 20 7 11 20 7 11 20 7 11 20 7 11 20 7 11 20 7 11 20 7 11 20 7 11 20 7 11 20 7 11 20 7 11 20 7 11 20 7 11 20 7 11 20 7 14 20 7 14 20 7 14 20 7 14 20 7 14 20 7 14 20 7 14 20 7 14 20 10 17 23 10 17 23 10 17 23 10 17 23 10 17 23 10 17 23 10 17 23 10 17 23 10 15 19 10 15 19 10 15 19 10 15 19 10 15 19 10 15 19 10 15 19 10 15 19 30 35 39 28 33 37 23 28 32 16 21 25 10 15 19 3 8 12 0 3 7 0 1 5 0 5 9 0 5 8 0 5 9 0 5 8 0 5 9 0 5 8 0 5 9 0 5 8 11 16 20 13 18 21 18 23 27 25 30 33 31 36 40 38 43 46 43 48 52 45 50 53 52 56 57 54 58 59 56 60 61 59 63 64 63 67 68 66 70 71 68 72 73 70 74 75 83 87 88 84 88 89 87 91 92 90 94 95 93 97 98 97 101 102 99 103 104 102 103 105 95 95 95 86 84 85 71 69 70 56 54 55 45 43 44 41 39 40 42 40 41 44 42 43 41 39 40 41 39 40 41 39 40 41 39 40 41 39 40 41 39 40 41 39 40 41 39 40 39 37 38 39 37 38 39 37 38 39 37 38 39 37 38 39 37 38 39 37 38 39 37 38 39 37 38 39 37 38 39 37 38 39 37 38 39 37 38 39 37 38 39 37 38 39 37 38
124 105 133 124 105 133 124 105 133 124 105 133 120 101 129 120 101 129 120 101 129 120 101 129 120 101 129 120 101 129 120 101 129 118 102 129 104 92 116 101 91 115 99 89 113 96 86 110 94 84 108 91 81 105 89 79 103 88 78 102 70 60 84 66 56 80 58 48 72 48 38 62 37 27 51 27 17 41 19 9 33 14 6 27 6 4 18 5 5 17 5 5 17 5 5 17 5 5 17 5 5 17 5 5 17 5 5 17 6 6 18 6 6 18 6 6 18 6 6 18 6 6 18 6 6 18 6 6 18 6 6 18 7 10 19 7 10 19 7 10 19 7 10 19 7 10 19 7 10 19 7 10 19 7 10 19 7 10 19 7 10 19 7 10 19 7 10 19 7 10 19 7 10 19 7 10 19 6 10 19 7 11 20 5 12 20 5 12 20 5 12 20 5 12 20 5 12 20 5 12 20 5 12 20 5 12 20 5 12 20 5 12 20 5 12 20 5 12 20 5 12 20 5 12 20 5 12 20 7 14 20 7 14 20 7 14 20 7 14 20 7 14 20 7 14 20 7 14 20 7 14 20 10 17 23 10 17 23 10 17 23 10 17 23 10 17 23 10 17 23 10 17 23 10 17 23 12 17 21 12 17 21 12 17 21 12 17 21 12 17 21 12 17 21 12 17 21 12 17 21 30 35 39 28 33 37 23 28 32 16 21 25 10 15 19 3 8 12 0 3 7 0 1 5 0 5 9 0 5 9 0 5 9 0 5 9 0 5 9 0 5 9 0 5 9 0 5 9 11 16 20 13 18 22 18 23 27 25 30 34 31 36 40 38 43 47 43 48 52 45 50 53 52 56 59 54 58 59 56 60 61 59 63 64 63 67 68 66 70 71 68 72 73 70 74 75 82 86 87 83 87 88 85 89 90 89 93 94 92 96 97 95 99 100 98 102 103 101 102 104 95 95 95 86 84 85 71 69 70 56 54 55 45 43 44 41 39 40 42 40 41 44 42 43 41 39 40 41 39 40 41 39 40 41 39 40 41 39 40 41 39 40 41 39 40 41 39 40 39 37 38 39 37 38 39 37 38 39 37 38 39 37 38 39 37 38 39 37 38 39 37 38 39 37 38 39 37 38 39 37 38 39 37 38 39 37 38 39 37 38 39 37 38 39 37 38
122 103 131 122 103 131 122 103 131 122 103 131 118 99 127 118 99 127 118 99 127 118 99 127 118 99 127 118 99 127 118 99 127 116 100 127 108 96 120 105 95 119 102 92 116 98 88 112 94 84 108 90 80 104 87 77 101 85 75 99 54 44 68 50 40 64 44 34 58 35 25 49 25 15 39 16 6 30 9 0 23 5 0 18 6 4 18 5 5 17 5 5 17 5 5 17 5 5 17 5 5 17 5 5 17 5 5 17 6 6 18 6 6 18 6 6 18 6 6 18 6 6 18 6 6 18 6 6 18 6 6 18 7 10 19 7 10 19 7 10 19 7 10 19 7 10 19 7 10 19 7 10 19 7 10 19 7 10 19 7 10 19 7 10 19 7 10 19 7 10 19 7 10 19 7 10 19 6 10 19 7 11 20 5 12 20 5 12 20 5 12 20 5 12 20 5 12 20 5 12 20 5 12 20 5 12 20 5 12 20 5 12 20 5 12 20 5 12 20 5 12 20 5 12 20 5 12 20 7 14 20 7 14 20 7 14 20 7 14 20 7 14 20 7 14 20 7 14 20 7 14 20 10 17 23 10 17 23 10 17 23 10 17 23 10 17 23 10 17 23 10 17 23 10 17 23 14 19 23 14 19 23 14 19 23 14 19 23 14 19 23 14 19 23 14 19 23 14 19 23 30 35 39 28 33 37 23 28 32 16 21 25 10 15 19 3 8 12 0 3 7 0 1 5 0 5 9 0 5 9 0 5 9 0 5 9 0 5 9 0 5 9 0 5 9 0 5 9 11 16 20 13 18 22 18 23 27 25 30 34 31 36 40 38 43 47 43 48 52 45 50 53 52 56 59 54 58 59 56 60 61 59 63 64 63 67 68 66 70 71 68 72 73 70 74 75 79 83 84 81 85 86 83 87 88 86 90 91 90 94 95 93 97 98 95 99 100 99 100 102 95 95 95 86 84 85 71 69 70 56 54 55 45 43 44 41 39 40 42 40 41 44 42 43 41 39 40 41 39 40 41 39 40 41 39 40 41 39 40 41 39 40 41 39 40 41 39 40 39 37 38 39 37 38 39 37 38 39 37 38 39 37 38 39 37 38 39 37 38 39 37 38 39 37 38 39 37 38 39 37 38 39 37 38 39 37 38 39 37 38 39 37 38 39 37 38
119 100 128 119 100 128 119 100 128 119 100 128 115 96 124 115 96 124 115 96 124 115 96 124 115 96 124 115 96 124 115 96 124 113 97 124 109 97 121 104 94 118 100 90 114 95 85 109 89 79 103 83 73 97 79 69 93 77 67 91 38 28 52 35 25 49 29 19 43 22 12 36 14 4 28 7 0 21 4 0 18 3 0 16 6 4 18 5 5 17 5 5 17 5 5 17 5 5 17 5 5 17 5 5 17 5 5 17 6 6 18 6 6 18 6 6 18 6 6 18 6 6 18 6 6 18 6 6 18 6 6 18 7 10 19 7 10 19 7 10 19 7 10 19 7 10 19 7 10 19 7 10 19 7 10 19 7 10 19 7 10 19 7 10 19 7 10 19 7 10 19 7 10 19 7 10 19 6 10 19 7 11 20 5 12 20 5 12 20 5 12 20 5 12 20 5 12 20 5 12 20 5 12 20 5 12 20 5 12 20 5 12 20 5 12 20 5 12 20 5 12 20 5 12 20 5 12 20 7 14 20 7 14 20 7 14 20 7 14 20 7 14 20 7 14 20 7 14 20 7 14 20 10 17 23 10 17 23 10 17 23 10 17 23 10 17 23 10 17 23 10 17 23 10 17 23 17 22 26 17 22 26 17 22 26 17 22 26 17 22 26 17 22 26 17 22 26 17 22 26 30 35 39 28 33 37 23 28 32 16 21 25 10 15 19 3 8 12 0 3 7 0 1 5 0 5 9 0 5 9 0 5 9 0 5 9 0 5 9 0 5 9 0 5 9 0 5 9 11 16 20 13 18 22 18 23 27 25 30 34 31 36 40 38 43 47 43 48 52 45 50 53 52 56 59 54 58 59 56 60 61 59 63 64 63 67 68 66 70 71 68 72 73 70 74 75 76 80 81 77 81 82 80 84 85 83 87 88 86 90 91 90 94 95 92 96 97 95 96 98 95 95 95 86 84 85 71 69 70 56 54 55 45 43 44 41 39 40 42 40 41 44 42 43 41 39 40 41 39 40 41 39 40 41 39 40 41 39 40 41 39 40 41 39 40 41 39 40 39 37 38 39 37 38 39 37 38 39 37 38 39 37 38 39 37 38 39 37 38 39 37 38 39 37 38 39 37 38 39 37 38 39 37 38 39 37 38 39 37 38 39 37 38 39 37 38
115 96 124 115 96 124 115 96 124 115 96 124 111 92 120 111 92 120 111 92 120 111 92 120 111 92 120 111 92 120 111 92 120 109 93 120 103 91 115 98 88 112 93 83 107 85 75 99 78 68 92 70 60 84 65 55 79 62 52 76 26 16 40 24 14 38 19 9 33 14 4 28 8 0 22 4 0 18 4 0 18 3 0 16 6 4 18 5 5 17 5 5 17 5 5 17 5 5 17 5 5 17 5 5 17 5 5 17 6 6 18 6 6 18 6 6 18 6 6 18 6 6 18 6 6 18 6 6 18 6 6 18 7 10 19 7 10 19 7 10 19 7 10 19 7 10 19 7 10 19 7 10 19 7 10 19 7 10 19 7 10 19 7 10 19 7 10 19 7 10 19 7 10 19 7 10 19 6 10 19 7 11 20 5 12 20 5 12 20 5 12 20 5 12 20 5 12 20 5 12 20 5 12 20 5 12 20 5 12 20 5 12 20 5 12 20 5 12 20 5 12 20 5 12 20 5 12 20 7 14 20 7 14 20 7 14 20 7 14 20 7 14 20 7 14 20 7 14 20 7 14 20 10 17 23 10 17 23 10 17 23 10 17 23 10 17 23 10 17 23 10 17 23 10 17 23 21 26 30 21 26 30 21 26 30 21 26 30 21 26 30 21 26 30 21 26 30 21 26 30 30 35 39 28 33 37 23 28 32 16 21 25 10 15 19 3 8 12 0 3 7 0 1 5 0 5 9 0 5 9 0 5 9 0 5 9 0 5 9 0 5 9 0 5 9 0 5 9 11 16 20 13 18 22 18 23 27 25 30 34 31 36 40 38 43 47 43 48 52 45 50 53 52 56 59 54 58 59 56 60 61 59 63 64 63 67 68 66 70 71 68 72 73 70 74 75 73 77 78 74 78 79 76 80 81 80 84 85 83 87 88 86 90 91 89 93 94 92 93 95 95 95 95 86 84 85 71 69 70 56 54 55 45 43 44 41 39 40 42 40 41 44 42 43 41 39 40 41 39 40 41 39 40 41 39 40 41 39 40 41 39 40 41 39 40 41 39 40 39 37 38 39 37 38 39 37 38 39 37 38 39 37 38 39 37 38 39 37 38 39 37 38 39 37 38 39 37 38 39 37 38 39 37 38 39 37 38 39 37 38 39 37 38 39 37 38
112 93 121 112 93 121 112 93 121 112 93 121 108 89 117 108 89 117 108 89 117 108 89 117 108 89 117 108 89 117 108 89 117 106 90 117 92 80 104 87 77 101 80 70 94 71 61 85 61 51 75 53 43 67 46 36 60 42 32 56 21 11 35 19 9 33 16 6 30 12 2 26 8 0 22 4 0 18 4 0 18 3 0 16 6 4 18 5 5 17 5 5 17 5 5 17 5 5 17 5 5 17 5 5 17 5 5 17 6 6 18 6 6 18 6 6 18 6 6 18 6 6 18 6 6 18 6 6 18 6 6 18 7 10 19 7 10 19 7 10 19 7 10 19 7 10 19 7 10 19 7 10 19 7 10 19 7 10 19 7 10 19 7 10 19 7 10 19 7 10 19 7 10 19 7 10 19 6 10 19 7 11 20 5 12 20 5 12 20 5 12 20 5 12 20 5 12 20 5 12 20 5 12 20 5 12 20 5 12 20 5 12 20 5 12 20 5 12 20 5 12 20 5 12 20 5 12 20 7 14 20 7 14 20 7 14 20 7 14 20 7 14 20 7 14 20 7 14 20 7 14 20 10 17 23 10 17 23 10 17 23 10 17 23 10 17 23 10 17 23 10 17 23 10 17 23 24 29 33 24 29 33 24 29 33 24 29 33 24 29 33 24 29 33 24 29 33 24 29 33 30 35 39 28 33 37 23 28 32 16 21 25 10 15 19 3 8 12 0 3 7 0 1 5 0 5 9 0 5 9 0 5 9 0 5 9 0 5 9 0 5 9 0 5 9 0 5 9 11 16 20 13 18 22 18 23 27 25 30 34 31 36 40 38 43 47 43 48 52 45 50 53 52 56 59 54 58 59 56 60 61 59 63 64 63 67 68 66 70 71 68 72 73 70 74 75 69 73 74 71 75 76 73 77 78 76 80 81 80 84 85 83 87 88 85 89 90 89 90 92 95 95 95 86 84 85 71 69 70 56 54 55 45 43 44 41 39 40 42 40 41 44 42 43 41 39 40 41 39 40 41 39 40 41 39 40 41 39 40 41 39 40 41 39 40 41 39 40 39 37 38 39 37 38 39 37 38 39 37 38 39 37 38 39 37 38 39 37 38 39 37 38 39 37 38 39 37 38 39 37 38 39 37 38 39 37 38 39 37 38 39 37 38 39 37 38
110 91 119 110 91 119 110 91 119 110 91 119 106 87 115 106 87 115 106 87 115 106 87 115 106 87 115 106 87 115 106 87 115 104 88 115 80 68 92 74 64 88 67 57 81 56 46 70 45 35 59 35 25 49 28 18 42 23 13 37 20 10 34 19 9 33 17 7 31 15 5 29 12 2 26 9 0 23 7 0 21 5 0 18 6 4 18 5 5 17 5 5 17 5 5 17 5 5 17 5 5 17 5 5 17 5 5 17 6 6 18 6 6 18 6 6 18 6 6 18 6 6 18 6 6 18 6 6 18 6 6 18 7 10 19 7 10 19 7 10 19 7 10 19 7 10 19 7 10 19 7 10 19 7 10 19 7 10 19 7 10 19 7 10 19 7 10 19 7 10 19 7 10 19 7 10 19 6 10 19 7 11 20 5 12 20 5 12 20 5 12 20 5 12 20 5 12 20 5 12 20 5 12 20 5 12 20 5 12 20 5 12 20 5 12 20 5 12 20 5 12 20 5 12 20 5 12 20 7 14 20 7 14 20 7 14 20 7 14 20 7 14 20 7 14 20 7 14 20 7 14 20 10 17 23 10 17 23 10 17 23 10 17 23 10 17 23 10 17 23 10 17 23 10 17 23 26 31 35 26 31 35 26 31 35 26 31 35 26 31 35 26 31 35 26 31 35 26 31 35 30 35 39 28 33 37 23 28 32 16 21 25 10 15 19 3 8 12 0 3 7 0 1 5 0 5 9 0 5 9 0 5 9 0 5 9 0 5 9 0 5 9 0 5 9 0 5 9 11 16 20 13 18 22 18 23 27 25 30 34 31 36 40 38 43 47 43 48 52 45 50 53 52 56 59 54 58 59 56 60 61 59 63 64 63 67 68 66 70 71 68 72 73 70 74 75 67 71 72 68 72 73 71 75 76 74 78 79 77 81 82 81 85 86 83 87 88 86 87 89 95 95 95 86 84 85 71 69 70 56 54 55 45 43 44 41 39 40 42 40 41 44 42 43 41 39 40 41 39 40 41 39 40 41 39 40 41 39 40 41 39 40 41 39 40 41 39 40 39 37 38 39 37 38 39 37 38 39 37 38 39 37 38 39 37 38 39 37 38 39 37 38 39 37 38 39 37 38 39 37 38 39 37 38 39 37 38 39 37 38 39 37 38 39 37 38
108 89 117 108 89 117 108 89 117 108 89 117 104 85 113 104 85 113 104 85 113 104 85 113 104 85 113 104 85 113 104 85 113 102 86 113 73 61 85 66 56 80 58 48 72 47 37 61 36 26 50 25 15 39 16 6 30 12 2 26 22 12 36 21 11 35 19 9 33 17 7 31 15 5 29 13 3 27 12 2 26 10 2 23 6 4 18 5 5 17 5 5 17 5 5 17 5 5 17 5 5 17 5 5 17 5 5 17 6 6 18 6 6 18 6 6 18 6 6 18 6 6 18 6 6 18 6 6 18 6 6 18 7 10 19 7 10 19 7 10 19 7 10 19 7 10 19 7 10 19 7 10 19 7 10 19 7 10 19 7 10 19 7 10 19 7 10 19 7 10 19 7 10 19 7 10 19 6 10 19 7 11 20 5 12 20 5 12 20 5 12 20 5 12 20 5 12 20 5 12 20 5 12 20 5 12 20 5 12 20 5 12 20 5 12 20 5 12 20 5 12 20 5 12 20 5 12 20 7 14 20 7 14 20 7 14 20 7 14 20 7 14 20 7 14 20 7 14 20 7 14 20 10 17 23 10 17 23 10 17 23 10 17 23 10 17 23 10 17 23 10 17 23 10 17 23 28 33 37 28 33 37 28 33 37 28 33 37 28 33 37 28 33 37 28 33 37 28 33 37 30 35 39 28 33 37 23 28 32 16 21 25 10 15 19 3 8 12 0 3 7 0 1 5 0 5 9 0 5 9 0 5 9 0 5 9 0 5 9 0 5 9 0 5 9 0 5 9 11 16 20 13 18 22 18 23 27 25 30 34 31 36 40 38 43 47 43 48 52 45 50 53 52 56 59 54 58 59 56 60 61 59 63 64 63 67 68 66 70 71 68 72 73 70 74 75 66 70 71 67 71 72 69 73 74 73 77 78 76 80 81 79 83 84 82 86 87 85 86 88 95 95 95 86 84 85 71 69 70 56 54 55 45 43 44 41 39 40 42 40 41 44 42 43 41 39 40 41 39 40 41 39 40 41 39 40 41 39 40 41 39 40 41 39 40 41 39 40 39 37 38 39 37 38 39 37 38 39 37 38 39 37 38 39 37 38 39 37 38 39 37 38 39 37 38 39 37 38 39 37 38 39 37 38 39 37 38 39 37 38 39 37 38 39 37 38
105 86 114 102 83 111 99 80 108 98 79 107 110 91 119 106 87 115 101 82 110 93 74 102 85 66 94 77 58 86 71 52 80 66 50 77 14 2 26 12 2 26 12 2 26 12 2 26 12 2 26 12 2 26 12 2 26 12 2 26 10 0 24 10 0 24 10 0 24 10 0 24 10 0 24 10 0 24 10 0 24 9 1 22 6 4 18 5 5 17 5 5 17 5 5 17 5 5 17 5 5 17 5 5 17 5 5 17 7 7 19 7 7 19 7 7 19 7 7 19 7 7 19 7 7 19 7 7 19 7 7 19 5 8 17 5 8 17 5 8 17 5 8 17 5 8 17 5 8 17 5 8 17 5 8 17 6 9 18 6 9 18 6 9 18 6 9 18 6 9 18 6 9 18 6 9 18 5 9 18 6 10 19 4 11 19 4 11 19 4 11 19 4 11 19 4 11 19 4 11 19 4 11 19 6 13 21 6 13 21 6 13 21 6 13 21 6 13 21 6 13 21 6 13 21 6 13 21 9 16 22 9 16 22 9 16 22 9 16 22 9 16 22 9 16 22 9 16 22 9 16 22 7 14 20 8 15 21 12 19 25 16 23 29 21 28 34 25 32 38 29 36 42 31 38 44 43 48 52 41 46 50 39 44 48 36 41 45 32 37 41 29 34 38 27 32 36 25 30 34 9 14 18 9 14 18 9 14 18 9 14 18 9 14 18 9 14 18 9 14 18 9 14 18 3 8 12 3 8 12 3 8 12 3 8 12 3 8 12 3 8 12 3 8 12 3 8 12 13 18 22 15 20 24 17 22 26 20 25 29 24 29 33 27 32 36 29 34 38 31 36 39 41 45 48 43 47 48 45 49 50 48 52 53 52 56 57 55 59 60 57 61 62 59 63 64 71 75 76 71 75 76 71 75 76 71 75 76 71 75 76 71 75 76 71 75 76 73 74 76 68 68 68 67 65 66 62 60 61 55 53 54 49 47 48 42 40 41 37 35 36 35 33 34 35 33 34 35 33 34 35 33 34 35 33 34 35 33 34 35 33 34 35 33 34 35 33 34 35 33 34 35 33 34 35 33 34 35 33 34 35 33 34 35 33 34 35 33 34 35 33 34 37 35 36 37 35 36 37 35 36 37 35 36 37 35 36 37 35 36 37 35 36 37 35 36
104 85 113 101 82 110 98 79 107 97 78 106 91 72 100 88 69 97 83 64 92 76 57 85 69 50 78 62 43 71 56 37 65 52 36 63 14 2 26 12 2 26 12 2 26 12 2 26 12 2 26 12 2 26 12 2 26 12 2 26 10 0 24 10 0 24 10 0 24 10 0 24 10 0 24 10 0 24 10 0 24 9 1 22 6 4 18 5 5 17 5 5 17 5 5 17 5 5 17 5 5 17 5 5 17 5 5 17 7 7 19 7 7 19 7 7 19 7 7 19 7 7 19 7 7 19 7 7 19 7 7 19 5 8 17 5 8 17 5 8 17 5 8 17 5 8 17 5 8 17 5 8 17 5 8 17 6 9 18 6 9 18 6 9 18 6 9 18 6 9 18 6 9 18 6 9 18 5 9 18 6 10 19 4 11 19 4 11 19 4 11 19 4 11 19 4 11 19 4 11 19 4 11 19 6 13 21 6 13 21 6 13 21 6 13 21 6 13 21 6 13 21 6 13 21 6 13 21 9 16 22 9 16 22 9 16 22 9 16 22 9 16 22 9 16 22 9 16 22 9 16 22 11 18 24 13 20 26 16 23 29 19 26 32 23 30 36 27 34 40 30 37 43 31 38 44 43 48 52 41 46 50 39 44 48 36 41 45 32 37 41 29 34 38 27 32 36 25 30 34 9 14 18 9 14 18 9 14 18 9 14 18 9 14 18 9 14 18 9 14 18 9 14 18 3 8 12 3 8 12 3 8 12 3 8 12 3 8 12 3 8 12 3 8 12 3 8 12 13 18 22 15 20 24 17 22 26 20 25 29 24 29 33 27 32 36 29 34 38 31 36 39 41 45 48 43 47 48 45 49 50 48 52 53 52 56 57 55 59 60 57 61 62 59 63 64 69 73 74 69 73 74 69 73 74 69 73 74 69 73 74 69 73 74 69 73 74 71 72 74 68 68 68 67 65 66 62 60 61 55 53 54 49 47 48 42 40 41 37 35 36 35 33 34 35 33 34 35 33 34 35 33 34 35 33 34 35 33 34 35 33 34 35 33 34 35 33 34 35 33 34 35 33 34 35 33 34 35 33 34 35 33 34 35 33 34 35 33 34 35 33 34 37 35 36 37 35 36 37 35 36 37 35 36 37 35 36 37 35 36 37 35 36 37 35 36
91 72 100 87 68 96 85 66 94 84 65 93 62 43 71 60 41 69 55 36 64 50 31 59 44 25 53 38 19 47 34 15 43 29 13 40 14 2 26 12 2 26 12 2 26 12 2 26 12 2 26 12 2 26 12 2 26 12 2 26 10 0 24 10 0 24 10 0 24 10 0 24 10 0 24 10 0 24 10 0 24 9 1 22 6 4 18 5 5 17 5 5 17 5 5 17 5 5 17 5 5 17 5 5 17 5 5 17 7 7 19 7 7 19 7 7 19 7 7 19 7 7 19 7 7 19 7 7 19 7 7 19 5 8 17 5 8 17 5 8 17 5 8 17 5 8 17 5 8 17 5 8 17 5 8 17 6 9 18 6 9 18 6 9 18 6 9 18 6 9 18 6 9 18 6 9 18 5 9 18 6 10 19 4 11 19 4 11 19 4 11 19 4 11 19 4 11 19 4 11 19 4 11 19 6 13 21 6 13 21 6 13 21 6 13 21 6 13 21 6 13 21 6 13 21 6 13 21 9 16 22 9 16 22 9 16 22 9 16 22 9 16 22 9 16 22 9 16 22 9 16 22 19 26 32 20 27 33 22 29 35 25 32 38 28 35 41 30 37 43 32 39 45 33 40 46 43 48 52 41 46 50 39 44 48 36 41 45 32 37 41 29 34 38 27 32 36 25 30 34 9 14 18 9 14 18 9 14 18 9 14 18 9 14 18 9 14 18 9 14 18 9 14 18 3 8 12 3 8 12 3 8 12 3 8 12 3 8 12 3 8 12 3 8 12 3 8 12 13 18 22 15 20 24 17 22 26 20 25 29 24 29 33 27 32 36 29 34 38 31 36 39 41 45 48 43 47 48 45 49 50 48 52 53 52 56 57 55 59 60 57 61 62 59 63 64 67 71 72 67 71 72 67 71 72 67 71 72 67 71 72 67 71 72 67 71 72 69 70 72 68 68 68 67 65 66 62 60 61 55 53 54 49 47 48 42 40 41 37 35 36 35 33 34 35 33 34 35 33 34 35 33 34 35 33 34 35 33 34 35 33 34 35 33 34 35 33 34 35 33 34 35 33 34 35 33 34 35 33 34 35 33 34 35 33 34 35 33 34 35 33 34 37 35 36 37 35 36 37 35 36 37 35 36 37 35 36 37 35 36 37 35 36 37 35 36
61 42 70 57 38 66 55 36 64 54 35 63 34 15 43 32 13 41 29 10 38 25 6 34 20 1 29 16 0 25 13 0 22 10 0 21 14 2 26 12 2 26 12 2 26 12 2 26 12 2 26 12 2 26 12 2 26 12 2 26 10 0 24 10 0 24 10 0 24 10 0 24 10 0 24 10 0 24 10 0 24 9 1 22 6 4 18 5 5 17 5 5 17 5 5 17 5 5 17 5 5 17 5 5 17 5 5 17 7 7 19 7 7 19 7 7 19 7 7 19 7 7 19 7 7 19 7 7 19 7 7 19 5 8 17 5 8 17 5 8 17 5 8 17 5 8 17 5 8 17 5 8 17 5 8 17 6 9 18 6 9 18 6 9 18 6 9 18 6 9 18 6 9 18 6 9 18 5 9 18 6 10 19 4 11 19 4 11 19 4 11 19 4 11 19 4 11 19 4 11 19 4 11 19 6 13 21 6 13 21 6 13 21 6 13 21 6 13 21 6 13 21 6 13 21 6 13 21 9 16 22 9 16 22 9 16 22 9 16 22 9 16 22 9 16 22 9 16 22 9 16 22 30 37 43 31 38 44 31 38 44 32 39 45 33 40 46 34 41 47 35 42 48 35 42 48 43 48 52 41 46 50 39 44 48 36 41 45 32 37 41 29 34 38 27 32 36 25 30 34 9 14 18 9 14 18 9 14 18 9 14 18 9 14 18 9 14 18 9 14 18 9 14 18 3 8 12 3 8 12 3 8 12 3 8 12 3 8 12 3 8 12 3 8 12 3 8 12 13 18 22 15 20 24 17 22 26 20 25 29 24 29 33 27 32 36 29 34 38 31 36 39 41 45 48 43 47 48 45 49 50 48 52 53 52 56 57 55 59 60 57 61 62 59 63 64 64 68 69 64 68 69 64 68 69 64 68 69 64 68 69 64 68 69 64 68 69 66 67 69 68 68 68 67 65 66 62 60 61 55 53 54 49 47 48 42 40 41 37 35 36 35 33 34 35 33 34 35 33 34 35 33 34 35 33 34 35 33 34 35 33 34 35 33 34 35 33 34 35 33 34 35 33 34 35 33 34 35 33 34 35 33 34 35 33 34 35 33 34 35 33 34 37 35 36 37 35 36 37 35 36 37 35 36 37 35 36 37 35 36 37 35 36 37 35 36
27 8 36 23 4 32 21 2 30 20 1 29 15 0 24 14 0 23 12 0 21 10 0 19 10 0 19 10 0 19 10 0 19 8 0 19 14 2 26 12 2 26 12 2 26 12 2 26 12 2 26 12 2 26 12 2 26 12 2 26 10 0 24 10 0 24 10 0 24 10 0 24 10 0 24 10 0 24 10 0 24 9 1 22 6 4 18 5 5 17 5 5 17 5 5 17 5 5 17 5 5 17 5 5 17 5 5 17 7 7 19 7 7 19 7 7 19 7 7 19 7 7 19 7 7 19 7 7 19 7 7 19 5 8 17 5 8 17 5 8 17 5 8 17 5 8 17 5 8 17 5 8 17 5 8 17 6 9 18 6 9 18 6 9 18 6 9 18 6 9 18 6 9 18 6 9 18 5 9 18 6 10 19 4 11 19 4 11 19 4 11 19 4 11 19 4 11 19 4 11 19 4 11 19 6 13 21 6 13 21 6 13 21 6 13 21 6 13 21 6 13 21 6 13 21 6 13 21 9 16 22 9 16 22 9 16 22 9 16 22 9 16 22 9 16 22 9 16 22 9 16 22 42 49 55 41 48 54 41 48 54 40 47 53 39 46 52 38 45 51 37 44 50 37 44 50 43 48 52 41 46 50 39 44 48 36 41 45 32 37 41 29 34 38 27 32 36 25 30 34 9 14 18 9 14 18 9 14 18 9 14 18 9 14 18 9 14 18 9 14 18 9 14 18 3 8 12 3 8 12 3 8 12 3 8 12 3 8 12 3 8 12 3 8 12 3 8 12 13 18 22 15 20 24 17 22 26 20 25 29 24 29 33 27 32 36 29 34 38 31 36 39 41 45 48 43 47 48 45 49 50 48 52 53 52 56 57 55 59 60 57 61 62 59 63 64 60 64 65 60 64 65 60 64 65 60 64 65 60 64 65 60 64 65 60 64 65 62 63 65 68 68 68 67 65 66 62 60 61 55 53 54 49 47 48 42 40 41 37 35 36 35 33 34 35 33 34 35 33 34 35 33 34 35 33 34 35 33 34 35 33 34 35 33 34 35 33 34 35 33 34 35 33 34 35 33 34 35 33 34 35 33 34 35 33 34 35 33 34 35 33 34 37 35 36 37 35 36 37 35 36 37 35 36 37 35 36 37 35 36 37 35 36 37 35 36
10 0 19 10 0 19 10 0 19 10 0 19 10 0 19 10 0 19 10 0 19 10 0 19 10 0 19 10 0 19 10 0 19 8 0 19 14 2 26 12 2 26 12 2 26 12 2 26 12 2 26 12 2 26 12 2 26 12 2 26 10 0 24 10 0 24 10 0 24 10 0 24 10 0 24 10 0 24 10 0 24 9 1 22 6 4 18 5 5 17 5 5 17 5 5 17 5 5 17 5 5 17 5 5 17 5 5 17 7 7 19 7 7 19 7 7 19 7 7 19 7 7 19 7 7 19 7 7 19 7 7 19 5 8 17 5 8 17 5 8 17 5 8 17 5 8 17 5 8 17 5 8 17 5 8 17 6 9 18 6 9 18 6 9 18 6 9 18 6 9 18 6 9 18 6 9 18 5 9 18 6 10 19 4 11 19 4 11 19 4 11 19 4 11 19 4 11 19 4 11 19 4 11 19 6 13 21 6 13 21 6 13 21 6 13 21 6 13 21 6 13 21 6 13 21 6 13 21 9 16 22 9 16 22 9 16 22 9 16 22 9 16 22 9 16 22 9 16 22 9 16 22 53 60 66 52 59 65 50 57 63 47 54 60 44 51 57 42 49 55 40 47 53 39 46 52 43 48 52 41 46 50 39 44 48 36 41 45 32 37 41 29 34 38 27 32 36 25 30 34 9 14 18 9 14 18 9 14 18 9 14 18 9 14 18 9 14 18 9 14 18 9 14 18 3 8 12 3 8 12 3 8 12 3 8 12 3 8 12 3 8 12 3 8 12 3 8 12 13 18 22 15 20 24 17 22 26 20 25 29 24 29 33 27 32 36 29 34 38 31 36 39 41 45 48 43 47 48 45 49 50 48 52 53 52 56 57 55 59 60 57 61 62 59 63 64 57 61 62 57 61 62 57 61 62 57 61 62 57 61 62 57 61 62 57 61 62 59 60 62 68 68 68 67 65 66 62 60 61 55 53 54 49 47 48 42 40 41 37 35 36 35 33 34 35 33 34 35 33 34 35 33 34 35 33 34 35 33 34 35 33 34 35 33 34 35 33 34 35 33 34 35 33 34 35 33 34 35 33 34 35 33 34 35 33 34 35 33 34 35 33 34 37 35 36 37 35 36 37 35 36 37 35 36 37 35 36 37 35 36 37 35 36 37 35 36
11 0 20 10 0 19 10 0 19 10 0 19 12 0 21 12 0 21 13 0 22 13 0 22 14 0 23 14 0 23 15 0 24 13 0 24 14 2 26 12 2 26 12 2 26 12 2 26 12 2 26 12 2 26 12 2 26 12 2 26 10 0 24 10 0 24 10 0 24 10 0 24 10 0 24 10 0 24 10 0 24 9 1 22 6 4 18 5 5 17 5 5 17 5 5 17 5 5 17 5 5 17 5 5 17 5 5 17 7 7 19 7 7 19 7 7 19 7 7 19 7 7 19 7 7 19 7 7 19 7 7 19 5 8 17 5 8 17 5 8 17 5 8 17 5 8 17 5 8 17 5 8 17 5 8 17 6 9 18 6 9 18 6 9 18 6 9 18 6 9 18 6 9 18 6 9 18 5 9 18 6 10 19 4 11 19 4 11 19 4 11 19 4 11 19 4 11 19 4 11 19 4 11 19 6 13 21 6 13 21 6 13 21 6 13 21 6 13 21 6 13 21 6 13 21 6 13 21 9 16 22 9 16 22 9 16 22 9 16 22 9 16 22 9 16 22 9 16 22 9 16 22 61 68 74 59 66 72 56 63 69 53 60 66 49 56 62 45 52 58 42 49 55 41 48 54 43 48 52 41 46 50 39 44 48 36 41 45 32 37 41 29 34 38 27 32 36 25 30 34 9 14 18 9 14 18 9 14 18 9 14 18 9 14 18 9 14 18 9 14 18 9 14 18 3 8 12 3 8 12 3 8 12 3 8 12 3 8 12 3 8 12 3 8 12 3 8 12 13 18 22 15 20 24 17 22 26 20 25 29 24 29 33 27 32 36 29 34 38 31 36 39 41 45 48 43 47 48 45 49 50 48 52 53 52 56 57 55 59 60 57 61 62 59 63 64 55 59 60 55 59 60 55 59 60 55 59 60 55 59 60 55 59 60 55 59 60 57 58 60 68 68 68 67 65 66 62 60 61 55 53 54 49 47 48 42 40 41 37 35 36 35 33 34 35 33 34 35 33 34 35 33 34 35 33 34 35 33 34 35 33 34 35 33 34 35 33 34 35 33 34 35 33 34 35 33 34 35 33 34 35 33 34 35 33 34 35 33 34 35 33 34 37 35 36 37 35 36 37 35 36 37 35 36 37 35 36 37 35 36 37 35 36 37 35 36
18 4 29 15 1 26 12 0 23 11 0 22 13 0 24 14 0 25 15 1 26 16 2 27 17 3 28 18 4 29 19 5 30 19 7 31 12 3 24 11 3 24 11 3 24 11 3 24 11 3 24 11 3 24 11 3 24 11 3 24 9 1 22 9 1 22 9 1 22 9 1 22 9 1 22 9 1 22 9 1 22 7 3 20 6 4 18 5 5 17 5 5 17 5 5 17 5 5 17 5 5 17 5 5 17 5 5 17 7 7 19 7 7 19 7 7 19 7 7 19 7 7 19 7 7 19 7 7 19 7 7 19 5 7 19 5 8 17 5 7 19 5 8 17 5 7 19 5 8 17 5 7 19 5 8 17 6 8 20 6 9 18 6 8 20 6 9 18 6 8 20 6 9 18 6 8 20 6 9 18 6 10 19 4 11 19 4 11 19 4 11 19 4 11 19 4 11 19 4 11 19 4 11 19 6 13 21 6 13 21 6 13 21 6 13 21 6 13 21 6 13 21 6 13 21 6 13 21 9 16 22 9 16 22 9 16 22 9 16 22 9 16 22 9 16 22 9 16 22 9 16 22 65 72 78 64 71 77 60 67 73 56 63 69 51 58 64 47 54 60 43 50 56 41 48 54 43 48 52 41 46 50 39 44 48 36 41 45 32 37 41 29 34 38 27 32 36 25 30 34 9 14 18 9 14 18 9 14 18 9 14 18 9 14 18 9 14 18 9 14 18 9 14 18 3 8 12 3 8 12 3 8 12 3 8 12 3 8 12 3 8 12 3 8 12 3 8 12 13 18 22 15 20 24 17 22 26 20 25 29 24 29 33 27 32 36 29 34 38 31 36 39 41 45 48 43 47 48 45 49 50 48 52 53 52 56 57 55 59 60 57 61 62 59 63 64 53 57 58 53 57 58 53 57 58 53 57 58 53 57 58 53 57 58 53 57 58 55 56 58 68 68 68 67 65 66 62 60 61 55 53 54 49 47 48 42 40 41 37 35 36 35 33 34 35 33 34 35 33 34 35 33 34 35 33 34 35 33 34 35 33 34 35 33 34 35 33 34 35 33 34 35 33 34 37 33 34 35 33 34 37 33 34 35 33 34 37 33 34 35 33 34 39 35 36 37 35 36 39 35 36 37 35 36 39 35 36 37 35 36 39 35 36 37 35 36
7 0 18 7 0 18 7 0 18 7 0 18 7 0 18 7 0 18 7 0 18 7 0 18 7 0 18 7 0 18 7 0 18 5 1 18 6 2 17 6 2 17 6 2 17 6 2 17 6 2 17 6 2 17 6 2 17 6 2 17 6 2 17 6 2 17 6 2 17 6 2 17 6 2 17 6 2 17 6 2 17 5 3 17 6 6 18 6 6 18 6 6 18 6 6 18 6 6 18 6 6 18 6 6 18 6 6 18 7 7 19 7 7 19 7 7 19 7 7 19 7 7 19 7 7 19 7 7 19 7 7 19 6 6 18 6 6 18 6 5 19 6 6 18 6 5 19 6 6 18 6 5 19 6 6 18 7 6 20 7 7 19 7 6 20 7 7 19 7 6 20 7 7 19 7 6 20 5 7 19 6 10 19 4 11 19 4 11 19 4 11 19 4 11 19 4 11 19 4 11 19 4 11 19 10 17 25 10 17 25 10 17 25 10 17 25 10 17 25 10 17 25 10 17 25 10 17 25 4 11 19 8 15 23 15 22 30 24 31 39 35 42 50 44 51 59 52 59 67 56 63 71 85 92 100 83 90 98 78 85 93 71 78 86 65 72 80 58 65 73 53 60 68 51 58 64 47 55 58 45 53 56 43 51 54 40 48 51 36 44 47 33 41 44 31 39 42 29 37 40 17 25 28 15 23 26 13 21 24 10 18 21 6 14 17 3 11 14 1 9 12 0 7 10 5 13 16 5 13 16 5 13 16 5 13 16 5 13 16 5 13 16 5 13 16 5 13 16 9 17 20 11 19 22 13 21 24 16 24 27 20 28 31 23 31 34 25 33 36 29 34 37 39 43 46 39 43 44 39 43 44 39 43 44 39 43 44 39 43 44 39 43 44 39 43 44 54 58 59 54 58 59 54 58 59 54 58 59 54 58 59 54 58 59 54 58 59 56 57 59 50 48 49 50 46 47 48 44 45 45 41 42 41 37 38 38 34 35 36 32 33 34 30 31 35 31 32 35 31 32 35 31 32 35 31 32 35 31 32 35 31 32 35 31 32 35 31 32 35 31 30 35 31 30 36 30 30 35 31 30 36 30 30 35 31 30 36 30 30 35 31 30 39 33 33 38 34 33 39 33 33 38 34 33 39 33 33 38 34 33 39 33 33 38 34 33
4 2 16 4 2 16 4 2 16 4 2 16 4 2 16 4 2 16 4 2 16 4 2 16 4 2 16 4 2 16 4 2 16 4 2 16 5 3 16 5 3 16 5 3 16 5 3 16 5 3 16 5 3 16 5 3 16 5 3 16 5 3 16 5 3 16 5 3 16 5 3 16 5 3 16 5 3 16 5 3 16 5 3 16 6 6 18 6 6 18 6 6 18 6 6 18 6 6 18 6 6 18 6 6 18 6 6 18 7 7 19 7 7 19 7 7 19 7 7 19 7 7 19 7 7 19 7 7 19 7 7 19 6 5 19 6 5 19 6 5 19 6 5 19 6 5 19 6 5 19 6 5 19 6 5 19 7 6 20 7 6 20 7 6 20 7 6 20 7 6 20 7 6 20 7 6 20 5 7 19 6 10 21 4 11 19 4 11 19 4 11 19 4 11 19 4 11 19 4 11 19 4 11 19 10 17 25 10 17 25 10 17 25 10 17 25 10 17 25 10 17 25 10 17 25 10 17 25 6 13 21 10 17 25 18 25 33 27 34 42 37 44 52 47 54 62 54 61 69 58 65 73 85 92 100 83 90 98 78 85 93 71 78 86 65 72 80 58 65 73 53 60 68 51 58 64 47 54 60 45 53 56 43 51 54 40 48 51 36 44 47 33 41 44 31 39 42 29 37 40 17 25 28 15 23 26 13 21 24 10 18 21 6 14 17 3 11 14 1 9 12 0 7 10 5 13 16 5 13 16 5 13 16 5 13 16 5 13 16 5 13 16 5 13 16 5 13 16 9 17 20 11 19 22 13 21 24 16 24 27 20 28 31 23 31 34 25 33 36 27 35 37 39 43 46 39 43 44 39 43 44 39 43 44 39 43 44 39 43 44 39 43 44 39 43 44 52 56 57 52 56 57 52 56 57 52 56 57 52 56 57 52 56 57 52 56 57 54 55 57 50 48 49 50 46 47 48 44 45 45 41 42 41 37 38 38 34 35 36 32 33 34 30 31 35 31 32 35 31 32 35 31 32 35 31 32 35 31 32 35 31 32 35 31 32 35 31 32 36 30 30 36 30 30 36 30 30 36 30 30 36 30 30 36 30 30 36 30 30 36 30 30 39 33 33 39 33 33 39 33 33 39 33 33 39 33 33 39 33 33 39 33 33 39 33 33
4 2 16 4 2 16 4 2 16 4 2 16 4 2 16 4 2 16 4 2 16 4 2 16 4 2 16 4 2 16 4 2 16 4 2 16 5 3 16 5 3 16 5 3 16 5 3 16 5 3 16 5 3 16 5 3 16 5 3 16 5 3 16 5 3 16 5 3 16 5 3 16 5 3 16 5 3 16 5 3 16 5 3 16 6 6 18 6 6 18 6 6 18 6 6 18 6 6 18 6 6 18 6 6 18 6 6 18 7 7 19 7 7 19 7 7 19 7 7 19 7 7 19 7 7 19 7 7 19 7 7 19 6 5 19 6 5 19 6 5 19 6 5 19 6 5 19 6 5 19 6 5 19 6 5 19 7 6 20 7 6 20 7 6 20 7 6 20 7 6 20 7 6 20 7 6 20 5 7 19 6 10 21 4 11 19 4 11 19 4 11 19 4 11 19 4 11 19 4 11 19 4 11 19 10 17 25 10 17 25 10 17 25 10 17 25 10 17 25 10 17 25 10 17 25 10 17 25 11 18 26 15 22 30 22 29 37 32 39 47 42 49 57 52 59 67 59 66 74 63 70 78 85 92 100 83 90 98 78 85 93 71 78 86 65 72 80 58 65 73 53 60 68 51 58 64 47 54 60 45 53 56 43 51 54 40 48 51 36 44 47 33 41 44 31 39 42 29 37 40 17 25 28 15 23 26 13 21 24 10 18 21 6 14 17 3 11 14 1 9 12 0 7 10 5 13 16 5 13 16 5 13 16 5 13 16 5 13 16 5 13 16 5 13 16 5 13 16 9 17 20 11 19 22 13 21 24 16 24 27 20 28 31 23 31 34 25 33 36 27 35 37 39 43 46 39 43 44 39 43 44 39 43 44 39 43 44 39 43 44 39 43 44 39 43 44 50 54 55 50 54 55 50 54 55 50 54 55 50 54 55 50 54 55 50 54 55 52 53 55 50 48 49 50 46 47 48 44 45 45 41 42 41 37 38 38 34 35 36 32 33 34 30 31 35 31 32 35 31 32 35 31 32 35 31 32 35 31 32 35 31 32 35 31 32 35 31 32 36 30 30 36 30 30 36 30 30 36 30 30 36 30 30 36 30 30 36 30 30 36 30 30 39 33 33 39 33 33 39 33 33 39 33 33 39 33 33 39 33 33 39 33 33 39 33 33
4 2 16 4 2 16 4 2 16 4 2 16 4 2 16 4 2 16 4 2 16 4 2 16 4 2 16 4 2 16 4 2 16 4 2 16 5 3 16 5 3 16 5 3 16 5 3 16 5 3 16 5 3 16 5 3 16 5 3 16 5 3 16 5 3 16 5 3 16 5 3 16 5 3 16 5 3 16 5 3 16 5 3 16 6 6 18 6 6 18 6 6 18 6 6 18 6 6 18 6 6 18 6 6 18 6 6 18 7 7 19 7 7 19 7 7 19 7 7 19 7 7 19 7 7 19 7 7 19 7 7 19 6 5 19 6 5 19 6 5 19 6 5 19 6 5 19 6 5 19 6 5 19 6 5 19 7 6 20 7 6 20 7 6 20 7 6 20 7 6 20 7 6 20 7 6 20 5 7 19 6 10 21 4 11 19 4 11 19 4 11 19 4 11 19 4 11 19 4 11 19 4 11 19 10 17 25 10 17 25 10 17 25 10 17 25 10 17 25 10 17 25 10 17 25 10 17 25 18 25 33 22 29 37 29 36 44 38 45 53 49 56 64 58 65 73 66 73 81 70 77 85 85 92 100 83 90 98 78 85 93 71 78 86 65 72 80 58 65 73 53 60 68 51 58 64 47 54 60 45 53 56 43 51 54 40 48 51 36 44 47 33 41 44 31 39 42 29 37 40 17 25 28 15 23 26 13 21 24 10 18 21 6 14 17 3 11 14 1 9 12 0 7 10 5 13 16 5 13 16 5 13 16 5 13 16 5 13 16 5 13 16 5 13 16 5 13 16 9 17 20 11 19 22 13 21 24 16 24 27 20 28 31 23 31 34 25 33 36 27 35 37 39 43 46 39 43 44 39 43 44 39 43 44 39 43 44 39 43 44 39 43 44 39 43 44 47 51 52 47 51 52 47 51 52 47 51 52 47 51 52 47 51 52 47 51 52 49 50 52 50 48 49 50 46 47 48 44 45 45 41 42 41 37 38 38 34 35 36 32 33 34 30 31 35 31 32 35 31 32 35 31 32 35 31 32 35 31 32 35 31 32 35 31 32 35 31 32 36 30 30 36 30 30 36 30 30 36 30 30 36 30 30 36 30 30 36 30 30 36 30 30 39 33 33 39 33 33 39 33 33 39 33 33 39 33 33 39 33 33 39 33 33 39 33 33
4 2 16 4 2 16 4 2 16 4 2 16 4 2 16 4 2 16 4 2 16 4 2 16 4 2 16 4 2 16 4 2 16 4 2 16 5 3 16 5 3 16 5 3 16 5 3 16 5 3 16 5 3 16 5 3 16 5 3 16 5 3 16 5 3 16 5 3 16 5 3 16 5 3 16 5 3 16 5 3 16 5 3 16 6 6 18 6 6 18 6 6 18 6 6 18 6 6 18 6 6 18 6 6 18 6 6 18 7 7 19 7 7 19 7 7 19 7 7 19 7 7 19 7 7 19 7 7 19 7 7 19 6 5 19 6 5 19 6 5 19 6 5 19 6 5 19 6 5 19 6 5 19 6 5 19 7 6 20 7 6 20 7 6 20 7 6 20 7 6 20 7 6 20 7 6 20 5 7 19 6 10 21 4 11 19 4 11 19 4 11 19 4 11 19 4 11 19 4 11 19 4 11 19 10 17 25 10 17 25 10 17 25 10 17 25 10 17 25 10 17 25 10 17 25 10 17 25 24 31 39 28 35 43 36 43 51 45 52 60 56 63 71 65 72 80 72 79 87 76 83 91 85 92 100 83 90 98 78 85 93 71 78 86 65 72 80 58 65 73 53 60 68 51 58 64 47 54 60 45 53 56 43 51 54 40 48 51 36 44 47 33 41 44 31 39 42 29 37 40 17 25 28 15 23 26 13 21 24 10 18 21 6 14 17 3 11 14 1 9 12 0 7 10 5 13 16 5 13 16 5 13 16 5 13 16 5 13 16 5 13 16 5 13 16 5 13 16 9 17 20 11 19 22 13 21 24 16 24 27 20 28 31 23 31 34 25 33 36 27 35 37 39 43 46 39 43 44 39 43 44 39 43 44 39 43 44 39 43 44 39 43 44 39 43 44 43 47 48 43 47 48 43 47 48 43 47 48 43 47 48 43 47 48 43 47 48 45 46 48 50 48 49 50 46 47 48 44 45 45 41 42 41 37 38 38 34 35 36 32 33 34 30 31 35 31 32 35 31 32 35 31 32 35 31 32 35 31 32 35 31 32 35 31 32 35 31 32 36 30 30 36 30 30 36 30 30 36 30 30 36 30 30 36 30 30 36 30 30 36 30 30 39 33 33 39 33 33 39 33 33 39 33 33 39 33 33 39 33 33 39 33 33 39 33 33
4 2 16 4 2 16 4 2 16 4 2 16 4 2 16 4 2 16 4 2 16 4 2 16 4 2 16 4 2 16 4 2 16 4 2 16 5 3 16 5 3 16 5 3 16 5 3 16 5 3 16 5 3 16 5 3 16 5 3 16 5 3 16 5 3 16 5 3 16 5 3 16 5 3 16 5 3 16 5 3 16 5 3 16 6 6 18 6 6 18 6 6 18 6 6 18 6 6 18 6 6 18 6 6 18 6 6 18 7 7 19 7 7 19 7 7 19 7 7 19 7 7 19 7 7 19 7 7 19 7 7 19 6 5 19 6 5 19 6 5 19 6 5 19 6 5 19 6 5 19 6 5 19 6 5 19 7 6 20 7 6 20 7 6 20 7 6 20 7 6 20 7 6 20 7 6 20 5 7 19 6 10 21 4 11 19 4 11 19 4 11 19 4 11 19 4 11 19 4 11 19 4 11 19 10 17 25 10 17 25 10 17 25 10 17 25 10 17 25 10 17 25 10 17 25 10 17 25 31 38 46 35 42 50 42 49 57 52 59 67 62 69 77 72 79 87 79 86 94 83 90 98 85 92 100 83 90 98 78 85 93 71 78 86 65 72 80 58 65 73 53 60 68 51 58 64 47 54 60 45 53 56 43 51 54 40 48 51 36 44 47 33 41 44 31 39 42 29 37 40 17 25 28 15 23 26 13 21 24 10 18 21 6 14 17 3 11 14 1 9 12 0 7 10 5 13 16 5 13 16 5 13 16 5 13 16 5 13 16 5 13 16 5 13 16 5 13 16 9 17 20 11 19 22 13 21 24 16 24 27 20 28 31 23 31 34 25 33 36 27 35 37 39 43 46 39 43 44 39 43 44 39 43 44 39 43 44 39 43 44 39 43 44 39 43 44 40 44 45 40 44 45 40 44 45 40 44 45 40 44 45 40 44 45 40 44 45 42 43 45 50 48 49 50 46 47 48 44 45 45 41 42 41 37 38 38 34 35 36 32 33 34 30 31 35 31 32 35 31 32 35 31 32 35 31 32 35 31 32 35 31 32 35 31 32 35 31 32 36 30 30 36 30 30 36 30 30 36 30 30 36 30 30 36 30 30 36 30 30 36 30 30 39 33 33 39 33 33 39 33 33 39 33 33 39 33 33 39 33 33 39 33 33 39 33 33
4 2 16 4 2 16 4 2 16 4 2 16 4 2 16 4 2 16 4 2 16 4 2 16 4 2 16 4 2 16 4 2 16 4 2 16 5 3 16 5 3 16 5 3 16 5 3 16 5 3 16 5 3 16 5 3 16 5 3 16 5 3 16 5 3 16 5 3 16 5 3 16 5 3 16 5 3 16 5 3 16 5 3 16 6 6 18 6 6 18 6 6 18 6 6 18 6 6 18 6 6 18 6 6 18 6 6 18 7 7 19 7 7 19 7 7 19 7 7 19 7 7 19 7 7 19 7 7 19 7 7 19 6 5 19 6 5 19 6 5 19 6 5 19 6 5 19 6 5 19 6 5 19 6 5 19 7 6 20 7 6 20 7 6 20 7 6 20 7 6 20 7 6 20 7 6 20 5 7 19 6 10 21 4 11 19 4 11 19 4 11 19 4 11 19 4 11 19 4 11 19 4 11 19 10 17 25 10 17 25 10 17 25 10 17 25 10 17 25 10 17 25 10 17 25 10 17 25 36 43 51 40 47 55 47 54 62 57 64 72 67 74 82 76 83 91 84 91 99 88 95 103 85 92 100 83 90 98 78 85 93 71 78 86 65 72 80 58 65 73 53 60 68 51 58 64 47 54 60 45 53 56 43 51 54 40 48 51 36 44 47 33 41 44 31 39 42 29 37 40 17 25 28 15 23 26 13 21 24 10 18 21 6 14 17 3 11 14 1 9 12 0 7 10 5 13 16 5 13 16 5 13 16 5 13 16 5 13 16 5 13 16 5 13 16 5 13 16 9 17 20 11 19 22 13 21 24 16 24 27 20 28 31 23 31 34 25 33 36 27 35 37 39 43 46 39 43 44 39 43 44 39 43 44 39 43 44 39 43 44 39 43 44 39 43 44 38 42 43 38 42 43 38 42 43 38 42 43 38 42 43 38 42 43 38 42 43 40 41 43 50 48 49 50 46 47 48 44 45 45 41 42 41 37 38 38 34 35 36 32 33 34 30 31 35 31 32 35 31 32 35 31 32 35 31 32 35 31 32 35 31 32 35 31 32 35 31 32 36 30 30 36 30 30 36 30 30 36 30 30 36 30 30 36 30 30 36 30 30 36 30 30 39 33 33 39 33 33 39 33 33 39 33 33 39 33 33 39 33 33 39 33 33 39 33 33
4 2 16 4 2 16 4 2 16 4 2 16 4 2 16 4 2 16 4 2 16 4 2 16 4 2 16 4 2 16 4 2 16 4 2 16 5 3 16 5 3 16 5 3 16 5 3 16 5 3 16 5 3 16 5 3 16 5 3 16 5 3 16 5 3 16 5 3 16 5 3 16 5 3 16 5 3 16 5 3 16 5 3 16 6 6 18 6 6 18 6 6 18 6 6 18 6 6 18 6 6 18 6 6 18 6 6 18 7 7 19 7 7 19 7 7 19 7 7 19 7 7 19 7 7 19 7 7 19 7 7 19 6 5 19 6 5 19 6 5 19 6 5 19 6 5 19 6 5 19 6 5 19 6 5 19 7 6 20 7 6 20 7 6 20 7 6 20 7 6 20 7 6 20 7 6 20 5 7 19 6 10 21 4 11 19 4 11 19 4 11 19 4 11 19 4 11 19 4 11 19 4 11 19 10 17 25 10 17 25 10 17 25 10 17 25 10 17 25 10 17 25 10 17 25 10 17 25 38 45 53 42 49 57 50 57 65 59 66 74 70 77 85 79 86 94 86 93 101 90 97 105 85 92 100 83 90 98 78 85 93 71 78 86 65 72 80 58 65 73 53 60 68 51 58 64 47 54 60 45 53 56 43 51 54 40 48 51 36 44 47 33 41 44 31 39 42 29 37 40 17 25 28 15 23 26 13 21 24 10 18 21 6 14 17 3 11 14 1 9 12 0 7 10 5 13 16 5 13 16 5 13 16 5 13 16 5 13 16 5 13 16 5 13 16 5 13 16 9 17 20 11 19 22 13 21 24 16 24 27 20 28 31 23 31 34 25 33 36 27 35 37 39 43 46 39 43 44 39 43 44 39 43 44 39 43 44 39 43 44 39 43 44 39 43 44 36 40 41 36 40 41 36 40 41 36 40 41 36 40 41 36 40 41 36 40 41 38 39 41 50 48 49 50 46 47 48 44 45 45 41 42 41 37 38 38 34 35 36 32 33 34 30 31 35 31 32 35 31 32 35 31 32 35 31 32 35 31 32 35 31 32 35 31 32 35 31 32 36 30 30 36 30 30 36 30 30 36 30 30 36 30 30 36 30 30 36 30 30 36 30 30 39 33 33 39 33 33 39 33 33 39 33 33 39 33 33 39 33 33 39 33 33 39 33 33
4 2 16 4 2 16 4 2 16 4 2 16 4 2 16 4 2 16 4 2 16 4 2 16 4 2 16 4 2 16 4 2 16 4 2 16 4 2 15 4 2 15 4 2 15 4 2 15 4 2 15 4 2 15 4 2 15 4 2 15 5 3 16 5 3 16 5 3 16 5 3 16 5 3 16 5 3 16 5 3 16 5 3 16 5 5 17 5 5 17 5 5 17 5 5 17 5 5 17 5 5 17 5 5 17 5 5 17 8 8 20 8 8 20 8 8 20 8 8 20 8 8 20 8 8 20 8 8 20 8 8 20 4 3 17 4 3 17 4 3 17 4 3 17 4 3 17 4 3 17 4 3 17 4 3 17 6 5 19 6 5 19 6 5 19 6 5 19 6 5 19 6 5 19 6 5 19 4 6 18 6 10 21 3 10 18 2 9 17 1 8 16 0 7 15 0 5 13 0 5 13 0 4 12 0 2 10 0 7 15 8 15 23 19 26 34 30 37 45 41 48 56 50 57 65 54 61 69 59 66 74 61 68 76 63 70 78 66 73 81 70 77 85 73 80 88 75 82 90 77 84 92 105 112 120 101 108 116 93 100 108 82 89 97 70 77 85 59 66 74 51 58 66 47 54 60 40 47 53 39 47 50 36 44 47 33 41 44 30 38 41 26 34 37 24 32 35 23 31 34 20 28 31 18 26 29 16 24 27 13 21 24 9 17 20 6 14 17 4 12 15 2 10 13 5 13 16 5 13 16 5 13 16 5 13 16 5 13 16 5 13 16 5 13 16 5 13 16 17 25 28 17 25 28 17 25 28 17 25 28 17 25 28 17 25 28 17 25 28 17 25 27 28 32 35 28 32 33 28 32 33 28 32 33 28 32 33 28 32 33 28 32 33 28 32 33 31 35 36 31 35 36 31 35 36 31 35 36 31 35 36 31 35 36 31 35 36 33 34 36 32 30 31 34 30 31 34 30 31 34 30 31 34 30 31 34 30 31 34 30 31 34 30 31 34 30 31 34 30 31 34 30 31 34 30 31 34 30 31 34 30 31 34 30 31 34 30 31 35 29 29 35 29 29 35 29 29 35 29 29 35 29 29 35 29 29 35 29 29 35 29 29 37 31 31 37 31 31 37 31 31 37 31 31 37 31 31 37 31 31 37 31 31 37 31 31
4 2 16 4 2 16 4 2 16 4 2 16 4 2 16 4 2 16 4 2 16 4 2 16 4 2 16 4 2 16 4 2 16 4 2 16 4 2 15 4 2 15 4 2 15 4 2 15 4 2 15 4 2 15 4 2 15 4 2 15 5 3 16 5 3 16 5 3 16 5 3 16 5 3 16 5 3 16 5 3 16 5 3 16 5 5 17 5 5 17 5 5 17 5 5 17 5 5 17 5 5 17 5 5 17 5 5 17 8 8 20 8 8 20 8 8 20 8 8 20 8 8 20 8 8 20 8 8 20 8 8 20 4 3 17 4 3 17 4 3 17 4 3 17 4 3 17 4 3 17 4 3 17 4 3 17 6 5 19 6 5 19 6 5 19 6 5 19 6 5 19 6 5 19 6 5 19 4 6 18 5 9 20 3 10 18 3 10 18 2 9 17 1 8 16 1 8 16 0 7 15 0 7 15 0 7 15 4 11 19 12 19 27 22 29 37 33 40 48 43 50 58 51 58 66 55 62 70 59 66 74 61 68 76 63 70 78 66 73 81 70 77 85 73 80 88 75 82 90 77 84 92 104 111 119 99 106 114 92 99 107 81 88 96 71 78 86 60 67 75 53 60 68 48 55 61 41 48 54 40 48 51 38 46 49 34 42 45 31 39 42 28 36 39 25 33 36 24 32 35 20 28 31 18 26 29 16 24 27 13 21 24 9 17 20 6 14 17 4 12 15 2 10 13 5 13 16 5 13 16 5 13 16 5 13 16 5 13 16 5 13 16 5 13 16 5 13 16 17 25 28 17 25 28 17 25 28 17 25 28 17 25 28 17 25 28 17 25 28 17 25 27 28 32 35 28 32 33 28 32 33 28 32 33 28 32 33 28 32 33 28 32 33 28 32 33 31 35 36 31 35 36 31 35 36 31 35 36 31 35 36 31 35 36 31 35 36 33 34 36 32 30 31 34 30 31 34 30 31 34 30 31 34 30 31 34 30 31 34 30 31 34 30 31 34 30 31 34 30 31 34 30 31 34 30 31 34 30 31 34 30 31 34 30 31 34 30 31 35 29 29 35 29 29 35 29 29 35 29 29 35 29 29 35 29 29 35 29 29 35 29 29 37 31 31 37 31 31 37 31 31 37 31 31 37 31 31 37 31 31 37 31 31 37 31 31
4 2 16 4 2 16 4 2 16 4 2 16 4 2 16 4 2 16 4 2 16 4 2 16 4 2 16 4 2 16 4 2 16 4 2 16 4 2 15 4 2 15 4 2 15 4 2 15 4 2 15 4 2 15 4 2 15 4 2 15 5 3 16 5 3 16 5 3 16 5 3 16 5 3 16 5 3 16 5 3 16 5 3 16 5 5 17 5 5 17 5 5 17 5 5 17 5 5 17 5 5 17 5 5 17 5 5 17 8 8 20 8 8 20 8 8 20 8 8 20 8 8 20 8 8 20 8 8 20 8 8 20 4 3 17 4 3 17 4 3 17 4 3 17 4 3 17 4 3 17 4 3 17 4 3 17 6 5 19 6 5 19 6 5 19 6 5 19 6 5 19 6 5 19 6 5 19 4 6 18 4 8 19 3 10 18 3 10 18 4 11 19 4 11 19 5 12 20 6 13 21 6 13 21 8 15 23 12 19 27 19 26 34 27 34 42 37 44 52 46 53 61 53 60 68 56 63 71 59 66 74 61 68 76 63 70 78 66 73 81 70 77 85 73 80 88 75 82 90 77 84 92 100 107 115 96 103 111 90 97 105 81 88 96 71 78 86 62 69 77 56 63 71 52 59 65 44 51 57 42 50 53 40 48 51 37 45 48 33 41 44 30 38 41 28 36 39 26 34 37 20 28 31 18 26 29 16 24 27 13 21 24 9 17 20 6 14 17 4 12 15 2 10 13 5 13 16 5 13 16 5 13 16 5 13 16 5 13 16 5 13 16 5 13 16 5 13 16 17 25 28 17 25 28 17 25 28 17 25 28 17 25 28 17 25 28 17 25 28 17 25 27 28 32 35 28 32 33 28 32 33 28 32 33 28 32 33 28 32 33 28 32 33 28 32 33 31 35 36 31 35 36 31 35 36 31 35 36 31 35 36 31 35 36 31 35 36 33 34 36 32 30 31 34 30 31 34 30 31 34 30 31 34 30 31 34 30 31 34 30 31 34 30 31 34 30 31 34 30 31 34 30 31 34 30 31 34 30 31 34 30 31 34 30 31 34 30 31 35 29 29 35 29 29 35 29 29 35 29 29 35 29 29 35 29 29 35 29 29 35 29 29 37 31 31 37 31 31 37 31 31 37 31 31 37 31 31 37 31 31 37 31 31 37 31 31
4 2 16 4 2 16 4 2 16 4 2 16 4 2 16 4 2 16 4 2 16 4 2 16 4 2 16 4 2 16 4 2 16 4 2 16 4 2 15 4 2 15 4 2 15 4 2 15 4 2 15 4 2 15 4 2 15 4 2 15 5 3 16 5 3 16 5 3 16 5 3 16 5 3 16 5 3 16 5 3 16 5 3 16 5 5 17 5 5 17 5 5 17 5 5 17 5 5 17 5 5 17 5 5 17 5 5 17 8 8 20 8 8 20 8 8 20 8 8 20 8 8 20 8 8 20 8 8 20 8 8 20 4 3 17 4 3 17 4 3 17 4 3 17 4 3 17 4 3 17 4 3 17 4 3 17 6 5 19 6 5 19 6 5 19 6 5 19 6 5 19 6 5 19 6 5 19 4 6 18 3 7 18 2 9 17 4 11 19 6 13 21 9 16 24 11 18 26 13 20 28 14 21 29 19 26 34 22 29 37 27 34 42 35 42 50 42 49 57 50 57 65 55 62 70 58 65 73 59 66 74 61 68 76 63 70 78 66 73 81 70 77 85 73 80 88 75 82 90 77 84 92 96 103 111 93 100 108 87 94 102 80 87 95 72 79 87 65 72 80 59 66 74 56 63 69 47 54 60 46 54 57 43 51 54 40 48 51 37 45 48 33 41 44 31 39 42 30 38 41 20 28 31 18 26 29 16 24 27 13 21 24 9 17 20 6 14 17 4 12 15 2 10 13 5 13 16 5 13 16 5 13 16 5 13 16 5 13 16 5 13 16 5 13 16 5 13 16 17 25 28 17 25 28 17 25 28 17 25 28 17 25 28 17 25 28 17 25 28 17 25 27 28 32 35 28 32 33 28 32 33 28 32 33 28 32 33 28 32 33 28 32 33 28 32 33 31 35 36 31 35 36 31 35 36 31 35 36 31 35 36 31 35 36 31 35 36 33 34 36 32 30 31 34 30 31 34 30 31 34 30 31 34 30 31 34 30 31 34 30 31 34 30 31 34 30 31 34 30 31 34 30 31 34 30 31 34 30 31 34 30 31 34 30 31 34 30 31 35 29 29 35 29 29 35 29 29 35 29 29 35 29 29 35 29 29 35 29 29 35 29 29 37 31 31 37 31 31 37 31 31 37 31 31 37 31 31 37 31 31 37 31 31 37 31 31
4 2 16 4 2 16 4 2 16 4 2 16 4 2 16 4 2 16 4 2 16 4 2 16 4 2 16 4 2 16 4 2 16 4 2 16 4 2 15 4 2 15 4 2 15 4 2 15 4 2 15 4 2 15 4 2 15 4 2 15 5 3 16 5 3 16 5 3 16 5 3 16 5 3 16 5 3 16 5 3 16 5 3 16 5 5 17 5 5 17 5 5 17 5 5 17 5 5 17 5 5 17 5 5 17 5 5 17 8 8 20 8 8 20 8 8 20 8 8 20 8 8 20 8 8 20 8 8 20 8 8 20 4 3 17 4 3 17 4 3 17 4 3 17 4 3 17 4 3 17 4 3 17 4 3 17 6 5 19 6 5 19 6 5 19 6 5 19 6 5 19 6 5 19 6 5 19 4 6 18 2 6 17 1 8 16 4 11 19 9 16 24 13 20 28 17 24 32 20 27 35 22 29 37 30 37 45 33 40 48 37 44 52 42 49 57 48 55 63 54 61 69 58 65 73 60 67 75 59 66 74 61 68 76 63 70 78 66 73 81 70 77 85 73 80 88 75 82 90 77 84 92 91 98 106 89 96 104 84 91 99 79 86 94 73 80 88 68 75 83 63 70 78 61 68 74 50 57 63 49 57 60 47 55 58 43 51 54 40 48 51 37 45 48 34 42 45 33 41 44 20 28 31 18 26 29 16 24 27 13 21 24 9 17 20 6 14 17 4 12 15 2 10 13 5 13 16 5 13 16 5 13 16 5 13 16 5 13 16 5 13 16 5 13 16 5 13 16 17 25 28 17 25 28 17 25 28 17 25 28 17 25 28 17 25 28 17 25 28 17 25 27 28 32 35 28 32 33 28 32 33 28 32 33 28 32 33 28 32 33 28 32 33 28 32 33 31 35 36 31 35 36 31 35 36 31 35 36 31 35 36 31 35 36 31 35 36 33 34 36 32 30 31 34 30 31 34 30 31 34 30 31 34 30 31 34 30 31 34 30 31 34 30 31 34 30 31 34 30 31 34 30 31 34 30 31 34 30 31 34 30 31 34 30 31 34 30 31 35 29 29 35 29 29 35 29 29 35 29 29 35 29 29 35 29 29 35 29 29 35 29 29 37 31 31 37 31 31 37 31 31 37 31 31 37 31 31 37 31 31 37 31 31 37 31 31
4 2 16 4 2 16 4 2 16 4 2 16 4 2 16 4 2 16 4 2 16 4 2 16 4 2 16 4 2 16 4 2 16 4 2 16 4 2 15 4 2 15 4 2 15 4 2 15 4 2 15 4 2 15 4 2 15 4 2 15 5 3 16 5 3 16 5 3 16 5 3 16 5 3 16 5 3 16 5 3 16 5 3 16 5 5 17 5 5 17 5 5 17 5 5 17 5 5 17 5 5 17 5 5 17 5 5 17 8 8 20 8 8 20 8 8 20 8 8 20 8 8 20 8 8 20 8 8 20 8 8 20 4 3 17 4 3 17 4 3 17 4 3 17 4 3 17 4 3 17 4 3 17 4 3 17 6 5 19 6 5 19 6 5 19 6 5 19 6 5 19 6 5 19 6 5 19 4 6 18 0 4 15 1 8 16 5 12 20 11 18 26 17 24 32 23 30 38 27 34 42 29 36 44 41 48 56 43 50 58 46 53 61 50 57 65 54 61 69 58 65 73 61 68 76 62 69 77 59 66 74 61 68 76 63 70 78 66 73 81 70 77 85 73 80 88 75 82 90 77 84 92 87 94 102 85 92 100 82 89 97 78 85 93 74 81 89 70 77 85 67 74 82 65 72 78 54 61 67 52 60 63 50 58 61 47 55 58 43 51 54 40 48 51 38 46 49 36 44 47 20 28 31 18 26 29 16 24 27 13 21 24 9 17 20 6 14 17 4 12 15 2 10 13 5 13 16 5 13 16 5 13 16 5 13 16 5 13 16 5 13 16 5 13 16 5 13 16 17 25 28 17 25 28 17 25 28 17 25 28 17 25 28 17 25 28 17 25 28 17 25 27 28 32 35 28 32 33 28 32 33 28 32 33 28 32 33 28 32 33 28 32 33 28 32 33 31 35 36 31 35 36 31 35 36 31 35 36 31 35 36 31 35 36 31 35 36 33 34 36 32 30 31 34 30 31 34 30 31 34 30 31 34 30 31 34 30 31 34 30 31 34 30 31 34 30 31 34 30 31 34 30 31 34 30 31 34 30 31 34 30 31 34 30 31 34 30 31 35 29 29 35 29 29 35 29 29 35 29 29 35 29 29 35 29 29 35 29 29 35 29 29 37 31 31 37 31 31 37 31 31 37 31 31 37 31 31 37 31 31 37 31 31 37 31 31
4 2 16 4 2 16 4 2 16 4 2 16 4 2 16 4 2 16 4 2 16 4 2 16 4 2 16 4 2 16 4 2 16 4 2 16 4 2 15 4 2 15 4 2 15 4 2 15 4 2 15 4 2 15 4 2 15 4 2 15 5 3 16 5 3 16 5 3 16 5 3 16 5 3 16 5 3 16 5 3 16 5 3 16 5 5 17 5 5 17 5 5 17 5 5 17 5 5 17 5 5 17 5 5 17 5 5 17 8 8 20 8 8 20 8 8 20 8 8 20 8 8 20 8 8 20 8 8 20 8 8 20 4 3 17 4 3 17 4 3 17 4 3 17 4 3 17 4 3 17 4 3 17 4 3 17 6 5 19 6 5 19 6 5 19 6 5 19 6 5 19 6 5 19 6 5 19 4 6 18 0 3 14 0 7 15 6 13 21 13 20 28 20 27 35 27 34 42 32 39 47 35 42 50 50 57 65 51 58 66 53 60 68 55 62 70 58 65 73 61 68 76 63 70 78 64 71 79 59 66 74 61 68 76 63 70 78 66 73 81 70 77 85 73 80 88 75 82 90 77 84 92 83 90 98 82 89 97 80 87 95 77 84 92 75 82 90 72 79 87 70 77 85 69 76 82 56 63 69 55 63 66 52 60 63 49 57 60 46 54 57 42 50 53 40 48 51 39 47 50 20 28 31 18 26 29 16 24 27 13 21 24 9 17 20 6 14 17 4 12 15 2 10 13 5 13 16 5 13 16 5 13 16 5 13 16 5 13 16 5 13 16 5 13 16 5 13 16 17 25 28 17 25 28 17 25 28 17 25 28 17 25 28 17 25 28 17 25 28 17 25 27 28 32 35 28 32 33 28 32 33 28 32 33 28 32 33 28 32 33 28 32 33 28 32 33 31 35 36 31 35 36 31 35 36 31 35 36 31 35 36 31 35 36 31 35 36 33 34 36 32 30 31 34 30 31 34 30 31 34 30 31 34 30 31 34 30 31 34 30 31 34 30 31 34 30 31 34 30 31 34 30 31 34 30 31 34 30 31 34 30 31 34 30 31 34 30 31 35 29 29 35 29 29 35 29 29 35 29 29 35 29 29 35 29 29 35 29 29 35 29 29 37 31 31 37 31 31 37 31 31 37 31 31 37 31 31 37 31 31 37 31 31 37 31 31
4 2 16 4 2 15 4 2 16 4 2 15 4 2 16 4 2 15 4 2 16 4 2 15 4 2 16 4 2 15 4 2 16 4 2 15 4 2 15 4 2 13 4 2 15 4 2 13 4 2 15 4 2 13 4 2 15 4 2 13 5 3 16 5 3 14 5 3 16 5 3 14 5 3 16 5 3 14 5 3 16 5 3 16 5 5 17 5 5 17 5 5 17 5 5 17 5 5 17 5 5 17 5 5 17 5 5 17 8 8 20 8 8 20 8 8 20 8 8 20 8 8 20 8 8 20 8 8 20 8 8 20 4 4 16 2 4 16 2 4 17 2 4 16 2 4 17 2 4 16 2 4 17 2 4 16 4 6 19 4 6 18 4 6 19 4 6 18 4 6 19 4 6 18 4 6 19 4 6 18 0 3 12 0 7 15 6 13 21 14 21 29 22 29 37 29 36 44 35 42 50 38 45 53 54 61 69 55 62 70 56 63 71 58 65 73 60 67 75 62 69 77 64 71 79 65 72 80 59 66 74 61 68 74 63 70 78 66 73 79 70 77 85 73 80 86 75 82 90 77 84 90 81 88 96 81 88 94 79 86 94 77 84 90 75 82 90 73 80 86 71 78 86 71 78 84 57 64 70 56 64 67 54 62 65 50 58 61 47 55 58 44 52 55 41 49 52 40 48 51 20 28 31 18 26 29 16 24 27 13 21 24 9 17 20 6 14 17 4 12 15 2 10 13 5 13 16 5 13 16 5 13 16 5 13 16 5 13 16 5 13 16 5 13 16 5 13 16 17 25 28 17 25 28 17 25 28 17 25 28 17 25 28 17 25 28 17 25 28 17 25 28 27 32 35 27 33 33 28 32 35 27 33 33 28 32 35 27 33 33 28 32 35 27 33 33 31 35 38 30 36 36 31 35 38 30 36 36 31 35 38 30 36 36 31 35 38 33 34 36 32 30 31 34 30 31 34 30 31 34 30 31 34 30 31 34 30 31 34 30 31 34 30 31 34 30 31 34 30 31 34 30 31 34 30 31 34 30 31 34 30 31 34 30 31 34 30 29 35 29 29 35 29 29 35 29 29 35 29 29 35 29 29 35 29 29 35 29 29 35 29 29 37 31 31 37 31 31 37 31 31 37 31 31 37 31 31 37 31 31 37 31 31 37 31 31
4 2 15 4 2 13 4 2 15 4 2 13 3 1 14 3 1 12 3 1 14 3 1 12 3 1 14 3 1 12 3 1 14 3 1 12 4 2 13 4 3 11 4 2 13 4 3 11 4 2 13 4 3 11 4 2 13 4 3 11 3 1 12 3 2 10 3 1 12 3 2 10 3 1 12 3 2 10 3 1 12 3 1 12 4 2 15 4 2 15 4 2 15 4 2 15 4 2 15 4 2 15 4 2 15 4 2 15 5 3 16 5 3 16 5 3 16 5 3 16 5 3 16 5 3 16 5 3 16 4 4 16 3 5 17 2 6 15 2 6 17 2 6 15 2 6 17 2 6 15 2 6 17 2 6 15 9 13 24 8 12 21 7 11 22 6 10 19 5 9 20 3 7 16 3 7 18 2 6 15 26 33 41 27 34 42 29 36 44 33 40 48 36 43 51 39 46 54 42 49 57 43 50 58 51 58 66 53 60 68 55 62 70 58 65 73 62 69 77 65 72 80 67 74 82 69 76 84 70 75 81 70 75 79 70 75 81 70 75 79 70 75 81 70 75 79 70 75 81 70 75 79 83 88 94 85 90 94 87 92 98 90 95 99 94 99 105 97 102 106 99 104 110 101 106 112 89 96 102 86 93 99 81 88 94 75 82 88 68 75 81 62 69 75 57 64 70 54 61 67 17 24 30 13 20 26 9 16 22 7 14 20 12 19 25 22 29 35 34 41 47 41 48 54 15 24 29 14 23 28 11 20 25 8 17 22 5 14 19 1 10 15 0 8 13 0 7 12 13 22 27 13 22 27 13 22 27 13 22 27 13 22 27 13 22 27 13 22 27 14 22 25 20 28 31 20 28 30 22 27 31 20 28 30 22 27 31 20 28 30 22 27 31 20 28 30 29 34 38 27 35 37 29 34 38 27 35 37 29 34 38 27 35 37 29 34 38 30 34 37 29 27 28 32 26 26 32 26 26 32 26 26 32 26 26 32 26 26 32 26 26 32 26 26 34 28 28 34 28 28 34 28 28 34 28 28 34 28 28 34 28 28 34 28 28 34 28 28 37 28 29 37 29 27 37 29 27 37 29 27 37 29 27 37 29 27 37 29 27 37 29 27 38 30 28 38 30 28 38 30 28 38 30 28 38 30 28 38 30 28 38 30 28 38 30 28
4 2 13 4 2 13 4 2 13 4 2 13 3 1 12 3 1 12 3 1 12 3 1 12 3 1 12 3 1 12 3 1 12 3 1 12 4 3 11 4 3 11 4 3 11 4 3 11 4 3 11 4 3 11 4 3 11 4 3 11 3 2 10 3 2 10 3 2 10 3 2 10 3 2 10 3 2 10 3 2 10 3 2 10 4 2 15 4 2 15 4 2 15 4 2 15 4 2 15 4 2 15 4 2 15 4 2 15 5 3 16 5 3 16 5 3 16 5 3 16 5 3 16 5 3 16 5 3 16 4 4 16 2 6 15 0 7 15 0 7 15 0 7 15 0 7 15 0 7 15 0 7 15 0 7 15 6 13 21 6 13 21 6 13 21 5 12 20 4 11 19 4 11 19 3 10 18 3 10 18 27 34 42 28 35 43 31 38 46 34 41 49 37 44 52 41 48 56 43 50 58 44 51 59 51 58 66 53 60 68 55 62 70 58 65 73 62 69 77 65 72 80 67 74 82 69 76 82 70 75 81 70 75 79 70 75 79 70 75 79 70 75 79 70 75 79 70 75 79 70 75 79 83 88 92 85 90 94 87 92 96 90 95 99 94 99 103 97 102 106 99 104 108 101 106 110 90 97 103 87 94 100 82 89 95 76 83 89 69 76 82 63 70 76 58 65 71 55 62 68 20 27 33 16 23 29 11 18 24 9 16 22 13 20 26 22 29 35 33 40 46 40 47 53 16 25 30 15 24 29 13 22 27 9 18 23 6 15 20 3 12 17 0 9 14 0 8 13 13 22 27 13 22 27 13 22 27 13 22 27 13 22 27 13 22 27 13 22 27 13 22 27 20 28 31 20 28 31 20 28 31 20 28 31 20 28 31 20 28 31 20 28 31 20 28 31 25 33 36 25 33 36 25 33 36 25 33 36 25 33 36 25 33 36 25 33 36 28 32 35 29 27 28 32 26 26 32 26 26 32 26 26 32 26 26 32 26 26 32 26 26 32 26 26 34 28 28 34 28 28 34 28 28 34 28 28 34 28 28 34 28 28 34 28 28 34 28 28 37 29 27 37 29 27 37 29 27 37 29 27 37 29 27 37 29 27 37 29 27 37 29 27 38 30 28 38 30 28 38 30 28 38 30 28 38 30 28 38 30 28 38 30 28 38 30 28
4 2 13 4 2 13 4 2 13 4 2 13 3 1 12 3 1 12 3 1 12 3 1 12 3 1 12 3 1 12 3 1 12 3 1 12 4 3 11 4 3 11 4 3 11 4 3 11 4 3 11 4 3 11 4 3 11 4 3 11 3 2 10 3 2 10 3 2 10 3 2 10 3 2 10 3 2 10 3 2 10 3 2 10 4 2 15 4 2 15 4 2 15 4 2 15 4 2 15 4 2 15 4 2 15 4 2 15 5 3 16 5 3 16 5 3 16 5 3 16 5 3 16 5 3 16 5 3 16 4 4 16 2 6 15 0 7 15 0 7 15 0 7 15 0 7 15 0 7 15 0 7 15 0 7 15 5 12 20 6 13 21 6 13 21 7 14 22 7 14 22 8 15 23 9 16 24 9 16 24 29 36 44 31 38 46 33 40 48 36 43 51 40 47 55 43 50 58 45 52 60 47 54 62 51 58 66 53 60 68 55 62 70 58 65 73 62 69 77 65 72 80 67 74 82 69 76 82 70 75 81 70 75 79 70 75 79 70 75 79 70 75 79 70 75 79 70 75 79 70 75 79 83 88 92 85 90 94 87 92 96 90 95 99 94 99 103 97 102 106 99 104 108 101 106 110 92 99 105 90 97 103 85 92 98 79 86 92 72 79 85 65 72 78 60 67 73 58 65 71 26 33 39 21 28 34 15 22 28 12 19 25 15 22 28 23 30 36 33 40 46 40 47 53 19 28 33 17 26 31 15 24 29 12 21 26 8 17 22 5 14 19 3 12 17 1 10 15 13 22 27 13 22 27 13 22 27 13 22 27 13 22 27 13 22 27 13 22 27 13 22 27 20 28 31 20 28 31 20 28 31 20 28 31 20 28 31 20 28 31 20 28 31 20 28 31 23 31 34 23 31 34 23 31 34 23 31 34 23 31 34 23 31 34 23 31 34 26 30 33 29 27 28 32 26 26 32 26 26 32 26 26 32 26 26 32 26 26 32 26 26 32 26 26 34 28 28 34 28 28 34 28 28 34 28 28 34 28 28 34 28 28 34 28 28 34 28 28 37 29 27 37 29 27 37 29 27 37 29 27 37 29 27 37 29 27 37 29 27 37 29 27 38 30 28 38 30 28 38 30 28 38 30 28 38 30 28 38 30 28 38 30 28 38 30 28
