P3
172 37
255
61 48 58 61 48 58 61 48 58 61 48 58 57 44 54 58 45 55 61 48 58 65 52 62 69 56 66 73 60 70 76 63 73 76 64 74 93 81 93 96 86 97 103 93 104 113 103 114 123 113 124 133 123 134 140 130 141 144 134 145 138 128 139 137 127 138 137 127 138 136 126 137 136 126 137 135 125 136 135 125 136 134 124 133 135 125 133 136 127 132 139 130 135 142 133 138 145 136 141 149 140 145 151 142 147 152 143 148 154 145 150 154 145 150 152 143 148 144 135 140 130 121 126 111 102 107 93 84 89 80 74 78 38 31 39 36 31 38 33 28 35 30 25 32 27 22 29 23 18 25 21 16 23 20 15 22 12 7 14 12 7 14 12 7 14 12 7 14 12 7 14 12 7 14 12 7 14 10 7 14 8 7 15 7 7 15 7 7 15 7 7 15 7 7 15 7 7 15 7 7 15 7 7 15 10 10 18 10 10 18 10 10 18 10 10 18 10 10 18 10 10 18 10 10 18 10 10 18 7 10 17 7 10 17 7 10 17 7 10 17 7 10 17 7 10 17 7 10 17 7 10 17 11 14 21 11 14 21 11 14 21 11 14 21 11 14 21 11 14 21 11 14 21 11 14 19 10 13 18 10 14 17 10 14 17 10 14 17 10 14 17 10 14 17 10 14 17 10 14 17 4 8 11 4 8 11 4 8 11 4 8 11 4 8 11 4 8 11 4 8 11 4 8 11 7 11 12 7 11 12 7 11 12 7 11 12 7 11 12 7 11 12 7 11 12 7 11 12 10 14 15 12 16 17 17 21 22 24 28 29 30 34 35 37 41 42 42 46 47 44 48 49 61 65 64 63 67 66 68 72 71 75 79 78 81 85 84 88 92 91 93 97 96 95 99 98 97 101 100 103 107 106 111 115 114 116 120 119 116 120 119 111 115 114 103 107 106 99 101 100 80 80 80 73 71 72 60 58 59 48 46 47 41 39 40 40 38 39 43 41 42 46 44 45 43 41 42 43 41 42 43 41 42 43 41 42 43 41 42 43 41 42 43 41 42 43 41 42 40 38 39 40 38 39 40 38 39 40 38 39 40 38 39 40 38 39 40 38 39 40 38 39 44 42 43 44 42 43 44 42 43 44 42 43 44 42 43 44 42 43 44 42 43 44 42 43
59 45 58 58 46 58 59 45 58 58 46 58 55 41 54 56 44 56 60 46 59 64 52 64 69 55 68 73 61 73 77 63 76 78 66 78 97 85 97 101 89 101 108 96 110 118 106 118 128 116 130 138 126 138 145 133 147 149 137 149 140 128 142 140 128 140 139 127 141 138 126 138 136 124 138 135 123 135 134 122 136 134 122 134 135 124 132 136 125 133 138 127 135 142 131 139 145 134 142 148 137 145 151 140 148 152 141 149 156 145 153 156 145 153 153 142 150 145 134 142 129 118 126 110 99 107 91 80 88 79 69 77 34 29 36 31 28 37 29 26 35 25 22 31 22 19 28 19 16 25 16 13 22 15 12 21 8 5 14 8 5 14 8 5 14 8 5 14 8 5 14 8 5 14 8 5 14 7 6 14 5 5 13 3 6 13 3 6 13 3 6 13 3 6 13 3 6 13 3 6 13 3 6 13 8 11 18 8 11 18 8 11 18 8 11 18 8 11 18 8 11 18 8 11 18 8 11 18 7 10 17 6 11 17 6 11 17 6 11 17 6 11 17 6 11 17 6 11 17 6 11 17 10 15 21 10 15 21 10 15 21 10 15 21 10 15 21 10 15 21 10 15 21 10 15 19 10 13 18 10 14 17 10 14 17 10 14 17 10 14 17 10 14 17 10 14 17 10 14 17 4 8 11 4 8 11 4 8 11 4 8 11 4 8 11 4 8 11 4 8 11 4 8 11 7 11 14 7 11 12 7 11 12 7 11 12 7 11 12 7 11 12 7 11 12 7 11 12 10 14 15 12 16 17 17 21 22 24 28 29 30 34 35 37 41 42 42 46 47 44 48 49 61 65 64 63 67 66 68 72 71 75 79 78 81 85 84 88 92 91 93 97 96 95 99 98 96 100 99 101 105 104 109 113 112 115 119 118 115 119 118 109 113 112 101 105 104 98 100 99 80 80 80 73 72 70 60 58 59 48 47 45 41 39 40 40 39 37 43 41 42 46 45 43 43 41 42 43 42 40 43 41 42 43 42 40 43 41 42 43 42 40 43 41 42 43 41 42 40 38 39 40 38 39 40 38 39 40 38 39 40 38 39 40 38 39 40 38 39 40 38 39 44 42 43 44 42 43 44 42 43 44 42 43 44 42 43 44 42 43 44 42 43 44 42 43
57 44 61 63 52 68 69 56 73 70 59 75 91 78 95 91 80 96 95 82 99 97 86 102 101 88 105 104 93 109 107 94 111 108 95 112 135 121 138 135 121 136 135 121 138 135 121 136 135 121 138 135 121 136 135 121 138 135 121 136 136 122 139 136 122 137 136 122 139 136 122 137 136 122 139 136 122 137 136 122 139 136 122 137 145 129 142 145 129 140 145 129 140 145 129 140 145 129 140 145 129 140 145 129 140 145 129 140 154 138 149 151 135 146 145 129 140 131 115 126 111 95 106 86 70 81 63 47 58 47 35 47 10 8 19 7 10 19 7 10 19 7 10 19 7 10 19 7 10 19 7 10 19 7 10 19 7 10 19 7 10 19 7 10 19 7 10 19 7 10 19 7 10 19 7 10 19 7 10 19 8 12 21 8 12 21 8 12 21 8 12 21 8 12 21 8 12 21 8 12 21 8 12 21 10 14 23 10 14 23 10 14 23 10 14 23 10 14 23 10 14 23 10 14 23 8 15 21 8 15 21 8 16 19 8 16 19 8 16 19 8 16 19 8 16 19 8 16 19 8 16 19 7 15 18 7 15 18 7 15 18 7 15 18 7 15 18 7 15 18 7 15 18 7 15 18 12 17 21 12 17 21 12 17 21 12 17 21 12 17 21 12 17 21 12 17 21 12 17 21 12 17 21 10 15 19 8 13 17 5 10 14 1 6 10 0 3 7 0 1 5 0 1 4 0 1 4 0 1 4 0 3 6 1 6 9 5 10 13 8 13 16 10 15 18 12 17 20 12 17 20 14 19 22 19 24 27 26 31 34 32 37 40 39 44 47 44 49 52 46 52 52 59 63 62 61 66 62 63 68 64 66 71 67 70 75 71 73 78 74 75 80 76 77 82 78 91 96 92 92 97 93 95 100 96 98 103 99 101 106 102 105 110 106 107 112 108 110 112 109 79 79 77 72 71 67 59 58 56 47 46 42 40 39 37 39 38 34 42 41 39 45 44 40 42 41 39 42 41 37 42 41 39 42 41 37 42 41 39 42 41 37 42 41 39 42 41 39 40 39 37 40 39 37 40 39 37 40 39 37 40 39 37 40 39 37 40 39 37 40 39 37 38 37 35 38 37 35 38 37 35 38 37 35 38 37 35 38 37 35 38 37 35 38 37 35
60 49 66 67 56 73 72 61 78 74 63 80 93 82 99 94 83 100 96 85 102 100 89 106 103 92 109 106 95 112 109 98 115 111 98 116 135 121 138 137 120 138 137 120 138 137 120 138 137 120 138 137 120 138 137 120 138 137 120 138 138 121 139 138 121 139 138 121 139 138 121 139 138 121 139 138 121 139 138 121 139 138 121 137 144 126 142 144 126 140 144 126 140 144 126 140 144 126 140 144 126 140 144 126 140 144 126 140 152 134 148 150 132 146 143 125 139 130 112 126 109 91 105 84 66 80 62 44 58 44 32 44 10 8 21 6 10 21 6 10 21 6 10 21 6 10 21 6 10 21 6 10 21 6 10 21 6 10 21 6 10 21 6 10 21 6 10 21 6 10 21 6 10 21 6 10 21 6 10 21 6 13 21 6 13 21 6 13 21 6 13 21 6 13 21 6 13 21 6 13 21 6 13 21 8 15 23 8 15 23 8 15 23 8 15 23 8 15 23 8 15 23 8 15 23 8 15 21 7 16 21 7 17 19 7 17 19 7 17 19 7 17 19 7 17 19 7 17 19 7 17 19 6 16 18 6 16 18 6 16 18 6 16 18 6 16 18 6 16 18 6 16 18 6 16 18 12 17 21 12 17 21 12 17 21 12 17 21 12 17 21 12 17 21 12 17 21 12 17 21 12 17 21 10 15 19 8 13 17 5 10 14 1 6 10 0 3 7 0 1 5 0 1 5 0 1 4 0 1 4 0 3 6 1 6 9 5 10 13 8 13 16 10 15 18 12 17 20 12 17 20 14 19 22 19 24 27 26 31 34 32 37 40 39 44 47 44 49 52 46 52 52 59 63 62 61 66 62 63 68 64 66 71 67 70 75 71 73 78 74 75 80 76 77 82 78 90 95 91 91 96 92 93 98 94 97 102 98 100 105 101 103 108 104 106 111 107 109 111 108 79 80 75 72 71 67 59 58 54 47 46 42 40 39 35 39 38 34 42 41 37 45 44 40 42 41 37 42 41 37 42 41 37 42 41 37 42 41 37 42 41 37 42 41 37 42 41 37 40 39 37 40 39 37 40 39 37 40 39 37 40 39 37 40 39 37 40 39 37 40 39 37 38 37 35 38 37 35 38 37 35 38 37 35 38 37 35 38 37 35 38 37 35 38 37 35
68 57 74 74 63 80 79 68 85 82 71 88 98 87 104 99 88 105 101 90 107 104 93 110 108 97 114 111 100 117 114 103 120 116 103 121 135 121 138 137 120 138 137 120 138 137 120 138 137 120 138 137 120 138 137 120 138 137 120 138 138 121 139 138 121 139 138 121 139 138 121 139 138 121 139 138 121 139 138 121 139 138 121 137 142 124 140 142 124 138 142 124 138 142 124 138 142 124 138 142 124 138 142 124 138 142 124 138 147 129 143 145 127 141 138 120 134 125 107 121 104 86 100 79 61 75 57 39 53 39 27 39 10 8 21 6 10 21 6 10 21 6 10 21 6 10 21 6 10 21 6 10 21 6 10 21 6 10 21 6 10 21 6 10 21 6 10 21 6 10 21 6 10 21 6 10 21 6 10 21 6 13 21 6 13 21 6 13 21 6 13 21 6 13 21 6 13 21 6 13 21 6 13 21 8 15 23 8 15 23 8 15 23 8 15 23 8 15 23 8 15 23 8 15 23 8 15 21 7 16 21 7 17 19 7 17 19 7 17 19 7 17 19 7 17 19 7 17 19 7 17 19 6 16 18 6 16 18 6 16 18 6 16 18 6 16 18 6 16 18 6 16 18 6 16 18 12 17 21 12 17 21 12 17 21 12 17 21 12 17 21 12 17 21 12 17 21 12 17 21 12 17 21 10 15 19 8 13 17 5 10 14 1 6 10 0 3 7 0 1 5 0 1 5 0 1 4 0 1 4 0 3 6 1 6 9 5 10 13 8 13 16 10 15 18 12 17 20 12 17 20 14 19 22 19 24 27 26 31 34 32 37 40 39 44 47 44 49 52 46 52 52 59 63 62 61 66 62 63 68 64 66 71 67 70 75 71 73 78 74 75 80 76 77 82 78 87 92 88 89 94 90 91 96 92 94 99 95 98 103 99 101 106 102 103 108 104 107 109 106 79 80 75 72 71 67 59 58 54 47 46 42 40 39 35 39 38 34 42 41 37 45 44 40 42 41 37 42 41 37 42 41 37 42 41 37 42 41 37 42 41 37 42 41 37 42 41 37 40 39 37 40 39 37 40 39 37 40 39 37 40 39 37 40 39 37 40 39 37 40 39 37 38 37 35 38 37 35 38 37 35 38 37 35 38 37 35 38 37 35 38 37 35 38 37 35
77 66 83 84 73 90 89 78 95 91 80 97 104 93 110 105 94 111 108 97 114 111 100 117 114 103 120 117 106 123 120 109 126 122 109 127 135 121 138 137 120 138 137 120 138 137 120 138 137 120 138 137 120 138 137 120 138 137 120 138 138 121 139 138 121 139 138 121 139 138 121 139 138 121 139 138 121 139 138 121 139 138 121 137 139 121 137 139 121 135 139 121 135 139 121 135 139 121 135 139 121 135 139 121 135 139 121 135 141 123 137 139 121 135 132 114 128 118 100 114 98 80 94 73 55 69 50 32 46 33 21 33 10 8 21 6 10 21 6 10 21 6 10 21 6 10 21 6 10 21 6 10 21 6 10 21 6 10 21 6 10 21 6 10 21 6 10 21 6 10 21 6 10 21 6 10 21 6 10 21 6 13 21 6 13 21 6 13 21 6 13 21 6 13 21 6 13 21 6 13 21 6 13 21 8 15 23 8 15 23 8 15 23 8 15 23 8 15 23 8 15 23 8 15 23 8 15 21 7 16 21 7 17 19 7 17 19 7 17 19 7 17 19 7 17 19 7 17 19 7 17 19 6 16 18 6 16 18 6 16 18 6 16 18 6 16 18 6 16 18 6 16 18 6 16 18 12 17 21 12 17 21 12 17 21 12 17 21 12 17 21 12 17 21 12 17 21 12 17 21 12 17 21 10 15 19 8 13 17 5 10 14 1 6 10 0 3 7 0 1 5 0 1 5 0 1 4 0 1 4 0 3 6 1 6 9 5 10 13 8 13 16 10 15 18 12 17 20 12 17 20 14 19 22 19 24 27 26 31 34 32 37 40 39 44 47 44 49 52 46 52 52 59 63 62 61 66 62 63 68 64 66 71 67 70 75 71 73 78 74 75 80 76 77 82 78 84 89 85 85 90 86 88 93 89 91 96 92 94 99 95 98 103 99 100 105 101 103 105 102 79 80 75 72 71 67 59 58 54 47 46 42 40 39 35 39 38 34 42 41 37 45 44 40 42 41 37 42 41 37 42 41 37 42 41 37 42 41 37 42 41 37 42 41 37 42 41 37 40 39 37 40 39 37 40 39 37 40 39 37 40 39 37 40 39 37 40 39 37 40 39 37 38 37 35 38 37 35 38 37 35 38 37 35 38 37 35 38 37 35 38 37 35 38 37 35
88 77 94 94 83 100 99 88 105 102 91 108 111 100 117 112 101 118 115 104 121 118 107 124 121 110 127 124 113 130 127 116 133 129 116 134 135 121 138 137 120 138 137 120 138 137 120 138 137 120 138 137 120 138 137 120 138 137 120 138 138 121 139 138 121 139 138 121 139 138 121 139 138 121 139 138 121 139 138 121 139 138 121 137 135 117 133 135 117 131 135 117 131 135 117 131 135 117 131 135 117 131 135 117 131 135 117 131 134 116 130 132 114 128 125 107 121 112 94 108 91 73 87 66 48 62 43 25 39 26 14 26 10 8 21 6 10 21 6 10 21 6 10 21 6 10 21 6 10 21 6 10 21 6 10 21 6 10 21 6 10 21 6 10 21 6 10 21 6 10 21 6 10 21 6 10 21 6 10 21 6 13 21 6 13 21 6 13 21 6 13 21 6 13 21 6 13 21 6 13 21 6 13 21 8 15 23 8 15 23 8 15 23 8 15 23 8 15 23 8 15 23 8 15 23 8 15 21 7 16 21 7 17 19 7 17 19 7 17 19 7 17 19 7 17 19 7 17 19 7 17 19 6 16 18 6 16 18 6 16 18 6 16 18 6 16 18 6 16 18 6 16 18 6 16 18 12 17 21 12 17 21 12 17 21 12 17 21 12 17 21 12 17 21 12 17 21 12 17 21 12 17 21 10 15 19 8 13 17 5 10 14 1 6 10 0 3 7 0 1 5 0 1 5 0 1 4 0 1 4 0 3 6 1 6 9 5 10 13 8 13 16 10 15 18 12 17 20 12 17 20 14 19 22 19 24 27 26 31 34 32 37 40 39 44 47 44 49 52 46 52 52 59 63 62 61 66 62 63 68 64 66 71 67 70 75 71 73 78 74 75 80 76 77 82 78 81 86 82 82 87 83 84 89 85 88 93 89 91 96 92 94 99 95 97 102 98 100 102 99 79 80 75 72 71 67 59 58 54 47 46 42 40 39 35 39 38 34 42 41 37 45 44 40 42 41 37 42 41 37 42 41 37 42 41 37 42 41 37 42 41 37 42 41 37 42 41 37 40 39 37 40 39 37 40 39 37 40 39 37 40 39 37 40 39 37 40 39 37 40 39 37 38 37 35 38 37 35 38 37 35 38 37 35 38 37 35 38 37 35 38 37 35 38 37 35
97 86 103 104 93 110 108 97 114 111 100 117 117 106 123 118 107 124 121 110 127 124 113 130 128 117 134 131 120 137 133 122 139 135 122 140 135 121 138 137 120 138 137 120 138 137 120 138 137 120 138 137 120 138 137 120 138 137 120 138 138 121 139 138 121 139 138 121 139 138 121 139 138 121 139 138 121 139 138 121 139 138 121 137 132 114 130 132 114 128 132 114 128 132 114 128 132 114 128 132 114 128 132 114 128 132 114 128 128 110 124 125 107 121 119 101 115 105 87 101 84 66 80 60 42 56 37 19 33 20 8 20 10 8 21 6 10 21 6 10 21 6 10 21 6 10 21 6 10 21 6 10 21 6 10 21 6 10 21 6 10 21 6 10 21 6 10 21 6 10 21 6 10 21 6 10 21 6 10 21 6 13 21 6 13 21 6 13 21 6 13 21 6 13 21 6 13 21 6 13 21 6 13 21 8 15 23 8 15 23 8 15 23 8 15 23 8 15 23 8 15 23 8 15 23 8 15 21 7 16 21 7 17 19 7 17 19 7 17 19 7 17 19 7 17 19 7 17 19 7 17 19 6 16 18 6 16 18 6 16 18 6 16 18 6 16 18 6 16 18 6 16 18 6 16 18 12 17 21 12 17 21 12 17 21 12 17 21 12 17 21 12 17 21 12 17 21 12 17 21 12 17 21 10 15 19 8 13 17 5 10 14 1 6 10 0 3 7 0 1 5 0 1 5 0 1 4 0 1 4 0 3 6 1 6 9 5 10 13 8 13 16 10 15 18 12 17 20 12 17 20 14 19 22 19 24 27 26 31 34 32 37 40 39 44 47 44 49 52 46 52 52 59 63 62 61 66 62 63 68 64 66 71 67 70 75 71 73 78 74 75 80 76 77 82 78 77 82 78 79 84 80 81 86 82 84 89 85 88 93 89 91 96 92 93 98 94 97 99 96 79 80 75 72 71 67 59 58 54 47 46 42 40 39 35 39 38 34 42 41 37 45 44 40 42 41 37 42 41 37 42 41 37 42 41 37 42 41 37 42 41 37 42 41 37 42 41 37 40 39 37 40 39 37 40 39 37 40 39 37 40 39 37 40 39 37 40 39 37 40 39 37 38 37 35 38 37 35 38 37 35 38 37 35 38 37 35 38 37 35 38 37 35 38 37 35
105 94 111 111 100 117 116 105 122 118 107 124 122 111 128 123 112 129 126 115 132 129 118 135 132 121 138 136 125 142 138 127 144 140 127 145 135 121 138 137 120 138 137 120 138 137 120 138 137 120 138 137 120 138 137 120 138 137 120 138 138 121 139 138 121 139 138 121 139 138 121 139 138 121 139 138 121 139 138 121 139 138 121 137 130 112 128 130 112 126 130 112 126 130 112 126 130 112 126 130 112 126 130 112 126 130 112 126 123 105 119 120 102 116 114 96 110 100 82 96 80 62 76 55 37 51 32 14 28 15 3 15 10 8 21 6 10 21 6 10 21 6 10 21 6 10 21 6 10 21 6 10 21 6 10 21 6 10 21 6 10 21 6 10 21 6 10 21 6 10 21 6 10 21 6 10 21 6 10 21 6 13 21 6 13 21 6 13 21 6 13 21 6 13 21 6 13 21 6 13 21 6 13 21 8 15 23 8 15 23 8 15 23 8 15 23 8 15 23 8 15 23 8 15 23 8 15 21 7 16 21 7 17 19 7 17 19 7 17 19 7 17 19 7 17 19 7 17 19 7 17 19 6 16 18 6 16 18 6 16 18 6 16 18 6 16 18 6 16 18 6 16 18 6 16 18 12 17 21 12 17 21 12 17 21 12 17 21 12 17 21 12 17 21 12 17 21 12 17 21 12 17 21 10 15 19 8 13 17 5 10 14 1 6 10 0 3 7 0 1 5 0 1 5 0 1 4 0 1 4 0 3 6 1 6 9 5 10 13 8 13 16 10 15 18 12 17 20 12 17 20 14 19 22 19 24 27 26 31 34 32 37 40 39 44 47 44 49 52 46 52 52 59 63 62 61 66 62 63 68 64 66 71 67 70 75 71 73 78 74 75 80 76 77 82 78 75 80 76 76 81 77 79 84 80 82 87 83 85 90 86 89 94 90 91 96 92 94 96 93 79 80 75 72 71 67 59 58 54 47 46 42 40 39 35 39 38 34 42 41 37 45 44 40 42 41 37 42 41 37 42 41 37 42 41 37 42 41 37 42 41 37 42 41 37 42 41 37 40 39 37 40 39 37 40 39 37 40 39 37 40 39 37 40 39 37 40 39 37 40 39 37 38 37 35 38 37 35 38 37 35 38 37 35 38 37 35 38 37 35 38 37 35 38 37 35
108 97 114 115 104 121 120 109 126 122 111 128 125 114 131 126 115 132 128 117 134 132 121 138 135 124 141 138 127 144 141 130 147 143 130 148 135 121 138 137 120 138 137 120 138 137 120 138 137 120 138 137 120 138 137 120 138 137 120 138 138 121 139 138 121 139 138 121 139 138 121 139 138 121 139 138 121 139 138 121 139 138 121 137 128 110 126 128 110 124 128 110 124 128 110 124 128 110 124 128 110 124 128 110 124 128 110 124 120 102 116 118 100 114 111 93 107 98 80 94 77 59 73 52 34 48 30 12 26 12 0 12 10 8 21 6 10 21 6 10 21 6 10 21 6 10 21 6 10 21 6 10 21 6 10 21 6 10 21 6 10 21 6 10 21 6 10 21 6 10 21 6 10 21 6 10 21 6 10 21 6 13 21 6 13 21 6 13 21 6 13 21 6 13 21 6 13 21 6 13 21 6 13 21 8 15 23 8 15 23 8 15 23 8 15 23 8 15 23 8 15 23 8 15 23 8 15 21 7 16 21 7 17 19 7 17 19 7 17 19 7 17 19 7 17 19 7 17 19 7 17 19 6 16 18 6 16 18 6 16 18 6 16 18 6 16 18 6 16 18 6 16 18 6 16 18 12 17 21 12 17 21 12 17 21 12 17 21 12 17 21 12 17 21 12 17 21 12 17 21 12 17 21 10 15 19 8 13 17 5 10 14 1 6 10 0 3 7 0 1 5 0 1 5 0 1 4 0 1 4 0 3 6 1 6 9 5 10 13 8 13 16 10 15 18 12 17 20 12 17 20 14 19 22 19 24 27 26 31 34 32 37 40 39 44 47 44 49 52 46 52 52 59 63 62 61 66 62 63 68 64 66 71 67 70 75 71 73 78 74 75 80 76 77 82 78 74 79 75 75 80 76 77 82 78 81 86 82 84 89 85 87 92 88 90 95 91 93 95 92 79 80 75 72 71 67 59 58 54 47 46 42 40 39 35 39 38 34 42 41 37 45 44 40 42 41 37 42 41 37 42 41 37 42 41 37 42 41 37 42 41 37 42 41 37 42 41 37 40 39 37 40 39 37 40 39 37 40 39 37 40 39 37 40 39 37 40 39 37 40 39 37 38 37 35 38 37 35 38 37 35 38 37 35 38 37 35 38 37 35 38 37 35 38 37 35
118 107 124 122 111 128 126 115 132 127 116 133 135 124 141 135 124 141 135 124 141 135 124 141 135 124 141 135 124 141 135 124 141 136 123 141 122 108 125 124 107 125 124 107 125 124 107 125 124 107 125 124 107 125 124 107 125 124 107 125 127 110 128 127 110 128 127 110 128 127 110 128 127 110 128 127 110 128 127 110 128 127 110 126 122 104 120 122 104 118 122 104 118 122 104 118 122 104 118 122 104 118 122 104 118 122 104 118 123 105 119 110 92 106 89 71 85 66 48 62 47 29 43 36 18 32 31 13 27 25 13 25 10 8 21 6 10 21 6 10 21 6 10 21 6 10 21 6 10 21 6 10 21 6 10 21 8 12 23 8 12 23 8 12 23 8 12 23 8 12 23 8 12 23 8 12 23 8 12 23 5 12 20 5 12 20 5 12 20 5 12 20 5 12 20 5 12 20 5 12 20 5 12 20 8 15 23 8 15 23 8 15 23 8 15 23 8 15 23 8 15 23 8 15 23 8 15 21 8 17 22 8 18 20 8 18 20 8 18 20 8 18 20 8 18 20 8 18 20 8 18 20 7 17 19 7 17 19 7 17 19 7 17 19 7 17 19 7 17 19 7 17 19 7 17 19 10 15 19 10 15 19 10 15 19 10 15 19 10 15 19 10 15 19 10 15 19 10 15 19 1 6 10 1 6 10 1 6 10 1 6 10 1 6 10 1 6 10 1 6 10 1 6 10 3 8 11 3 8 11 3 8 11 3 8 11 3 8 11 3 8 11 3 8 11 3 8 11 18 23 26 20 25 28 22 27 30 25 30 33 29 34 37 32 37 40 34 39 42 36 42 42 48 52 51 50 55 51 52 57 53 55 60 56 59 64 60 62 67 63 64 69 65 66 71 67 78 83 79 78 83 79 78 83 79 78 83 79 78 83 79 78 83 79 78 83 79 80 82 79 63 64 59 62 61 57 57 56 52 50 49 45 44 43 39 37 36 32 32 31 27 30 29 25 34 33 29 34 33 29 34 33 29 34 33 29 34 33 29 34 33 29 34 33 29 34 33 29 35 34 32 35 34 32 35 34 32 35 34 32 35 34 32 35 34 32 35 34 32 35 34 32 38 37 35 38 37 35 38 37 35 38 37 35 38 37 35 38 37 35 38 37 35 38 37 35
119 108 125 122 111 128 125 114 131 127 116 133 133 122 139 133 122 139 133 122 139 133 122 139 133 122 139 133 122 139 133 122 139 134 121 139 122 108 125 124 107 125 124 107 125 124 107 125 124 107 125 124 107 125 124 107 125 124 107 125 127 110 128 127 110 128 127 110 128 127 110 128 127 110 128 127 110 128 127 110 128 127 110 126 122 104 120 122 104 118 122 104 118 122 104 118 122 104 118 122 104 118 122 104 118 122 104 118 118 100 114 106 88 102 85 67 81 63 45 59 45 27 41 34 16 30 30 12 26 24 12 24 10 8 21 6 10 21 6 10 21 6 10 21 6 10 21 6 10 21 6 10 21 6 10 21 8 12 23 8 12 23 8 12 23 8 12 23 8 12 23 8 12 23 8 12 23 8 12 23 5 12 20 5 12 20 5 12 20 5 12 20 5 12 20 5 12 20 5 12 20 5 12 20 8 15 23 8 15 23 8 15 23 8 15 23 8 15 23 8 15 23 8 15 23 8 15 21 8 17 22 8 18 20 8 18 20 8 18 20 8 18 20 8 18 20 8 18 20 8 18 20 7 17 19 7 17 19 7 17 19 7 17 19 7 17 19 7 17 19 7 17 19 7 17 19 10 15 19 10 15 19 10 15 19 10 15 19 10 15 19 10 15 19 10 15 19 10 15 19 1 6 10 1 6 10 1 6 10 1 6 10 1 6 10 1 6 10 1 6 10 1 6 10 3 8 11 3 8 11 3 8 11 3 8 11 3 8 11 3 8 11 3 8 11 3 8 11 18 23 26 20 25 28 22 27 30 25 30 33 29 34 37 32 37 40 34 39 42 36 42 42 48 52 51 50 55 51 52 57 53 55 60 56 59 64 60 62 67 63 64 69 65 66 71 67 76 81 77 76 81 77 76 81 77 76 81 77 76 81 77 76 81 77 76 81 77 78 80 77 63 64 59 62 61 57 57 56 52 50 49 45 44 43 39 37 36 32 32 31 27 30 29 25 34 33 29 34 33 29 34 33 29 34 33 29 34 33 29 34 33 29 34 33 29 34 33 29 35 34 32 35 34 32 35 34 32 35 34 32 35 34 32 35 34 32 35 34 32 35 34 32 38 37 35 38 37 35 38 37 35 38 37 35 38 37 35 38 37 35 38 37 35 38 37 35
120 109 126 123 112 129 125 114 131 126 115 132 131 120 137 131 120 137 131 120 137 131 120 137 131 120 137 131 120 137 131 120 137 132 119 137 122 108 125 124 107 125 124 107 125 124 107 125 124 107 125 124 107 125 124 107 125 124 107 125 127 110 128 127 110 128 127 110 128 127 110 128 127 110 128 127 110 128 127 110 128 127 110 126 122 104 120 122 104 118 122 104 118 122 104 118 122 104 118 122 104 118 122 104 118 122 104 118 110 92 106 98 80 94 78 60 74 57 39 53 41 23 37 31 13 27 28 10 24 23 11 23 10 8 21 6 10 21 6 10 21 6 10 21 6 10 21 6 10 21 6 10 21 6 10 21 8 12 23 8 12 23 8 12 23 8 12 23 8 12 23 8 12 23 8 12 23 8 12 23 5 12 20 5 12 20 5 12 20 5 12 20 5 12 20 5 12 20 5 12 20 5 12 20 8 15 23 8 15 23 8 15 23 8 15 23 8 15 23 8 15 23 8 15 23 8 15 21 8 17 22 8 18 20 8 18 20 8 18 20 8 18 20 8 18 20 8 18 20 8 18 20 7 17 19 7 17 19 7 17 19 7 17 19 7 17 19 7 17 19 7 17 19 7 17 19 10 15 19 10 15 19 10 15 19 10 15 19 10 15 19 10 15 19 10 15 19 10 15 19 1 6 10 1 6 10 1 6 10 1 6 10 1 6 10 1 6 10 1 6 10 1 6 10 3 8 11 3 8 11 3 8 11 3 8 11 3 8 11 3 8 11 3 8 11 3 8 11 18 23 26 20 25 28 22 27 30 25 30 33 29 34 37 32 37 40 34 39 42 36 42 42 48 52 51 50 55 51 52 57 53 55 60 56 59 64 60 62 67 63 64 69 65 66 71 67 74 79 75 74 79 75 74 79 75 74 79 75 74 79 75 74 79 75 74 79 75 76 78 75 63 64 59 62 61 57 57 56 52 50 49 45 44 43 39 37 36 32 32 31 27 30 29 25 34 33 29 34 33 29 34 33 29 34 33 29 34 33 29 34 33 29 34 33 29 34 33 29 35 34 32 35 34 32 35 34 32 35 34 32 35 34 32 35 34 32 35 34 32 35 34 32 38 37 35 38 37 35 38 37 35 38 37 35 38 37 35 38 37 35 38 37 35 38 37 35
123 112 129 124 113 130 124 113 130 125 114 131 128 117 134 128 117 134 128 117 134 128 117 134 128 117 134 128 117 134 128 117 134 129 116 134 122 108 125 124 107 125 124 107 125 124 107 125 124 107 125 124 107 125 124 107 125 124 107 125 127 110 128 127 110 128 127 110 128 127 110 128 127 110 128 127 110 128 127 110 128 127 110 126 122 104 120 122 104 118 122 104 118 122 104 118 122 104 118 122 104 118 122 104 118 122 104 118 99 81 95 88 70 84 69 51 65 50 32 46 35 17 31 27 9 23 25 7 21 21 9 21 10 8 21 6 10 21 6 10 21 6 10 21 6 10 21 6 10 21 6 10 21 6 10 21 8 12 23 8 12 23 8 12 23 8 12 23 8 12 23 8 12 23 8 12 23 8 12 23 5 12 20 5 12 20 5 12 20 5 12 20 5 12 20 5 12 20 5 12 20 5 12 20 8 15 23 8 15 23 8 15 23 8 15 23 8 15 23 8 15 23 8 15 23 8 15 21 8 17 22 8 18 20 8 18 20 8 18 20 8 18 20 8 18 20 8 18 20 8 18 20 7 17 19 7 17 19 7 17 19 7 17 19 7 17 19 7 17 19 7 17 19 7 17 19 10 15 19 10 15 19 10 15 19 10 15 19 10 15 19 10 15 19 10 15 19 10 15 19 1 6 10 1 6 10 1 6 10 1 6 10 1 6 10 1 6 10 1 6 10 1 6 10 3 8 11 3 8 11 3 8 11 3 8 11 3 8 11 3 8 11 3 8 11 3 8 11 18 23 26 20 25 28 22 27 30 25 30 33 29 34 37 32 37 40 34 39 42 36 42 42 48 52 51 50 55 51 52 57 53 55 60 56 59 64 60 62 67 63 64 69 65 66 71 67 71 76 72 71 76 72 71 76 72 71 76 72 71 76 72 71 76 72 71 76 72 73 75 72 63 64 59 62 61 57 57 56 52 50 49 45 44 43 39 37 36 32 32 31 27 30 29 25 34 33 29 34 33 29 34 33 29 34 33 29 34 33 29 34 33 29 34 33 29 34 33 29 35 34 32 35 34 32 35 34 32 35 34 32 35 34 32 35 34 32 35 34 32 35 34 32 38 37 35 38 37 35 38 37 35 38 37 35 38 37 35 38 37 35 38 37 35 38 37 35
125 114 131 124 113 130 124 113 130 123 112 129 124 113 130 124 113 130 124 113 130 124 113 130 124 113 130 124 113 130 124 113 130 125 112 130 122 108 125 124 107 125 124 107 125 124 107 125 124 107 125 124 107 125 124 107 125 124 107 125 127 110 128 127 110 128 127 110 128 127 110 128 127 110 128 127 110 128 127 110 128 127 110 126 122 104 120 122 104 118 122 104 118 122 104 118 122 104 118 122 104 118 122 104 118 122 104 118 87 69 83 77 59 73 60 42 56 42 24 38 30 12 26 23 5 19 22 4 18 19 7 19 10 8 21 6 10 21 6 10 21 6 10 21 6 10 21 6 10 21 6 10 21 6 10 21 8 12 23 8 12 23 8 12 23 8 12 23 8 12 23 8 12 23 8 12 23 8 12 23 5 12 20 5 12 20 5 12 20 5 12 20 5 12 20 5 12 20 5 12 20 5 12 20 8 15 23 8 15 23 8 15 23 8 15 23 8 15 23 8 15 23 8 15 23 8 15 21 8 17 22 8 18 20 8 18 20 8 18 20 8 18 20 8 18 20 8 18 20 8 18 20 7 17 19 7 17 19 7 17 19 7 17 19 7 17 19 7 17 19 7 17 19 7 17 19 10 15 19 10 15 19 10 15 19 10 15 19 10 15 19 10 15 19 10 15 19 10 15 19 1 6 10 1 6 10 1 6 10 1 6 10 1 6 10 1 6 10 1 6 10 1 6 10 3 8 11 3 8 11 3 8 11 3 8 11 3 8 11 3 8 11 3 8 11 3 8 11 18 23 26 20 25 28 22 27 30 25 30 33 29 34 37 32 37 40 34 39 42 36 42 42 48 52 51 50 55 51 52 57 53 55 60 56 59 64 60 62 67 63 64 69 65 66 71 67 67 72 68 67 72 68 67 72 68 67 72 68 67 72 68 67 72 68 67 72 68 69 71 68 63 64 59 62 61 57 57 56 52 50 49 45 44 43 39 37 36 32 32 31 27 30 29 25 34 33 29 34 33 29 34 33 29 34 33 29 34 33 29 34 33 29 34 33 29 34 33 29 35 34 32 35 34 32 35 34 32 35 34 32 35 34 32 35 34 32 35 34 32 35 34 32 38 37 35 38 37 35 38 37 35 38 37 35 38 37 35 38 37 35 38 37 35 38 37 35
128 117 134 125 114 131 123 112 129 122 111 128 121 110 127 121 110 127 121 110 127 121 110 127 121 110 127 121 110 127 121 110 127 122 109 127 122 108 125 124 107 125 124 107 125 124 107 125 124 107 125 124 107 125 124 107 125 124 107 125 127 110 128 127 110 128 127 110 128 127 110 128 127 110 128 127 110 128 127 110 128 127 110 126 122 104 120 122 104 118 122 104 118 122 104 118 122 104 118 122 104 118 122 104 118 122 104 118 77 59 73 67 49 63 51 33 47 35 17 31 24 6 20 19 1 15 20 2 16 17 5 17 10 8 21 6 10 21 6 10 21 6 10 21 6 10 21 6 10 21 6 10 21 6 10 21 8 12 23 8 12 23 8 12 23 8 12 23 8 12 23 8 12 23 8 12 23 8 12 23 5 12 20 5 12 20 5 12 20 5 12 20 5 12 20 5 12 20 5 12 20 5 12 20 8 15 23 8 15 23 8 15 23 8 15 23 8 15 23 8 15 23 8 15 23 8 15 21 8 17 22 8 18 20 8 18 20 8 18 20 8 18 20 8 18 20 8 18 20 8 18 20 7 17 19 7 17 19 7 17 19 7 17 19 7 17 19 7 17 19 7 17 19 7 17 19 10 15 19 10 15 19 10 15 19 10 15 19 10 15 19 10 15 19 10 15 19 10 15 19 1 6 10 1 6 10 1 6 10 1 6 10 1 6 10 1 6 10 1 6 10 1 6 10 3 8 11 3 8 11 3 8 11 3 8 11 3 8 11 3 8 11 3 8 11 3 8 11 18 23 26 20 25 28 22 27 30 25 30 33 29 34 37 32 37 40 34 39 42 36 42 42 48 52 51 50 55 51 52 57 53 55 60 56 59 64 60 62 67 63 64 69 65 66 71 67 64 69 65 64 69 65 64 69 65 64 69 65 64 69 65 64 69 65 64 69 65 66 68 65 63 64 59 62 61 57 57 56 52 50 49 45 44 43 39 37 36 32 32 31 27 30 29 25 34 33 29 34 33 29 34 33 29 34 33 29 34 33 29 34 33 29 34 33 29 34 33 29 35 34 32 35 34 32 35 34 32 35 34 32 35 34 32 35 34 32 35 34 32 35 34 32 38 37 35 38 37 35 38 37 35 38 37 35 38 37 35 38 37 35 38 37 35 38 37 35
129 118 135 126 115 132 123 112 129 121 110 127 119 108 125 119 108 125 119 108 125 119 108 125 119 108 125 119 108 125 119 108 125 120 107 125 122 108 125 124 107 125 124 107 125 124 107 125 124 107 125 124 107 125 124 107 125 124 107 125 127 110 128 127 110 128 127 110 128 127 110 128 127 110 128 127 110 128 127 110 128 127 110 126 122 104 120 122 104 118 122 104 118 122 104 118 122 104 118 122 104 118 122 104 118 122 104 118 68 50 64 59 41 55 44 26 40 30 12 26 20 2 16 16 0 12 18 0 14 15 3 15 10 8 21 6 10 21 6 10 21 6 10 21 6 10 21 6 10 21 6 10 21 6 10 21 8 12 23 8 12 23 8 12 23 8 12 23 8 12 23 8 12 23 8 12 23 8 12 23 5 12 20 5 12 20 5 12 20 5 12 20 5 12 20 5 12 20 5 12 20 5 12 20 8 15 23 8 15 23 8 15 23 8 15 23 8 15 23 8 15 23 8 15 23 8 15 21 8 17 22 8 18 20 8 18 20 8 18 20 8 18 20 8 18 20 8 18 20 8 18 20 7 17 19 7 17 19 7 17 19 7 17 19 7 17 19 7 17 19 7 17 19 7 17 19 10 15 19 10 15 19 10 15 19 10 15 19 10 15 19 10 15 19 10 15 19 10 15 19 1 6 10 1 6 10 1 6 10 1 6 10 1 6 10 1 6 10 1 6 10 1 6 10 3 8 11 3 8 11 3 8 11 3 8 11 3 8 11 3 8 11 3 8 11 3 8 11 18 23 26 20 25 28 22 27 30 25 30 33 29 34 37 32 37 40 34 39 42 36 42 42 48 52 51 50 55 51 52 57 53 55 60 56 59 64 60 62 67 63 64 69 65 66 71 67 62 67 63 62 67 63 62 67 63 62 67 63 62 67 63 62 67 63 62 67 63 64 66 63 63 64 59 62 61 57 57 56 52 50 49 45 44 43 39 37 36 32 32 31 27 30 29 25 34 33 29 34 33 29 34 33 29 34 33 29 34 33 29 34 33 29 34 33 29 34 33 29 35 34 32 35 34 32 35 34 32 35 34 32 35 34 32 35 34 32 35 34 32 35 34 32 38 37 35 38 37 35 38 37 35 38 37 35 38 37 35 38 37 35 38 37 35 38 37 35
130 119 136 126 115 132 122 111 128 121 110 127 117 106 123 117 106 123 117 106 123 117 106 123 117 106 123 117 106 123 117 106 123 118 105 123 122 108 125 122 108 125 122 108 125 122 108 125 122 108 125 122 108 125 122 108 125 122 108 125 125 111 128 125 111 128 125 111 128 125 111 128 125 111 128 125 111 128 125 111 128 125 111 128 119 105 120 119 105 118 121 104 120 119 105 118 121 104 120 119 105 118 121 104 120 119 105 118 63 46 62 52 38 51 40 23 39 24 10 23 17 0 16 12 0 11 15 0 14 14 3 17 9 9 19 6 10 21 6 10 21 6 10 21 6 10 21 6 10 21 6 10 21 6 10 21 8 12 23 8 12 23 8 12 23 8 12 23 8 12 23 8 12 23 8 12 23 8 12 21 5 12 20 5 12 20 5 12 20 5 12 20 5 12 20 5 12 20 5 12 20 5 12 20 8 15 23 8 15 23 8 15 23 8 15 23 8 15 23 8 15 23 8 15 23 8 15 21 8 18 20 8 18 20 8 18 20 8 18 20 8 18 20 8 18 20 8 18 20 8 18 20 7 17 19 7 17 19 7 17 19 7 17 19 7 17 19 7 17 19 7 17 19 8 16 19 8 16 19 10 15 19 10 15 19 10 15 19 10 15 19 10 15 19 10 15 19 10 15 19 1 6 10 1 6 10 1 6 10 1 6 10 1 6 10 1 6 10 1 6 10 1 6 10 3 8 11 3 8 11 3 8 11 3 8 11 3 8 11 3 8 11 3 8 11 3 8 11 18 23 26 20 25 28 22 27 30 25 30 33 29 34 37 32 37 40 34 39 42 36 42 42 48 52 51 50 55 51 52 57 53 55 60 56 59 64 60 62 67 63 64 69 65 66 71 67 60 65 61 60 65 61 60 65 61 60 65 61 60 65 61 60 65 61 60 65 61 62 64 61 63 64 59 62 61 57 57 56 52 50 49 45 44 43 39 37 36 32 32 31 27 30 29 25 34 33 29 34 33 29 34 33 29 34 33 29 34 33 29 34 33 29 34 33 29 34 33 29 37 33 30 37 33 30 37 33 32 37 33 30 37 33 32 37 33 30 37 33 32 37 33 30 40 36 35 40 36 33 40 36 35 40 36 33 40 36 35 40 36 33 40 36 35 40 36 35
123 112 129 123 112 129 123 112 129 123 112 129 107 96 113 107 96 113 107 96 113 107 96 113 107 96 113 107 96 113 107 96 113 107 96 113 122 109 127 122 109 127 122 109 127 122 109 127 122 109 127 122 109 127 122 109 127 122 109 127 132 119 137 131 118 136 128 115 133 125 112 130 122 109 127 118 105 123 116 103 121 114 103 119 119 108 124 120 112 125 126 115 131 123 115 128 118 107 123 104 96 109 93 82 98 83 75 88 47 36 52 42 34 47 38 27 43 29 21 34 23 12 28 13 5 18 9 0 14 3 0 9 7 7 17 4 8 17 4 8 17 4 8 17 4 8 17 4 8 17 4 8 17 4 8 17 7 11 20 7 11 20 7 11 20 7 11 20 7 11 20 7 11 20 7 11 20 7 11 20 6 13 21 6 13 19 6 13 19 6 13 19 6 13 19 6 13 19 6 13 19 6 13 19 8 15 21 8 15 21 8 15 21 8 15 21 8 15 21 8 15 21 8 15 21 8 15 21 10 18 21 10 18 21 10 18 21 10 18 21 10 18 21 10 18 21 10 18 21 10 18 21 14 22 25 14 22 25 14 22 25 14 22 25 14 22 25 14 22 25 14 22 25 14 22 25 10 18 21 10 18 21 10 18 21 10 18 21 10 18 21 10 18 21 10 18 21 10 18 21 19 27 30 17 25 28 15 23 26 12 20 23 8 16 19 5 13 16 3 11 14 1 9 12 6 11 14 6 11 14 6 11 14 6 11 14 6 11 14 6 11 14 6 11 14 6 11 14 16 21 24 18 23 26 20 25 28 23 28 31 27 32 35 30 35 38 32 37 40 34 40 40 42 48 46 42 48 44 42 48 44 42 48 44 42 48 44 42 48 44 42 48 44 42 48 44 58 64 60 58 64 60 58 64 60 58 64 60 58 64 60 58 64 60 58 64 60 59 64 60 50 49 45 50 46 43 48 44 41 45 41 38 41 37 34 38 34 31 36 32 29 34 30 27 36 32 29 36 32 29 36 32 29 36 32 29 36 32 29 36 32 29 36 32 29 36 32 29 38 33 30 38 33 29 38 33 30 38 33 29 38 33 30 38 33 29 38 33 30 38 33 29 39 34 31 39 34 30 39 34 31 39 34 30 39 34 31 39 34 30 39 34 31 39 34 31
121 110 127 121 110 127 121 110 127 121 110 127 113 102 119 113 102 119 113 102 119 113 102 119 113 102 119 113 102 119 113 102 119 113 102 119 124 113 130 124 113 130 124 113 130 124 113 130 124 113 130 124 113 130 124 113 130 124 113 130 133 122 139 131 120 137 129 118 135 126 115 132 122 111 128 119 108 125 117 106 123 113 104 121 112 104 119 114 108 122 117 111 125 116 110 124 110 104 118 98 92 106 85 79 93 76 70 84 41 35 49 38 32 46 33 27 41 26 20 34 19 13 27 12 6 20 6 0 14 1 0 11 5 8 17 4 8 17 4 8 17 4 8 17 4 8 17 4 8 17 4 8 17 4 8 17 7 11 20 7 11 20 7 11 20 7 11 20 7 11 20 7 11 20 7 11 20 7 11 20 6 13 19 6 13 19 6 13 19 6 13 19 6 13 19 6 13 19 6 13 19 6 13 19 8 15 21 8 15 21 8 15 21 8 15 21 8 15 21 8 15 21 8 15 21 8 15 21 10 18 21 10 18 21 10 18 21 10 18 21 10 18 21 10 18 21 10 18 21 10 18 21 11 19 22 11 19 22 11 19 22 11 19 22 11 19 22 11 19 22 11 19 22 11 19 22 12 20 23 12 20 23 12 20 23 12 20 23 12 20 23 12 20 23 12 20 23 12 20 23 19 27 30 17 25 28 15 23 26 12 20 23 8 16 19 5 13 16 3 11 14 1 9 12 6 11 14 6 11 14 6 11 14 6 11 14 6 11 14 6 11 14 6 11 14 6 11 14 16 21 24 18 23 26 20 25 28 23 28 31 27 32 35 30 35 38 32 37 40 34 40 40 42 48 46 42 48 44 42 48 44 42 48 44 42 48 44 42 48 44 42 48 44 42 48 44 56 62 58 56 62 58 56 62 58 56 62 58 56 62 58 56 62 58 56 62 58 57 62 58 50 49 45 50 46 43 48 44 41 45 41 38 41 37 34 38 34 31 36 32 29 34 30 27 36 32 29 36 32 29 36 32 29 36 32 29 36 32 29 36 32 29 36 32 29 36 32 29 40 32 29 40 32 29 40 32 29 40 32 29 40 32 29 40 32 29 40 32 29 40 32 29 41 33 30 41 33 30 41 33 30 41 33 30 41 33 30 41 33 30 41 33 30 41 33 30
119 108 125 119 108 125 119 108 125 119 108 125 121 110 127 121 110 127 121 110 127 121 110 127 121 110 127 121 110 127 121 110 127 121 110 127 127 116 133 127 116 133 127 116 133 127 116 133 127 116 133 127 116 133 127 116 133 127 116 133 133 122 139 132 121 138 130 119 136 126 115 132 123 112 129 120 109 126 117 106 123 114 105 122 102 94 109 104 98 112 107 101 115 107 101 115 100 94 108 88 82 96 75 69 83 67 61 75 35 29 43 33 27 41 29 23 37 23 17 31 17 11 25 11 5 19 7 1 15 2 0 12 5 8 17 4 8 17 4 8 17 4 8 17 4 8 17 4 8 17 4 8 17 4 8 17 7 11 20 7 11 20 7 11 20 7 11 20 7 11 20 7 11 20 7 11 20 7 11 20 6 13 19 6 13 19 6 13 19 6 13 19 6 13 19 6 13 19 6 13 19 6 13 19 8 15 21 8 15 21 8 15 21 8 15 21 8 15 21 8 15 21 8 15 21 8 15 21 10 18 21 10 18 21 10 18 21 10 18 21 10 18 21 10 18 21 10 18 21 10 18 21 8 16 19 8 16 19 8 16 19 8 16 19 8 16 19 8 16 19 8 16 19 8 16 19 17 25 28 17 25 28 17 25 28 17 25 28 17 25 28 17 25 28 17 25 28 17 25 28 19 27 30 17 25 28 15 23 26 12 20 23 8 16 19 5 13 16 3 11 14 1 9 12 6 11 14 6 11 14 6 11 14 6 11 14 6 11 14 6 11 14 6 11 14 6 11 14 16 21 24 18 23 26 20 25 28 23 28 31 27 32 35 30 35 38 32 37 40 34 40 40 42 48 46 42 48 44 42 48 44 42 48 44 42 48 44 42 48 44 42 48 44 42 48 44 54 60 56 54 60 56 54 60 56 54 60 56 54 60 56 54 60 56 54 60 56 55 60 56 50 49 45 50 46 43 48 44 41 45 41 38 41 37 34 38 34 31 36 32 29 34 30 27 36 32 29 36 32 29 36 32 29 36 32 29 36 32 29 36 32 29 36 32 29 36 32 29 40 32 29 40 32 29 40 32 29 40 32 29 40 32 29 40 32 29 40 32 29 40 32 29 41 33 30 41 33 30 41 33 30 41 33 30 41 33 30 41 33 30 41 33 30 41 33 30
116 105 122 116 105 122 116 105 122 116 105 122 127 116 133 127 116 133 127 116 133 127 116 133 127 116 133 127 116 133 127 116 133 127 116 133 126 115 132 126 115 132 126 115 132 126 115 132 126 115 132 126 115 132 126 115 132 126 115 132 129 118 135 128 117 134 126 115 132 123 112 129 119 108 125 116 105 122 113 102 119 110 101 118 90 82 97 92 86 100 95 89 103 94 88 102 87 81 95 75 69 83 62 56 70 54 48 62 28 22 36 26 20 34 23 17 31 19 13 27 15 9 23 10 4 18 7 1 15 4 0 14 5 8 17 4 8 17 4 8 17 4 8 17 4 8 17 4 8 17 4 8 17 4 8 17 7 11 20 7 11 20 7 11 20 7 11 20 7 11 20 7 11 20 7 11 20 7 11 20 6 13 19 6 13 19 6 13 19 6 13 19 6 13 19 6 13 19 6 13 19 6 13 19 8 15 21 8 15 21 8 15 21 8 15 21 8 15 21 8 15 21 8 15 21 8 15 21 10 18 21 10 18 21 10 18 21 10 18 21 10 18 21 10 18 21 10 18 21 10 18 21 9 17 20 9 17 20 9 17 20 9 17 20 9 17 20 9 17 20 9 17 20 9 17 20 24 32 35 24 32 35 24 32 35 24 32 35 24 32 35 24 32 35 24 32 35 24 32 35 19 27 30 17 25 28 15 23 26 12 20 23 8 16 19 5 13 16 3 11 14 1 9 12 6 11 14 6 11 14 6 11 14 6 11 14 6 11 14 6 11 14 6 11 14 6 11 14 16 21 24 18 23 26 20 25 28 23 28 31 27 32 35 30 35 38 32 37 40 34 40 40 42 48 46 42 48 44 42 48 44 42 48 44 42 48 44 42 48 44 42 48 44 42 48 44 51 57 53 51 57 53 51 57 53 51 57 53 51 57 53 51 57 53 51 57 53 52 57 53 50 49 45 50 46 43 48 44 41 45 41 38 41 37 34 38 34 31 36 32 29 34 30 27 36 32 29 36 32 29 36 32 29 36 32 29 36 32 29 36 32 29 36 32 29 36 32 29 40 32 29 40 32 29 40 32 29 40 32 29 40 32 29 40 32 29 40 32 29 40 32 29 41 33 30 41 33 30 41 33 30 41 33 30 41 33 30 41 33 30 41 33 30 41 33 30
112 101 118 112 101 118 112 101 118 112 101 118 127 116 133 127 116 133 127 116 133 127 116 133 127 116 133 127 116 133 127 116 133 127 116 133 119 108 125 119 108 125 119 108 125 119 108 125 119 108 125 119 108 125 119 108 125 119 108 125 119 108 125 118 107 124 115 104 121 112 101 118 109 98 115 106 95 112 103 92 109 100 91 108 76 68 83 78 72 86 81 75 89 80 74 88 73 67 81 61 55 69 48 42 56 40 34 48 20 14 28 19 13 27 17 11 25 15 9 23 12 6 20 10 4 18 8 2 16 5 1 15 5 8 17 4 8 17 4 8 17 4 8 17 4 8 17 4 8 17 4 8 17 4 8 17 7 11 20 7 11 20 7 11 20 7 11 20 7 11 20 7 11 20 7 11 20 7 11 20 6 13 19 6 13 19 6 13 19 6 13 19 6 13 19 6 13 19 6 13 19 6 13 19 8 15 21 8 15 21 8 15 21 8 15 21 8 15 21 8 15 21 8 15 21 8 15 21 10 18 21 10 18 21 10 18 21 10 18 21 10 18 21 10 18 21 10 18 21 10 18 21 16 24 27 16 24 27 16 24 27 16 24 27 16 24 27 16 24 27 16 24 27 16 24 27 30 38 41 30 38 41 30 38 41 30 38 41 30 38 41 30 38 41 30 38 41 30 38 41 19 27 30 17 25 28 15 23 26 12 20 23 8 16 19 5 13 16 3 11 14 1 9 12 6 11 14 6 11 14 6 11 14 6 11 14 6 11 14 6 11 14 6 11 14 6 11 14 16 21 24 18 23 26 20 25 28 23 28 31 27 32 35 30 35 38 32 37 40 34 40 40 42 48 46 42 48 44 42 48 44 42 48 44 42 48 44 42 48 44 42 48 44 42 48 44 47 53 49 47 53 49 47 53 49 47 53 49 47 53 49 47 53 49 47 53 49 48 53 49 50 49 45 50 46 43 48 44 41 45 41 38 41 37 34 38 34 31 36 32 29 34 30 27 36 32 29 36 32 29 36 32 29 36 32 29 36 32 29 36 32 29 36 32 29 36 32 29 40 32 29 40 32 29 40 32 29 40 32 29 40 32 29 40 32 29 40 32 29 40 32 29 41 33 30 41 33 30 41 33 30 41 33 30 41 33 30 41 33 30 41 33 30 41 33 30
109 98 115 109 98 115 109 98 115 109 98 115 121 110 127 121 110 127 121 110 127 121 110 127 121 110 127 121 110 127 121 110 127 121 110 127 107 96 113 107 96 113 107 96 113 107 96 113 107 96 113 107 96 113 107 96 113 107 96 113 104 93 110 103 92 109 100 89 106 97 86 103 94 83 100 90 79 96 88 77 94 85 76 93 63 55 70 65 59 73 68 62 76 67 61 75 61 55 69 49 43 57 36 30 44 27 21 35 12 6 20 12 6 20 11 5 19 10 4 18 10 4 18 9 3 17 9 3 17 6 2 16 5 8 17 4 8 17 4 8 17 4 8 17 4 8 17 4 8 17 4 8 17 4 8 17 7 11 20 7 11 20 7 11 20 7 11 20 7 11 20 7 11 20 7 11 20 7 11 20 6 13 19 6 13 19 6 13 19 6 13 19 6 13 19 6 13 19 6 13 19 6 13 19 8 15 21 8 15 21 8 15 21 8 15 21 8 15 21 8 15 21 8 15 21 8 15 21 10 18 21 10 18 21 10 18 21 10 18 21 10 18 21 10 18 21 10 18 21 10 18 21 28 36 39 28 36 39 28 36 39 28 36 39 28 36 39 28 36 39 28 36 39 28 36 39 37 45 48 37 45 48 37 45 48 37 45 48 37 45 48 37 45 48 37 45 48 37 45 48 19 27 30 17 25 28 15 23 26 12 20 23 8 16 19 5 13 16 3 11 14 1 9 12 6 11 14 6 11 14 6 11 14 6 11 14 6 11 14 6 11 14 6 11 14 6 11 14 16 21 24 18 23 26 20 25 28 23 28 31 27 32 35 30 35 38 32 37 40 34 40 40 42 48 46 42 48 44 42 48 44 42 48 44 42 48 44 42 48 44 42 48 44 42 48 44 44 50 46 44 50 46 44 50 46 44 50 46 44 50 46 44 50 46 44 50 46 45 50 46 50 49 45 50 46 43 48 44 41 45 41 38 41 37 34 38 34 31 36 32 29 34 30 27 36 32 29 36 32 29 36 32 29 36 32 29 36 32 29 36 32 29 36 32 29 36 32 29 40 32 29 40 32 29 40 32 29 40 32 29 40 32 29 40 32 29 40 32 29 40 32 29 41 33 30 41 33 30 41 33 30 41 33 30 41 33 30 41 33 30 41 33 30 41 33 30
107 96 113 107 96 113 107 96 113 107 96 113 113 102 119 113 102 119 113 102 119 113 102 119 113 102 119 113 102 119 113 102 119 113 102 119 94 83 100 94 83 100 94 83 100 94 83 100 94 83 100 94 83 100 94 83 100 94 83 100 89 78 95 87 76 93 85 74 91 82 71 88 78 67 84 75 64 81 73 62 79 69 60 77 53 45 60 55 49 63 58 52 66 58 52 66 51 45 59 39 33 47 26 20 34 18 12 26 6 0 14 6 0 14 7 1 15 7 1 15 8 2 16 9 3 17 9 3 17 7 3 17 5 8 17 4 8 17 4 8 17 4 8 17 4 8 17 4 8 17 4 8 17 4 8 17 7 11 20 7 11 20 7 11 20 7 11 20 7 11 20 7 11 20 7 11 20 7 11 20 6 13 19 6 13 19 6 13 19 6 13 19 6 13 19 6 13 19 6 13 19 6 13 19 8 15 21 8 15 21 8 15 21 8 15 21 8 15 21 8 15 21 8 15 21 8 15 21 10 18 21 10 18 21 10 18 21 10 18 21 10 18 21 10 18 21 10 18 21 10 18 21 41 49 52 41 49 52 41 49 52 41 49 52 41 49 52 41 49 52 41 49 52 41 49 52 42 50 53 42 50 53 42 50 53 42 50 53 42 50 53 42 50 53 42 50 53 42 50 53 19 27 30 17 25 28 15 23 26 12 20 23 8 16 19 5 13 16 3 11 14 1 9 12 6 11 14 6 11 14 6 11 14 6 11 14 6 11 14 6 11 14 6 11 14 6 11 14 16 21 24 18 23 26 20 25 28 23 28 31 27 32 35 30 35 38 32 37 40 34 40 40 42 48 46 42 48 44 42 48 44 42 48 44 42 48 44 42 48 44 42 48 44 42 48 44 42 48 44 42 48 44 42 48 44 42 48 44 42 48 44 42 48 44 42 48 44 43 48 44 50 49 45 50 46 43 48 44 41 45 41 38 41 37 34 38 34 31 36 32 29 34 30 27 36 32 29 36 32 29 36 32 29 36 32 29 36 32 29 36 32 29 36 32 29 36 32 29 40 32 29 40 32 29 40 32 29 40 32 29 40 32 29 40 32 29 40 32 29 40 32 29 41 33 30 41 33 30 41 33 30 41 33 30 41 33 30 41 33 30 41 33 30 41 33 30
105 94 111 105 94 111 105 94 111 105 94 111 107 96 113 107 96 113 107 96 113 107 96 113 107 96 113 107 96 113 107 96 113 107 96 113 86 75 92 86 75 92 86 75 92 86 75 92 86 75 92 86 75 92 86 75 92 86 75 92 79 68 85 78 67 84 75 64 81 72 61 78 69 58 75 65 54 71 63 52 69 60 51 68 48 40 55 50 44 58 53 47 61 52 46 60 45 39 53 33 27 41 21 15 29 12 6 20 3 0 11 4 0 12 4 0 12 6 0 14 7 1 15 8 2 16 9 3 17 8 4 18 5 8 17 4 8 17 4 8 17 4 8 17 4 8 17 4 8 17 4 8 17 4 8 17 7 11 20 7 11 20 7 11 20 7 11 20 7 11 20 7 11 20 7 11 20 7 11 20 6 13 19 6 13 19 6 13 19 6 13 19 6 13 19 6 13 19 6 13 19 6 13 19 8 15 21 8 15 21 8 15 21 8 15 21 8 15 21 8 15 21 8 15 21 8 15 21 10 18 21 10 18 21 10 18 21 10 18 21 10 18 21 10 18 21 10 18 21 10 18 21 49 57 60 49 57 60 49 57 60 49 57 60 49 57 60 49 57 60 49 57 60 49 57 60 44 52 55 44 52 55 44 52 55 44 52 55 44 52 55 44 52 55 44 52 55 44 52 55 19 27 30 17 25 28 15 23 26 12 20 23 8 16 19 5 13 16 3 11 14 1 9 12 6 11 14 6 11 14 6 11 14 6 11 14 6 11 14 6 11 14 6 11 14 6 11 14 16 21 24 18 23 26 20 25 28 23 28 31 27 32 35 30 35 38 32 37 40 34 40 40 42 48 46 42 48 44 42 48 44 42 48 44 42 48 44 42 48 44 42 48 44 42 48 44 40 46 42 40 46 42 40 46 42 40 46 42 40 46 42 40 46 42 40 46 42 41 46 42 50 49 45 50 46 43 48 44 41 45 41 38 41 37 34 38 34 31 36 32 29 34 30 27 36 32 29 36 32 29 36 32 29 36 32 29 36 32 29 36 32 29 36 32 29 36 32 29 40 32 29 40 32 29 40 32 29 40 32 29 40 32 29 40 32 29 40 32 29 40 32 29 41 33 30 41 33 30 41 33 30 41 33 30 41 33 30 41 33 30 41 33 30 41 33 30
100 89 106 100 89 106 100 89 106 100 89 106 89 78 95 88 77 94 85 74 91 82 71 88 79 68 85 75 64 81 73 62 79 72 61 78 52 41 58 52 41 58 52 41 58 52 41 58 52 41 58 52 41 58 52 41 58 52 41 58 40 29 46 40 29 46 40 29 46 40 29 46 40 29 46 40 29 46 40 29 46 38 29 46 14 6 21 13 7 21 13 7 21 13 7 21 13 7 21 13 7 21 13 7 21 13 7 21 10 4 18 10 4 18 10 4 18 10 4 18 10 4 18 10 4 18 10 4 18 8 4 18 5 8 17 4 8 17 4 8 17 4 8 17 4 8 17 4 8 17 4 8 17 4 8 17 6 10 19 6 10 19 6 10 19 6 10 19 6 10 19 6 10 19 6 10 19 6 10 19 8 15 21 8 15 21 8 15 21 8 15 21 8 15 21 8 15 21 8 15 21 8 15 21 9 16 22 8 15 21 8 15 21 6 13 19 5 12 18 4 11 17 3 10 16 2 9 15 2 10 13 6 14 17 11 19 22 19 27 30 27 35 38 35 43 46 41 49 52 44 52 55 57 65 68 57 65 68 57 65 68 57 65 68 57 65 68 57 65 68 57 65 68 57 65 68 45 53 56 44 52 55 41 49 52 38 46 49 35 43 46 31 39 42 29 37 40 28 36 39 22 30 33 20 28 31 18 26 29 15 23 26 11 19 22 8 16 19 6 14 17 4 12 15 9 14 17 9 14 17 9 14 17 9 14 17 9 14 17 9 14 17 9 14 17 9 14 17 23 28 31 23 28 31 23 28 31 23 28 31 23 28 31 23 28 31 23 28 31 23 29 29 31 37 35 31 37 33 31 37 33 31 37 33 31 37 33 31 37 33 31 37 33 31 37 33 33 39 35 33 39 35 33 39 35 33 39 35 33 39 35 33 39 35 33 39 35 34 39 35 33 32 28 35 31 28 35 31 28 35 31 28 35 31 28 35 31 28 35 31 28 35 31 28 36 32 29 36 32 29 36 32 29 36 32 29 36 32 29 36 32 29 36 32 29 36 32 29 40 32 29 40 32 29 40 32 29 40 32 29 40 32 29 40 32 29 40 32 29 40 32 29 41 33 30 41 33 30 41 33 30 41 33 30 41 33 30 41 33 30 41 33 30 41 33 30
88 77 94 88 77 94 88 77 94 88 77 94 78 67 84 77 66 83 74 63 80 71 60 77 68 57 74 64 53 70 62 51 68 61 50 67 44 33 50 44 33 50 44 33 50 44 33 50 44 33 50 44 33 50 44 33 50 44 33 50 33 22 39 33 22 39 33 22 39 33 22 39 33 22 39 33 22 39 33 22 39 31 22 39 14 6 21 13 7 21 13 7 21 13 7 21 13 7 21 13 7 21 13 7 21 13 7 21 10 4 18 10 4 18 10 4 18 10 4 18 10 4 18 10 4 18 10 4 18 8 4 18 5 8 17 4 8 17 4 8 17 4 8 17 4 8 17 4 8 17 4 8 17 4 8 17 6 10 19 6 10 19 6 10 19 6 10 19 6 10 19 6 10 19 6 10 19 6 10 19 8 15 21 8 15 21 8 15 21 8 15 21 8 15 21 8 15 21 8 15 21 8 15 21 10 17 23 10 17 23 9 16 22 9 16 22 8 15 21 7 14 20 7 14 20 7 14 20 12 20 23 15 23 26 21 29 32 28 36 39 35 43 46 42 50 53 47 55 58 50 58 61 57 65 68 57 65 68 57 65 68 57 65 68 57 65 68 57 65 68 57 65 68 57 65 68 46 54 57 45 53 56 43 51 54 39 47 50 36 44 47 33 41 44 30 38 41 29 37 40 22 30 33 20 28 31 18 26 29 15 23 26 11 19 22 8 16 19 6 14 17 4 12 15 9 14 17 9 14 17 9 14 17 9 14 17 9 14 17 9 14 17 9 14 17 9 14 17 23 28 31 23 28 31 23 28 31 23 28 31 23 28 31 23 28 31 23 28 31 23 29 29 31 37 35 31 37 33 31 37 33 31 37 33 31 37 33 31 37 33 31 37 33 31 37 33 33 39 35 33 39 35 33 39 35 33 39 35 33 39 35 33 39 35 33 39 35 34 39 35 33 32 28 35 31 28 35 31 28 35 31 28 35 31 28 35 31 28 35 31 28 35 31 28 36 32 29 36 32 29 36 32 29 36 32 29 36 32 29 36 32 29 36 32 29 36 32 29 40 32 29 40 32 29 40 32 29 40 32 29 40 32 29 40 32 29 40 32 29 40 32 29 41 33 30 41 33 30 41 33 30 41 33 30 41 33 30 41 33 30 41 33 30 41 33 30
68 57 74 68 57 74 68 57 74 68 57 74 60 49 66 59 48 65 57 46 63 53 42 59 50 39 56 47 36 53 44 33 50 43 32 49 31 20 37 31 20 37 31 20 37 31 20 37 31 20 37 31 20 37 31 20 37 31 20 37 23 12 29 23 12 29 23 12 29 23 12 29 23 12 29 23 12 29 23 12 29 21 12 29 14 6 21 13 7 21 13 7 21 13 7 21 13 7 21 13 7 21 13 7 21 13 7 21 10 4 18 10 4 18 10 4 18 10 4 18 10 4 18 10 4 18 10 4 18 8 4 18 5 8 17 4 8 17 4 8 17 4 8 17 4 8 17 4 8 17 4 8 17 4 8 17 6 10 19 6 10 19 6 10 19 6 10 19 6 10 19 6 10 19 6 10 19 6 10 19 8 15 21 8 15 21 8 15 21 8 15 21 8 15 21 8 15 21 8 15 21 8 15 21 11 18 24 12 19 25 12 19 25 13 20 26 14 21 27 14 21 27 15 22 28 15 22 28 29 37 40 31 39 42 35 43 46 41 49 52 47 55 58 53 61 64 57 65 68 60 68 71 57 65 68 57 65 68 57 65 68 57 65 68 57 65 68 57 65 68 57 65 68 57 65 68 49 57 60 47 55 58 45 53 56 42 50 53 38 46 49 35 43 46 33 41 44 31 39 42 22 30 33 20 28 31 18 26 29 15 23 26 11 19 22 8 16 19 6 14 17 4 12 15 9 14 17 9 14 17 9 14 17 9 14 17 9 14 17 9 14 17 9 14 17 9 14 17 23 28 31 23 28 31 23 28 31 23 28 31 23 28 31 23 28 31 23 28 31 23 29 29 31 37 35 31 37 33 31 37 33 31 37 33 31 37 33 31 37 33 31 37 33 31 37 33 33 39 35 33 39 35 33 39 35 33 39 35 33 39 35 33 39 35 33 39 35 34 39 35 33 32 28 35 31 28 35 31 28 35 31 28 35 31 28 35 31 28 35 31 28 35 31 28 36 32 29 36 32 29 36 32 29 36 32 29 36 32 29 36 32 29 36 32 29 36 32 29 40 32 29 40 32 29 40 32 29 40 32 29 40 32 29 40 32 29 40 32 29 40 32 29 41 33 30 41 33 30 41 33 30 41 33 30 41 33 30 41 33 30 41 33 30 41 33 30
46 35 52 46 35 52 46 35 52 46 35 52 42 31 48 41 30 47 38 27 44 35 24 41 32 21 38 28 17 34 26 15 32 25 14 31 19 8 25 19 8 25 19 8 25 19 8 25 19 8 25 19 8 25 19 8 25 19 8 25 14 3 20 14 3 20 14 3 20 14 3 20 14 3 20 14 3 20 14 3 20 12 3 20 14 6 21 13 7 21 13 7 21 13 7 21 13 7 21 13 7 21 13 7 21 13 7 21 10 4 18 10 4 18 10 4 18 10 4 18 10 4 18 10 4 18 10 4 18 8 4 18 5 8 17 4 8 17 4 8 17 4 8 17 4 8 17 4 8 17 4 8 17 4 8 17 6 10 19 6 10 19 6 10 19 6 10 19 6 10 19 6 10 19 6 10 19 6 10 19 8 15 21 8 15 21 8 15 21 8 15 21 8 15 21 8 15 21 8 15 21 8 15 21 13 20 26 14 21 27 16 23 29 18 25 31 21 28 34 23 30 36 25 32 38 26 33 39 45 53 56 47 55 58 50 58 61 54 62 65 58 66 69 62 70 73 66 74 77 67 75 78 57 65 68 57 65 68 57 65 68 57 65 68 57 65 68 57 65 68 57 65 68 57 65 68 52 60 63 51 59 62 48 56 59 45 53 56 42 50 53 38 46 49 36 44 47 35 43 46 22 30 33 20 28 31 18 26 29 15 23 26 11 19 22 8 16 19 6 14 17 4 12 15 9 14 17 9 14 17 9 14 17 9 14 17 9 14 17 9 14 17 9 14 17 9 14 17 23 28 31 23 28 31 23 28 31 23 28 31 23 28 31 23 28 31 23 28 31 23 29 29 31 37 35 31 37 33 31 37 33 31 37 33 31 37 33 31 37 33 31 37 33 31 37 33 33 39 35 33 39 35 33 39 35 33 39 35 33 39 35 33 39 35 33 39 35 34 39 35 33 32 28 35 31 28 35 31 28 35 31 28 35 31 28 35 31 28 35 31 28 35 31 28 36 32 29 36 32 29 36 32 29 36 32 29 36 32 29 36 32 29 36 32 29 36 32 29 40 32 29 40 32 29 40 32 29 40 32 29 40 32 29 40 32 29 40 32 29 40 32 29 41 33 30 41 33 30 41 33 30 41 33 30 41 33 30 41 33 30 41 33 30 41 33 30
29 18 35 29 18 35 29 18 35 29 18 35 28 17 34 27 16 33 24 13 30 21 10 27 18 7 24 15 4 21 12 1 18 11 0 17 12 1 18 12 1 18 12 1 18 12 1 18 12 1 18 12 1 18 12 1 18 12 1 18 11 0 17 11 0 17 11 0 17 11 0 17 11 0 17 11 0 17 11 0 17 9 0 17 14 6 21 13 7 21 13 7 21 13 7 21 13 7 21 13 7 21 13 7 21 13 7 21 10 4 18 10 4 18 10 4 18 10 4 18 10 4 18 10 4 18 10 4 18 8 4 18 5 8 17 4 8 17 4 8 17 4 8 17 4 8 17 4 8 17 4 8 17 4 8 17 6 10 19 6 10 19 6 10 19 6 10 19 6 10 19 6 10 19 6 10 19 6 10 19 8 15 21 8 15 21 8 15 21 8 15 21 8 15 21 8 15 21 8 15 21 8 15 21 15 22 28 17 24 30 20 27 33 24 31 37 29 36 42 33 40 46 36 43 49 37 44 50 57 65 68 58 66 69 60 68 71 62 70 73 64 72 75 67 75 78 68 76 79 69 77 80 57 65 68 57 65 68 57 65 68 57 65 68 57 65 68 57 65 68 57 65 68 57 65 68 55 63 66 54 62 65 52 60 63 48 56 59 45 53 56 42 50 53 39 47 50 38 46 49 22 30 33 20 28 31 18 26 29 15 23 26 11 19 22 8 16 19 6 14 17 4 12 15 9 14 17 9 14 17 9 14 17 9 14 17 9 14 17 9 14 17 9 14 17 9 14 17 23 28 31 23 28 31 23 28 31 23 28 31 23 28 31 23 28 31 23 28 31 23 29 29 31 37 35 31 37 33 31 37 33 31 37 33 31 37 33 31 37 33 31 37 33 31 37 33 33 39 35 33 39 35 33 39 35 33 39 35 33 39 35 33 39 35 33 39 35 34 39 35 33 32 28 35 31 28 35 31 28 35 31 28 35 31 28 35 31 28 35 31 28 35 31 28 36 32 29 36 32 29 36 32 29 36 32 29 36 32 29 36 32 29 36 32 29 36 32 29 40 32 29 40 32 29 40 32 29 40 32 29 40 32 29 40 32 29 40 32 29 40 32 29 41 33 30 41 33 30 41 33 30 41 33 30 41 33 30 41 33 30 41 33 30 41 33 30
18 7 24 18 7 24 18 7 24 18 7 24 21 10 27 20 9 26 17 6 23 14 3 20 11 0 17 7 0 13 6 0 12 6 0 12 11 0 17 11 0 17 11 0 17 11 0 17 11 0 17 11 0 17 11 0 17 11 0 17 13 2 19 13 2 19 13 2 19 13 2 19 13 2 19 13 2 19 13 2 19 11 2 19 14 6 21 13 7 21 13 7 21 13 7 21 13 7 21 13 7 21 13 7 21 13 7 21 10 4 18 10 4 18 10 4 18 10 4 18 10 4 18 10 4 18 10 4 18 8 4 18 5 8 17 4 8 17 4 8 17 4 8 17 4 8 17 4 8 17 4 8 17 4 8 17 6 10 19 6 10 19 6 10 19 6 10 19 6 10 19 6 10 19 6 10 19 6 10 19 8 15 21 8 15 21 8 15 21 8 15 21 8 15 21 8 15 21 8 15 21 8 15 21 17 24 30 20 27 33 24 31 37 30 37 43 36 43 49 42 49 55 46 53 59 48 55 61 62 70 73 62 70 73 63 71 74 63 71 74 64 72 75 65 73 76 65 73 76 66 74 77 57 65 68 57 65 68 57 65 68 57 65 68 57 65 68 57 65 68 57 65 68 57 65 68 59 67 70 57 65 68 55 63 66 52 60 63 48 56 59 45 53 56 43 51 54 41 49 52 22 30 33 20 28 31 18 26 29 15 23 26 11 19 22 8 16 19 6 14 17 4 12 15 9 14 17 9 14 17 9 14 17 9 14 17 9 14 17 9 14 17 9 14 17 9 14 17 23 28 31 23 28 31 23 28 31 23 28 31 23 28 31 23 28 31 23 28 31 23 29 29 31 37 35 31 37 33 31 37 33 31 37 33 31 37 33 31 37 33 31 37 33 31 37 33 33 39 35 33 39 35 33 39 35 33 39 35 33 39 35 33 39 35 33 39 35 34 39 35 33 32 28 35 31 28 35 31 28 35 31 28 35 31 28 35 31 28 35 31 28 35 31 28 36 32 29 36 32 29 36 32 29 36 32 29 36 32 29 36 32 29 36 32 29 36 32 29 40 32 29 40 32 29 40 32 29 40 32 29 40 32 29 40 32 29 40 32 29 40 32 29 41 33 30 41 33 30 41 33 30 41 33 30 41 33 30 41 33 30 41 33 30 41 33 30
14 3 20 14 3 20 14 3 20 14 3 20 19 8 25 18 7 24 16 5 22 12 1 18 9 0 15 6 0 12 6 0 12 6 0 12 14 3 20 14 3 20 14 3 20 14 3 20 14 3 20 14 3 20 14 3 20 14 3 20 19 8 25 19 8 25 19 8 25 19 8 25 19 8 25 19 8 25 19 8 25 17 8 25 14 6 21 13 7 21 13 7 21 13 7 21 13 7 21 13 7 21 13 7 21 13 7 21 10 4 18 10 4 18 10 4 18 10 4 18 10 4 18 10 4 18 10 4 18 8 4 18 5 8 17 4 8 17 4 8 17 4 8 17 4 8 17 4 8 17 4 8 17 4 8 17 6 10 19 6 10 19 6 10 19 6 10 19 6 10 19 6 10 19 6 10 19 6 10 19 8 15 21 8 15 21 8 15 21 8 15 21 8 15 21 8 15 21 8 15 21 8 15 21 19 26 32 22 29 35 27 34 40 34 41 47 41 48 54 48 55 61 54 61 67 57 64 70 62 70 73 62 70 73 62 70 73 61 69 72 60 68 71 60 68 71 59 67 70 59 67 70 57 65 68 57 65 68 57 65 68 57 65 68 57 65 68 57 65 68 57 65 68 57 65 68 61 69 72 60 68 71 57 65 68 54 62 65 51 59 62 47 55 58 45 53 56 44 52 55 22 30 33 20 28 31 18 26 29 15 23 26 11 19 22 8 16 19 6 14 17 4 12 15 9 14 17 9 14 17 9 14 17 9 14 17 9 14 17 9 14 17 9 14 17 9 14 17 23 28 31 23 28 31 23 28 31 23 28 31 23 28 31 23 28 31 23 28 31 23 29 29 31 37 35 31 37 33 31 37 33 31 37 33 31 37 33 31 37 33 31 37 33 31 37 33 33 39 35 33 39 35 33 39 35 33 39 35 33 39 35 33 39 35 33 39 35 34 39 35 33 32 28 35 31 28 35 31 28 35 31 28 35 31 28 35 31 28 35 31 28 35 31 28 36 32 29 36 32 29 36 32 29 36 32 29 36 32 29 36 32 29 36 32 29 36 32 29 40 32 29 40 32 29 40 32 29 40 32 29 40 32 29 40 32 29 40 32 29 40 32 29 41 33 30 41 33 30 41 33 30 41 33 30 41 33 30 41 33 30 41 33 30 41 33 30
11 2 19 11 2 19 11 2 19 11 2 19 18 9 26 16 7 24 14 5 22 11 2 19 7 0 15 4 0 12 4 0 12 4 0 12 15 6 23 15 6 23 15 6 23 15 6 23 15 6 23 15 6 23 15 6 23 15 6 23 21 12 29 21 12 29 21 12 29 21 12 29 21 12 29 21 12 29 21 12 29 20 13 29 11 7 21 11 7 21 11 7 21 11 7 21 11 7 21 11 7 21 11 7 21 11 7 21 8 4 18 8 4 18 8 4 18 8 4 18 8 4 18 8 4 18 8 4 18 7 5 16 5 8 17 4 9 15 4 8 17 4 9 15 4 8 17 4 9 15 4 8 17 4 9 15 6 10 19 6 11 17 6 10 19 6 11 17 6 10 19 6 11 17 6 10 19 6 11 17 8 15 21 8 15 21 8 15 21 8 15 21 8 15 21 8 15 21 8 15 21 8 15 21 20 27 33 23 30 36 29 36 42 36 43 49 44 51 57 52 59 65 58 65 71 61 68 74 61 69 72 61 69 72 60 68 71 58 66 69 57 65 68 56 64 67 55 63 66 54 62 65 57 65 68 57 65 68 57 65 68 57 65 68 57 65 68 57 65 68 57 65 68 57 65 68 62 70 73 61 69 72 59 67 70 55 63 66 52 60 63 49 57 60 46 54 57 45 53 56 22 30 33 20 28 31 18 26 29 15 23 26 11 19 22 8 16 19 6 14 17 4 12 15 7 15 18 7 15 17 9 14 17 7 15 17 9 14 17 7 15 17 9 14 17 7 15 17 23 28 31 21 29 31 23 28 31 21 29 31 23 28 31 21 29 31 23 28 31 23 28 31 31 37 37 31 37 35 31 37 35 31 37 35 31 37 35 31 37 35 31 37 35 31 37 35 33 39 37 33 39 37 33 39 37 33 39 37 33 39 37 33 39 37 33 39 37 34 39 35 33 32 30 35 31 28 35 31 28 35 31 28 35 31 28 35 31 28 35 31 28 35 31 28 36 32 29 36 32 29 36 32 29 36 32 29 36 32 29 36 32 29 36 32 29 37 32 29 40 32 29 40 32 29 40 32 29 40 32 29 40 32 29 40 32 29 40 32 29 40 32 29 41 33 30 41 33 30 41 33 30 41 33 30 41 33 30 41 33 30 41 33 30 41 33 30
6 2 17 6 2 17 6 2 17 6 2 17 6 2 17 6 2 17 6 2 17 6 2 17 6 2 17 6 2 17 6 2 17 6 2 17 6 2 17 6 2 17 6 2 17 6 2 17 6 2 17 6 2 17 6 2 17 6 2 17 6 2 17 6 2 17 6 2 17 6 2 17 6 2 17 6 2 17 6 2 17 5 3 17 4 4 16 2 5 14 2 5 14 2 5 14 2 5 14 2 5 14 2 5 14 2 5 14 4 7 16 4 7 16 4 7 16 4 7 16 4 7 16 4 7 16 4 7 16 4 7 16 5 10 16 3 11 14 3 10 16 3 11 14 3 10 16 3 11 14 3 10 16 3 11 14 8 15 21 7 15 18 6 13 19 5 13 16 4 11 17 2 10 13 2 9 15 1 8 14 14 21 27 15 22 28 18 25 31 21 28 34 24 31 37 28 35 41 30 37 43 31 38 44 59 66 72 59 66 72 59 66 72 59 66 72 59 66 72 59 66 72 59 66 72 59 66 72 60 68 71 60 68 71 60 68 71 60 68 71 60 68 71 60 68 71 60 68 71 60 68 71 74 82 85 74 82 85 74 82 85 74 82 85 74 82 85 74 82 85 74 82 85 74 82 85 67 74 80 65 72 78 63 70 76 60 67 73 56 63 69 53 60 66 51 58 64 49 56 62 29 36 42 22 29 35 12 19 25 3 10 16 0 7 13 2 9 15 8 15 21 12 20 23 12 20 23 11 21 23 12 20 23 11 21 23 12 20 23 11 21 23 12 20 23 11 21 23 18 26 29 18 28 30 22 30 33 24 34 36 28 36 39 31 41 43 34 42 45 35 43 46 23 31 33 23 31 33 23 31 33 23 31 33 23 31 33 23 31 33 23 31 33 23 31 33 20 28 30 20 28 30 20 28 30 20 28 30 20 28 30 20 28 30 20 28 30 23 27 28 30 29 27 33 28 25 33 28 25 33 28 25 33 28 25 33 28 25 33 28 25 33 28 25 36 31 28 36 31 28 36 31 28 36 31 28 36 31 28 36 31 28 36 31 28 36 31 28 39 31 28 39 31 28 39 31 28 39 31 28 39 31 28 39 31 28 39 31 28 39 31 28 39 31 28 39 31 28 39 31 28 39 31 28 39 31 28 39 31 28 39 31 28 39 31 28
5 3 17 5 3 17 5 3 17 5 3 17 5 3 17 5 3 17 5 3 17 5 3 17 5 3 17 5 3 17 5 3 17 5 3 17 5 3 17 5 3 17 5 3 17 5 3 17 5 3 17 5 3 17 5 3 17 5 3 17 5 3 17 5 3 17 5 3 17 5 3 17 5 3 17 5 3 17 5 3 17 4 4 16 2 4 16 1 5 14 1 5 14 1 5 14 1 5 14 1 5 14 1 5 14 1 5 14 3 7 16 3 7 16 3 7 16 3 7 16 3 7 16 3 7 16 3 7 16 3 8 14 3 10 16 3 11 14 3 11 14 3 11 14 3 11 14 3 11 14 3 11 14 3 11 14 7 15 18 7 15 18 7 15 18 6 14 17 5 13 16 5 13 16 4 12 15 4 12 15 17 24 30 18 25 31 20 27 33 24 31 37 27 34 40 30 37 43 33 40 46 34 41 47 59 66 72 59 66 72 59 66 72 59 66 72 59 66 72 59 66 72 59 66 72 59 66 72 62 70 73 62 70 73 62 70 73 62 70 73 62 70 73 62 70 73 62 70 73 62 70 73 74 82 85 74 82 85 74 82 85 74 82 85 74 82 85 74 82 85 74 82 85 74 82 85 67 74 80 65 72 78 63 70 76 60 67 73 56 63 69 53 60 66 51 58 64 49 56 62 29 36 42 22 29 35 12 19 25 3 10 16 0 7 13 2 9 15 8 15 21 12 19 25 11 21 23 11 21 23 11 21 23 11 21 23 11 21 23 11 21 23 11 21 23 11 21 23 16 26 28 17 27 29 19 29 31 23 33 35 26 36 38 29 39 41 32 42 44 33 43 45 23 31 34 23 31 34 23 31 34 23 31 34 23 31 34 23 31 34 23 31 34 23 31 34 20 28 31 20 28 31 20 28 31 20 28 31 20 28 31 20 28 31 20 28 31 23 27 30 30 29 27 33 28 25 33 28 25 33 28 25 33 28 25 33 28 25 33 28 25 33 28 25 36 31 28 36 31 28 36 31 28 36 31 28 36 31 28 36 31 28 36 31 28 36 31 28 39 31 28 39 31 28 39 31 28 39 31 28 39 31 28 39 31 28 39 31 28 39 31 28 39 31 28 39 31 28 39 31 28 39 31 28 39 31 28 39 31 28 39 31 28 39 31 28
5 3 17 5 3 17 5 3 17 5 3 17 5 3 17 5 3 17 5 3 17 5 3 17 5 3 17 5 3 17 5 3 17 5 3 17 5 3 17 5 3 17 5 3 17 5 3 17 5 3 17 5 3 17 5 3 17 5 3 17 5 3 17 5 3 17 5 3 17 5 3 17 5 3 17 5 3 17 5 3 17 4 4 16 2 4 16 1 5 14 1 5 14 1 5 14 1 5 14 1 5 14 1 5 14 1 5 14 3 7 16 3 7 16 3 7 16 3 7 16 3 7 16 3 7 16 3 7 16 3 8 14 3 10 16 3 11 14 3 11 14 3 11 14 3 11 14 3 11 14 3 11 14 3 11 14 6 14 17 7 15 18 7 15 18 8 16 19 8 16 19 9 17 20 10 18 21 10 18 21 22 29 35 23 30 36 25 32 38 28 35 41 32 39 45 35 42 48 38 45 51 39 46 52 59 66 72 59 66 72 59 66 72 59 66 72 59 66 72 59 66 72 59 66 72 59 66 72 64 72 75 64 72 75 64 72 75 64 72 75 64 72 75 64 72 75 64 72 75 64 72 75 74 82 85 74 82 85 74 82 85 74 82 85 74 82 85 74 82 85 74 82 85 74 82 85 67 74 80 65 72 78 63 70 76 60 67 73 56 63 69 53 60 66 51 58 64 49 56 62 29 36 42 22 29 35 12 19 25 3 10 16 0 7 13 2 9 15 8 15 21 12 19 25 11 21 23 11 21 23 11 21 23 11 21 23 11 21 23 11 21 23 11 21 23 11 21 23 13 23 25 15 25 27 17 27 29 20 30 32 24 34 36 27 37 39 29 39 41 31 41 43 23 31 34 23 31 34 23 31 34 23 31 34 23 31 34 23 31 34 23 31 34 23 31 34 20 28 31 20 28 31 20 28 31 20 28 31 20 28 31 20 28 31 20 28 31 23 27 30 30 29 27 33 28 25 33 28 25 33 28 25 33 28 25 33 28 25 33 28 25 33 28 25 36 31 28 36 31 28 36 31 28 36 31 28 36 31 28 36 31 28 36 31 28 36 31 28 39 31 28 39 31 28 39 31 28 39 31 28 39 31 28 39 31 28 39 31 28 39 31 28 39 31 28 39 31 28 39 31 28 39 31 28 39 31 28 39 31 28 39 31 28 39 31 28
