P3
172 37
255
111 105 133 114 108 134 117 111 139 118 112 138 112 106 134 113 107 133 115 109 137 117 111 137 120 114 142 123 117 143 125 119 147 128 120 144 137 123 148 138 123 144 138 123 146 138 123 144 138 123 146 138 123 144 138 123 146 138 123 144 146 131 154 146 131 152 146 131 154 146 131 152 146 131 154 146 131 152 146 131 154 146 132 149 149 134 141 147 132 135 142 127 130 135 120 123 129 114 117 122 107 110 117 102 105 115 100 103 96 81 84 92 77 80 84 69 72 75 60 63 64 49 52 55 40 43 48 33 36 41 30 34 59 54 58 54 53 58 51 50 55 48 47 52 44 43 48 40 39 44 37 36 41 35 34 39 33 32 37 31 30 35 29 28 33 26 25 30 22 21 26 19 18 23 17 16 21 12 15 22 14 26 40 10 26 42 7 22 41 4 20 36 1 16 35 0 13 29 0 10 29 0 10 26 0 10 29 0 11 27 0 10 29 0 11 27 0 10 29 0 11 27 0 10 29 0 11 24 2 16 19 4 16 14 4 16 14 4 16 14 4 16 14 4 16 14 4 16 14 4 16 14 3 15 13 3 15 13 3 15 13 3 15 13 3 15 13 3 15 13 3 15 13 0 16 13 3 26 18 0 27 18 0 27 18 0 27 18 0 27 18 0 27 18 0 27 18 0 27 18 0 26 17 0 24 15 0 22 13 0 19 10 0 15 6 0 12 3 0 10 1 0 8 0 0 6 0 0 6 0 0 8 1 0 11 4 2 15 8 5 18 11 7 20 13 9 22 15 14 27 20 16 29 22 21 34 27 28 41 34 34 47 40 41 54 47 46 59 52 48 61 54 46 57 49 49 60 52 54 65 57 60 71 63 67 78 70 73 84 76 78 89 81 81 92 84 87 98 90 88 99 91 91 102 94 94 105 97 97 108 100 101 112 104 103 114 106 103 116 107 80 100 91 69 90 81 54 75 66 39 60 51 28 49 40 24 45 36 25 46 37 27 48 39 27 48 39 27 48 39 27 48 39 27 48 39 27 48 39 27 48 39 27 48 39 27 48 39 22 45 35 22 45 35 22 45 35 22 45 35 22 45 35 22 45 35 22 45 35 22 45 35 25 48 38 25 48 38 25 48 38 25 48 38 25 48 38 25 48 38 25 48 38 25 48 38
116 110 136 119 115 138 122 116 142 122 118 141 110 104 130 110 106 129 113 107 133 114 110 133 117 111 137 118 114 137 120 114 140 121 116 139 136 124 146 136 124 144 137 123 146 136 124 144 137 123 146 136 124 144 137 123 146 136 124 144 145 131 154 144 132 152 145 131 154 144 132 152 145 131 154 144 132 152 145 131 154 144 133 149 145 135 144 143 134 137 138 129 134 131 122 125 125 116 121 118 109 112 113 104 109 111 102 105 90 81 86 86 77 80 79 70 75 70 61 64 59 50 55 50 41 44 42 33 38 36 30 34 55 56 61 52 55 60 48 51 58 44 47 52 39 42 49 35 38 43 31 34 41 29 32 37 26 29 36 24 27 32 22 25 32 19 22 27 15 18 25 12 15 20 10 13 20 5 12 20 10 24 37 6 24 38 4 21 37 0 18 32 0 14 30 0 12 26 0 8 24 0 8 22 0 9 25 0 10 24 0 9 25 0 10 24 0 9 25 0 10 24 0 9 25 0 10 20 2 16 19 4 16 16 5 15 16 4 16 16 5 15 16 4 16 16 5 15 16 4 16 16 4 14 15 3 15 15 4 14 15 3 15 15 4 14 15 3 15 15 4 14 15 1 16 13 3 26 20 0 27 20 0 27 20 0 27 20 0 27 20 0 27 20 0 27 20 0 27 20 0 26 19 0 24 17 0 22 15 0 19 12 0 15 8 0 12 5 0 10 3 0 8 2 0 5 0 0 5 1 0 7 3 0 10 6 3 14 10 6 17 13 8 19 15 10 21 17 15 26 22 17 28 24 22 33 29 29 40 36 35 46 42 42 53 49 47 58 54 49 60 56 46 55 50 49 58 53 54 63 58 60 69 64 67 76 71 73 82 77 78 87 82 81 90 85 87 96 91 88 97 92 90 99 94 94 103 98 97 106 101 100 109 104 103 112 107 102 115 108 82 99 91 69 90 81 55 75 66 39 60 51 29 49 40 24 45 36 26 46 37 27 48 39 28 48 39 27 48 39 28 48 39 27 48 39 28 48 39 27 48 39 28 48 39 27 48 39 23 44 35 23 44 35 23 44 37 23 44 35 23 44 37 23 44 35 23 44 37 23 44 35 26 47 40 26 47 38 26 47 40 26 47 38 26 47 40 26 47 38 26 47 40 26 47 38
123 108 131 122 109 129 123 108 131 122 109 129 129 114 137 128 115 135 129 114 137 128 115 135 129 114 137 128 115 135 129 114 137 129 114 135 137 119 141 137 120 139 138 119 141 137 120 139 138 119 141 137 120 139 138 119 141 137 120 139 148 129 151 147 130 149 148 129 151 147 130 149 148 129 151 147 130 149 148 129 151 147 130 148 137 125 139 134 122 132 129 117 129 123 111 121 116 104 116 110 98 108 105 93 105 102 90 100 76 64 76 73 61 71 68 56 68 62 50 60 55 43 55 49 37 47 44 32 44 38 30 41 24 20 34 22 22 34 22 21 35 22 22 34 22 21 35 22 22 34 22 21 35 22 22 34 6 5 19 6 6 18 6 5 19 6 6 18 6 5 19 6 6 18 6 5 19 4 6 19 4 10 22 3 11 22 3 11 24 3 11 22 3 11 24 3 11 22 3 11 24 3 11 22 1 9 22 1 9 20 1 9 22 1 9 20 1 9 22 1 9 20 1 9 22 1 10 19 6 15 20 6 16 18 7 15 18 6 16 18 7 15 18 6 16 18 7 15 18 6 16 18 2 10 13 1 11 13 2 10 13 1 11 13 2 10 13 1 11 13 2 10 13 1 11 13 5 16 18 5 17 17 5 17 17 5 17 17 5 17 17 5 17 17 5 17 17 5 17 17 33 45 45 25 37 37 12 24 24 0 12 12 0 5 5 0 4 4 0 7 7 0 9 10 1 9 11 3 8 11 3 8 11 3 8 11 3 8 11 3 8 11 3 8 11 3 8 11 12 17 20 14 19 22 19 24 27 26 31 34 32 37 40 39 44 47 44 49 52 46 51 54 50 56 56 52 58 56 54 60 58 57 63 61 61 67 65 64 70 68 66 72 70 68 74 72 82 88 86 83 89 87 86 92 90 89 95 93 92 98 96 96 102 100 98 104 102 99 105 103 77 83 79 69 75 71 57 62 58 44 50 46 38 43 39 36 42 38 40 45 41 42 48 44 37 42 38 36 42 38 37 42 38 36 42 38 37 42 38 36 42 38 37 42 38 36 42 38 33 39 37 33 39 37 33 39 39 33 39 37 33 39 39 33 39 37 33 39 39 33 39 37 32 38 38 32 38 36 32 38 38 32 38 36 32 38 38 32 38 36 32 38 38 32 38 36
126 107 127 126 107 127 126 107 127 126 107 127 132 113 133 132 113 133 132 113 133 132 113 133 132 113 133 132 113 133 132 113 133 132 113 133 140 118 139 140 118 139 140 118 139 140 118 139 140 118 139 140 118 139 140 118 139 140 118 139 148 126 147 148 126 147 148 126 147 148 126 147 148 126 147 148 126 147 148 126 147 146 127 146 137 123 140 133 121 135 128 116 130 122 110 124 115 103 117 109 97 111 104 92 106 101 89 103 73 61 75 70 58 72 66 54 68 59 47 61 52 40 54 46 34 48 41 29 43 37 26 42 22 18 33 21 18 35 21 18 35 21 18 35 21 18 35 21 18 35 21 18 35 21 18 35 7 4 21 7 4 21 7 4 21 7 4 21 7 4 21 7 4 21 7 4 21 6 5 19 7 9 22 6 10 21 6 10 21 6 10 21 6 10 21 6 10 21 6 10 21 6 10 21 4 8 19 4 8 19 4 8 19 4 8 19 4 8 19 4 8 19 4 8 19 4 8 17 7 14 22 7 14 20 7 14 20 7 14 20 7 14 20 7 14 20 7 14 20 7 14 20 4 11 17 4 11 17 4 11 17 4 11 17 4 11 17 4 11 17 4 11 17 4 11 17 11 16 20 11 16 20 11 16 20 11 16 20 11 16 20 11 16 20 11 16 20 11 16 20 37 42 46 29 34 38 16 21 25 4 9 13 0 2 6 0 1 5 0 4 8 2 7 11 4 7 12 4 7 12 4 7 12 4 7 12 4 7 12 4 7 12 4 7 12 4 7 12 13 16 21 15 18 23 20 23 28 27 30 35 33 36 41 40 43 48 45 48 53 47 51 54 51 55 58 53 57 58 55 59 60 58 62 63 62 66 67 65 69 70 67 71 72 69 73 74 82 86 87 83 87 88 85 89 90 89 93 94 92 96 97 95 99 100 98 102 103 101 103 102 81 81 81 74 73 71 61 60 58 49 48 46 42 41 39 41 40 38 44 43 41 47 46 44 41 40 38 41 40 38 41 40 38 41 40 38 41 40 38 41 40 38 41 40 38 41 40 38 38 36 39 38 36 39 38 36 39 38 36 39 38 36 39 38 36 39 38 36 39 38 36 39 37 35 38 37 35 38 37 35 38 37 35 38 37 35 38 37 35 38 37 35 38 37 35 38
126 107 127 126 107 127 126 107 127 126 107 127 132 113 133 132 113 133 132 113 133 132 113 133 132 113 133 132 113 133 132 113 133 132 113 133 140 118 139 140 118 139 140 118 139 140 118 139 140 118 139 140 118 139 140 118 139 140 118 139 146 124 145 146 124 145 146 124 145 146 124 145 146 124 145 146 124 145 146 124 145 144 125 144 134 120 137 131 119 133 126 114 128 119 107 121 112 100 114 106 94 108 101 89 103 99 87 101 68 56 70 66 54 68 61 49 63 54 42 56 47 35 49 41 29 43 36 24 38 32 21 37 20 16 31 19 16 33 19 16 33 19 16 33 19 16 33 19 16 33 19 16 33 19 16 33 7 4 21 7 4 21 7 4 21 7 4 21 7 4 21 7 4 21 7 4 21 6 5 19 7 9 22 6 10 21 6 10 21 6 10 21 6 10 21 6 10 21 6 10 21 6 10 21 4 8 19 4 8 19 4 8 19 4 8 19 4 8 19 4 8 19 4 8 19 4 8 17 7 14 22 7 14 20 7 14 20 7 14 20 7 14 20 7 14 20 7 14 20 7 14 20 6 13 19 6 13 19 6 13 19 6 13 19 6 13 19 6 13 19 6 13 19 6 13 19 13 18 22 13 18 22 13 18 22 13 18 22 13 18 22 13 18 22 13 18 22 13 18 22 37 42 46 29 34 38 16 21 25 4 9 13 0 2 6 0 1 5 0 4 8 2 7 11 4 7 12 4 7 12 4 7 12 4 7 12 4 7 12 4 7 12 4 7 12 4 7 12 13 16 21 15 18 23 20 23 28 27 30 35 33 36 41 40 43 48 45 48 53 47 51 54 51 55 58 53 57 58 55 59 60 58 62 63 62 66 67 65 69 70 67 71 72 69 73 74 79 83 84 81 85 86 83 87 88 86 90 91 90 94 95 93 97 98 95 99 100 99 101 100 81 81 81 74 73 71 61 60 58 49 48 46 42 41 39 41 40 38 44 43 41 47 46 44 41 40 38 41 40 38 41 40 38 41 40 38 41 40 38 41 40 38 41 40 38 41 40 38 38 36 39 38 36 39 38 36 39 38 36 39 38 36 39 38 36 39 38 36 39 38 36 39 37 35 38 37 35 38 37 35 38 37 35 38 37 35 38 37 35 38 37 35 38 37 35 38
126 107 127 126 107 127 126 107 127 126 107 127 132 113 133 132 113 133 132 113 133 132 113 133 132 113 133 132 113 133 132 113 133 132 113 133 140 118 139 140 118 139 140 118 139 140 118 139 140 118 139 140 118 139 140 118 139 140 118 139 143 121 142 143 121 142 143 121 142 143 121 142 143 121 142 143 121 142 143 121 142 141 122 141 131 117 134 127 115 129 123 111 125 116 104 118 109 97 111 103 91 105 98 86 100 95 83 97 62 50 64 59 47 61 54 42 56 48 36 50 41 29 43 35 23 37 30 18 32 26 15 31 17 13 28 16 13 30 16 13 30 16 13 30 16 13 30 16 13 30 16 13 30 16 13 30 7 4 21 7 4 21 7 4 21 7 4 21 7 4 21 7 4 21 7 4 21 6 5 19 7 9 22 6 10 21 6 10 21 6 10 21 6 10 21 6 10 21 6 10 21 6 10 21 4 8 19 4 8 19 4 8 19 4 8 19 4 8 19 4 8 19 4 8 19 4 8 17 7 14 22 7 14 20 7 14 20 7 14 20 7 14 20 7 14 20 7 14 20 7 14 20 9 16 22 9 16 22 9 16 22 9 16 22 9 16 22 9 16 22 9 16 22 9 16 22 16 21 25 16 21 25 16 21 25 16 21 25 16 21 25 16 21 25 16 21 25 16 21 25 37 42 46 29 34 38 16 21 25 4 9 13 0 2 6 0 1 5 0 4 8 2 7 11 4 7 12 4 7 12 4 7 12 4 7 12 4 7 12 4 7 12 4 7 12 4 7 12 13 16 21 15 18 23 20 23 28 27 30 35 33 36 41 40 43 48 45 48 53 47 51 54 51 55 58 53 57 58 55 59 60 58 62 63 62 66 67 65 69 70 67 71 72 69 73 74 76 80 81 77 81 82 80 84 85 83 87 88 86 90 91 90 94 95 92 96 97 95 97 96 81 81 81 74 73 71 61 60 58 49 48 46 42 41 39 41 40 38 44 43 41 47 46 44 41 40 38 41 40 38 41 40 38 41 40 38 41 40 38 41 40 38 41 40 38 41 40 38 38 36 39 38 36 39 38 36 39 38 36 39 38 36 39 38 36 39 38 36 39 38 36 39 37 35 38 37 35 38 37 35 38 37 35 38 37 35 38 37 35 38 37 35 38 37 35 38
126 107 127 126 107 127 126 107 127 126 107 127 132 113 133 132 113 133 132 113 133 132 113 133 132 113 133 132 113 133 132 113 133 132 113 133 140 118 139 140 118 139 140 118 139 140 118 139 140 118 139 140 118 139 140 118 139 140 118 139 139 117 138 139 117 138 139 117 138 139 117 138 139 117 138 139 117 138 139 117 138 137 118 137 128 114 131 124 112 126 119 107 121 113 101 115 106 94 108 99 87 101 95 83 97 92 80 94 55 43 57 52 40 54 47 35 49 41 29 43 34 22 36 28 16 30 23 11 25 19 8 24 13 9 24 12 9 26 12 9 26 12 9 26 12 9 26 12 9 26 12 9 26 12 9 26 7 4 21 7 4 21 7 4 21 7 4 21 7 4 21 7 4 21 7 4 21 6 5 19 7 9 22 6 10 21 6 10 21 6 10 21 6 10 21 6 10 21 6 10 21 6 10 21 4 8 19 4 8 19 4 8 19 4 8 19 4 8 19 4 8 19 4 8 19 4 8 17 7 14 22 7 14 20 7 14 20 7 14 20 7 14 20 7 14 20 7 14 20 7 14 20 13 20 26 13 20 26 13 20 26 13 20 26 13 20 26 13 20 26 13 20 26 13 20 26 20 25 29 20 25 29 20 25 29 20 25 29 20 25 29 20 25 29 20 25 29 20 25 29 37 42 46 29 34 38 16 21 25 4 9 13 0 2 6 0 1 5 0 4 8 2 7 11 4 7 12 4 7 12 4 7 12 4 7 12 4 7 12 4 7 12 4 7 12 4 7 12 13 16 21 15 18 23 20 23 28 27 30 35 33 36 41 40 43 48 45 48 53 47 51 54 51 55 58 53 57 58 55 59 60 58 62 63 62 66 67 65 69 70 67 71 72 69 73 74 73 77 78 74 78 79 76 80 81 80 84 85 83 87 88 86 90 91 89 93 94 92 94 93 81 81 81 74 73 71 61 60 58 49 48 46 42 41 39 41 40 38 44 43 41 47 46 44 41 40 38 41 40 38 41 40 38 41 40 38 41 40 38 41 40 38 41 40 38 41 40 38 38 36 39 38 36 39 38 36 39 38 36 39 38 36 39 38 36 39 38 36 39 38 36 39 37 35 38 37 35 38 37 35 38 37 35 38 37 35 38 37 35 38 37 35 38 37 35 38
126 107 127 126 107 127 126 107 127 126 107 127 132 113 133 132 113 133 132 113 133 132 113 133 132 113 133 132 113 133 132 113 133 132 113 133 140 118 139 140 118 139 140 118 139 140 118 139 140 118 139 140 118 139 140 118 139 140 118 139 136 114 135 136 114 135 136 114 135 136 114 135 136 114 135 136 114 135 136 114 135 134 115 134 124 110 127 121 109 123 116 104 118 110 98 112 103 91 105 96 84 98 91 79 93 89 77 91 49 37 51 46 34 48 41 29 43 35 23 37 28 16 30 21 9 23 16 4 18 13 2 18 10 6 21 9 6 23 9 6 23 9 6 23 9 6 23 9 6 23 9 6 23 9 6 23 7 4 21 7 4 21 7 4 21 7 4 21 7 4 21 7 4 21 7 4 21 6 5 19 7 9 22 6 10 21 6 10 21 6 10 21 6 10 21 6 10 21 6 10 21 6 10 21 4 8 19 4 8 19 4 8 19 4 8 19 4 8 19 4 8 19 4 8 19 4 8 17 7 14 22 7 14 20 7 14 20 7 14 20 7 14 20 7 14 20 7 14 20 7 14 20 16 23 29 16 23 29 16 23 29 16 23 29 16 23 29 16 23 29 16 23 29 16 23 29 23 28 32 23 28 32 23 28 32 23 28 32 23 28 32 23 28 32 23 28 32 23 28 32 37 42 46 29 34 38 16 21 25 4 9 13 0 2 6 0 1 5 0 4 8 2 7 11 4 7 12 4 7 12 4 7 12 4 7 12 4 7 12 4 7 12 4 7 12 4 7 12 13 16 21 15 18 23 20 23 28 27 30 35 33 36 41 40 43 48 45 48 53 47 51 54 51 55 58 53 57 58 55 59 60 58 62 63 62 66 67 65 69 70 67 71 72 69 73 74 69 73 74 71 75 76 73 77 78 76 80 81 80 84 85 83 87 88 85 89 90 89 91 90 81 81 81 74 73 71 61 60 58 49 48 46 42 41 39 41 40 38 44 43 41 47 46 44 41 40 38 41 40 38 41 40 38 41 40 38 41 40 38 41 40 38 41 40 38 41 40 38 38 36 39 38 36 39 38 36 39 38 36 39 38 36 39 38 36 39 38 36 39 38 36 39 37 35 38 37 35 38 37 35 38 37 35 38 37 35 38 37 35 38 37 35 38 37 35 38
126 107 127 126 107 127 126 107 127 126 107 127 132 113 133 132 113 133 132 113 133 132 113 133 132 113 133 132 113 133 132 113 133 132 113 133 140 118 139 140 118 139 140 118 139 140 118 139 140 118 139 140 118 139 140 118 139 140 118 139 134 112 133 134 112 133 134 112 133 134 112 133 134 112 133 134 112 133 134 112 133 132 113 132 122 108 125 118 106 120 113 101 115 107 95 109 100 88 102 94 82 96 89 77 91 86 74 88 44 32 46 41 29 43 36 24 38 30 18 32 23 11 25 16 4 18 12 0 14 8 0 13 8 4 19 7 4 21 7 4 21 7 4 21 7 4 21 7 4 21 7 4 21 7 4 21 7 4 21 7 4 21 7 4 21 7 4 21 7 4 21 7 4 21 7 4 21 6 5 19 7 9 22 6 10 21 6 10 21 6 10 21 6 10 21 6 10 21 6 10 21 6 10 21 4 8 19 4 8 19 4 8 19 4 8 19 4 8 19 4 8 19 4 8 19 4 8 17 7 14 22 7 14 20 7 14 20 7 14 20 7 14 20 7 14 20 7 14 20 7 14 20 18 25 31 18 25 31 18 25 31 18 25 31 18 25 31 18 25 31 18 25 31 18 25 31 25 30 34 25 30 34 25 30 34 25 30 34 25 30 34 25 30 34 25 30 34 25 30 34 37 42 46 29 34 38 16 21 25 4 9 13 0 2 6 0 1 5 0 4 8 2 7 11 4 7 12 4 7 12 4 7 12 4 7 12 4 7 12 4 7 12 4 7 12 4 7 12 13 16 21 15 18 23 20 23 28 27 30 35 33 36 41 40 43 48 45 48 53 47 51 54 51 55 58 53 57 58 55 59 60 58 62 63 62 66 67 65 69 70 67 71 72 69 73 74 67 71 72 68 72 73 71 75 76 74 78 79 77 81 82 81 85 86 83 87 88 86 88 87 81 81 81 74 73 71 61 60 58 49 48 46 42 41 39 41 40 38 44 43 41 47 46 44 41 40 38 41 40 38 41 40 38 41 40 38 41 40 38 41 40 38 41 40 38 41 40 38 38 36 39 38 36 39 38 36 39 38 36 39 38 36 39 38 36 39 38 36 39 38 36 39 37 35 38 37 35 38 37 35 38 37 35 38 37 35 38 37 35 38 37 35 38 37 35 38
126 107 127 126 107 127 126 107 127 126 107 127 132 113 133 132 113 133 132 113 133 132 113 133 132 113 133 132 113 133 132 113 133 132 113 133 140 118 139 140 118 139 140 118 139 140 118 139 140 118 139 140 118 139 140 118 139 140 118 139 132 110 131 132 110 131 132 110 131 132 110 131 132 110 131 132 110 131 132 110 131 130 111 130 121 107 124 117 105 119 112 100 114 106 94 108 99 87 101 93 81 95 88 76 90 85 73 87 41 29 43 38 26 40 33 21 35 27 15 29 20 8 22 14 2 16 9 0 11 6 0 11 6 2 17 5 2 19 5 2 19 5 2 19 5 2 19 5 2 19 5 2 19 5 2 19 7 4 21 7 4 21 7 4 21 7 4 21 7 4 21 7 4 21 7 4 21 6 5 19 7 9 22 6 10 21 6 10 21 6 10 21 6 10 21 6 10 21 6 10 21 6 10 21 4 8 19 4 8 19 4 8 19 4 8 19 4 8 19 4 8 19 4 8 19 4 8 17 7 14 22 7 14 20 7 14 20 7 14 20 7 14 20 7 14 20 7 14 20 7 14 20 20 27 33 20 27 33 20 27 33 20 27 33 20 27 33 20 27 33 20 27 33 20 27 33 27 32 36 27 32 36 27 32 36 27 32 36 27 32 36 27 32 36 27 32 36 27 32 36 37 42 46 29 34 38 16 21 25 4 9 13 0 2 6 0 1 5 0 4 8 2 7 11 4 7 12 4 7 12 4 7 12 4 7 12 4 7 12 4 7 12 4 7 12 4 7 12 13 16 21 15 18 23 20 23 28 27 30 35 33 36 41 40 43 48 45 48 53 47 51 54 51 55 58 53 57 58 55 59 60 58 62 63 62 66 67 65 69 70 67 71 72 69 73 74 66 70 71 67 71 72 69 73 74 73 77 78 76 80 81 79 83 84 82 86 87 85 87 86 81 81 81 74 73 71 61 60 58 49 48 46 42 41 39 41 40 38 44 43 41 47 46 44 41 40 38 41 40 38 41 40 38 41 40 38 41 40 38 41 40 38 41 40 38 41 40 38 38 36 39 38 36 39 38 36 39 38 36 39 38 36 39 38 36 39 38 36 39 38 36 39 37 35 38 37 35 38 37 35 38 37 35 38 37 35 38 37 35 38 37 35 38 37 35 38
128 109 129 128 109 129 128 109 129 128 109 129 130 111 131 130 111 131 130 111 131 130 111 131 130 111 131 130 111 131 130 111 131 130 111 131 131 109 130 131 109 130 131 109 130 131 109 130 131 109 130 131 109 130 131 109 130 131 109 130 123 101 122 123 101 122 123 101 122 123 101 122 123 101 122 123 101 122 123 101 122 121 102 121 109 95 112 113 101 115 116 104 118 114 102 116 102 90 104 81 69 83 59 47 61 46 34 48 14 2 16 14 2 16 14 2 16 14 2 16 14 2 16 14 2 16 14 2 16 13 2 18 7 3 18 6 3 20 6 3 20 6 3 20 6 3 20 6 3 20 6 3 20 6 3 20 8 5 22 8 5 22 8 5 22 8 5 22 8 5 22 8 5 22 8 5 22 7 6 20 7 9 22 6 10 21 6 10 21 6 10 21 6 10 21 6 10 21 6 10 21 6 10 21 6 10 21 6 10 21 6 10 21 6 10 21 6 10 21 6 10 21 6 10 21 6 10 19 9 16 24 8 15 21 7 14 20 6 13 19 5 12 18 3 10 16 3 10 16 2 9 15 23 30 36 25 32 38 29 36 42 33 40 46 38 45 51 42 49 55 45 52 58 47 54 60 41 46 50 39 44 48 37 42 46 34 39 43 30 35 39 27 32 36 25 30 34 23 28 32 16 21 25 14 19 23 12 17 21 9 14 18 5 10 14 2 7 11 0 5 9 0 3 7 3 6 11 3 6 11 3 6 11 3 6 11 3 6 11 3 6 11 3 6 11 3 6 11 15 18 23 17 20 25 19 22 27 22 25 30 26 29 34 29 32 37 31 34 39 33 37 40 39 43 46 41 45 46 43 47 48 46 50 51 50 54 55 53 57 58 55 59 60 57 61 62 71 75 76 71 75 76 71 75 76 71 75 76 71 75 76 71 75 76 71 75 76 73 75 74 66 66 66 65 64 62 60 59 57 53 52 50 47 46 44 40 39 37 35 34 32 33 32 30 34 33 31 34 33 31 34 33 31 34 33 31 34 33 31 34 33 31 34 33 31 34 33 31 34 32 35 34 32 35 34 32 35 34 32 35 34 32 35 34 32 35 34 32 35 34 32 35 36 34 37 36 34 37 36 34 37 36 34 37 36 34 37 36 34 37 36 34 37 36 34 37
128 109 129 128 109 129 128 109 129 128 109 129 130 111 131 130 111 131 130 111 131 130 111 131 130 111 131 130 111 131 130 111 131 130 111 131 131 109 130 131 109 130 131 109 130 131 109 130 131 109 130 131 109 130 131 109 130 131 109 130 123 101 122 123 101 122 123 101 122 123 101 122 123 101 122 123 101 122 123 101 122 121 102 121 111 97 114 112 100 114 114 102 116 109 97 111 96 84 98 76 64 78 56 44 58 43 31 45 14 2 16 14 2 16 14 2 16 14 2 16 14 2 16 14 2 16 14 2 16 13 2 18 7 3 18 6 3 20 6 3 20 6 3 20 6 3 20 6 3 20 6 3 20 6 3 20 8 5 22 8 5 22 8 5 22 8 5 22 8 5 22 8 5 22 8 5 22 7 6 20 7 9 22 6 10 21 6 10 21 6 10 21 6 10 21 6 10 21 6 10 21 6 10 21 6 10 21 6 10 21 6 10 21 6 10 21 6 10 21 6 10 21 6 10 21 6 10 19 8 15 23 8 15 21 8 15 21 7 14 20 6 13 19 6 13 19 5 12 18 5 12 18 22 29 35 24 31 37 27 34 40 30 37 43 34 41 47 38 45 51 41 48 54 42 49 55 41 46 50 39 44 48 37 42 46 34 39 43 30 35 39 27 32 36 25 30 34 23 28 32 16 21 25 14 19 23 12 17 21 9 14 18 5 10 14 2 7 11 0 5 9 0 3 7 3 6 11 3 6 11 3 6 11 3 6 11 3 6 11 3 6 11 3 6 11 3 6 11 15 18 23 17 20 25 19 22 27 22 25 30 26 29 34 29 32 37 31 34 39 33 37 40 39 43 46 41 45 46 43 47 48 46 50 51 50 54 55 53 57 58 55 59 60 57 61 62 69 73 74 69 73 74 69 73 74 69 73 74 69 73 74 69 73 74 69 73 74 71 73 72 66 66 66 65 64 62 60 59 57 53 52 50 47 46 44 40 39 37 35 34 32 33 32 30 34 33 31 34 33 31 34 33 31 34 33 31 34 33 31 34 33 31 34 33 31 34 33 31 34 32 35 34 32 35 34 32 35 34 32 35 34 32 35 34 32 35 34 32 35 34 32 35 36 34 37 36 34 37 36 34 37 36 34 37 36 34 37 36 34 37 36 34 37 36 34 37
128 109 129 128 109 129 128 109 129 128 109 129 130 111 131 130 111 131 130 111 131 130 111 131 130 111 131 130 111 131 130 111 131 130 111 131 131 109 130 131 109 130 131 109 130 131 109 130 131 109 130 131 109 130 131 109 130 131 109 130 123 101 122 123 101 122 123 101 122 123 101 122 123 101 122 123 101 122 123 101 122 121 102 121 114 100 117 112 100 114 109 97 111 101 89 103 86 74 88 68 56 70 50 38 52 40 28 42 14 2 16 14 2 16 14 2 16 14 2 16 14 2 16 14 2 16 14 2 16 13 2 18 7 3 18 6 3 20 6 3 20 6 3 20 6 3 20 6 3 20 6 3 20 6 3 20 8 5 22 8 5 22 8 5 22 8 5 22 8 5 22 8 5 22 8 5 22 7 6 20 7 9 22 6 10 21 6 10 21 6 10 21 6 10 21 6 10 21 6 10 21 6 10 21 6 10 21 6 10 21 6 10 21 6 10 21 6 10 21 6 10 21 6 10 21 6 10 19 7 14 22 8 15 21 8 15 21 9 16 22 9 16 22 10 17 23 11 18 24 11 18 24 22 29 35 23 30 36 25 32 38 28 35 41 31 38 44 33 40 46 35 42 48 36 43 49 41 46 50 39 44 48 37 42 46 34 39 43 30 35 39 27 32 36 25 30 34 23 28 32 16 21 25 14 19 23 12 17 21 9 14 18 5 10 14 2 7 11 0 5 9 0 3 7 3 6 11 3 6 11 3 6 11 3 6 11 3 6 11 3 6 11 3 6 11 3 6 11 15 18 23 17 20 25 19 22 27 22 25 30 26 29 34 29 32 37 31 34 39 33 37 40 39 43 46 41 45 46 43 47 48 46 50 51 50 54 55 53 57 58 55 59 60 57 61 62 67 71 72 67 71 72 67 71 72 67 71 72 67 71 72 67 71 72 67 71 72 69 71 70 66 66 66 65 64 62 60 59 57 53 52 50 47 46 44 40 39 37 35 34 32 33 32 30 34 33 31 34 33 31 34 33 31 34 33 31 34 33 31 34 33 31 34 33 31 34 33 31 34 32 35 34 32 35 34 32 35 34 32 35 34 32 35 34 32 35 34 32 35 34 32 35 36 34 37 36 34 37 36 34 37 36 34 37 36 34 37 36 34 37 36 34 37 36 34 37
128 109 129 128 109 129 128 109 129 128 109 129 130 111 131 130 111 131 130 111 131 130 111 131 130 111 131 130 111 131 130 111 131 130 111 131 131 109 130 131 109 130 131 109 130 131 109 130 131 109 130 131 109 130 131 109 130 131 109 130 123 101 122 123 101 122 123 101 122 123 101 122 123 101 122 123 101 122 123 101 122 121 102 121 117 103 120 112 100 114 103 91 105 90 78 92 73 61 75 57 45 59 42 30 44 34 22 36 14 2 16 14 2 16 14 2 16 14 2 16 14 2 16 14 2 16 14 2 16 13 2 18 7 3 18 6 3 20 6 3 20 6 3 20 6 3 20 6 3 20 6 3 20 6 3 20 8 5 22 8 5 22 8 5 22 8 5 22 8 5 22 8 5 22 8 5 22 7 6 20 7 9 22 6 10 21 6 10 21 6 10 21 6 10 21 6 10 21 6 10 21 6 10 21 6 10 21 6 10 21 6 10 21 6 10 21 6 10 21 6 10 21 6 10 21 6 10 19 6 13 21 7 14 20 9 16 22 11 18 24 14 21 27 16 23 29 18 25 31 19 26 32 28 35 41 28 35 41 29 36 42 29 36 42 30 37 43 31 38 44 32 39 45 32 39 45 41 46 50 39 44 48 37 42 46 34 39 43 30 35 39 27 32 36 25 30 34 23 28 32 16 21 25 14 19 23 12 17 21 9 14 18 5 10 14 2 7 11 0 5 9 0 3 7 3 6 11 3 6 11 3 6 11 3 6 11 3 6 11 3 6 11 3 6 11 3 6 11 15 18 23 17 20 25 19 22 27 22 25 30 26 29 34 29 32 37 31 34 39 33 37 40 39 43 46 41 45 46 43 47 48 46 50 51 50 54 55 53 57 58 55 59 60 57 61 62 64 68 69 64 68 69 64 68 69 64 68 69 64 68 69 64 68 69 64 68 69 66 68 67 66 66 66 65 64 62 60 59 57 53 52 50 47 46 44 40 39 37 35 34 32 33 32 30 34 33 31 34 33 31 34 33 31 34 33 31 34 33 31 34 33 31 34 33 31 34 33 31 34 32 35 34 32 35 34 32 35 34 32 35 34 32 35 34 32 35 34 32 35 34 32 35 36 34 37 36 34 37 36 34 37 36 34 37 36 34 37 36 34 37 36 34 37 36 34 37
128 109 129 128 109 129 128 109 129 128 109 129 130 111 131 130 111 131 130 111 131 130 111 131 130 111 131 130 111 131 130 111 131 130 111 131 131 109 130 131 109 130 131 109 130 131 109 130 131 109 130 131 109 130 131 109 130 131 109 130 123 101 122 123 101 122 123 101 122 123 101 122 123 101 122 123 101 122 123 101 122 121 102 121 121 107 124 112 100 114 96 84 98 78 66 80 59 47 61 44 32 46 34 22 36 29 17 31 14 2 16 14 2 16 14 2 16 14 2 16 14 2 16 14 2 16 14 2 16 13 2 18 7 3 18 6 3 20 6 3 20 6 3 20 6 3 20 6 3 20 6 3 20 6 3 20 8 5 22 8 5 22 8 5 22 8 5 22 8 5 22 8 5 22 8 5 22 7 6 20 7 9 22 6 10 21 6 10 21 6 10 21 6 10 21 6 10 21 6 10 21 6 10 21 6 10 21 6 10 21 6 10 21 6 10 21 6 10 21 6 10 21 6 10 21 6 10 19 5 12 20 6 13 19 9 16 22 14 21 27 18 25 31 22 29 35 25 32 38 27 34 40 39 46 52 39 46 52 38 45 51 37 44 50 36 43 49 35 42 48 35 42 48 34 41 47 41 46 50 39 44 48 37 42 46 34 39 43 30 35 39 27 32 36 25 30 34 23 28 32 16 21 25 14 19 23 12 17 21 9 14 18 5 10 14 2 7 11 0 5 9 0 3 7 3 6 11 3 6 11 3 6 11 3 6 11 3 6 11 3 6 11 3 6 11 3 6 11 15 18 23 17 20 25 19 22 27 22 25 30 26 29 34 29 32 37 31 34 39 33 37 40 39 43 46 41 45 46 43 47 48 46 50 51 50 54 55 53 57 58 55 59 60 57 61 62 60 64 65 60 64 65 60 64 65 60 64 65 60 64 65 60 64 65 60 64 65 62 64 63 66 66 66 65 64 62 60 59 57 53 52 50 47 46 44 40 39 37 35 34 32 33 32 30 34 33 31 34 33 31 34 33 31 34 33 31 34 33 31 34 33 31 34 33 31 34 33 31 34 32 35 34 32 35 34 32 35 34 32 35 34 32 35 34 32 35 34 32 35 34 32 35 36 34 37 36 34 37 36 34 37 36 34 37 36 34 37 36 34 37 36 34 37 36 34 37
128 109 129 128 109 129 128 109 129 128 109 129 130 111 131 130 111 131 130 111 131 130 111 131 130 111 131 130 111 131 130 111 131 130 111 131 131 109 130 131 109 130 131 109 130 131 109 130 131 109 130 131 109 130 131 109 130 131 109 130 123 101 122 123 101 122 123 101 122 123 101 122 123 101 122 123 101 122 123 101 122 121 102 121 125 111 128 111 99 113 90 78 92 66 54 68 46 34 48 33 21 35 26 14 28 24 12 26 14 2 16 14 2 16 14 2 16 14 2 16 14 2 16 14 2 16 14 2 16 13 2 18 7 3 18 6 3 20 6 3 20 6 3 20 6 3 20 6 3 20 6 3 20 6 3 20 8 5 22 8 5 22 8 5 22 8 5 22 8 5 22 8 5 22 8 5 22 7 6 20 7 9 22 6 10 21 6 10 21 6 10 21 6 10 21 6 10 21 6 10 21 6 10 21 6 10 21 6 10 21 6 10 21 6 10 21 6 10 21 6 10 21 6 10 21 6 10 19 3 10 18 6 13 19 10 17 23 16 23 29 22 29 35 28 35 41 32 39 45 34 41 47 56 63 69 55 62 68 53 60 66 50 57 63 47 54 60 45 52 58 43 50 56 42 49 55 41 46 50 39 44 48 37 42 46 34 39 43 30 35 39 27 32 36 25 30 34 23 28 32 16 21 25 14 19 23 12 17 21 9 14 18 5 10 14 2 7 11 0 5 9 0 3 7 3 6 11 3 6 11 3 6 11 3 6 11 3 6 11 3 6 11 3 6 11 3 6 11 15 18 23 17 20 25 19 22 27 22 25 30 26 29 34 29 32 37 31 34 39 33 37 40 39 43 46 41 45 46 43 47 48 46 50 51 50 54 55 53 57 58 55 59 60 57 61 62 57 61 62 57 61 62 57 61 62 57 61 62 57 61 62 57 61 62 57 61 62 59 61 60 66 66 66 65 64 62 60 59 57 53 52 50 47 46 44 40 39 37 35 34 32 33 32 30 34 33 31 34 33 31 34 33 31 34 33 31 34 33 31 34 33 31 34 33 31 34 33 31 34 32 35 34 32 35 34 32 35 34 32 35 34 32 35 34 32 35 34 32 35 34 32 35 36 34 37 36 34 37 36 34 37 36 34 37 36 34 37 36 34 37 36 34 37 36 34 37
128 109 129 128 109 129 128 109 129 128 109 129 130 111 131 130 111 131 130 111 131 130 111 131 130 111 131 130 111 131 130 111 131 130 111 131 131 109 130 131 109 130 131 109 130 131 109 130 131 109 130 131 109 130 131 109 130 131 109 130 123 101 122 123 101 122 123 101 122 123 101 122 123 101 122 123 101 122 123 101 122 121 102 121 128 114 131 111 99 113 85 73 87 58 46 60 37 25 39 25 13 27 20 8 22 20 8 22 14 2 16 14 2 16 14 2 16 14 2 16 14 2 16 14 2 16 14 2 16 13 2 18 7 3 18 6 3 20 6 3 20 6 3 20 6 3 20 6 3 20 6 3 20 6 3 20 8 5 22 8 5 22 8 5 22 8 5 22 8 5 22 8 5 22 8 5 22 7 6 20 7 9 22 6 10 21 6 10 21 6 10 21 6 10 21 6 10 21 6 10 21 6 10 21 6 10 21 6 10 21 6 10 21 6 10 21 6 10 21 6 10 21 6 10 21 6 10 19 2 9 17 5 12 18 11 18 24 18 25 31 25 32 38 32 39 45 37 44 50 40 47 53 72 79 85 70 77 83 67 74 80 64 71 77 60 67 73 56 63 69 53 60 66 52 59 65 41 46 50 39 44 48 37 42 46 34 39 43 30 35 39 27 32 36 25 30 34 23 28 32 16 21 25 14 19 23 12 17 21 9 14 18 5 10 14 2 7 11 0 5 9 0 3 7 3 6 11 3 6 11 3 6 11 3 6 11 3 6 11 3 6 11 3 6 11 3 6 11 15 18 23 17 20 25 19 22 27 22 25 30 26 29 34 29 32 37 31 34 39 33 37 40 39 43 46 41 45 46 43 47 48 46 50 51 50 54 55 53 57 58 55 59 60 57 61 62 55 59 60 55 59 60 55 59 60 55 59 60 55 59 60 55 59 60 55 59 60 57 59 58 66 66 66 65 64 62 60 59 57 53 52 50 47 46 44 40 39 37 35 34 32 33 32 30 34 33 31 34 33 31 34 33 31 34 33 31 34 33 31 34 33 31 34 33 31 34 33 31 34 32 35 34 32 35 34 32 35 34 32 35 34 32 35 34 32 35 34 32 35 34 32 35 36 34 37 36 34 37 36 34 37 36 34 37 36 34 37 36 34 37 36 34 37 36 34 37
128 109 129 127 110 129 128 109 129 127 110 129 130 111 131 129 112 131 130 111 131 129 112 131 130 111 131 129 112 131 130 111 131 130 111 131 129 110 130 129 110 130 131 109 130 129 110 130 131 109 130 129 110 130 131 109 130 129 110 130 123 101 122 121 102 122 123 101 122 121 102 122 123 101 122 121 102 122 123 101 122 120 103 121 128 115 132 110 99 113 82 71 87 52 41 55 30 19 35 19 8 22 16 5 21 17 6 20 13 2 18 13 2 16 13 2 18 13 2 16 13 2 18 13 2 16 13 2 18 11 3 18 7 3 18 5 4 18 6 3 20 5 4 18 6 3 20 5 4 18 6 3 20 5 4 18 8 5 22 7 6 20 8 5 22 7 6 20 8 5 22 7 6 20 8 5 22 7 6 20 6 10 21 6 10 19 6 10 21 6 10 19 6 10 21 6 10 19 6 10 21 6 10 19 6 10 21 6 10 19 6 10 21 6 10 19 6 10 21 6 10 19 6 10 21 6 10 19 2 9 15 5 13 16 11 18 24 19 27 30 27 34 40 34 42 45 40 47 53 43 51 54 82 89 95 80 88 91 77 84 90 72 80 83 68 75 81 63 71 74 60 67 73 58 66 69 41 46 50 39 44 48 37 42 46 34 39 43 30 35 39 27 32 36 25 30 34 23 28 32 16 21 25 14 19 23 12 17 21 9 14 18 5 10 14 2 7 11 0 5 9 0 3 7 2 7 11 2 7 11 3 6 11 2 7 11 3 6 11 2 7 11 3 6 11 2 7 11 15 18 23 16 21 25 19 22 27 21 26 30 26 29 34 28 33 37 31 34 39 33 37 40 39 43 44 41 45 46 43 47 48 46 50 51 50 54 55 53 57 58 55 59 60 57 61 62 53 57 58 53 57 58 53 57 58 53 57 58 53 57 58 53 57 58 53 57 58 55 57 56 66 66 66 65 64 62 60 59 57 53 52 50 47 46 44 40 39 37 35 34 32 33 32 30 34 33 31 34 33 31 34 33 31 34 33 31 34 33 31 34 33 31 34 33 31 34 33 31 34 32 33 34 32 33 36 32 33 34 32 33 36 32 33 34 32 33 36 32 33 34 32 33 38 34 35 36 34 35 38 34 35 36 34 35 38 34 35 36 34 35 38 34 35 36 34 35
123 105 127 121 106 127 123 105 127 121 106 127 132 114 136 130 115 136 132 114 136 130 115 136 132 114 136 130 115 136 132 114 136 132 115 134 135 118 137 135 118 136 136 117 136 135 118 136 136 117 136 135 118 136 136 117 136 135 118 136 128 109 128 128 111 129 130 111 130 130 113 131 132 113 132 133 116 134 135 116 135 132 118 135 106 98 113 90 86 100 68 64 79 44 40 54 24 20 35 11 7 21 5 1 16 3 0 13 7 3 18 7 3 17 7 3 18 7 3 17 7 3 18 7 3 17 7 3 18 7 3 17 6 5 19 4 6 18 6 5 19 4 6 18 6 5 19 4 6 18 6 5 19 4 6 18 6 5 19 4 6 18 6 5 19 4 6 18 6 5 19 4 6 18 6 5 19 4 6 18 6 10 19 4 11 17 4 11 19 4 11 17 4 11 19 4 11 17 4 11 19 4 11 17 0 7 15 2 9 15 4 11 19 7 14 20 11 18 26 14 21 27 16 23 31 18 25 31 0 5 9 7 12 15 20 25 29 37 42 45 56 61 65 73 78 81 86 91 95 93 98 101 101 106 110 103 108 111 104 109 113 100 105 108 89 94 98 74 79 82 59 64 68 49 54 58 48 53 57 46 51 55 44 49 53 41 46 50 37 42 46 34 39 43 32 37 41 30 35 39 20 25 29 18 23 27 16 21 25 13 18 22 9 14 18 6 11 15 4 9 13 2 7 11 5 10 13 3 11 13 5 10 13 3 11 13 5 10 13 3 11 13 5 10 13 3 11 13 11 16 19 11 19 21 15 20 23 16 24 26 22 27 30 23 31 33 27 32 35 29 34 37 37 43 43 37 43 43 37 43 43 37 43 43 37 43 43 37 43 43 37 43 43 37 43 43 53 59 59 53 59 59 53 59 59 53 59 59 53 59 59 53 59 59 53 59 59 54 58 57 50 50 50 49 48 46 47 46 44 44 43 41 40 39 37 37 36 34 35 34 32 33 32 30 32 31 29 32 31 29 32 31 29 32 31 29 32 31 29 32 31 29 32 31 29 32 31 29 36 32 31 36 32 31 37 31 31 36 32 31 37 31 31 36 32 31 37 31 31 36 32 31 38 32 32 37 33 32 38 32 32 37 33 32 38 32 32 37 33 32 38 32 32 37 33 32
121 106 127 121 106 127 121 106 127 121 106 127 128 113 134 128 113 134 128 113 134 128 113 134 128 113 134 128 113 134 128 113 134 128 113 132 133 116 135 133 116 134 133 116 134 133 116 134 133 116 134 133 116 134 133 116 134 133 116 134 132 115 133 132 115 133 133 116 134 133 116 134 134 117 135 135 118 136 135 118 136 132 119 136 99 92 108 83 81 95 62 60 74 39 37 51 21 19 33 9 7 21 4 2 16 3 1 15 6 4 18 6 4 18 6 4 18 6 4 18 6 4 18 6 4 18 6 4 18 5 4 18 6 6 18 4 6 18 4 6 18 4 6 18 4 6 18 4 6 18 4 6 18 4 6 18 4 6 18 4 6 18 4 6 18 4 6 18 4 6 18 4 6 18 4 6 18 3 7 16 6 10 19 4 11 17 4 11 17 4 11 17 4 11 17 4 11 17 4 11 17 4 11 17 0 7 13 2 9 15 4 11 17 7 14 20 11 18 24 14 21 27 16 23 29 18 26 29 4 9 13 11 16 19 24 29 32 40 45 48 58 63 66 75 80 83 87 92 95 94 99 102 101 106 109 103 108 111 104 109 112 100 105 108 89 94 97 74 79 82 59 64 67 49 54 57 48 53 57 46 51 55 44 49 53 41 46 50 37 42 46 34 39 43 32 37 41 30 35 39 20 25 29 18 23 27 16 21 25 13 18 22 9 14 18 6 11 15 4 9 13 2 7 11 3 11 13 3 11 13 3 11 13 3 11 13 3 11 13 3 11 13 3 11 13 3 11 13 9 17 19 11 19 21 13 21 23 16 24 26 20 28 30 23 31 33 25 33 35 27 35 37 37 43 43 37 43 43 37 43 43 37 43 43 37 43 43 37 43 43 37 43 43 37 43 43 51 57 57 51 57 57 51 57 57 51 57 57 51 57 57 51 57 57 51 57 57 52 56 55 50 50 50 49 48 46 47 46 44 44 43 41 40 39 37 37 36 34 35 34 32 33 32 30 32 31 29 32 31 29 32 31 29 32 31 29 32 31 29 32 31 29 32 31 29 32 31 29 37 32 29 37 32 29 37 32 29 37 32 29 37 32 29 37 32 29 37 32 29 37 32 29 38 33 30 38 33 30 38 33 30 38 33 30 38 33 30 38 33 30 38 33 30 38 33 30
121 106 127 121 106 127 121 106 127 121 106 127 126 111 132 126 111 132 126 111 132 126 111 132 126 111 132 126 111 132 126 111 132 126 111 130 131 114 133 131 114 132 131 114 132 131 114 132 131 114 132 131 114 132 131 114 132 131 114 132 139 122 140 138 121 139 138 121 139 137 120 138 136 119 137 136 119 137 135 118 136 132 119 136 87 80 96 72 70 84 53 51 65 33 31 45 17 15 29 8 6 20 5 3 17 5 3 17 6 4 18 6 4 18 6 4 18 6 4 18 6 4 18 6 4 18 6 4 18 5 4 18 6 6 18 4 6 18 4 6 18 4 6 18 4 6 18 4 6 18 4 6 18 4 6 18 4 6 18 4 6 18 4 6 18 4 6 18 4 6 18 4 6 18 4 6 18 3 7 16 6 10 19 4 11 17 4 11 17 4 11 17 4 11 17 4 11 17 4 11 17 4 11 17 0 7 13 2 9 15 4 11 17 7 14 20 11 18 24 14 21 27 16 23 29 18 26 29 13 18 22 19 24 27 31 36 39 46 51 54 62 67 70 78 83 86 89 94 97 96 101 104 101 106 109 103 108 111 104 109 112 100 105 108 89 94 97 74 79 82 59 64 67 49 54 57 48 53 57 46 51 55 44 49 53 41 46 50 37 42 46 34 39 43 32 37 41 30 35 39 20 25 29 18 23 27 16 21 25 13 18 22 9 14 18 6 11 15 4 9 13 2 7 11 3 11 13 3 11 13 3 11 13 3 11 13 3 11 13 3 11 13 3 11 13 3 11 13 9 17 19 11 19 21 13 21 23 16 24 26 20 28 30 23 31 33 25 33 35 27 35 37 37 43 43 37 43 43 37 43 43 37 43 43 37 43 43 37 43 43 37 43 43 37 43 43 49 55 55 49 55 55 49 55 55 49 55 55 49 55 55 49 55 55 49 55 55 50 54 53 50 50 50 49 48 46 47 46 44 44 43 41 40 39 37 37 36 34 35 34 32 33 32 30 32 31 29 32 31 29 32 31 29 32 31 29 32 31 29 32 31 29 32 31 29 32 31 29 37 32 29 37 32 29 37 32 29 37 32 29 37 32 29 37 32 29 37 32 29 37 32 29 38 33 30 38 33 30 38 33 30 38 33 30 38 33 30 38 33 30 38 33 30 38 33 30
121 106 127 121 106 127 121 106 127 121 106 127 123 108 129 123 108 129 123 108 129 123 108 129 123 108 129 123 108 129 123 108 129 123 108 127 128 111 130 128 111 129 128 111 129 128 111 129 128 111 129 128 111 129 128 111 129 128 111 129 142 125 143 141 124 142 140 123 141 137 120 138 135 118 136 133 116 134 131 114 132 127 114 131 72 65 81 59 57 71 42 40 54 25 23 37 13 11 25 7 5 19 6 4 18 7 5 19 6 4 18 6 4 18 6 4 18 6 4 18 6 4 18 6 4 18 6 4 18 5 4 18 6 6 18 4 6 18 4 6 18 4 6 18 4 6 18 4 6 18 4 6 18 4 6 18 4 6 18 4 6 18 4 6 18 4 6 18 4 6 18 4 6 18 4 6 18 3 7 16 6 10 19 4 11 17 4 11 17 4 11 17 4 11 17 4 11 17 4 11 17 4 11 17 0 7 13 2 9 15 4 11 17 7 14 20 11 18 24 14 21 27 16 23 29 18 26 29 24 29 33 29 34 37 40 45 48 53 58 61 68 73 76 82 87 90 92 97 100 98 103 106 101 106 109 103 108 111 104 109 112 100 105 108 89 94 97 74 79 82 59 64 67 49 54 57 48 53 57 46 51 55 44 49 53 41 46 50 37 42 46 34 39 43 32 37 41 30 35 39 20 25 29 18 23 27 16 21 25 13 18 22 9 14 18 6 11 15 4 9 13 2 7 11 3 11 13 3 11 13 3 11 13 3 11 13 3 11 13 3 11 13 3 11 13 3 11 13 9 17 19 11 19 21 13 21 23 16 24 26 20 28 30 23 31 33 25 33 35 27 35 37 37 43 43 37 43 43 37 43 43 37 43 43 37 43 43 37 43 43 37 43 43 37 43 43 46 52 52 46 52 52 46 52 52 46 52 52 46 52 52 46 52 52 46 52 52 47 51 50 50 50 50 49 48 46 47 46 44 44 43 41 40 39 37 37 36 34 35 34 32 33 32 30 32 31 29 32 31 29 32 31 29 32 31 29 32 31 29 32 31 29 32 31 29 32 31 29 37 32 29 37 32 29 37 32 29 37 32 29 37 32 29 37 32 29 37 32 29 37 32 29 38 33 30 38 33 30 38 33 30 38 33 30 38 33 30 38 33 30 38 33 30 38 33 30
121 106 127 121 106 127 121 106 127 121 106 127 119 104 125 119 104 125 119 104 125 119 104 125 119 104 125 119 104 125 119 104 125 119 104 123 124 107 126 124 107 125 124 107 125 124 107 125 124 107 125 124 107 125 124 107 125 124 107 125 140 123 141 139 122 140 135 118 136 131 114 132 127 110 128 123 106 124 120 103 121 115 102 119 55 48 64 44 42 56 30 28 42 16 14 28 8 6 20 6 4 18 8 6 20 10 8 22 6 4 18 6 4 18 6 4 18 6 4 18 6 4 18 6 4 18 6 4 18 5 4 18 6 6 18 4 6 18 4 6 18 4 6 18 4 6 18 4 6 18 4 6 18 4 6 18 4 6 18 4 6 18 4 6 18 4 6 18 4 6 18 4 6 18 4 6 18 3 7 16 6 10 19 4 11 17 4 11 17 4 11 17 4 11 17 4 11 17 4 11 17 4 11 17 0 7 13 2 9 15 4 11 17 7 14 20 11 18 24 14 21 27 16 23 29 18 26 29 35 40 44 40 45 48 49 54 57 61 66 69 74 79 82 86 91 94 95 100 103 100 105 108 101 106 109 103 108 111 104 109 112 100 105 108 89 94 97 74 79 82 59 64 67 49 54 57 48 53 57 46 51 55 44 49 53 41 46 50 37 42 46 34 39 43 32 37 41 30 35 39 20 25 29 18 23 27 16 21 25 13 18 22 9 14 18 6 11 15 4 9 13 2 7 11 3 11 13 3 11 13 3 11 13 3 11 13 3 11 13 3 11 13 3 11 13 3 11 13 9 17 19 11 19 21 13 21 23 16 24 26 20 28 30 23 31 33 25 33 35 27 35 37 37 43 43 37 43 43 37 43 43 37 43 43 37 43 43 37 43 43 37 43 43 37 43 43 42 48 48 42 48 48 42 48 48 42 48 48 42 48 48 42 48 48 42 48 48 43 47 46 50 50 50 49 48 46 47 46 44 44 43 41 40 39 37 37 36 34 35 34 32 33 32 30 32 31 29 32 31 29 32 31 29 32 31 29 32 31 29 32 31 29 32 31 29 32 31 29 37 32 29 37 32 29 37 32 29 37 32 29 37 32 29 37 32 29 37 32 29 37 32 29 38 33 30 38 33 30 38 33 30 38 33 30 38 33 30 38 33 30 38 33 30 38 33 30
121 106 127 121 106 127 121 106 127 121 106 127 116 101 122 116 101 122 116 101 122 116 101 122 116 101 122 116 101 122 116 101 122 116 101 120 121 104 123 121 104 122 121 104 122 121 104 122 121 104 122 121 104 122 121 104 122 121 104 122 133 116 134 130 113 131 126 109 127 120 103 121 114 97 115 108 91 109 104 87 105 99 86 103 40 33 49 30 28 42 18 16 30 8 6 20 3 1 15 4 2 16 9 7 21 12 10 24 6 4 18 6 4 18 6 4 18 6 4 18 6 4 18 6 4 18 6 4 18 5 4 18 6 6 18 4 6 18 4 6 18 4 6 18 4 6 18 4 6 18 4 6 18 4 6 18 4 6 18 4 6 18 4 6 18 4 6 18 4 6 18 4 6 18 4 6 18 3 7 16 6 10 19 4 11 17 4 11 17 4 11 17 4 11 17 4 11 17 4 11 17 4 11 17 0 7 13 2 9 15 4 11 17 7 14 20 11 18 24 14 21 27 16 23 29 18 26 29 46 51 55 50 55 58 58 63 66 68 73 76 79 84 87 90 95 98 97 102 105 102 107 110 101 106 109 103 108 111 104 109 112 100 105 108 89 94 97 74 79 82 59 64 67 49 54 57 48 53 57 46 51 55 44 49 53 41 46 50 37 42 46 34 39 43 32 37 41 30 35 39 20 25 29 18 23 27 16 21 25 13 18 22 9 14 18 6 11 15 4 9 13 2 7 11 3 11 13 3 11 13 3 11 13 3 11 13 3 11 13 3 11 13 3 11 13 3 11 13 9 17 19 11 19 21 13 21 23 16 24 26 20 28 30 23 31 33 25 33 35 27 35 37 37 43 43 37 43 43 37 43 43 37 43 43 37 43 43 37 43 43 37 43 43 37 43 43 39 45 45 39 45 45 39 45 45 39 45 45 39 45 45 39 45 45 39 45 45 40 44 43 50 50 50 49 48 46 47 46 44 44 43 41 40 39 37 37 36 34 35 34 32 33 32 30 32 31 29 32 31 29 32 31 29 32 31 29 32 31 29 32 31 29 32 31 29 32 31 29 37 32 29 37 32 29 37 32 29 37 32 29 37 32 29 37 32 29 37 32 29 37 32 29 38 33 30 38 33 30 38 33 30 38 33 30 38 33 30 38 33 30 38 33 30 38 33 30
121 106 127 121 106 127 121 106 127 121 106 127 114 99 120 114 99 120 114 99 120 114 99 120 114 99 120 114 99 120 114 99 120 114 99 118 119 102 121 119 102 120 119 102 120 119 102 120 119 102 120 119 102 120 119 102 120 119 102 120 123 106 124 120 103 121 115 98 116 108 91 109 101 84 102 94 77 95 88 71 89 82 69 86 29 22 38 19 17 31 10 8 22 2 0 14 0 0 12 3 1 15 10 8 22 14 12 26 6 4 18 6 4 18 6 4 18 6 4 18 6 4 18 6 4 18 6 4 18 5 4 18 6 6 18 4 6 18 4 6 18 4 6 18 4 6 18 4 6 18 4 6 18 4 6 18 4 6 18 4 6 18 4 6 18 4 6 18 4 6 18 4 6 18 4 6 18 3 7 16 6 10 19 4 11 17 4 11 17 4 11 17 4 11 17 4 11 17 4 11 17 4 11 17 0 7 13 2 9 15 4 11 17 7 14 20 11 18 24 14 21 27 16 23 29 18 26 29 54 59 63 58 63 66 65 70 73 74 79 82 84 89 92 93 98 101 99 104 107 103 108 111 101 106 109 103 108 111 104 109 112 100 105 108 89 94 97 74 79 82 59 64 67 49 54 57 48 53 57 46 51 55 44 49 53 41 46 50 37 42 46 34 39 43 32 37 41 30 35 39 20 25 29 18 23 27 16 21 25 13 18 22 9 14 18 6 11 15 4 9 13 2 7 11 3 11 13 3 11 13 3 11 13 3 11 13 3 11 13 3 11 13 3 11 13 3 11 13 9 17 19 11 19 21 13 21 23 16 24 26 20 28 30 23 31 33 25 33 35 27 35 37 37 43 43 37 43 43 37 43 43 37 43 43 37 43 43 37 43 43 37 43 43 37 43 43 37 43 43 37 43 43 37 43 43 37 43 43 37 43 43 37 43 43 37 43 43 38 42 41 50 50 50 49 48 46 47 46 44 44 43 41 40 39 37 37 36 34 35 34 32 33 32 30 32 31 29 32 31 29 32 31 29 32 31 29 32 31 29 32 31 29 32 31 29 32 31 29 37 32 29 37 32 29 37 32 29 37 32 29 37 32 29 37 32 29 37 32 29 37 32 29 38 33 30 38 33 30 38 33 30 38 33 30 38 33 30 38 33 30 38 33 30 38 33 30
121 106 127 121 106 127 121 106 127 121 106 127 112 97 118 112 97 118 112 97 118 112 97 118 112 97 118 112 97 118 112 97 118 112 97 116 117 100 119 117 100 118 117 100 118 117 100 118 117 100 118 117 100 118 117 100 118 117 100 118 117 100 118 114 97 115 108 91 109 100 83 101 92 75 93 84 67 85 79 62 80 72 59 76 22 15 31 13 11 25 5 3 17 0 0 12 0 0 12 3 1 15 10 8 22 15 13 27 6 4 18 6 4 18 6 4 18 6 4 18 6 4 18 6 4 18 6 4 18 5 4 18 6 6 18 4 6 18 4 6 18 4 6 18 4 6 18 4 6 18 4 6 18 4 6 18 4 6 18 4 6 18 4 6 18 4 6 18 4 6 18 4 6 18 4 6 18 3 7 16 6 10 19 4 11 17 4 11 17 4 11 17 4 11 17 4 11 17 4 11 17 4 11 17 0 7 13 2 9 15 4 11 17 7 14 20 11 18 24 14 21 27 16 23 29 18 26 29 59 64 68 62 67 70 69 74 77 77 82 85 86 91 94 94 99 102 101 106 109 104 109 112 101 106 109 103 108 111 104 109 112 100 105 108 89 94 97 74 79 82 59 64 67 49 54 57 48 53 57 46 51 55 44 49 53 41 46 50 37 42 46 34 39 43 32 37 41 30 35 39 20 25 29 18 23 27 16 21 25 13 18 22 9 14 18 6 11 15 4 9 13 2 7 11 3 11 13 3 11 13 3 11 13 3 11 13 3 11 13 3 11 13 3 11 13 3 11 13 9 17 19 11 19 21 13 21 23 16 24 26 20 28 30 23 31 33 25 33 35 27 35 37 37 43 43 37 43 43 37 43 43 37 43 43 37 43 43 37 43 43 37 43 43 37 43 43 35 41 41 35 41 41 35 41 41 35 41 41 35 41 41 35 41 41 35 41 41 36 40 39 50 50 50 49 48 46 47 46 44 44 43 41 40 39 37 37 36 34 35 34 32 33 32 30 32 31 29 32 31 29 32 31 29 32 31 29 32 31 29 32 31 29 32 31 29 32 31 29 37 32 29 37 32 29 37 32 29 37 32 29 37 32 29 37 32 29 37 32 29 37 32 29 38 33 30 38 33 30 38 33 30 38 33 30 38 33 30 38 33 30 38 33 30 38 33 30
129 114 135 129 114 135 129 114 135 129 114 135 124 109 130 124 109 130 124 109 130 124 109 130 124 109 130 124 109 130 124 109 130 124 109 128 116 99 118 114 97 115 112 95 113 109 92 110 105 88 106 102 85 103 100 83 101 98 81 99 113 96 114 105 88 106 91 74 92 73 56 74 53 36 54 35 18 36 21 4 22 10 0 14 8 1 17 5 3 17 5 3 17 5 3 17 5 3 17 5 3 17 5 3 17 5 3 17 6 4 18 6 4 18 6 4 18 6 4 18 6 4 18 6 4 18 6 4 18 5 4 18 7 7 19 5 7 19 5 7 19 5 7 19 5 7 19 5 7 19 5 7 19 5 7 19 5 7 19 5 7 19 5 7 19 5 7 19 5 7 19 5 7 19 5 7 19 4 8 17 8 12 21 5 12 18 4 11 17 3 10 16 2 9 15 0 7 13 0 7 13 0 6 12 0 7 13 5 12 18 13 20 26 24 31 37 35 42 48 46 53 59 55 62 68 59 67 70 70 75 79 72 77 80 77 82 85 84 89 92 90 95 98 97 102 105 102 107 110 104 109 112 122 127 130 118 123 126 110 115 118 99 104 107 87 92 95 76 81 84 68 73 76 64 69 72 44 49 53 43 48 52 40 45 49 37 42 46 34 39 43 30 35 39 28 33 37 27 32 36 20 25 29 18 23 27 16 21 25 13 18 22 9 14 18 6 11 15 4 9 13 2 7 11 6 14 16 6 14 16 6 14 16 6 14 16 6 14 16 6 14 16 6 14 16 6 14 16 18 26 28 18 26 28 18 26 28 18 26 28 18 26 28 18 26 28 18 26 28 18 26 28 28 34 34 28 34 34 28 34 34 28 34 34 28 34 34 28 34 34 28 34 34 28 34 34 30 36 36 30 36 36 30 36 36 30 36 36 30 36 36 30 36 36 30 36 36 31 35 34 31 31 31 32 31 29 32 31 29 32 31 29 32 31 29 32 31 29 32 31 29 32 31 29 31 30 28 31 30 28 31 30 28 31 30 28 31 30 28 31 30 28 31 30 28 31 30 28 37 32 29 37 32 29 37 32 29 37 32 29 37 32 29 37 32 29 37 32 29 37 32 29 37 32 29 37 32 29 37 32 29 37 32 29 37 32 29 37 32 29 37 32 29 37 32 29
128 113 134 128 113 134 128 113 134 128 113 134 124 109 130 124 109 130 124 109 130 124 109 130 124 109 130 124 109 130 124 109 130 124 109 128 120 103 122 119 102 120 117 100 118 113 96 114 110 93 111 107 90 108 104 87 105 103 86 104 105 88 106 98 81 99 85 68 86 68 51 69 50 33 51 33 16 34 20 3 21 10 0 14 8 1 17 5 3 17 5 3 17 5 3 17 5 3 17 5 3 17 5 3 17 5 3 17 6 4 18 6 4 18 6 4 18 6 4 18 6 4 18 6 4 18 6 4 18 5 4 18 7 7 19 5 7 19 5 7 19 5 7 19 5 7 19 5 7 19 5 7 19 5 7 19 5 7 19 5 7 19 5 7 19 5 7 19 5 7 19 5 7 19 5 7 19 4 8 17 7 11 20 5 12 18 5 12 18 4 11 17 3 10 16 3 10 16 2 9 15 2 9 15 5 12 18 9 16 22 17 24 30 27 34 40 38 45 51 48 55 61 56 63 69 60 68 71 70 75 79 72 77 80 77 82 85 84 89 92 90 95 98 97 102 105 102 107 110 104 109 112 121 126 129 116 121 124 109 114 117 98 103 106 88 93 96 77 82 85 70 75 78 65 70 73 45 50 54 44 49 53 42 47 51 38 43 47 35 40 44 32 37 41 29 34 38 28 33 37 20 25 29 18 23 27 16 21 25 13 18 22 9 14 18 6 11 15 4 9 13 2 7 11 6 14 16 6 14 16 6 14 16 6 14 16 6 14 16 6 14 16 6 14 16 6 14 16 18 26 28 18 26 28 18 26 28 18 26 28 18 26 28 18 26 28 18 26 28 18 26 28 28 34 34 28 34 34 28 34 34 28 34 34 28 34 34 28 34 34 28 34 34 28 34 34 30 36 36 30 36 36 30 36 36 30 36 36 30 36 36 30 36 36 30 36 36 31 35 34 31 31 31 32 31 29 32 31 29 32 31 29 32 31 29 32 31 29 32 31 29 32 31 29 31 30 28 31 30 28 31 30 28 31 30 28 31 30 28 31 30 28 31 30 28 31 30 28 37 32 29 37 32 29 37 32 29 37 32 29 37 32 29 37 32 29 37 32 29 37 32 29 37 32 29 37 32 29 37 32 29 37 32 29 37 32 29 37 32 29 37 32 29 37 32 29
124 109 130 124 109 130 124 109 130 124 109 130 123 108 129 123 108 129 123 108 129 123 108 129 123 108 129 123 108 129 123 108 129 123 108 127 124 107 126 123 106 124 120 103 121 117 100 118 114 97 115 111 94 112 108 91 109 107 90 108 91 74 92 85 68 86 74 57 75 60 43 61 44 27 45 29 12 30 18 1 19 9 0 13 8 1 17 5 3 17 5 3 17 5 3 17 5 3 17 5 3 17 5 3 17 5 3 17 6 4 18 6 4 18 6 4 18 6 4 18 6 4 18 6 4 18 6 4 18 5 4 18 7 7 19 5 7 19 5 7 19 5 7 19 5 7 19 5 7 19 5 7 19 5 7 19 5 7 19 5 7 19 5 7 19 5 7 19 5 7 19 5 7 19 5 7 19 4 8 17 6 10 19 5 12 18 5 12 18 6 13 19 6 13 19 7 14 20 8 15 21 8 15 21 13 20 26 17 24 30 24 31 37 32 39 45 42 49 55 51 58 64 58 65 71 61 69 72 70 75 79 72 77 80 77 82 85 84 89 92 90 95 98 97 102 105 102 107 110 104 109 112 117 122 125 113 118 121 107 112 115 98 103 106 88 93 96 79 84 87 73 78 81 69 74 77 48 53 57 46 51 55 44 49 53 41 46 50 37 42 46 34 39 43 32 37 41 30 35 39 20 25 29 18 23 27 16 21 25 13 18 22 9 14 18 6 11 15 4 9 13 2 7 11 6 14 16 6 14 16 6 14 16 6 14 16 6 14 16 6 14 16 6 14 16 6 14 16 18 26 28 18 26 28 18 26 28 18 26 28 18 26 28 18 26 28 18 26 28 18 26 28 28 34 34 28 34 34 28 34 34 28 34 34 28 34 34 28 34 34 28 34 34 28 34 34 30 36 36 30 36 36 30 36 36 30 36 36 30 36 36 30 36 36 30 36 36 31 35 34 31 31 31 32 31 29 32 31 29 32 31 29 32 31 29 32 31 29 32 31 29 32 31 29 31 30 28 31 30 28 31 30 28 31 30 28 31 30 28 31 30 28 31 30 28 31 30 28 37 32 29 37 32 29 37 32 29 37 32 29 37 32 29 37 32 29 37 32 29 37 32 29 37 32 29 37 32 29 37 32 29 37 32 29 37 32 29 37 32 29 37 32 29 37 32 29
113 98 119 113 98 119 113 98 119 113 98 119 116 101 122 116 101 122 116 101 122 116 101 122 116 101 122 116 101 122 116 101 122 116 101 120 120 103 122 118 101 119 116 99 117 113 96 114 109 92 110 106 89 107 104 87 105 102 85 103 73 56 74 68 51 69 60 43 61 48 31 49 36 19 37 25 8 26 16 0 17 8 0 12 8 1 17 5 3 17 5 3 17 5 3 17 5 3 17 5 3 17 5 3 17 5 3 17 6 4 18 6 4 18 6 4 18 6 4 18 6 4 18 6 4 18 6 4 18 5 4 18 7 7 19 5 7 19 5 7 19 5 7 19 5 7 19 5 7 19 5 7 19 5 7 19 5 7 19 5 7 19 5 7 19 5 7 19 5 7 19 5 7 19 5 7 19 4 8 17 5 9 18 4 11 17 6 13 19 8 15 21 11 18 24 13 20 26 15 22 28 16 23 29 24 31 37 27 34 40 32 39 45 40 47 53 47 54 60 55 62 68 60 67 73 63 71 74 70 75 79 72 77 80 77 82 85 84 89 92 90 95 98 97 102 105 102 107 110 104 109 112 113 118 121 110 115 118 104 109 112 97 102 105 89 94 97 82 87 90 76 81 84 73 78 81 51 56 60 50 55 59 47 52 56 44 49 53 41 46 50 37 42 46 35 40 44 34 39 43 20 25 29 18 23 27 16 21 25 13 18 22 9 14 18 6 11 15 4 9 13 2 7 11 6 14 16 6 14 16 6 14 16 6 14 16 6 14 16 6 14 16 6 14 16 6 14 16 18 26 28 18 26 28 18 26 28 18 26 28 18 26 28 18 26 28 18 26 28 18 26 28 28 34 34 28 34 34 28 34 34 28 34 34 28 34 34 28 34 34 28 34 34 28 34 34 30 36 36 30 36 36 30 36 36 30 36 36 30 36 36 30 36 36 30 36 36 31 35 34 31 31 31 32 31 29 32 31 29 32 31 29 32 31 29 32 31 29 32 31 29 32 31 29 31 30 28 31 30 28 31 30 28 31 30 28 31 30 28 31 30 28 31 30 28 31 30 28 37 32 29 37 32 29 37 32 29 37 32 29 37 32 29 37 32 29 37 32 29 37 32 29 37 32 29 37 32 29 37 32 29 37 32 29 37 32 29 37 32 29 37 32 29 37 32 29
96 81 102 96 81 102 96 81 102 96 81 102 102 87 108 102 87 108 102 87 108 102 87 108 102 87 108 102 87 108 102 87 108 102 87 106 102 85 104 101 84 102 99 82 100 95 78 96 92 75 93 89 72 90 86 69 87 85 68 86 53 36 54 50 33 51 44 27 45 36 19 37 28 11 29 20 3 21 14 0 15 8 0 12 8 1 17 5 3 17 5 3 17 5 3 17 5 3 17 5 3 17 5 3 17 5 3 17 6 4 18 6 4 18 6 4 18 6 4 18 6 4 18 6 4 18 6 4 18 5 4 18 7 7 19 5 7 19 5 7 19 5 7 19 5 7 19 5 7 19 5 7 19 5 7 19 5 7 19 5 7 19 5 7 19 5 7 19 5 7 19 5 7 19 5 7 19 4 8 17 4 8 17 3 10 16 6 13 19 11 18 24 15 22 28 19 26 32 22 29 35 24 31 37 35 42 48 38 45 51 42 49 55 47 54 60 53 60 66 59 66 72 63 70 76 65 73 76 70 75 79 72 77 80 77 82 85 84 89 92 90 95 98 97 102 105 102 107 110 104 109 112 108 113 116 106 111 114 101 106 109 96 101 104 90 95 98 85 90 93 80 85 88 78 83 86 54 59 63 53 58 62 51 56 60 47 52 56 44 49 53 41 46 50 38 43 47 37 42 46 20 25 29 18 23 27 16 21 25 13 18 22 9 14 18 6 11 15 4 9 13 2 7 11 6 14 16 6 14 16 6 14 16 6 14 16 6 14 16 6 14 16 6 14 16 6 14 16 18 26 28 18 26 28 18 26 28 18 26 28 18 26 28 18 26 28 18 26 28 18 26 28 28 34 34 28 34 34 28 34 34 28 34 34 28 34 34 28 34 34 28 34 34 28 34 34 30 36 36 30 36 36 30 36 36 30 36 36 30 36 36 30 36 36 30 36 36 31 35 34 31 31 31 32 31 29 32 31 29 32 31 29 32 31 29 32 31 29 32 31 29 32 31 29 31 30 28 31 30 28 31 30 28 31 30 28 31 30 28 31 30 28 31 30 28 31 30 28 37 32 29 37 32 29 37 32 29 37 32 29 37 32 29 37 32 29 37 32 29 37 32 29 37 32 29 37 32 29 37 32 29 37 32 29 37 32 29 37 32 29 37 32 29 37 32 29
74 59 80 74 59 80 74 59 80 74 59 80 83 68 89 83 68 89 83 68 89 83 68 89 83 68 89 83 68 89 83 68 89 83 68 87 75 58 77 74 57 75 71 54 72 68 51 69 65 48 66 62 45 63 59 42 60 58 41 59 35 18 36 33 16 34 29 12 30 25 8 26 20 3 21 15 0 16 12 0 13 7 0 11 8 1 17 5 3 17 5 3 17 5 3 17 5 3 17 5 3 17 5 3 17 5 3 17 6 4 18 6 4 18 6 4 18 6 4 18 6 4 18 6 4 18 6 4 18 5 4 18 7 7 19 5 7 19 5 7 19 5 7 19 5 7 19 5 7 19 5 7 19 5 7 19 5 7 19 5 7 19 5 7 19 5 7 19 5 7 19 5 7 19 5 7 19 4 8 17 2 6 15 3 10 16 7 14 20 13 20 26 19 26 32 25 32 38 29 36 42 31 38 44 46 53 59 48 55 61 51 58 64 55 62 68 59 66 72 63 70 76 66 73 79 67 75 78 70 75 79 72 77 80 77 82 85 84 89 92 90 95 98 97 102 105 102 107 110 104 109 112 104 109 112 102 107 110 99 104 107 95 100 103 91 96 99 87 92 95 84 89 92 82 87 90 58 63 67 56 61 65 54 59 63 51 56 60 47 52 56 44 49 53 42 47 51 40 45 49 20 25 29 18 23 27 16 21 25 13 18 22 9 14 18 6 11 15 4 9 13 2 7 11 6 14 16 6 14 16 6 14 16 6 14 16 6 14 16 6 14 16 6 14 16 6 14 16 18 26 28 18 26 28 18 26 28 18 26 28 18 26 28 18 26 28 18 26 28 18 26 28 28 34 34 28 34 34 28 34 34 28 34 34 28 34 34 28 34 34 28 34 34 28 34 34 30 36 36 30 36 36 30 36 36 30 36 36 30 36 36 30 36 36 30 36 36 31 35 34 31 31 31 32 31 29 32 31 29 32 31 29 32 31 29 32 31 29 32 31 29 32 31 29 31 30 28 31 30 28 31 30 28 31 30 28 31 30 28 31 30 28 31 30 28 31 30 28 37 32 29 37 32 29 37 32 29 37 32 29 37 32 29 37 32 29 37 32 29 37 32 29 37 32 29 37 32 29 37 32 29 37 32 29 37 32 29 37 32 29 37 32 29 37 32 29
54 39 60 54 39 60 54 39 60 54 39 60 66 51 72 66 51 72 66 51 72 66 51 72 66 51 72 66 51 72 66 51 72 66 51 70 47 30 49 46 29 47 43 26 44 40 23 41 37 20 38 33 16 34 31 14 32 30 13 31 21 4 22 20 3 21 18 1 19 16 0 17 14 0 15 12 0 13 10 0 11 7 0 11 8 1 17 5 3 17 5 3 17 5 3 17 5 3 17 5 3 17 5 3 17 5 3 17 6 4 18 6 4 18 6 4 18 6 4 18 6 4 18 6 4 18 6 4 18 5 4 18 7 7 19 5 7 19 5 7 19 5 7 19 5 7 19 5 7 19 5 7 19 5 7 19 5 7 19 5 7 19 5 7 19 5 7 19 5 7 19 5 7 19 5 7 19 4 8 17 1 5 14 2 9 15 8 15 21 15 22 28 22 29 35 29 36 42 34 41 47 37 44 50 55 62 68 56 63 69 58 65 71 60 67 73 63 70 76 66 73 79 68 75 81 69 77 80 70 75 79 72 77 80 77 82 85 84 89 92 90 95 98 97 102 105 102 107 110 104 109 112 100 105 108 99 104 107 97 102 105 94 99 102 92 97 100 89 94 97 87 92 95 86 91 94 60 65 69 59 64 68 56 61 65 53 58 62 50 55 59 46 51 55 44 49 53 43 48 52 20 25 29 18 23 27 16 21 25 13 18 22 9 14 18 6 11 15 4 9 13 2 7 11 6 14 16 6 14 16 6 14 16 6 14 16 6 14 16 6 14 16 6 14 16 6 14 16 18 26 28 18 26 28 18 26 28 18 26 28 18 26 28 18 26 28 18 26 28 18 26 28 28 34 34 28 34 34 28 34 34 28 34 34 28 34 34 28 34 34 28 34 34 28 34 34 30 36 36 30 36 36 30 36 36 30 36 36 30 36 36 30 36 36 30 36 36 31 35 34 31 31 31 32 31 29 32 31 29 32 31 29 32 31 29 32 31 29 32 31 29 32 31 29 31 30 28 31 30 28 31 30 28 31 30 28 31 30 28 31 30 28 31 30 28 31 30 28 37 32 29 37 32 29 37 32 29 37 32 29 37 32 29 37 32 29 37 32 29 37 32 29 37 32 29 37 32 29 37 32 29 37 32 29 37 32 29 37 32 29 37 32 29 37 32 29
41 28 46 40 29 46 41 28 46 40 29 46 54 41 59 53 42 59 54 41 59 53 42 59 54 41 59 53 42 59 54 41 59 54 41 59 26 13 30 25 13 27 22 9 26 19 7 21 16 3 20 12 0 14 10 0 14 9 0 11 10 0 14 10 0 12 9 0 13 8 0 10 8 0 12 7 0 9 7 0 11 6 0 11 6 2 16 5 3 17 5 3 17 5 3 17 5 3 17 5 3 17 5 3 17 5 3 17 6 4 18 6 4 18 6 4 18 6 4 18 6 4 18 6 4 18 6 4 18 5 5 17 5 7 19 5 8 17 5 7 19 5 8 17 5 7 19 5 8 17 5 7 19 5 8 17 5 7 19 5 8 17 5 7 19 5 8 17 5 7 19 5 8 17 5 7 19 4 8 17 0 6 12 2 9 15 8 15 21 16 23 29 24 31 37 31 38 44 37 44 50 40 47 53 59 66 72 60 67 73 61 68 74 63 70 76 65 72 78 67 74 80 69 76 82 70 78 81 70 75 78 72 77 80 77 82 85 84 89 92 90 95 98 97 102 105 102 107 110 104 109 112 98 103 106 98 103 106 96 101 104 94 99 102 92 97 100 90 95 98 88 93 96 88 93 96 61 66 70 60 65 69 58 63 67 54 59 63 51 56 60 48 53 57 45 50 54 44 49 53 20 25 29 18 23 27 16 21 25 13 18 22 9 14 18 6 11 15 4 9 13 0 8 11 6 14 16 6 14 16 6 14 16 6 14 16 6 14 16 6 14 16 6 14 16 6 14 16 18 26 28 18 26 28 18 26 28 18 26 28 18 26 28 18 26 28 18 26 28 18 26 28 28 33 36 28 34 34 28 34 34 28 34 34 28 34 34 28 34 34 28 34 34 28 34 34 30 36 36 30 36 36 30 36 36 30 36 36 30 36 36 30 36 36 30 36 36 31 35 36 31 31 31 32 31 29 32 31 29 32 31 29 32 31 29 32 31 29 32 31 29 32 31 29 31 30 28 31 30 28 31 30 28 31 30 28 31 30 28 31 30 28 31 30 28 33 29 28 37 32 29 37 32 29 37 32 29 37 32 29 37 32 29 37 32 29 37 32 29 37 32 29 37 32 29 37 32 29 37 32 29 37 32 29 37 32 29 37 32 29 37 32 29 37 32 29
8 2 16 6 2 16 8 2 16 6 2 16 9 3 17 7 3 17 9 3 17 7 3 17 9 3 17 7 3 17 9 3 17 9 3 15 6 0 12 6 0 10 6 0 12 6 0 10 6 0 12 6 0 10 6 0 12 6 0 10 6 0 12 6 0 10 6 0 12 6 0 10 6 0 12 6 0 10 6 0 12 4 1 12 5 3 16 5 3 16 5 3 16 5 3 16 5 3 16 5 3 16 5 3 16 5 3 16 4 2 15 4 2 15 4 2 15 4 2 15 4 2 15 4 2 15 4 2 15 3 3 15 5 8 17 4 9 15 4 8 17 4 9 15 4 8 17 4 9 15 4 8 17 4 9 15 11 15 24 10 15 21 9 13 22 8 13 19 7 11 20 5 10 16 5 9 18 4 9 15 28 35 41 29 37 40 31 39 42 35 43 46 38 46 49 41 49 52 44 52 55 45 53 56 52 60 63 54 62 65 56 64 67 59 67 70 63 71 74 66 74 77 68 76 79 70 78 81 73 78 81 75 81 81 77 83 83 80 86 86 84 90 90 87 93 93 89 95 95 91 97 97 102 108 108 108 114 114 116 122 122 122 128 128 122 128 128 116 122 122 108 114 114 102 107 110 108 116 119 102 110 113 91 99 102 77 85 88 62 70 73 48 56 59 37 45 48 32 40 43 12 20 23 15 23 26 20 28 31 23 31 34 23 31 34 20 28 31 15 23 26 12 20 23 15 23 26 13 23 25 10 20 22 7 17 19 4 14 16 0 10 12 0 8 10 0 7 9 14 24 26 15 25 27 18 28 30 21 31 33 24 34 36 28 38 40 30 40 42 31 41 42 22 30 32 22 30 32 22 30 32 22 30 32 22 30 32 22 30 32 22 30 32 22 30 32 19 27 29 19 27 29 19 27 29 19 27 29 19 27 29 19 27 29 19 27 29 22 26 27 28 28 28 31 27 26 31 27 26 31 27 26 31 27 26 31 27 26 31 27 26 31 27 26 33 29 28 33 29 28 33 29 28 33 29 28 33 29 28 33 29 28 33 29 28 33 29 28 35 30 27 37 29 27 37 29 27 37 29 27 37 29 27 37 29 27 37 29 27 37 29 27 37 29 27 37 29 27 37 29 27 37 29 27 37 29 27 37 29 27 37 29 27 37 29 27
5 3 14 5 3 14 5 3 14 5 3 14 6 4 15 6 4 15 6 4 15 6 4 15 6 4 15 6 4 15 6 4 15 6 4 15 3 2 10 3 2 10 3 2 10 3 2 10 3 2 10 3 2 10 3 2 10 3 2 10 3 2 10 3 2 10 3 2 10 3 2 10 3 2 10 3 2 10 3 2 10 3 2 10 5 3 16 5 3 16 5 3 16 5 3 16 5 3 16 5 3 16 5 3 16 5 3 16 4 2 15 4 2 15 4 2 15 4 2 15 4 2 15 4 2 15 4 2 15 3 3 13 5 8 17 4 9 15 4 9 15 4 9 15 4 9 15 4 9 15 4 9 15 4 9 15 10 15 21 10 15 21 10 15 21 9 14 20 8 13 19 8 13 19 7 12 18 7 12 18 29 37 40 30 38 41 33 41 44 36 44 47 39 47 50 43 51 54 45 53 56 46 54 57 52 60 63 54 62 65 56 64 67 59 67 70 63 71 74 66 74 77 68 76 79 70 78 80 73 78 81 75 81 81 77 83 83 80 86 86 84 90 90 87 93 93 89 95 95 91 97 97 102 108 108 108 114 114 116 122 122 122 128 128 122 128 128 116 122 122 108 114 114 102 108 108 109 117 120 103 111 114 93 101 104 80 88 91 65 73 76 52 60 63 42 50 53 36 44 47 15 23 26 17 25 28 20 28 31 22 30 33 22 30 33 20 28 31 17 25 28 15 23 26 15 25 27 14 24 26 12 22 24 8 18 20 5 15 17 2 12 14 0 9 11 0 8 10 13 23 25 14 24 26 16 26 28 20 30 32 23 33 35 26 36 38 29 39 41 30 40 42 22 30 32 22 30 32 22 30 32 22 30 32 22 30 32 22 30 32 22 30 32 22 30 32 19 27 29 19 27 29 19 27 29 19 27 29 19 27 29 19 27 29 19 27 29 21 27 27 29 27 28 31 27 26 31 27 26 31 27 26 31 27 26 31 27 26 31 27 26 31 27 26 33 29 28 33 29 28 33 29 28 33 29 28 33 29 28 33 29 28 33 29 28 33 29 28 37 29 27 37 29 27 37 29 27 37 29 27 37 29 27 37 29 27 37 29 27 37 29 27 37 29 27 37 29 27 37 29 27 37 29 27 37 29 27 37 29 27 37 29 27 37 29 27
5 3 14 5 3 14 5 3 14 5 3 14 6 4 15 6 4 15 6 4 15 6 4 15 6 4 15 6 4 15 6 4 15 6 4 15 3 2 10 3 2 10 3 2 10 3 2 10 3 2 10 3 2 10 3 2 10 3 2 10 3 2 10 3 2 10 3 2 10 3 2 10 3 2 10 3 2 10 3 2 10 3 2 10 5 3 16 5 3 16 5 3 16 5 3 16 5 3 16 5 3 16 5 3 16 5 3 16 4 2 15 4 2 15 4 2 15 4 2 15 4 2 15 4 2 15 4 2 15 3 3 13 5 8 17 4 9 15 4 9 15 4 9 15 4 9 15 4 9 15 4 9 15 4 9 15 9 14 20 10 15 21 10 15 21 11 16 22 11 16 22 12 17 23 13 18 24 13 18 24 31 39 42 33 41 44 35 43 46 38 46 49 42 50 53 45 53 56 47 55 58 49 57 60 52 60 63 54 62 65 56 64 67 59 67 70 63 71 74 66 74 77 68 76 79 70 78 80 73 78 81 75 81 81 77 83 83 80 86 86 84 90 90 87 93 93 89 95 95 91 97 97 102 108 108 108 114 114 116 122 122 122 128 128 122 128 128 116 122 122 108 114 114 102 108 108 110 118 121 105 113 116 96 104 107 84 92 95 71 79 82 59 67 70 49 57 60 44 52 55 22 30 33 21 29 32 21 29 32 20 28 31 20 28 31 21 29 32 21 29 32 22 30 33 18 28 30 16 26 28 14 24 26 11 21 23 7 17 19 4 14 16 2 12 14 0 10 12 10 20 22 12 22 24 14 24 26 17 27 29 21 31 33 24 34 36 26 36 38 28 38 40 22 30 32 22 30 32 22 30 32 22 30 32 22 30 32 22 30 32 22 30 32 22 30 32 19 27 29 19 27 29 19 27 29 19 27 29 19 27 29 19 27 29 19 27 29 21 27 27 29 27 28 31 27 26 31 27 26 31 27 26 31 27 26 31 27 26 31 27 26 31 27 26 33 29 28 33 29 28 33 29 28 33 29 28 33 29 28 33 29 28 33 29 28 33 29 28 37 29 27 37 29 27 37 29 27 37 29 27 37 29 27 37 29 27 37 29 27 37 29 27 37 29 27 37 29 27 37 29 27 37 29 27 37 29 27 37 29 27 37 29 27 37 29 27
