P3
172 37
255
0 0 0 0 0 0 0 0 0 0 0 0 0 0 0 0 0 0 0 0 0 0 0 0 0 0 0 0 0 0 0 0 0 0 0 0 1 1 3 1 1 3 1 1 3 1 1 3 1 1 3 1 1 3 1 1 3 1 1 3 0 0 2 0 0 2 0 0 2 0 0 2 0 0 2 0 0 2 0 0 2 0 0 2 0 0 0 0 0 0 0 0 0 0 0 0 0 0 0 0 0 0 0 0 0 0 0 0 0 0 0 0 0 0 0 0 0 0 0 0 0 0 0 0 0 0 0 0 0 0 0 0 0 0 0 0 0 0 0 0 0 0 0 0 0 0 0 0 0 0 0 0 0 0 0 0 0 0 0 0 0 0 0 0 0 0 0 0 0 0 0 0 0 0 0 0 0 0 0 0 0 0 0 0 0 0 0 0 0 0 0 0 0 0 0 0 0 0 0 0 0 0 0 0 0 0 0 0 0 0 0 0 0 0 0 0 0 0 0 0 0 0 0 0 0 1 0 0 6 2 3 9 3 5 14 8 10 21 15 17 27 21 23 34 28 30 39 33 35 41 35 37 54 48 50 56 50 52 58 52 54 61 55 57 65 59 61 68 62 64 70 64 66 74 65 68 78 63 66 81 65 68 83 67 70 86 70 73 90 74 77 93 77 80 95 79 82 97 81 84 103 87 90 103 87 90 103 87 90 103 87 90 103 87 90 103 87 90 103 87 90 103 87 90 114 97 103 114 97 103 114 97 103 114 97 103 114 97 103 114 97 103 114 97 103 114 97 103 116 99 105 116 99 105 116 99 105 116 99 105 116 99 105 116 99 105 116 99 105 116 99 105 118 101 109 118 101 109 118 101 109 118 101 109 118 101 109 118 101 109 118 101 109 118 101 109 117 100 108 117 100 108 117 100 108 117 100 108 117 100 108 117 100 108 117 100 108 117 100 108 108 93 100 107 92 99 105 90 97 101 86 93 98 83 90 95 80 87 92 77 84 91 76 83 66 51 58 65 50 57 63 48 55 60 45 52 57 42 49 55 40 47 53 38 45 49 38 44 42 36 38 39 37 38 39 37 38 39 37 38 39 37 38 39 37 38 39 37 38 39 37 38 41 39 40 41 39 40 41 39 40 41 39 40 41 39 40 41 39 40 41 39 40 41 39 40
0 0 0 0 0 0 0 0 0 0 0 0 0 0 0 0 0 0 0 0 0 0 0 0 0 0 0 0 0 0 0 0 0 0 0 0 1 1 3 1 1 3 1 1 3 1 1 3 1 1 3 1 1 3 1 1 3 1 1 3 0 0 2 0 0 2 0 0 2 0 0 2 0 0 2 0 0 2 0 0 2 0 0 2 0 0 0 0 0 0 0 0 0 0 0 0 0 0 0 0 0 0 0 0 0 0 0 0 0 0 0 0 0 0 0 0 0 0 0 0 0 0 0 0 0 0 0 0 0 0 0 0 0 0 0 0 0 0 0 0 0 0 0 0 0 0 0 0 0 0 0 0 0 0 0 0 0 0 0 0 0 0 0 0 0 0 0 0 0 0 0 0 0 0 0 0 0 0 0 0 0 0 0 0 0 0 0 0 0 0 0 0 0 0 0 0 0 0 0 0 0 0 0 0 0 0 0 0 0 0 0 0 0 0 0 0 0 0 0 0 0 0 0 0 0 1 0 0 7 1 3 11 2 5 16 7 10 23 14 17 29 20 23 36 27 30 41 32 35 43 34 37 56 47 50 58 49 52 60 51 54 63 54 57 67 58 61 70 61 64 72 63 66 75 64 68 79 63 66 83 64 68 85 66 70 88 69 73 92 73 77 95 76 80 97 78 82 99 80 84 105 86 90 105 86 90 105 86 90 105 86 90 105 86 90 105 86 90 105 86 90 105 86 90 116 97 103 116 97 103 116 97 103 116 97 103 116 97 103 116 97 103 116 97 103 116 97 103 118 99 105 118 99 105 118 99 105 118 99 105 118 99 105 118 99 105 118 99 105 118 99 105 120 100 109 120 100 109 120 100 109 120 100 109 120 100 109 120 100 109 120 100 109 120 100 109 119 99 108 119 99 108 119 99 108 119 99 108 119 99 108 119 99 108 119 99 108 117 100 108 107 92 99 106 91 96 103 88 95 100 85 90 97 82 89 93 78 83 91 76 83 90 75 80 63 48 55 62 47 52 60 45 52 58 43 48 56 41 48 54 39 44 53 38 45 49 38 42 42 36 38 39 37 38 39 37 38 39 37 38 39 37 38 39 37 38 39 37 38 39 37 38 41 39 40 41 39 40 41 39 40 41 39 40 41 39 40 41 39 40 41 39 40 41 39 40
0 0 0 0 0 0 0 0 0 0 0 0 0 0 0 0 0 0 0 0 0 0 0 0 0 0 0 0 0 0 0 0 0 0 0 0 1 1 3 1 1 3 1 1 3 1 1 3 1 1 3 1 1 3 1 1 3 1 1 3 0 0 2 0 0 2 0 0 2 0 0 2 0 0 2 0 0 2 0 0 2 0 0 2 0 0 0 0 0 0 0 0 0 0 0 0 0 0 0 0 0 0 0 0 0 0 0 0 0 0 0 0 0 0 0 0 0 0 0 0 0 0 0 0 0 0 0 0 0 0 0 0 0 0 0 0 0 0 0 0 0 0 0 0 0 0 0 0 0 0 0 0 0 0 0 0 0 0 0 0 0 0 0 0 0 0 0 0 0 0 0 0 0 0 0 0 0 0 0 0 0 0 0 0 0 0 0 0 0 0 0 0 0 0 0 0 0 0 0 0 0 0 0 0 0 0 0 0 0 0 0 0 0 0 0 0 0 0 0 0 0 0 0 0 0 1 0 0 16 7 8 20 10 11 25 15 16 31 21 22 38 28 29 44 34 35 49 39 40 52 42 43 62 52 53 64 54 55 66 56 57 69 59 60 73 63 64 76 66 67 78 68 69 83 68 71 92 71 76 95 72 78 97 74 80 100 77 83 104 81 87 107 84 90 109 86 92 111 88 94 115 92 98 115 92 98 115 92 98 115 92 98 115 92 98 115 92 98 115 92 98 115 92 98 119 96 102 119 96 102 119 96 102 119 96 102 119 96 102 119 96 102 119 96 102 119 96 102 121 98 104 121 98 104 121 98 104 121 98 104 121 98 104 121 98 104 121 98 104 121 98 104 119 98 105 119 98 105 119 98 105 119 98 105 119 98 105 119 98 105 119 98 105 119 98 105 115 94 101 115 94 101 115 94 101 115 94 101 115 94 101 115 94 101 115 94 101 114 95 101 110 95 100 105 93 95 100 88 92 94 82 84 87 75 79 81 69 71 76 64 68 73 61 63 49 37 41 49 37 39 49 37 41 49 37 39 49 37 41 49 37 39 49 37 41 48 38 39 42 36 36 41 37 36 41 37 36 41 37 36 41 37 36 41 37 36 41 37 36 41 37 36 39 35 34 39 35 34 39 35 34 39 35 34 39 35 34 39 35 34 39 35 34 39 35 34
0 0 0 0 0 0 0 0 0 0 0 0 0 0 0 0 0 0 0 0 0 0 0 0 0 0 0 0 0 0 0 0 0 0 0 0 1 1 3 1 1 3 1 1 3 1 1 3 1 1 3 1 1 3 1 1 3 1 1 3 0 0 2 0 0 2 0 0 2 0 0 2 0 0 2 0 0 2 0 0 2 0 0 2 0 0 0 0 0 0 0 0 0 0 0 0 0 0 0 0 0 0 0 0 0 0 0 0 0 0 0 0 0 0 0 0 0 0 0 0 0 0 0 0 0 0 0 0 0 0 0 0 0 0 0 0 0 0 0 0 0 0 0 0 0 0 0 0 0 0 0 0 0 0 0 0 0 0 0 0 0 0 0 0 0 0 0 0 0 0 0 0 0 0 0 0 0 0 0 0 0 0 0 0 0 0 0 0 0 0 0 0 0 0 0 0 0 0 0 0 0 0 0 0 0 0 0 0 0 0 0 0 0 0 0 0 0 0 0 0 0 0 0 0 0 1 0 0 18 8 9 22 10 12 27 15 17 33 21 23 40 28 30 46 34 36 51 39 41 54 42 44 63 51 53 65 53 55 67 55 57 70 58 60 74 62 64 77 65 67 79 67 69 83 68 71 93 70 76 97 72 78 99 74 80 102 77 83 106 81 87 109 84 90 111 86 92 113 88 94 117 92 98 117 92 98 117 92 98 117 92 98 117 92 98 117 92 98 117 92 98 117 92 98 121 96 102 121 96 102 121 96 102 121 96 102 121 96 102 121 96 102 121 96 102 121 96 102 123 98 104 123 98 104 123 98 104 123 98 104 123 98 104 123 98 104 123 98 104 123 98 104 120 97 105 120 97 105 120 97 105 120 97 105 120 97 105 120 97 105 120 97 105 120 97 105 116 93 101 116 93 101 116 93 101 116 93 101 116 93 101 116 93 101 116 93 101 115 94 101 109 94 97 104 92 94 99 87 89 93 81 83 86 74 76 80 68 70 75 63 65 72 60 62 49 37 39 49 37 39 49 37 39 49 37 39 49 37 39 49 37 39 49 37 39 48 38 39 42 36 36 41 37 36 41 37 36 41 37 36 41 37 36 41 37 36 41 37 36 41 37 36 39 35 34 39 35 34 39 35 34 39 35 34 39 35 34 39 35 34 39 35 34 39 35 34
0 0 0 0 0 0 0 0 0 0 0 0 0 0 0 0 0 0 0 0 0 0 0 0 0 0 0 0 0 0 0 0 0 0 0 0 1 1 3 1 1 3 1 1 3 1 1 3 1 1 3 1 1 3 1 1 3 1 1 3 0 0 2 0 0 2 0 0 2 0 0 2 0 0 2 0 0 2 0 0 2 0 0 2 0 0 0 0 0 0 0 0 0 0 0 0 0 0 0 0 0 0 0 0 0 0 0 0 0 0 0 0 0 0 0 0 0 0 0 0 0 0 0 0 0 0 0 0 0 0 0 0 0 0 0 0 0 0 0 0 0 0 0 0 0 0 0 0 0 0 0 0 0 0 0 0 0 0 0 0 0 0 0 0 0 0 0 0 0 0 0 0 0 0 0 0 0 0 0 0 0 0 0 0 0 0 0 0 0 0 0 0 0 0 0 0 0 0 0 0 0 0 0 0 0 0 0 0 0 0 0 0 0 0 0 0 0 0 0 0 0 0 0 0 0 1 0 0 21 11 12 24 12 14 29 17 19 36 24 26 43 31 33 49 37 39 54 42 44 56 44 46 63 51 53 65 53 55 67 55 57 70 58 60 74 62 64 77 65 67 79 67 69 83 68 71 93 70 76 97 72 78 99 74 80 102 77 83 106 81 87 109 84 90 111 86 92 113 88 94 117 92 98 117 92 98 117 92 98 117 92 98 117 92 98 117 92 98 117 92 98 117 92 98 121 96 102 121 96 102 121 96 102 121 96 102 121 96 102 121 96 102 121 96 102 121 96 102 123 98 104 123 98 104 123 98 104 123 98 104 123 98 104 123 98 104 123 98 104 123 98 104 120 97 105 120 97 105 120 97 105 120 97 105 120 97 105 120 97 105 120 97 105 120 97 105 116 93 101 116 93 101 116 93 101 116 93 101 116 93 101 116 93 101 116 93 101 115 94 101 106 91 94 102 90 92 97 85 87 90 78 80 83 71 73 77 65 67 72 60 62 70 58 60 49 37 39 49 37 39 49 37 39 49 37 39 49 37 39 49 37 39 49 37 39 48 38 39 42 36 36 41 37 36 41 37 36 41 37 36 41 37 36 41 37 36 41 37 36 41 37 36 39 35 34 39 35 34 39 35 34 39 35 34 39 35 34 39 35 34 39 35 34 39 35 34
0 0 0 0 0 0 0 0 0 0 0 0 0 0 0 0 0 0 0 0 0 0 0 0 0 0 0 0 0 0 0 0 0 0 0 0 1 1 3 1 1 3 1 1 3 1 1 3 1 1 3 1 1 3 1 1 3 1 1 3 0 0 2 0 0 2 0 0 2 0 0 2 0 0 2 0 0 2 0 0 2 0 0 2 0 0 0 0 0 0 0 0 0 0 0 0 0 0 0 0 0 0 0 0 0 0 0 0 0 0 0 0 0 0 0 0 0 0 0 0 0 0 0 0 0 0 0 0 0 0 0 0 0 0 0 0 0 0 0 0 0 0 0 0 0 0 0 0 0 0 0 0 0 0 0 0 0 0 0 0 0 0 0 0 0 0 0 0 0 0 0 0 0 0 0 0 0 0 0 0 0 0 0 0 0 0 0 0 0 0 0 0 0 0 0 0 0 0 0 0 0 0 0 0 0 0 0 0 0 0 0 0 0 0 0 0 0 0 0 0 0 0 0 0 0 1 0 0 24 14 15 28 16 18 32 20 22 39 27 29 46 34 36 52 40 42 57 45 47 60 48 50 63 51 53 65 53 55 67 55 57 70 58 60 74 62 64 77 65 67 79 67 69 83 68 71 93 70 76 97 72 78 99 74 80 102 77 83 106 81 87 109 84 90 111 86 92 113 88 94 117 92 98 117 92 98 117 92 98 117 92 98 117 92 98 117 92 98 117 92 98 117 92 98 121 96 102 121 96 102 121 96 102 121 96 102 121 96 102 121 96 102 121 96 102 121 96 102 123 98 104 123 98 104 123 98 104 123 98 104 123 98 104 123 98 104 123 98 104 123 98 104 120 97 105 120 97 105 120 97 105 120 97 105 120 97 105 120 97 105 120 97 105 120 97 105 116 93 101 116 93 101 116 93 101 116 93 101 116 93 101 116 93 101 116 93 101 115 94 101 103 88 91 98 86 88 94 82 84 87 75 77 80 68 70 74 62 64 69 57 59 66 54 56 49 37 39 49 37 39 49 37 39 49 37 39 49 37 39 49 37 39 49 37 39 48 38 39 42 36 36 41 37 36 41 37 36 41 37 36 41 37 36 41 37 36 41 37 36 41 37 36 39 35 34 39 35 34 39 35 34 39 35 34 39 35 34 39 35 34 39 35 34 39 35 34
0 0 0 0 0 0 0 0 0 0 0 0 0 0 0 0 0 0 0 0 0 0 0 0 0 0 0 0 0 0 0 0 0 0 0 0 1 1 3 1 1 3 1 1 3 1 1 3 1 1 3 1 1 3 1 1 3 1 1 3 0 0 2 0 0 2 0 0 2 0 0 2 0 0 2 0 0 2 0 0 2 0 0 2 0 0 0 0 0 0 0 0 0 0 0 0 0 0 0 0 0 0 0 0 0 0 0 0 0 0 0 0 0 0 0 0 0 0 0 0 0 0 0 0 0 0 0 0 0 0 0 0 0 0 0 0 0 0 0 0 0 0 0 0 0 0 0 0 0 0 0 0 0 0 0 0 0 0 0 0 0 0 0 0 0 0 0 0 0 0 0 0 0 0 0 0 0 0 0 0 0 0 0 0 0 0 0 0 0 0 0 0 0 0 0 0 0 0 0 0 0 0 0 0 0 0 0 0 0 0 0 0 0 0 0 0 0 0 0 0 0 0 0 0 0 1 0 0 27 17 18 31 19 21 36 24 26 42 30 32 49 37 39 56 44 46 60 48 50 63 51 53 63 51 53 65 53 55 67 55 57 70 58 60 74 62 64 77 65 67 79 67 69 83 68 71 93 70 76 97 72 78 99 74 80 102 77 83 106 81 87 109 84 90 111 86 92 113 88 94 117 92 98 117 92 98 117 92 98 117 92 98 117 92 98 117 92 98 117 92 98 117 92 98 121 96 102 121 96 102 121 96 102 121 96 102 121 96 102 121 96 102 121 96 102 121 96 102 123 98 104 123 98 104 123 98 104 123 98 104 123 98 104 123 98 104 123 98 104 123 98 104 120 97 105 120 97 105 120 97 105 120 97 105 120 97 105 120 97 105 120 97 105 120 97 105 116 93 101 116 93 101 116 93 101 116 93 101 116 93 101 116 93 101 116 93 101 115 94 101 100 85 88 95 83 85 90 78 80 84 72 74 77 65 67 70 58 60 66 54 56 63 51 53 49 37 39 49 37 39 49 37 39 49 37 39 49 37 39 49 37 39 49 37 39 48 38 39 42 36 36 41 37 36 41 37 36 41 37 36 41 37 36 41 37 36 41 37 36 41 37 36 39 35 34 39 35 34 39 35 34 39 35 34 39 35 34 39 35 34 39 35 34 39 35 34
0 0 0 0 0 0 0 0 0 0 0 0 0 0 0 0 0 0 0 0 0 0 0 0 0 0 0 0 0 0 0 0 0 0 0 0 1 1 3 1 1 3 1 1 3 1 1 3 1 1 3 1 1 3 1 1 3 1 1 3 0 0 2 0 0 2 0 0 2 0 0 2 0 0 2 0 0 2 0 0 2 0 0 2 0 0 0 0 0 0 0 0 0 0 0 0 0 0 0 0 0 0 0 0 0 0 0 0 0 0 0 0 0 0 0 0 0 0 0 0 0 0 0 0 0 0 0 0 0 0 0 0 0 0 0 0 0 0 0 0 0 0 0 0 0 0 0 0 0 0 0 0 0 0 0 0 0 0 0 0 0 0 0 0 0 0 0 0 0 0 0 0 0 0 0 0 0 0 0 0 0 0 0 0 0 0 0 0 0 0 0 0 0 0 0 0 0 0 0 0 0 0 0 0 0 0 0 0 0 0 0 0 0 0 0 0 0 0 0 0 0 0 0 0 0 1 0 0 31 21 22 34 22 24 39 27 29 45 33 35 52 40 42 59 47 49 64 52 54 66 54 56 63 51 53 65 53 55 67 55 57 70 58 60 74 62 64 77 65 67 79 67 69 83 68 71 93 70 76 97 72 78 99 74 80 102 77 83 106 81 87 109 84 90 111 86 92 113 88 94 117 92 98 117 92 98 117 92 98 117 92 98 117 92 98 117 92 98 117 92 98 117 92 98 121 96 102 121 96 102 121 96 102 121 96 102 121 96 102 121 96 102 121 96 102 121 96 102 123 98 104 123 98 104 123 98 104 123 98 104 123 98 104 123 98 104 123 98 104 123 98 104 120 97 105 120 97 105 120 97 105 120 97 105 120 97 105 120 97 105 120 97 105 120 97 105 116 93 101 116 93 101 116 93 101 116 93 101 116 93 101 116 93 101 116 93 101 115 94 101 96 81 84 92 80 82 87 75 77 81 69 71 74 62 64 67 55 57 62 50 52 60 48 50 49 37 39 49 37 39 49 37 39 49 37 39 49 37 39 49 37 39 49 37 39 48 38 39 42 36 36 41 37 36 41 37 36 41 37 36 41 37 36 41 37 36 41 37 36 41 37 36 39 35 34 39 35 34 39 35 34 39 35 34 39 35 34 39 35 34 39 35 34 39 35 34
0 0 0 0 0 0 0 0 0 0 0 0 0 0 0 0 0 0 0 0 0 0 0 0 0 0 0 0 0 0 0 0 0 0 0 0 1 1 3 1 1 3 1 1 3 1 1 3 1 1 3 1 1 3 1 1 3 1 1 3 0 0 2 0 0 2 0 0 2 0 0 2 0 0 2 0 0 2 0 0 2 0 0 2 0 0 0 0 0 0 0 0 0 0 0 0 0 0 0 0 0 0 0 0 0 0 0 0 0 0 0 0 0 0 0 0 0 0 0 0 0 0 0 0 0 0 0 0 0 0 0 0 0 0 0 0 0 0 0 0 0 0 0 0 0 0 0 0 0 0 0 0 0 0 0 0 0 0 0 0 0 0 0 0 0 0 0 0 0 0 0 0 0 0 0 0 0 0 0 0 0 0 0 0 0 0 0 0 0 0 0 0 0 0 0 0 0 0 0 0 0 0 0 0 0 0 0 0 0 0 0 0 0 0 0 0 0 0 0 0 0 0 0 0 0 1 0 0 33 23 24 37 25 27 42 30 32 48 36 38 55 43 45 61 49 51 66 54 56 69 57 59 63 51 53 65 53 55 67 55 57 70 58 60 74 62 64 77 65 67 79 67 69 83 68 71 93 70 76 97 72 78 99 74 80 102 77 83 106 81 87 109 84 90 111 86 92 113 88 94 117 92 98 117 92 98 117 92 98 117 92 98 117 92 98 117 92 98 117 92 98 117 92 98 121 96 102 121 96 102 121 96 102 121 96 102 121 96 102 121 96 102 121 96 102 121 96 102 123 98 104 123 98 104 123 98 104 123 98 104 123 98 104 123 98 104 123 98 104 123 98 104 120 97 105 120 97 105 120 97 105 120 97 105 120 97 105 120 97 105 120 97 105 120 97 105 116 93 101 116 93 101 116 93 101 116 93 101 116 93 101 116 93 101 116 93 101 115 94 101 94 79 82 89 77 79 84 72 74 78 66 68 71 59 61 65 53 55 60 48 50 57 45 47 49 37 39 49 37 39 49 37 39 49 37 39 49 37 39 49 37 39 49 37 39 48 38 39 42 36 36 41 37 36 41 37 36 41 37 36 41 37 36 41 37 36 41 37 36 41 37 36 39 35 34 39 35 34 39 35 34 39 35 34 39 35 34 39 35 34 39 35 34 39 35 34
0 0 0 0 0 0 0 0 0 0 0 0 0 0 0 0 0 0 0 0 0 0 0 0 0 0 0 0 0 0 0 0 0 0 0 0 1 1 3 1 1 3 1 1 3 1 1 3 1 1 3 1 1 3 1 1 3 1 1 3 0 0 2 0 0 2 0 0 2 0 0 2 0 0 2 0 0 2 0 0 2 0 0 2 0 0 0 0 0 0 0 0 0 0 0 0 0 0 0 0 0 0 0 0 0 0 0 0 0 0 0 0 0 0 0 0 0 0 0 0 0 0 0 0 0 0 0 0 0 0 0 0 0 0 0 0 0 0 0 0 0 0 0 0 0 0 0 0 0 0 0 0 0 0 0 0 0 0 0 0 0 0 0 0 0 0 0 0 0 0 0 0 0 0 0 0 0 0 0 0 0 0 0 0 0 0 0 0 0 0 0 0 0 0 0 0 0 0 0 0 0 0 0 0 0 0 0 0 0 0 0 0 0 0 0 0 0 0 0 0 0 0 0 0 0 1 0 0 34 24 25 38 26 28 43 31 33 49 37 39 56 44 46 62 50 52 67 55 57 70 58 60 63 51 53 65 53 55 67 55 57 70 58 60 74 62 64 77 65 67 79 67 69 83 68 71 93 70 76 97 72 78 99 74 80 102 77 83 106 81 87 109 84 90 111 86 92 113 88 94 117 92 98 117 92 98 117 92 98 117 92 98 117 92 98 117 92 98 117 92 98 117 92 98 121 96 102 121 96 102 121 96 102 121 96 102 121 96 102 121 96 102 121 96 102 121 96 102 123 98 104 123 98 104 123 98 104 123 98 104 123 98 104 123 98 104 123 98 104 123 98 104 120 97 105 120 97 105 120 97 105 120 97 105 120 97 105 120 97 105 120 97 105 120 97 105 116 93 101 116 93 101 116 93 101 116 93 101 116 93 101 116 93 101 116 93 101 115 94 101 93 78 81 88 76 78 83 71 73 77 65 67 70 58 60 64 52 54 59 47 49 56 44 46 49 37 39 49 37 39 49 37 39 49 37 39 49 37 39 49 37 39 49 37 39 48 38 39 42 36 36 41 37 36 41 37 36 41 37 36 41 37 36 41 37 36 41 37 36 41 37 36 39 35 34 39 35 34 39 35 34 39 35 34 39 35 34 39 35 34 39 35 34 39 35 34
0 0 0 0 0 0 0 0 0 0 0 0 0 0 0 0 0 0 0 0 0 0 0 0 0 0 0 0 0 0 0 0 0 0 0 0 0 0 2 0 0 2 0 0 2 0 0 2 0 0 2 0 0 2 0 0 2 0 0 2 0 0 2 0 0 2 0 0 2 0 0 2 0 0 2 0 0 2 0 0 2 0 0 2 0 0 0 0 0 0 0 0 0 0 0 0 0 0 0 0 0 0 0 0 0 0 0 0 0 0 0 0 0 0 0 0 0 0 0 0 0 0 0 0 0 0 0 0 0 0 0 0 0 0 0 0 0 0 0 0 0 0 0 0 0 0 0 0 0 0 0 0 0 0 0 0 0 0 0 0 0 0 0 0 0 0 0 0 0 0 0 0 0 0 0 0 0 0 0 0 0 0 0 0 0 0 0 0 0 0 0 0 0 0 0 0 0 0 0 0 0 0 0 0 0 0 0 0 0 0 0 0 0 3 3 3 7 7 7 10 10 10 12 12 12 15 13 14 44 34 35 47 35 37 49 37 39 52 40 42 56 44 46 59 47 49 61 49 51 63 51 53 74 62 64 76 64 66 78 66 68 81 69 71 85 73 75 88 76 78 90 78 80 94 79 82 105 82 88 107 82 88 107 82 88 107 82 88 107 82 88 107 82 88 107 82 88 107 82 88 119 94 100 119 94 100 119 94 100 119 94 100 119 94 100 119 94 100 119 94 100 119 94 100 122 97 103 122 97 103 122 97 103 122 97 103 122 97 103 122 97 103 122 97 103 122 97 103 122 97 103 122 97 103 122 97 103 122 97 103 122 97 103 122 97 103 122 97 103 122 97 103 117 94 102 117 94 102 117 94 102 117 94 102 117 94 102 117 94 102 117 94 102 117 94 102 117 94 102 115 92 100 113 90 98 110 87 95 106 83 91 103 80 88 101 78 86 98 77 84 84 69 72 80 68 70 75 63 65 68 56 58 62 50 52 55 43 45 50 38 40 48 36 38 42 30 32 42 30 32 42 30 32 42 30 32 42 30 32 42 30 32 42 30 32 41 31 32 37 31 31 36 32 31 36 32 31 36 32 31 36 32 31 36 32 31 36 32 31 36 32 31 38 34 33 38 34 33 38 34 33 38 34 33 38 34 33 38 34 33 38 34 33 38 34 33
0 0 0 0 0 0 0 0 0 0 0 0 0 0 0 0 0 0 0 0 0 0 0 0 0 0 0 0 0 0 0 0 0 0 0 0 0 0 2 0 0 2 0 0 2 0 0 2 0 0 2 0 0 2 0 0 2 0 0 2 0 0 2 0 0 2 0 0 2 0 0 2 0 0 2 0 0 2 0 0 2 0 0 2 0 0 0 0 0 0 0 0 0 0 0 0 0 0 0 0 0 0 0 0 0 0 0 0 0 0 0 0 0 0 0 0 0 0 0 0 0 0 0 0 0 0 0 0 0 0 0 0 0 0 0 0 0 0 0 0 0 0 0 0 0 0 0 0 0 0 0 0 0 0 0 0 0 0 0 0 0 0 0 0 0 0 0 0 0 0 0 0 0 0 0 0 0 0 0 0 0 0 0 0 0 0 0 0 0 0 0 0 0 0 0 0 0 0 0 0 0 0 0 0 0 0 0 0 0 0 0 0 0 3 3 3 7 7 7 10 10 10 12 12 12 15 13 14 44 34 35 47 35 37 49 37 39 52 40 42 56 44 46 59 47 49 61 49 51 63 51 53 74 62 64 76 64 66 78 66 68 81 69 71 85 73 75 88 76 78 90 78 80 94 79 82 105 82 88 107 82 88 107 82 88 107 82 88 107 82 88 107 82 88 107 82 88 107 82 88 119 94 100 119 94 100 119 94 100 119 94 100 119 94 100 119 94 100 119 94 100 119 94 100 122 97 103 122 97 103 122 97 103 122 97 103 122 97 103 122 97 103 122 97 103 122 97 103 122 97 103 122 97 103 122 97 103 122 97 103 122 97 103 122 97 103 122 97 103 122 97 103 117 94 102 117 94 102 117 94 102 117 94 102 117 94 102 117 94 102 117 94 102 117 94 102 117 94 102 115 92 100 113 90 98 110 87 95 106 83 91 103 80 88 101 78 86 98 77 84 84 69 72 80 68 70 75 63 65 68 56 58 62 50 52 55 43 45 50 38 40 48 36 38 42 30 32 42 30 32 42 30 32 42 30 32 42 30 32 42 30 32 42 30 32 41 31 32 37 31 31 36 32 31 36 32 31 36 32 31 36 32 31 36 32 31 36 32 31 36 32 31 38 34 33 38 34 33 38 34 33 38 34 33 38 34 33 38 34 33 38 34 33 38 34 33
0 0 0 0 0 0 0 0 0 0 0 0 0 0 0 0 0 0 0 0 0 0 0 0 0 0 0 0 0 0 0 0 0 0 0 0 0 0 2 0 0 2 0 0 2 0 0 2 0 0 2 0 0 2 0 0 2 0 0 2 0 0 2 0 0 2 0 0 2 0 0 2 0 0 2 0 0 2 0 0 2 0 0 2 0 0 0 0 0 0 0 0 0 0 0 0 0 0 0 0 0 0 0 0 0 0 0 0 0 0 0 0 0 0 0 0 0 0 0 0 0 0 0 0 0 0 0 0 0 0 0 0 0 0 0 0 0 0 0 0 0 0 0 0 0 0 0 0 0 0 0 0 0 0 0 0 0 0 0 0 0 0 0 0 0 0 0 0 0 0 0 0 0 0 0 0 0 0 0 0 0 0 0 0 0 0 0 0 0 0 0 0 0 0 0 0 0 0 0 0 0 0 0 0 0 0 0 0 0 0 0 0 0 3 3 3 7 7 7 10 10 10 12 12 12 15 13 14 44 34 35 47 35 37 49 37 39 52 40 42 56 44 46 59 47 49 61 49 51 63 51 53 74 62 64 76 64 66 78 66 68 81 69 71 85 73 75 88 76 78 90 78 80 94 79 82 105 82 88 107 82 88 107 82 88 107 82 88 107 82 88 107 82 88 107 82 88 107 82 88 119 94 100 119 94 100 119 94 100 119 94 100 119 94 100 119 94 100 119 94 100 119 94 100 122 97 103 122 97 103 122 97 103 122 97 103 122 97 103 122 97 103 122 97 103 122 97 103 122 97 103 122 97 103 122 97 103 122 97 103 122 97 103 122 97 103 122 97 103 122 97 103 117 94 102 117 94 102 117 94 102 117 94 102 117 94 102 117 94 102 117 94 102 117 94 102 117 94 102 115 92 100 113 90 98 110 87 95 106 83 91 103 80 88 101 78 86 98 77 84 84 69 72 80 68 70 75 63 65 68 56 58 62 50 52 55 43 45 50 38 40 48 36 38 42 30 32 42 30 32 42 30 32 42 30 32 42 30 32 42 30 32 42 30 32 41 31 32 37 31 31 36 32 31 36 32 31 36 32 31 36 32 31 36 32 31 36 32 31 36 32 31 38 34 33 38 34 33 38 34 33 38 34 33 38 34 33 38 34 33 38 34 33 38 34 33
0 0 0 0 0 0 0 0 0 0 0 0 0 0 0 0 0 0 0 0 0 0 0 0 0 0 0 0 0 0 0 0 0 0 0 0 0 0 2 0 0 2 0 0 2 0 0 2 0 0 2 0 0 2 0 0 2 0 0 2 0 0 2 0 0 2 0 0 2 0 0 2 0 0 2 0 0 2 0 0 2 0 0 2 0 0 0 0 0 0 0 0 0 0 0 0 0 0 0 0 0 0 0 0 0 0 0 0 0 0 0 0 0 0 0 0 0 0 0 0 0 0 0 0 0 0 0 0 0 0 0 0 0 0 0 0 0 0 0 0 0 0 0 0 0 0 0 0 0 0 0 0 0 0 0 0 0 0 0 0 0 0 0 0 0 0 0 0 0 0 0 0 0 0 0 0 0 0 0 0 0 0 0 0 0 0 0 0 0 0 0 0 0 0 0 0 0 0 0 0 0 0 0 0 0 0 0 0 0 0 0 0 0 3 3 3 7 7 7 10 10 10 12 12 12 15 13 14 44 34 35 47 35 37 49 37 39 52 40 42 56 44 46 59 47 49 61 49 51 63 51 53 74 62 64 76 64 66 78 66 68 81 69 71 85 73 75 88 76 78 90 78 80 94 79 82 105 82 88 107 82 88 107 82 88 107 82 88 107 82 88 107 82 88 107 82 88 107 82 88 119 94 100 119 94 100 119 94 100 119 94 100 119 94 100 119 94 100 119 94 100 119 94 100 122 97 103 122 97 103 122 97 103 122 97 103 122 97 103 122 97 103 122 97 103 122 97 103 122 97 103 122 97 103 122 97 103 122 97 103 122 97 103 122 97 103 122 97 103 122 97 103 117 94 102 117 94 102 117 94 102 117 94 102 117 94 102 117 94 102 117 94 102 117 94 102 117 94 102 115 92 100 113 90 98 110 87 95 106 83 91 103 80 88 101 78 86 98 77 84 84 69 72 80 68 70 75 63 65 68 56 58 62 50 52 55 43 45 50 38 40 48 36 38 42 30 32 42 30 32 42 30 32 42 30 32 42 30 32 42 30 32 42 30 32 41 31 32 37 31 31 36 32 31 36 32 31 36 32 31 36 32 31 36 32 31 36 32 31 36 32 31 38 34 33 38 34 33 38 34 33 38 34 33 38 34 33 38 34 33 38 34 33 38 34 33
0 0 0 0 0 0 0 0 0 0 0 0 0 0 0 0 0 0 0 0 0 0 0 0 0 0 0 0 0 0 0 0 0 0 0 0 0 0 2 0 0 2 0 0 2 0 0 2 0 0 2 0 0 2 0 0 2 0 0 2 0 0 2 0 0 2 0 0 2 0 0 2 0 0 2 0 0 2 0 0 2 0 0 2 0 0 0 0 0 0 0 0 0 0 0 0 0 0 0 0 0 0 0 0 0 0 0 0 0 0 0 0 0 0 0 0 0 0 0 0 0 0 0 0 0 0 0 0 0 0 0 0 0 0 0 0 0 0 0 0 0 0 0 0 0 0 0 0 0 0 0 0 0 0 0 0 0 0 0 0 0 0 0 0 0 0 0 0 0 0 0 0 0 0 0 0 0 0 0 0 0 0 0 0 0 0 0 0 0 0 0 0 0 0 0 0 0 0 0 0 0 0 0 0 0 0 0 0 0 0 0 0 0 3 3 3 7 7 7 10 10 10 12 12 12 15 13 14 44 34 35 47 35 37 49 37 39 52 40 42 56 44 46 59 47 49 61 49 51 63 51 53 74 62 64 76 64 66 78 66 68 81 69 71 85 73 75 88 76 78 90 78 80 94 79 82 105 82 88 107 82 88 107 82 88 107 82 88 107 82 88 107 82 88 107 82 88 107 82 88 119 94 100 119 94 100 119 94 100 119 94 100 119 94 100 119 94 100 119 94 100 119 94 100 122 97 103 122 97 103 122 97 103 122 97 103 122 97 103 122 97 103 122 97 103 122 97 103 122 97 103 122 97 103 122 97 103 122 97 103 122 97 103 122 97 103 122 97 103 122 97 103 117 94 102 117 94 102 117 94 102 117 94 102 117 94 102 117 94 102 117 94 102 117 94 102 117 94 102 115 92 100 113 90 98 110 87 95 106 83 91 103 80 88 101 78 86 98 77 84 84 69 72 80 68 70 75 63 65 68 56 58 62 50 52 55 43 45 50 38 40 48 36 38 42 30 32 42 30 32 42 30 32 42 30 32 42 30 32 42 30 32 42 30 32 41 31 32 37 31 31 36 32 31 36 32 31 36 32 31 36 32 31 36 32 31 36 32 31 36 32 31 38 34 33 38 34 33 38 34 33 38 34 33 38 34 33 38 34 33 38 34 33 38 34 33
0 0 0 0 0 0 0 0 0 0 0 0 0 0 0 0 0 0 0 0 0 0 0 0 0 0 0 0 0 0 0 0 0 0 0 0 0 0 2 0 0 2 0 0 2 0 0 2 0 0 2 0 0 2 0 0 2 0 0 2 0 0 2 0 0 2 0 0 2 0 0 2 0 0 2 0 0 2 0 0 2 0 0 2 0 0 0 0 0 0 0 0 0 0 0 0 0 0 0 0 0 0 0 0 0 0 0 0 0 0 0 0 0 0 0 0 0 0 0 0 0 0 0 0 0 0 0 0 0 0 0 0 0 0 0 0 0 0 0 0 0 0 0 0 0 0 0 0 0 0 0 0 0 0 0 0 0 0 0 0 0 0 0 0 0 0 0 0 0 0 0 0 0 0 0 0 0 0 0 0 0 0 0 0 0 0 0 0 0 0 0 0 0 0 0 0 0 0 0 0 0 0 0 0 0 0 0 0 0 0 0 0 0 3 3 3 7 7 7 10 10 10 12 12 12 15 13 14 44 34 35 47 35 37 49 37 39 52 40 42 56 44 46 59 47 49 61 49 51 63 51 53 74 62 64 76 64 66 78 66 68 81 69 71 85 73 75 88 76 78 90 78 80 94 79 82 105 82 88 107 82 88 107 82 88 107 82 88 107 82 88 107 82 88 107 82 88 107 82 88 119 94 100 119 94 100 119 94 100 119 94 100 119 94 100 119 94 100 119 94 100 119 94 100 122 97 103 122 97 103 122 97 103 122 97 103 122 97 103 122 97 103 122 97 103 122 97 103 122 97 103 122 97 103 122 97 103 122 97 103 122 97 103 122 97 103 122 97 103 122 97 103 117 94 102 117 94 102 117 94 102 117 94 102 117 94 102 117 94 102 117 94 102 117 94 102 117 94 102 115 92 100 113 90 98 110 87 95 106 83 91 103 80 88 101 78 86 98 77 84 84 69 72 80 68 70 75 63 65 68 56 58 62 50 52 55 43 45 50 38 40 48 36 38 42 30 32 42 30 32 42 30 32 42 30 32 42 30 32 42 30 32 42 30 32 41 31 32 37 31 31 36 32 31 36 32 31 36 32 31 36 32 31 36 32 31 36 32 31 36 32 31 38 34 33 38 34 33 38 34 33 38 34 33 38 34 33 38 34 33 38 34 33 38 34 33
0 0 0 0 0 0 0 0 0 0 0 0 0 0 0 0 0 0 0 0 0 0 0 0 0 0 0 0 0 0 0 0 0 0 0 0 0 0 2 0 0 2 0 0 2 0 0 2 0 0 2 0 0 2 0 0 2 0 0 2 0 0 2 0 0 2 0 0 2 0 0 2 0 0 2 0 0 2 0 0 2 0 0 2 0 0 0 0 0 0 0 0 0 0 0 0 0 0 0 0 0 0 0 0 0 0 0 0 0 0 0 0 0 0 0 0 0 0 0 0 0 0 0 0 0 0 0 0 0 0 0 0 0 0 0 0 0 0 0 0 0 0 0 0 0 0 0 0 0 0 0 0 0 0 0 0 0 0 0 0 0 0 0 0 0 0 0 0 0 0 0 0 0 0 0 0 0 0 0 0 0 0 0 0 0 0 0 0 0 0 0 0 0 0 0 0 0 0 0 0 0 0 0 0 0 0 0 0 0 0 0 0 0 3 3 3 7 7 7 10 10 10 12 12 12 15 13 14 44 34 35 47 35 37 49 37 39 52 40 42 56 44 46 59 47 49 61 49 51 63 51 53 74 62 64 76 64 66 78 66 68 81 69 71 85 73 75 88 76 78 90 78 80 94 79 82 105 82 88 107 82 88 107 82 88 107 82 88 107 82 88 107 82 88 107 82 88 107 82 88 119 94 100 119 94 100 119 94 100 119 94 100 119 94 100 119 94 100 119 94 100 119 94 100 122 97 103 122 97 103 122 97 103 122 97 103 122 97 103 122 97 103 122 97 103 122 97 103 122 97 103 122 97 103 122 97 103 122 97 103 122 97 103 122 97 103 122 97 103 122 97 103 117 94 102 117 94 102 117 94 102 117 94 102 117 94 102 117 94 102 117 94 102 117 94 102 117 94 102 115 92 100 113 90 98 110 87 95 106 83 91 103 80 88 101 78 86 98 77 84 84 69 72 80 68 70 75 63 65 68 56 58 62 50 52 55 43 45 50 38 40 48 36 38 42 30 32 42 30 32 42 30 32 42 30 32 42 30 32 42 30 32 42 30 32 41 31 32 37 31 31 36 32 31 36 32 31 36 32 31 36 32 31 36 32 31 36 32 31 36 32 31 38 34 33 38 34 33 38 34 33 38 34 33 38 34 33 38 34 33 38 34 33 38 34 33
0 0 0 0 0 0 0 0 0 0 0 0 0 0 0 0 0 0 0 0 0 0 0 0 0 0 0 0 0 0 0 0 0 0 0 0 0 0 2 0 0 2 0 0 2 0 0 2 0 0 2 0 0 2 0 0 2 0 0 2 0 0 2 0 0 2 0 0 2 0 0 2 0 0 2 0 0 2 0 0 2 0 0 2 0 0 0 0 0 0 0 0 0 0 0 0 0 0 0 0 0 0 0 0 0 0 0 0 0 0 0 0 0 0 0 0 0 0 0 0 0 0 0 0 0 0 0 0 0 0 0 0 0 0 0 0 0 0 0 0 0 0 0 0 0 0 0 0 0 0 0 0 0 0 0 0 0 0 0 0 0 0 0 0 0 0 0 0 0 0 0 0 0 0 0 0 0 0 0 0 0 0 0 0 0 0 0 0 0 0 0 0 0 0 0 0 0 0 0 0 0 0 0 0 0 0 0 0 0 0 0 0 0 3 3 3 7 7 7 10 10 10 12 12 12 17 13 14 44 34 35 49 35 35 51 36 39 54 40 40 58 43 46 61 47 47 63 48 51 65 51 51 76 61 64 78 64 64 80 65 68 83 69 69 87 72 75 90 76 76 92 77 80 95 79 82 105 82 88 107 82 88 107 82 88 107 82 88 107 82 88 107 82 88 107 82 88 107 82 88 119 94 100 119 94 100 119 94 100 119 94 100 119 94 100 119 94 100 119 94 100 119 94 100 122 97 103 122 97 103 122 97 103 122 97 103 122 97 103 122 97 103 122 97 103 122 97 103 122 97 103 122 97 103 122 97 103 122 97 103 122 97 103 122 97 103 122 97 103 122 97 103 117 94 102 116 95 102 116 95 102 116 95 102 116 95 102 116 95 102 116 95 102 116 95 102 116 95 102 114 93 100 112 91 98 109 88 95 105 84 91 102 81 88 100 79 86 97 78 82 84 69 72 79 69 70 74 64 65 67 57 58 61 51 52 54 44 45 49 39 40 47 37 38 41 31 32 41 31 32 41 31 32 41 31 32 41 31 32 41 31 32 41 31 32 41 31 32 37 31 31 36 32 29 37 31 31 36 32 29 37 31 31 36 32 29 37 31 31 36 32 29 39 33 33 38 34 31 39 33 33 38 34 31 39 33 33 38 34 31 39 33 33 38 34 33
0 0 0 0 0 0 0 0 0 0 0 0 0 0 0 0 0 0 0 0 0 0 0 0 0 0 0 0 0 0 0 0 0 0 0 0 0 0 0 0 0 0 0 0 0 0 0 0 0 0 0 0 0 0 0 0 0 0 0 0 0 0 0 0 0 0 0 0 0 0 0 0 0 0 0 0 0 0 0 0 0 0 0 0 0 0 0 0 0 0 0 0 0 0 0 0 0 0 0 0 0 0 0 0 0 0 0 0 0 0 0 0 0 0 0 0 0 0 0 0 0 0 0 0 0 0 0 0 0 0 0 0 0 0 0 0 0 0 0 0 0 0 0 0 0 0 0 0 0 0 0 0 0 0 0 0 0 0 0 0 0 0 0 0 0 0 0 0 0 0 0 0 0 0 0 0 0 0 0 0 1 0 0 1 0 0 1 0 0 1 0 0 1 0 0 1 0 0 1 0 0 1 0 0 1 0 0 1 0 0 6 4 5 13 11 12 19 17 18 26 24 25 31 29 30 36 30 30 49 37 37 53 37 37 55 39 40 59 43 43 62 46 47 65 49 49 68 52 53 69 53 53 85 69 70 87 71 71 89 73 74 92 76 76 96 80 81 99 83 83 101 85 86 105 86 88 111 89 92 113 88 92 113 88 92 113 88 92 113 88 92 113 88 92 113 88 92 113 88 92 121 96 100 121 96 100 121 96 100 121 96 100 121 96 100 121 96 100 121 96 100 121 96 100 121 96 100 121 96 100 121 96 100 121 96 100 121 96 100 121 96 100 121 96 100 121 96 100 122 97 101 122 97 101 122 97 101 122 97 101 122 97 101 122 97 101 122 97 101 120 98 101 116 95 100 115 96 100 115 96 100 115 96 100 115 96 100 115 96 100 115 96 100 115 96 100 110 91 95 107 88 92 102 83 87 96 77 81 89 70 74 83 64 68 78 59 63 72 57 60 63 53 54 60 52 50 58 50 48 55 47 45 51 43 41 48 40 38 46 38 36 44 36 34 38 30 28 38 30 28 38 30 28 38 30 28 38 30 28 38 30 28 38 30 28 38 30 28 39 31 29 37 32 28 39 31 29 37 32 28 39 31 29 37 32 28 39 31 29 37 32 28 39 31 29 37 32 28 39 31 29 37 32 28 39 31 29 37 32 28 39 31 29 37 32 29
0 0 0 0 0 0 0 0 0 0 0 0 0 0 0 0 0 0 0 0 0 0 0 0 0 0 0 0 0 0 0 0 0 0 0 0 0 0 0 0 0 0 0 0 0 0 0 0 0 0 0 0 0 0 0 0 0 0 0 0 0 0 0 0 0 0 0 0 0 0 0 0 0 0 0 0 0 0 0 0 0 0 0 0 0 0 0 0 0 0 0 0 0 0 0 0 0 0 0 0 0 0 0 0 0 0 0 0 0 0 0 0 0 0 0 0 0 0 0 0 0 0 0 0 0 0 0 0 0 0 0 0 0 0 0 0 0 0 0 0 0 0 0 0 0 0 0 0 0 0 0 0 0 0 0 0 0 0 0 0 0 0 0 0 0 0 0 0 0 0 0 0 0 0 0 0 0 0 0 0 1 0 0 1 0 0 1 0 0 1 0 0 1 0 0 1 0 0 1 0 0 1 0 0 1 0 0 1 0 0 6 4 5 13 11 12 19 17 18 26 24 25 31 29 30 36 30 30 52 38 38 56 38 38 59 41 41 62 44 44 65 47 47 69 51 51 71 53 53 72 54 54 87 69 69 89 71 71 91 73 73 94 76 76 98 80 80 101 83 83 103 85 85 106 86 87 111 89 92 113 88 92 113 88 92 113 88 92 113 88 92 113 88 92 113 88 92 113 88 92 121 96 100 121 96 100 121 96 100 121 96 100 121 96 100 121 96 100 121 96 100 121 96 100 121 96 100 121 96 100 121 96 100 121 96 100 121 96 100 121 96 100 121 96 100 121 96 100 122 97 101 122 97 101 122 97 101 122 97 101 122 97 101 122 97 101 122 97 101 120 98 101 115 96 100 113 97 100 113 97 100 113 97 100 113 97 100 113 97 100 113 97 100 113 97 100 107 91 94 104 88 91 99 83 86 93 77 80 86 70 73 80 64 67 75 59 62 71 56 59 62 54 52 58 53 50 56 51 48 53 48 45 49 44 41 46 41 38 44 39 36 42 37 34 36 31 28 36 31 28 36 31 28 36 31 28 36 31 28 36 31 28 36 31 28 36 31 28 39 31 28 39 31 28 39 31 28 39 31 28 39 31 28 39 31 28 39 31 28 39 31 28 39 31 28 39 31 28 39 31 28 39 31 28 39 31 28 39 31 28 39 31 28 39 31 28
0 0 0 0 0 0 0 0 0 0 0 0 0 0 0 0 0 0 0 0 0 0 0 0 0 0 0 0 0 0 0 0 0 0 0 0 0 0 0 0 0 0 0 0 0 0 0 0 0 0 0 0 0 0 0 0 0 0 0 0 0 0 0 0 0 0 0 0 0 0 0 0 0 0 0 0 0 0 0 0 0 0 0 0 0 0 0 0 0 0 0 0 0 0 0 0 0 0 0 0 0 0 0 0 0 0 0 0 0 0 0 0 0 0 0 0 0 0 0 0 0 0 0 0 0 0 0 0 0 0 0 0 0 0 0 0 0 0 0 0 0 0 0 0 0 0 0 0 0 0 0 0 0 0 0 0 0 0 0 0 0 0 0 0 0 0 0 0 0 0 0 0 0 0 0 0 0 0 0 0 1 0 0 1 0 0 1 0 0 1 0 0 1 0 0 1 0 0 1 0 0 1 0 0 1 0 0 1 0 0 6 4 5 13 11 12 19 17 18 26 24 25 31 29 30 36 30 30 54 40 40 59 41 41 61 43 43 64 46 46 68 50 50 71 53 53 73 55 55 75 57 57 87 69 69 89 71 71 91 73 73 94 76 76 98 80 80 101 83 83 103 85 85 106 86 87 111 89 92 113 88 92 113 88 92 113 88 92 113 88 92 113 88 92 113 88 92 113 88 92 121 96 100 121 96 100 121 96 100 121 96 100 121 96 100 121 96 100 121 96 100 121 96 100 121 96 100 121 96 100 121 96 100 121 96 100 121 96 100 121 96 100 121 96 100 121 96 100 122 97 101 122 97 101 122 97 101 122 97 101 122 97 101 122 97 101 122 97 101 120 98 101 115 96 100 113 97 100 113 97 100 113 97 100 113 97 100 113 97 100 113 97 100 113 97 100 104 88 91 102 86 89 97 81 84 90 74 77 83 67 70 77 61 64 72 56 59 69 54 57 62 54 52 58 53 50 56 51 48 53 48 45 49 44 41 46 41 38 44 39 36 42 37 34 36 31 28 36 31 28 36 31 28 36 31 28 36 31 28 36 31 28 36 31 28 36 31 28 39 31 28 39 31 28 39 31 28 39 31 28 39 31 28 39 31 28 39 31 28 39 31 28 39 31 28 39 31 28 39 31 28 39 31 28 39 31 28 39 31 28 39 31 28 39 31 28
0 0 0 0 0 0 0 0 0 0 0 0 0 0 0 0 0 0 0 0 0 0 0 0 0 0 0 0 0 0 0 0 0 0 0 0 0 0 0 0 0 0 0 0 0 0 0 0 0 0 0 0 0 0 0 0 0 0 0 0 0 0 0 0 0 0 0 0 0 0 0 0 0 0 0 0 0 0 0 0 0 0 0 0 0 0 0 0 0 0 0 0 0 0 0 0 0 0 0 0 0 0 0 0 0 0 0 0 0 0 0 0 0 0 0 0 0 0 0 0 0 0 0 0 0 0 0 0 0 0 0 0 0 0 0 0 0 0 0 0 0 0 0 0 0 0 0 0 0 0 0 0 0 0 0 0 0 0 0 0 0 0 0 0 0 0 0 0 0 0 0 0 0 0 0 0 0 0 0 0 1 0 0 1 0 0 1 0 0 1 0 0 1 0 0 1 0 0 1 0 0 1 0 0 1 0 0 1 0 0 6 4 5 13 11 12 19 17 18 26 24 25 31 29 30 36 30 30 58 44 44 62 44 44 64 46 46 68 50 50 71 53 53 74 56 56 77 59 59 78 60 60 87 69 69 89 71 71 91 73 73 94 76 76 98 80 80 101 83 83 103 85 85 106 86 87 111 89 92 113 88 92 113 88 92 113 88 92 113 88 92 113 88 92 113 88 92 113 88 92 121 96 100 121 96 100 121 96 100 121 96 100 121 96 100 121 96 100 121 96 100 121 96 100 121 96 100 121 96 100 121 96 100 121 96 100 121 96 100 121 96 100 121 96 100 121 96 100 122 97 101 122 97 101 122 97 101 122 97 101 122 97 101 122 97 101 122 97 101 120 98 101 115 96 100 113 97 100 113 97 100 113 97 100 113 97 100 113 97 100 113 97 100 113 97 100 101 85 88 98 82 85 94 78 81 87 71 74 80 64 67 74 58 61 69 53 56 65 50 53 62 54 52 58 53 50 56 51 48 53 48 45 49 44 41 46 41 38 44 39 36 42 37 34 36 31 28 36 31 28 36 31 28 36 31 28 36 31 28 36 31 28 36 31 28 36 31 28 39 31 28 39 31 28 39 31 28 39 31 28 39 31 28 39 31 28 39 31 28 39 31 28 39 31 28 39 31 28 39 31 28 39 31 28 39 31 28 39 31 28 39 31 28 39 31 28
0 0 0 0 0 0 0 0 0 0 0 0 0 0 0 0 0 0 0 0 0 0 0 0 0 0 0 0 0 0 0 0 0 0 0 0 0 0 0 0 0 0 0 0 0 0 0 0 0 0 0 0 0 0 0 0 0 0 0 0 0 0 0 0 0 0 0 0 0 0 0 0 0 0 0 0 0 0 0 0 0 0 0 0 0 0 0 0 0 0 0 0 0 0 0 0 0 0 0 0 0 0 0 0 0 0 0 0 0 0 0 0 0 0 0 0 0 0 0 0 0 0 0 0 0 0 0 0 0 0 0 0 0 0 0 0 0 0 0 0 0 0 0 0 0 0 0 0 0 0 0 0 0 0 0 0 0 0 0 0 0 0 0 0 0 0 0 0 0 0 0 0 0 0 0 0 0 0 0 0 1 0 0 1 0 0 1 0 0 1 0 0 1 0 0 1 0 0 1 0 0 1 0 0 1 0 0 1 0 0 6 4 5 13 11 12 19 17 18 26 24 25 31 29 30 36 30 30 61 47 47 65 47 47 68 50 50 71 53 53 74 56 56 78 60 60 80 62 62 81 63 63 87 69 69 89 71 71 91 73 73 94 76 76 98 80 80 101 83 83 103 85 85 106 86 87 111 89 92 113 88 92 113 88 92 113 88 92 113 88 92 113 88 92 113 88 92 113 88 92 121 96 100 121 96 100 121 96 100 121 96 100 121 96 100 121 96 100 121 96 100 121 96 100 121 96 100 121 96 100 121 96 100 121 96 100 121 96 100 121 96 100 121 96 100 121 96 100 122 97 101 122 97 101 122 97 101 122 97 101 122 97 101 122 97 101 122 97 101 120 98 101 115 96 100 113 97 100 113 97 100 113 97 100 113 97 100 113 97 100 113 97 100 113 97 100 98 82 85 95 79 82 90 74 77 84 68 71 77 61 64 70 54 57 66 50 53 62 47 50 62 54 52 58 53 50 56 51 48 53 48 45 49 44 41 46 41 38 44 39 36 42 37 34 36 31 28 36 31 28 36 31 28 36 31 28 36 31 28 36 31 28 36 31 28 36 31 28 39 31 28 39 31 28 39 31 28 39 31 28 39 31 28 39 31 28 39 31 28 39 31 28 39 31 28 39 31 28 39 31 28 39 31 28 39 31 28 39 31 28 39 31 28 39 31 28
0 0 0 0 0 0 0 0 0 0 0 0 0 0 0 0 0 0 0 0 0 0 0 0 0 0 0 0 0 0 0 0 0 0 0 0 0 0 0 0 0 0 0 0 0 0 0 0 0 0 0 0 0 0 0 0 0 0 0 0 0 0 0 0 0 0 0 0 0 0 0 0 0 0 0 0 0 0 0 0 0 0 0 0 0 0 0 0 0 0 0 0 0 0 0 0 0 0 0 0 0 0 0 0 0 0 0 0 0 0 0 0 0 0 0 0 0 0 0 0 0 0 0 0 0 0 0 0 0 0 0 0 0 0 0 0 0 0 0 0 0 0 0 0 0 0 0 0 0 0 0 0 0 0 0 0 0 0 0 0 0 0 0 0 0 0 0 0 0 0 0 0 0 0 0 0 0 0 0 0 1 0 0 1 0 0 1 0 0 1 0 0 1 0 0 1 0 0 1 0 0 1 0 0 1 0 0 1 0 0 6 4 5 13 11 12 19 17 18 26 24 25 31 29 30 36 30 30 64 50 50 69 51 51 71 53 53 74 56 56 78 60 60 81 63 63 83 65 65 85 67 67 87 69 69 89 71 71 91 73 73 94 76 76 98 80 80 101 83 83 103 85 85 106 86 87 111 89 92 113 88 92 113 88 92 113 88 92 113 88 92 113 88 92 113 88 92 113 88 92 121 96 100 121 96 100 121 96 100 121 96 100 121 96 100 121 96 100 121 96 100 121 96 100 121 96 100 121 96 100 121 96 100 121 96 100 121 96 100 121 96 100 121 96 100 121 96 100 122 97 101 122 97 101 122 97 101 122 97 101 122 97 101 122 97 101 122 97 101 120 98 101 115 96 100 113 97 100 113 97 100 113 97 100 113 97 100 113 97 100 113 97 100 113 97 100 94 78 81 92 76 79 87 71 74 81 65 68 74 58 61 67 51 54 62 46 49 59 44 47 62 54 52 58 53 50 56 51 48 53 48 45 49 44 41 46 41 38 44 39 36 42 37 34 36 31 28 36 31 28 36 31 28 36 31 28 36 31 28 36 31 28 36 31 28 36 31 28 39 31 28 39 31 28 39 31 28 39 31 28 39 31 28 39 31 28 39 31 28 39 31 28 39 31 28 39 31 28 39 31 28 39 31 28 39 31 28 39 31 28 39 31 28 39 31 28
0 0 0 0 0 0 0 0 0 0 0 0 0 0 0 0 0 0 0 0 0 0 0 0 0 0 0 0 0 0 0 0 0 0 0 0 0 0 0 0 0 0 0 0 0 0 0 0 0 0 0 0 0 0 0 0 0 0 0 0 0 0 0 0 0 0 0 0 0 0 0 0 0 0 0 0 0 0 0 0 0 0 0 0 0 0 0 0 0 0 0 0 0 0 0 0 0 0 0 0 0 0 0 0 0 0 0 0 0 0 0 0 0 0 0 0 0 0 0 0 0 0 0 0 0 0 0 0 0 0 0 0 0 0 0 0 0 0 0 0 0 0 0 0 0 0 0 0 0 0 0 0 0 0 0 0 0 0 0 0 0 0 0 0 0 0 0 0 0 0 0 0 0 0 0 0 0 0 0 0 1 0 0 1 0 0 1 0 0 1 0 0 1 0 0 1 0 0 1 0 0 1 0 0 1 0 0 1 0 0 6 4 5 13 11 12 19 17 18 26 24 25 31 29 30 36 30 30 67 53 53 71 53 53 73 55 55 77 59 59 80 62 62 83 65 65 86 68 68 87 69 69 87 69 69 89 71 71 91 73 73 94 76 76 98 80 80 101 83 83 103 85 85 106 86 87 111 89 92 113 88 92 113 88 92 113 88 92 113 88 92 113 88 92 113 88 92 113 88 92 121 96 100 121 96 100 121 96 100 121 96 100 121 96 100 121 96 100 121 96 100 121 96 100 121 96 100 121 96 100 121 96 100 121 96 100 121 96 100 121 96 100 121 96 100 121 96 100 122 97 101 122 97 101 122 97 101 122 97 101 122 97 101 122 97 101 122 97 101 120 98 101 115 96 100 113 97 100 113 97 100 113 97 100 113 97 100 113 97 100 113 97 100 113 97 100 92 76 79 89 73 76 84 68 71 78 62 65 71 55 58 65 49 52 60 44 47 56 41 44 62 54 52 58 53 50 56 51 48 53 48 45 49 44 41 46 41 38 44 39 36 42 37 34 36 31 28 36 31 28 36 31 28 36 31 28 36 31 28 36 31 28 36 31 28 36 31 28 39 31 28 39 31 28 39 31 28 39 31 28 39 31 28 39 31 28 39 31 28 39 31 28 39 31 28 39 31 28 39 31 28 39 31 28 39 31 28 39 31 28 39 31 28 39 31 28
0 0 0 0 0 0 0 0 0 0 0 0 0 0 0 0 0 0 0 0 0 0 0 0 0 0 0 0 0 0 0 0 0 0 0 0 0 0 0 0 0 0 0 0 0 0 0 0 0 0 0 0 0 0 0 0 0 0 0 0 0 0 0 0 0 0 0 0 0 0 0 0 0 0 0 0 0 0 0 0 0 0 0 0 0 0 0 0 0 0 0 0 0 0 0 0 0 0 0 0 0 0 0 0 0 0 0 0 0 0 0 0 0 0 0 0 0 0 0 0 0 0 0 0 0 0 0 0 0 0 0 0 0 0 0 0 0 0 0 0 0 0 0 0 0 0 0 0 0 0 0 0 0 0 0 0 0 0 0 0 0 0 0 0 0 0 0 0 0 0 0 0 0 0 0 0 0 0 0 0 1 0 0 1 0 0 1 0 0 1 0 0 1 0 0 1 0 0 1 0 0 1 0 0 1 0 0 1 0 0 6 4 5 13 11 12 19 17 18 26 24 25 31 29 30 36 30 30 68 54 54 72 54 54 75 57 57 78 60 60 81 63 63 85 67 67 87 69 69 88 70 70 87 69 69 89 71 71 91 73 73 94 76 76 98 80 80 101 83 83 103 85 85 106 86 87 111 89 92 113 88 92 113 88 92 113 88 92 113 88 92 113 88 92 113 88 92 113 88 92 121 96 100 121 96 100 121 96 100 121 96 100 121 96 100 121 96 100 121 96 100 121 96 100 121 96 100 121 96 100 121 96 100 121 96 100 121 96 100 121 96 100 121 96 100 121 96 100 122 97 101 122 97 101 122 97 101 122 97 101 122 97 101 122 97 101 122 97 101 120 98 101 115 96 100 113 97 100 113 97 100 113 97 100 113 97 100 113 97 100 113 97 100 113 97 100 91 75 78 88 72 75 83 67 70 77 61 64 70 54 57 64 48 51 59 43 46 55 40 43 62 54 52 58 53 50 56 51 48 53 48 45 49 44 41 46 41 38 44 39 36 42 37 34 36 31 28 36 31 28 36 31 28 36 31 28 36 31 28 36 31 28 36 31 28 36 31 28 39 31 28 39 31 28 39 31 28 39 31 28 39 31 28 39 31 28 39 31 28 39 31 28 39 31 28 39 31 28 39 31 28 39 31 28 39 31 28 39 31 28 39 31 28 39 31 28
0 0 0 0 0 0 0 0 0 0 0 0 0 0 0 0 0 0 0 0 0 0 0 0 0 0 0 0 0 0 0 0 0 0 0 0 0 0 0 0 0 0 0 0 0 0 0 0 0 0 0 0 0 0 0 0 0 0 0 0 0 0 0 0 0 0 0 0 0 0 0 0 0 0 0 0 0 0 0 0 0 0 0 0 0 0 0 0 0 0 0 0 0 0 0 0 0 0 0 0 0 0 0 0 0 0 0 0 0 0 0 0 0 0 0 0 0 0 0 0 0 0 0 0 0 0 0 0 0 0 0 0 0 0 0 0 0 0 0 0 0 0 0 0 0 0 0 0 0 0 0 0 0 0 0 0 0 0 0 0 0 0 0 0 0 0 0 0 0 0 0 0 0 0 0 0 0 0 0 0 1 0 0 1 0 0 1 0 0 1 0 0 1 0 0 1 0 0 1 0 0 1 0 0 8 6 7 11 9 10 16 14 15 22 20 21 29 27 28 35 33 34 40 38 39 46 40 40 70 56 56 75 57 57 77 59 59 80 62 62 84 66 66 87 69 69 89 71 71 91 73 73 102 84 84 102 84 84 102 84 84 102 84 84 102 84 84 102 84 84 102 84 84 103 83 84 118 96 99 120 95 99 120 95 99 120 95 99 120 95 99 120 95 99 120 95 99 120 95 99 124 99 103 124 99 103 124 99 103 124 99 103 124 99 103 124 99 103 124 99 103 124 99 103 124 99 103 124 99 103 124 99 103 124 99 103 124 99 103 124 99 103 124 99 103 124 99 103 123 98 102 123 98 102 123 98 102 123 98 102 123 98 102 123 98 102 123 98 102 121 99 102 113 94 98 110 94 97 109 93 96 107 91 94 105 89 92 103 87 90 101 85 88 100 84 87 71 55 58 70 54 57 68 52 55 64 48 51 61 45 48 58 42 45 55 39 42 53 38 41 41 33 31 39 34 31 39 34 31 39 34 31 39 34 31 39 34 31 39 34 31 39 34 31 35 30 27 35 30 27 35 30 27 35 30 27 35 30 27 35 30 27 35 30 27 35 30 27 36 28 25 36 28 25 36 28 25 36 28 25 36 28 25 36 28 25 36 28 25 36 28 25 38 30 27 38 30 27 38 30 27 38 30 27 38 30 27 38 30 27 38 30 27 38 30 27
0 0 0 0 0 0 0 0 0 0 0 0 0 0 0 0 0 0 0 0 0 0 0 0 0 0 0 0 0 0 0 0 0 0 0 0 0 0 0 0 0 0 0 0 0 0 0 0 0 0 0 0 0 0 0 0 0 0 0 0 0 0 0 0 0 0 0 0 0 0 0 0 0 0 0 0 0 0 0 0 0 0 0 0 0 0 0 0 0 0 0 0 0 0 0 0 0 0 0 0 0 0 0 0 0 0 0 0 0 0 0 0 0 0 0 0 0 0 0 0 0 0 0 0 0 0 0 0 0 0 0 0 0 0 0 0 0 0 0 0 0 0 0 0 0 0 0 0 0 0 0 0 0 0 0 0 0 0 0 0 0 0 0 0 0 0 0 0 0 0 0 0 0 0 0 0 0 0 0 0 1 0 0 1 0 0 1 0 0 1 0 0 1 0 0 1 0 0 1 0 0 1 0 0 9 7 8 12 10 11 17 15 16 23 21 22 30 28 29 36 34 35 41 39 40 47 41 41 70 56 56 75 57 57 77 59 59 80 62 62 84 66 66 87 69 69 89 71 71 91 73 73 102 84 84 102 84 84 102 84 84 102 84 84 102 84 84 102 84 84 102 84 84 103 83 84 118 96 99 120 95 99 120 95 99 120 95 99 120 95 99 120 95 99 120 95 99 120 95 99 124 99 103 124 99 103 124 99 103 124 99 103 124 99 103 124 99 103 124 99 103 124 99 103 124 99 103 124 99 103 124 99 103 124 99 103 124 99 103 124 99 103 124 99 103 124 99 103 123 98 102 123 98 102 123 98 102 123 98 102 123 98 102 123 98 102 123 98 102 121 99 102 113 94 98 110 94 97 108 92 95 106 90 93 103 87 90 100 84 87 98 82 85 97 81 84 70 54 57 69 53 56 66 50 53 63 47 50 60 44 47 56 40 43 54 38 41 52 37 40 41 33 31 39 34 31 39 34 31 39 34 31 39 34 31 39 34 31 39 34 31 39 34 31 35 30 27 35 30 27 35 30 27 35 30 27 35 30 27 35 30 27 35 30 27 35 30 27 36 28 25 36 28 25 36 28 25 36 28 25 36 28 25 36 28 25 36 28 25 36 28 25 38 30 27 38 30 27 38 30 27 38 30 27 38 30 27 38 30 27 38 30 27 38 30 27
0 0 0 0 0 0 0 0 0 0 0 0 0 0 0 0 0 0 0 0 0 0 0 0 0 0 0 0 0 0 0 0 0 0 0 0 0 0 0 0 0 0 0 0 0 0 0 0 0 0 0 0 0 0 0 0 0 0 0 0 0 0 0 0 0 0 0 0 0 0 0 0 0 0 0 0 0 0 0 0 0 0 0 0 0 0 0 0 0 0 0 0 0 0 0 0 0 0 0 0 0 0 0 0 0 0 0 0 0 0 0 0 0 0 0 0 0 0 0 0 0 0 0 0 0 0 0 0 0 0 0 0 0 0 0 0 0 0 0 0 0 0 0 0 0 0 0 0 0 0 0 0 0 0 0 0 0 0 0 0 0 0 0 0 0 0 0 0 0 0 0 0 0 0 0 0 0 0 0 0 1 0 0 1 0 0 1 0 0 1 0 0 1 0 0 1 0 0 1 0 0 1 0 0 12 10 11 14 12 13 19 17 18 26 24 25 33 31 32 39 37 38 44 42 43 49 43 43 70 56 56 75 57 57 77 59 59 80 62 62 84 66 66 87 69 69 89 71 71 91 73 73 102 84 84 102 84 84 102 84 84 102 84 84 102 84 84 102 84 84 102 84 84 103 83 84 118 96 99 120 95 99 120 95 99 120 95 99 120 95 99 120 95 99 120 95 99 120 95 99 124 99 103 124 99 103 124 99 103 124 99 103 124 99 103 124 99 103 124 99 103 124 99 103 124 99 103 124 99 103 124 99 103 124 99 103 124 99 103 124 99 103 124 99 103 124 99 103 123 98 102 123 98 102 123 98 102 123 98 102 123 98 102 123 98 102 123 98 102 121 99 102 114 95 99 111 95 98 108 92 95 104 88 91 100 84 87 96 80 83 93 77 80 91 75 78 68 52 55 66 50 53 64 48 51 61 45 48 57 41 44 54 38 41 52 36 39 49 34 37 41 33 31 39 34 31 39 34 31 39 34 31 39 34 31 39 34 31 39 34 31 39 34 31 35 30 27 35 30 27 35 30 27 35 30 27 35 30 27 35 30 27 35 30 27 35 30 27 36 28 25 36 28 25 36 28 25 36 28 25 36 28 25 36 28 25 36 28 25 36 28 25 38 30 27 38 30 27 38 30 27 38 30 27 38 30 27 38 30 27 38 30 27 38 30 27
0 0 0 0 0 0 0 0 0 0 0 0 0 0 0 0 0 0 0 0 0 0 0 0 0 0 0 0 0 0 0 0 0 0 0 0 0 0 0 0 0 0 0 0 0 0 0 0 0 0 0 0 0 0 0 0 0 0 0 0 0 0 0 0 0 0 0 0 0 0 0 0 0 0 0 0 0 0 0 0 0 0 0 0 0 0 0 0 0 0 0 0 0 0 0 0 0 0 0 0 0 0 0 0 0 0 0 0 0 0 0 0 0 0 0 0 0 0 0 0 0 0 0 0 0 0 0 0 0 0 0 0 0 0 0 0 0 0 0 0 0 0 0 0 0 0 0 0 0 0 0 0 0 0 0 0 0 0 0 0 0 0 0 0 0 0 0 0 0 0 0 0 0 0 0 0 0 0 0 0 1 0 0 1 0 0 1 0 0 1 0 0 1 0 0 1 0 0 1 0 0 1 0 0 15 13 14 18 16 17 22 20 21 29 27 28 36 34 35 42 40 41 47 45 46 53 47 47 70 56 56 75 57 57 77 59 59 80 62 62 84 66 66 87 69 69 89 71 71 91 73 73 102 84 84 102 84 84 102 84 84 102 84 84 102 84 84 102 84 84 102 84 84 103 83 84 118 96 99 120 95 99 120 95 99 120 95 99 120 95 99 120 95 99 120 95 99 120 95 99 124 99 103 124 99 103 124 99 103 124 99 103 124 99 103 124 99 103 124 99 103 124 99 103 124 99 103 124 99 103 124 99 103 124 99 103 124 99 103 124 99 103 124 99 103 124 99 103 123 98 102 123 98 102 123 98 102 123 98 102 123 98 102 123 98 102 123 98 102 121 99 102 116 97 101 111 95 98 107 91 94 102 86 89 96 80 83 90 74 77 86 70 73 84 68 71 64 48 51 63 47 50 61 45 48 57 41 44 54 38 41 51 35 38 48 32 35 46 31 34 41 33 31 39 34 31 39 34 31 39 34 31 39 34 31 39 34 31 39 34 31 39 34 31 35 30 27 35 30 27 35 30 27 35 30 27 35 30 27 35 30 27 35 30 27 35 30 27 36 28 25 36 28 25 36 28 25 36 28 25 36 28 25 36 28 25 36 28 25 36 28 25 38 30 27 38 30 27 38 30 27 38 30 27 38 30 27 38 30 27 38 30 27 38 30 27
0 0 0 0 0 0 0 0 0 0 0 0 0 0 0 0 0 0 0 0 0 0 0 0 0 0 0 0 0 0 0 0 0 0 0 0 0 0 0 0 0 0 0 0 0 0 0 0 0 0 0 0 0 0 0 0 0 0 0 0 0 0 0 0 0 0 0 0 0 0 0 0 0 0 0 0 0 0 0 0 0 0 0 0 0 0 0 0 0 0 0 0 0 0 0 0 0 0 0 0 0 0 0 0 0 0 0 0 0 0 0 0 0 0 0 0 0 0 0 0 0 0 0 0 0 0 0 0 0 0 0 0 0 0 0 0 0 0 0 0 0 0 0 0 0 0 0 0 0 0 0 0 0 0 0 0 0 0 0 0 0 0 0 0 0 0 0 0 0 0 0 0 0 0 0 0 0 0 0 0 1 0 0 1 0 0 1 0 0 1 0 0 1 0 0 1 0 0 1 0 0 1 0 0 18 16 17 21 19 20 26 24 25 32 30 31 39 37 38 46 44 45 50 48 49 56 50 50 70 56 56 75 57 57 77 59 59 80 62 62 84 66 66 87 69 69 89 71 71 91 73 73 102 84 84 102 84 84 102 84 84 102 84 84 102 84 84 102 84 84 102 84 84 103 83 84 118 96 99 120 95 99 120 95 99 120 95 99 120 95 99 120 95 99 120 95 99 120 95 99 124 99 103 124 99 103 124 99 103 124 99 103 124 99 103 124 99 103 124 99 103 124 99 103 124 99 103 124 99 103 124 99 103 124 99 103 124 99 103 124 99 103 124 99 103 124 99 103 123 98 102 123 98 102 123 98 102 123 98 102 123 98 102 123 98 102 123 98 102 121 99 102 117 98 102 112 96 99 106 90 93 99 83 86 91 75 78 84 68 71 79 63 66 76 60 63 61 45 48 60 44 47 57 41 44 54 38 41 51 35 38 47 31 34 45 29 32 43 28 31 41 33 31 39 34 31 39 34 31 39 34 31 39 34 31 39 34 31 39 34 31 39 34 31 35 30 27 35 30 27 35 30 27 35 30 27 35 30 27 35 30 27 35 30 27 35 30 27 36 28 25 36 28 25 36 28 25 36 28 25 36 28 25 36 28 25 36 28 25 36 28 25 38 30 27 38 30 27 38 30 27 38 30 27 38 30 27 38 30 27 38 30 27 38 30 27
0 0 0 0 0 0 0 0 0 0 0 0 0 0 0 0 0 0 0 0 0 0 0 0 0 0 0 0 0 0 0 0 0 0 0 0 0 0 0 0 0 0 0 0 0 0 0 0 0 0 0 0 0 0 0 0 0 0 0 0 0 0 0 0 0 0 0 0 0 0 0 0 0 0 0 0 0 0 0 0 0 0 0 0 0 0 0 0 0 0 0 0 0 0 0 0 0 0 0 0 0 0 0 0 0 0 0 0 0 0 0 0 0 0 0 0 0 0 0 0 0 0 0 0 0 0 0 0 0 0 0 0 0 0 0 0 0 0 0 0 0 0 0 0 0 0 0 0 0 0 0 0 0 0 0 0 0 0 0 0 0 0 0 0 0 0 0 0 0 0 0 0 0 0 0 0 0 0 0 0 1 0 0 1 0 0 1 0 0 1 0 0 1 0 0 1 0 0 1 0 0 1 0 0 22 20 21 24 22 23 29 27 28 35 33 34 42 40 41 49 47 48 54 52 53 59 53 53 70 56 56 75 57 57 77 59 59 80 62 62 84 66 66 87 69 69 89 71 71 91 73 73 102 84 84 102 84 84 102 84 84 102 84 84 102 84 84 102 84 84 102 84 84 103 83 84 118 96 99 120 95 99 120 95 99 120 95 99 120 95 99 120 95 99 120 95 99 120 95 99 124 99 103 124 99 103 124 99 103 124 99 103 124 99 103 124 99 103 124 99 103 124 99 103 124 99 103 124 99 103 124 99 103 124 99 103 124 99 103 124 99 103 124 99 103 124 99 103 123 98 102 123 98 102 123 98 102 123 98 102 123 98 102 123 98 102 123 98 102 121 99 102 118 99 103 113 97 100 106 90 93 97 81 84 87 71 74 78 62 65 72 56 59 68 52 55 58 42 45 56 40 43 54 38 41 51 35 38 47 31 34 44 28 31 42 26 29 39 24 27 41 33 31 39 34 31 39 34 31 39 34 31 39 34 31 39 34 31 39 34 31 39 34 31 35 30 27 35 30 27 35 30 27 35 30 27 35 30 27 35 30 27 35 30 27 35 30 27 36 28 25 36 28 25 36 28 25 36 28 25 36 28 25 36 28 25 36 28 25 36 28 25 38 30 27 38 30 27 38 30 27 38 30 27 38 30 27 38 30 27 38 30 27 38 30 27
0 0 0 0 0 0 0 0 0 0 0 0 0 0 0 0 0 0 0 0 0 0 0 0 0 0 0 0 0 0 0 0 0 0 0 0 0 0 0 0 0 0 0 0 0 0 0 0 0 0 0 0 0 0 0 0 0 0 0 0 0 0 0 0 0 0 0 0 0 0 0 0 0 0 0 0 0 0 0 0 0 0 0 0 0 0 0 0 0 0 0 0 0 0 0 0 0 0 0 0 0 0 0 0 0 0 0 0 0 0 0 0 0 0 0 0 0 0 0 0 0 0 0 0 0 0 0 0 0 0 0 0 0 0 0 0 0 0 0 0 0 0 0 0 0 0 0 0 0 0 0 0 0 0 0 0 0 0 0 0 0 0 0 0 0 0 0 0 0 0 0 0 0 0 0 0 0 0 0 0 1 0 0 1 0 0 1 0 0 1 0 0 1 0 0 1 0 0 1 0 0 1 0 0 24 22 23 27 25 26 32 30 31 38 36 37 45 43 44 51 49 50 56 54 55 62 56 56 70 56 56 75 57 57 77 59 59 80 62 62 84 66 66 87 69 69 89 71 71 91 73 73 102 84 84 102 84 84 102 84 84 102 84 84 102 84 84 102 84 84 102 84 84 103 83 84 118 96 99 120 95 99 120 95 99 120 95 99 120 95 99 120 95 99 120 95 99 120 95 99 124 99 103 124 99 103 124 99 103 124 99 103 124 99 103 124 99 103 124 99 103 124 99 103 124 99 103 124 99 103 124 99 103 124 99 103 124 99 103 124 99 103 124 99 103 124 99 103 123 98 102 123 98 102 123 98 102 123 98 102 123 98 102 123 98 102 123 98 102 121 99 102 119 100 104 113 97 100 105 89 92 95 79 82 84 68 71 74 58 61 66 50 53 62 46 49 55 39 42 54 38 41 52 36 39 48 32 35 45 29 32 42 26 29 39 23 26 37 22 25 41 33 31 39 34 31 39 34 31 39 34 31 39 34 31 39 34 31 39 34 31 39 34 31 35 30 27 35 30 27 35 30 27 35 30 27 35 30 27 35 30 27 35 30 27 35 30 27 36 28 25 36 28 25 36 28 25 36 28 25 36 28 25 36 28 25 36 28 25 36 28 25 38 30 27 38 30 27 38 30 27 38 30 27 38 30 27 38 30 27 38 30 27 38 30 27
0 0 0 0 0 0 0 0 0 0 0 0 0 0 0 0 0 0 0 0 0 0 0 0 0 0 0 0 0 0 0 0 0 0 0 0 0 0 0 0 0 0 0 0 0 0 0 0 0 0 0 0 0 0 0 0 0 0 0 0 0 0 0 0 0 0 0 0 0 0 0 0 0 0 0 0 0 0 0 0 0 0 0 0 0 0 0 0 0 0 0 0 0 0 0 0 0 0 0 0 0 0 0 0 0 0 0 0 0 0 0 0 0 0 0 0 0 0 0 0 0 0 0 0 0 0 0 0 0 0 0 0 0 0 0 0 0 0 0 0 0 0 0 0 0 0 0 0 0 0 0 0 0 0 0 0 0 0 0 0 0 0 0 0 0 0 0 0 0 0 0 0 0 0 0 0 0 0 0 0 1 0 0 3 0 0 3 0 0 3 0 0 3 0 0 3 0 0 3 0 0 3 0 0 27 23 24 30 26 25 35 31 32 41 37 36 48 44 45 54 50 49 59 55 56 65 56 57 71 55 55 76 56 57 78 58 59 81 61 62 85 65 66 88 68 69 90 70 71 92 72 73 103 83 84 103 83 84 103 83 84 103 83 84 103 83 84 103 83 84 103 83 84 103 83 84 118 96 99 120 95 99 120 95 99 120 95 99 120 95 99 120 95 99 120 95 99 120 95 99 124 99 103 124 99 103 124 99 103 124 99 103 124 99 103 124 99 103 124 99 103 124 99 103 124 99 103 124 99 103 124 99 103 124 99 103 124 99 103 124 99 103 124 99 103 124 99 103 123 98 102 123 98 102 123 98 102 123 98 102 123 98 102 123 98 102 123 98 102 120 100 102 118 102 105 112 97 100 104 89 92 93 78 81 82 67 70 71 56 59 62 47 50 58 43 46 53 38 41 52 37 40 49 34 37 46 31 34 43 28 31 39 24 27 37 22 25 34 22 24 41 33 31 39 34 31 39 34 31 39 34 31 39 34 31 39 34 31 39 34 31 39 34 31 35 30 27 35 30 27 35 30 27 35 30 27 35 30 27 35 30 27 35 30 27 35 30 27 36 28 25 36 28 25 36 28 25 36 28 25 36 28 25 36 28 25 36 28 25 36 28 25 38 30 27 38 30 27 38 30 27 38 30 27 38 30 27 38 30 27 38 30 27 38 30 27
0 0 0 0 0 0 0 0 0 0 0 0 0 0 0 0 0 0 0 0 0 0 0 0 0 0 0 0 0 0 0 0 0 0 0 0 0 0 0 0 0 0 0 0 0 0 0 0 0 0 0 0 0 0 0 0 0 0 0 0 0 0 0 0 0 0 0 0 0 0 0 0 0 0 0 0 0 0 0 0 0 0 0 0 0 0 0 0 0 0 0 0 0 0 0 0 0 0 0 0 0 0 0 0 0 0 0 0 0 0 0 0 0 0 0 0 0 0 0 0 0 0 0 0 0 0 0 0 0 0 0 0 0 0 0 0 0 0 0 0 0 0 0 0 0 0 0 0 0 0 0 0 0 0 0 0 0 0 0 0 0 0 0 0 0 0 0 0 0 0 0 0 0 0 0 0 0 1 0 0 3 0 0 4 0 0 4 0 0 5 0 0 8 2 2 11 6 3 14 8 8 15 10 7 32 26 26 35 30 27 40 34 34 46 41 38 53 47 47 59 54 51 64 58 58 70 60 59 92 74 74 94 73 72 94 73 72 94 73 72 94 73 72 94 73 72 94 73 72 94 73 72 103 82 81 105 84 83 107 86 85 110 89 88 114 93 92 117 96 95 119 98 97 121 100 99 123 101 103 123 101 103 123 101 103 123 101 103 123 101 103 123 101 103 123 101 103 123 101 103 126 104 106 126 104 106 126 104 106 126 104 106 126 104 106 126 104 106 126 104 106 126 104 106 125 103 105 125 103 105 125 103 105 125 103 105 125 103 105 125 103 105 125 103 105 125 103 105 126 104 106 124 102 104 122 100 102 119 97 99 115 93 95 112 90 92 110 88 90 106 87 89 100 88 90 94 85 86 86 77 78 77 68 69 66 57 58 57 48 49 50 41 42 46 37 38 34 25 26 34 25 26 34 25 26 34 25 26 34 25 26 34 25 26 34 25 26 34 25 26 31 25 25 30 26 25 30 26 25 30 26 25 30 26 25 30 26 25 30 26 25 30 26 25 33 29 28 33 29 28 33 29 28 33 29 28 33 29 28 33 29 28 33 29 28 34 29 26 37 29 26 38 28 26 38 28 26 38 28 26 38 28 26 38 28 26 38 28 26 38 28 26 38 28 26 38 28 26 38 28 26 38 28 26 38 28 26 38 28 26 38 28 26 38 28 26
0 0 0 0 0 0 0 0 0 0 0 0 0 0 0 0 0 0 0 0 0 0 0 0 0 0 0 0 0 0 0 0 0 0 0 0 0 0 0 0 0 0 0 0 0 0 0 0 0 0 0 0 0 0 0 0 0 0 0 0 0 0 0 0 0 0 0 0 0 0 0 0 0 0 0 0 0 0 0 0 0 0 0 0 0 0 0 0 0 0 0 0 0 0 0 0 0 0 0 0 0 0 0 0 0 0 0 0 0 0 0 0 0 0 0 0 0 0 0 0 0 0 0 0 0 0 0 0 0 0 0 0 0 0 0 0 0 0 0 0 0 0 0 0 0 0 0 0 0 0 0 0 0 0 0 0 0 0 0 0 0 0 0 0 0 0 0 0 0 0 0 0 0 0 0 0 0 1 0 0 4 0 0 6 0 0 6 0 0 8 0 0 11 3 1 15 7 5 17 9 7 18 10 8 35 27 25 38 30 28 43 35 33 49 41 39 56 48 46 62 54 52 67 59 57 72 61 59 93 73 74 96 72 72 96 72 72 96 72 72 96 72 72 96 72 72 96 72 72 96 72 72 105 81 81 107 83 83 109 85 85 112 88 88 116 92 92 119 95 95 121 97 97 123 99 99 123 101 103 123 101 103 123 101 103 123 101 103 123 101 103 123 101 103 123 101 103 123 101 103 126 104 106 126 104 106 126 104 106 126 104 106 126 104 106 126 104 106 126 104 106 126 104 106 125 103 105 125 103 105 125 103 105 125 103 105 125 103 105 125 103 105 125 103 105 125 103 105 126 104 106 124 102 104 122 100 102 119 97 99 115 93 95 112 90 92 110 88 90 106 88 88 97 87 88 90 84 84 83 77 77 74 68 68 63 57 57 54 48 48 46 40 40 42 36 36 32 26 26 32 26 26 32 26 26 32 26 26 32 26 26 32 26 26 32 26 26 32 26 26 30 26 25 30 26 25 30 26 25 30 26 25 30 26 25 30 26 25 30 26 25 30 26 25 33 29 28 33 29 28 33 29 28 33 29 28 33 29 28 33 29 28 33 29 28 34 29 26 37 29 27 38 28 26 38 28 26 38 28 26 38 28 26 38 28 26 38 28 26 38 28 26 38 28 26 38 28 26 38 28 26 38 28 26 38 28 26 38 28 26 38 28 26 38 28 26
0 0 0 0 0 0 0 0 0 0 0 0 0 0 0 0 0 0 0 0 0 0 0 0 0 0 0 0 0 0 0 0 0 0 0 0 0 0 0 0 0 0 0 0 0 0 0 0 0 0 0 0 0 0 0 0 0 0 0 0 0 0 0 0 0 0 0 0 0 0 0 0 0 0 0 0 0 0 0 0 0 0 0 0 0 0 0 0 0 0 0 0 0 0 0 0 0 0 0 0 0 0 0 0 0 0 0 0 0 0 0 0 0 0 0 0 0 0 0 0 0 0 0 0 0 0 0 0 0 0 0 0 0 0 0 0 0 0 0 0 0 0 0 0 0 0 0 0 0 0 0 0 0 0 0 0 0 0 0 0 0 0 0 0 0 0 0 0 0 0 0 0 0 0 0 0 0 1 0 0 4 0 0 6 0 0 7 0 0 10 2 0 14 6 4 17 9 7 19 11 9 21 13 11 38 30 28 40 32 30 45 37 35 52 44 42 59 51 49 65 57 55 70 62 60 74 63 61 93 73 74 96 72 72 96 72 72 96 72 72 96 72 72 96 72 72 96 72 72 96 72 72 105 81 81 107 83 83 109 85 85 112 88 88 116 92 92 119 95 95 121 97 97 123 99 99 123 101 103 123 101 103 123 101 103 123 101 103 123 101 103 123 101 103 123 101 103 123 101 103 126 104 106 126 104 106 126 104 106 126 104 106 126 104 106 126 104 106 126 104 106 126 104 106 125 103 105 125 103 105 125 103 105 125 103 105 125 103 105 125 103 105 125 103 105 125 103 105 126 104 106 124 102 104 122 100 102 119 97 99 115 93 95 112 90 92 110 88 90 106 88 88 95 85 86 88 82 82 81 75 75 71 65 65 61 55 55 51 45 45 44 38 38 40 34 34 32 26 26 32 26 26 32 26 26 32 26 26 32 26 26 32 26 26 32 26 26 32 26 26 30 26 25 30 26 25 30 26 25 30 26 25 30 26 25 30 26 25 30 26 25 30 26 25 33 29 28 33 29 28 33 29 28 33 29 28 33 29 28 33 29 28 33 29 28 34 29 26 37 29 27 38 28 26 38 28 26 38 28 26 38 28 26 38 28 26 38 28 26 38 28 26 38 28 26 38 28 26 38 28 26 38 28 26 38 28 26 38 28 26 38 28 26 38 28 26
