P3
207 145
255
76 62 62 73 59 59 69 55 55 67 53 53 67 51 52 63 42 47 64 41 47 64 41 47 64 41 47 64 41 47 64 41 47 64 41 47 64 41 47 77 54 60 77 54 60 77 54 60 77 54 60 77 54 60 77 54 60 77 54 60 76 55 60 55 38 46 54 39 46 54 39 46 54 39 46 54 39 46 54 39 46 54 39 46 54 39 46 57 42 49 57 42 49 57 42 49 57 42 49 57 42 49 57 42 49 57 42 49 55 42 49 87 80 87 84 79 85 81 76 82 76 71 77 72 67 73 67 62 68 64 59 65 62 57 63 58 53 59 55 50 56 50 45 51 44 39 45 37 32 38 31 26 32 26 21 27 23 18 24 35 30 37 35 30 37 35 30 37 35 30 37 35 30 37 35 30 37 35 30 37 35 30 37 35 30 37 37 32 39 39 34 41 42 37 44 46 41 48 49 44 51 51 46 53 56 46 54 60 40 49 62 39 47 62 39 47 62 39 47 62 39 47 62 39 47 62 39 47 62 39 47 56 33 41 58 35 43 63 40 48 70 47 55 76 53 61 83 60 68 88 65 73 90 67 75 90 64 77 88 64 77 88 64 77 86 66 77 86 66 77 83 67 77 81 68 77 79 69 77 61 56 62 56 55 60 53 54 58 47 52 55 43 48 51 37 47 48 35 45 46 37 41 44 58 45 52 64 43 52 64 43 52 64 43 52 64 43 52 64 43 52 64 43 52 64 43 52 68 47 56 68 47 56 68 47 56 68 47 56 68 47 56 68 47 56 68 47 56 67 48 54 59 42 48 60 45 48 63 48 51 68 53 56 72 57 60 77 62 65 80 65 68 82 67 70 92 77 80 93 78 81 96 81 84 99 84 87 102 87 90 106 91 94 108 93 96 106 95 99 94 92 97 92 93 98 92 93 98 92 93 98 92 93 98 92 93 98 92 93 98 92 93 98 99 100 105 99 100 105 99 100 105 99 100 105 99 100 105 99 100 105 99 100 105 100 100 102 105 96 97 106 96 94 106 96 94 106 96 94 106 96 94 106 96 94 106 96 94 106 96 94 90 80 78 91 81 79 95 85 83 99 89 87 104 94 92 108 98 96 112 102 100 115 104 102 114 94 93 115 94 93 115 94 93 115 94 93 115 94 93 115 94 93 115 94 93 115 94 93 105 84 83 105 84 83 105 84 83 105 84 83 105 84 83 105 84 83 105 84 83 107 83 83 116 84 85 118 84 85 118 84 85 118 84 85 118 84 85 118 84 85 118 84 85 118 84 85 108 74 75 108 74 75 108 74 75 108 74 75 108 74 75 108 74 75 108 74 75 111 72 77 103 55 69 104 53 70 101 50 67 95 48 64 92 45 61 85 43 57 82 41 55 78 42 54 61 29 40 58 31 40
65 51 51 65 51 51 65 51 51 65 51 51 66 50 51 65 44 49 66 43 49 66 43 49 66 43 49 66 43 49 66 43 49 66 43 49 66 43 49 79 56 62 77 54 60 75 52 58 72 49 55 68 45 51 65 42 48 63 40 46 60 39 44 49 32 40 48 33 40 48 33 40 48 33 40 48 33 40 48 33 40 48 33 40 48 33 40 47 32 39 47 32 39 47 32 39 47 32 39 47 32 39 47 32 39 47 32 39 45 32 39 39 32 39 38 33 39 38 33 39 38 33 39 38 33 39 38 33 39 38 33 39 38 33 39 34 29 35 34 29 35 34 29 35 34 29 35 34 29 35 34 29 35 34 29 35 34 29 35 41 36 43 41 36 43 41 36 43 41 36 43 41 36 43 41 36 43 41 36 43 41 36 43 45 40 47 45 40 47 45 40 47 45 40 47 45 40 47 45 40 47 45 40 47 48 38 46 81 61 70 81 58 66 78 55 63 73 50 58 69 46 54 64 41 49 61 38 46 59 36 44 60 37 45 62 39 47 65 42 50 70 47 55 74 51 59 79 56 64 82 59 67 84 61 69 87 61 74 85 61 74 85 61 74 83 63 74 83 63 74 80 64 74 78 65 74 76 66 74 45 40 46 42 41 46 41 42 46 38 43 46 38 43 46 35 45 46 35 45 46 39 43 46 53 40 47 59 38 47 59 38 47 59 38 47 59 38 47 59 38 47 59 38 47 59 38 47 48 27 36 49 28 37 52 31 40 55 34 43 58 37 46 62 41 50 64 43 52 64 45 51 67 55 59 69 59 60 75 65 66 82 72 73 90 80 81 98 88 89 104 94 95 107 97 98 97 87 88 97 87 88 97 87 88 97 87 88 97 87 88 97 87 88 97 87 88 94 88 90 92 90 95 90 91 96 90 91 96 90 91 96 90 91 96 90 91 96 90 91 96 90 91 96 98 99 104 98 99 104 98 99 104 98 99 104 98 99 104 98 99 104 98 99 104 99 99 101 113 104 105 112 102 100 110 100 98 107 97 95 103 93 91 100 90 88 98 88 86 96 86 84 96 86 84 96 86 84 96 86 84 96 86 84 96 86 84 96 86 84 96 86 84 97 86 84 117 97 96 116 95 94 113 92 91 108 87 86 104 83 82 99 78 77 96 75 74 94 73 72 95 74 73 94 73 72 91 70 69 88 67 66 85 64 63 81 60 59 79 58 57 80 56 56 94 62 63 98 64 65 100 66 67 103 69 70 107 73 74 110 76 77 112 78 79 114 80 81 114 80 81 112 78 79 110 76 77 107 73 74 103 69 70 100 66 67 98 64 65 99 60 65 101 53 67 101 50 67 99 48 65 93 46 62 89 42 58 83 41 55 80 39 53 75 39 51 61 29 40 58 31 40
65 51 51 65 51 51 65 51 51 65 51 51 66 50 51 65 44 49 66 43 49 66 43 49 66 43 49 66 43 49 66 43 49 66 43 49 66 43 49 79 56 62 77 54 60 75 52 58 72 49 55 68 45 51 65 42 48 63 40 46 60 39 44 49 32 40 48 33 40 48 33 40 48 33 40 48 33 40 48 33 40 48 33 40 48 33 40 47 32 39 47 32 39 47 32 39 47 32 39 47 32 39 47 32 39 47 32 39 45 32 39 39 32 39 38 33 39 38 33 39 38 33 39 38 33 39 38 33 39 38 33 39 38 33 39 34 29 35 34 29 35 34 29 35 34 29 35 34 29 35 34 29 35 34 29 35 34 29 35 41 36 43 41 36 43 41 36 43 41 36 43 41 36 43 41 36 43 41 36 43 41 36 43 45 40 47 45 40 47 45 40 47 45 40 47 45 40 47 45 40 47 45 40 47 48 38 46 79 59 68 80 57 65 77 54 62 73 50 58 69 46 54 65 42 50 62 39 47 61 38 46 62 39 47 63 40 48 66 43 51 70 47 55 74 51 59 78 55 63 81 58 66 82 59 67 85 59 72 83 59 72 83 59 72 81 61 72 81 61 72 78 62 72 76 63 72 74 64 72 45 40 46 42 41 46 41 42 46 38 43 46 38 43 46 35 45 46 35 45 46 39 43 46 53 40 47 59 38 47 59 38 47 59 38 47 59 38 47 59 38 47 59 38 47 59 38 47 51 30 39 52 31 40 54 33 42 58 37 46 61 40 49 64 43 52 67 46 55 65 48 54 69 58 62 69 63 63 74 68 68 81 75 75 88 82 82 95 89 89 101 95 95 104 98 98 94 88 88 94 88 88 94 88 88 94 88 88 94 88 88 94 88 88 94 88 88 93 89 90 91 90 95 90 91 96 90 91 96 90 91 96 90 91 96 90 91 96 90 91 96 90 91 96 98 99 104 98 99 104 98 99 104 98 99 104 98 99 104 98 99 104 98 99 104 99 99 101 113 104 105 112 102 100 110 100 98 107 97 95 103 93 91 100 90 88 98 88 86 96 86 84 94 84 82 94 84 82 94 84 82 94 84 82 94 84 82 94 84 82 94 84 82 95 84 82 115 95 94 115 94 93 112 91 90 108 87 86 104 83 82 100 79 78 97 76 75 96 75 74 96 75 74 95 74 73 93 72 71 89 68 67 86 65 64 83 62 61 80 59 58 81 57 57 94 62 63 98 64 65 100 66 67 103 69 70 107 73 74 110 76 77 112 78 79 114 80 81 114 80 81 112 78 79 110 76 77 107 73 74 103 69 70 100 66 67 98 64 65 99 60 65 101 53 67 101 50 67 99 48 65 93 46 62 89 42 58 83 41 55 80 39 53 75 39 51 61 29 40 58 31 40
65 51 51 65 51 51 65 51 51 65 51 51 66 50 51 65 44 49 66 43 49 66 43 49 66 43 49 66 43 49 66 43 49 66 43 49 66 43 49 79 56 62 77 54 60 75 52 58 72 49 55 68 45 51 65 42 48 63 40 46 60 39 44 49 32 40 48 33 40 48 33 40 48 33 40 48 33 40 48 33 40 48 33 40 48 33 40 47 32 39 47 32 39 47 32 39 47 32 39 47 32 39 47 32 39 47 32 39 45 32 39 39 32 39 38 33 39 38 33 39 38 33 39 38 33 39 38 33 39 38 33 39 38 33 39 34 29 35 34 29 35 34 29 35 34 29 35 34 29 35 34 29 35 34 29 35 34 29 35 41 36 43 41 36 43 41 36 43 41 36 43 41 36 43 41 36 43 41 36 43 41 36 43 45 40 47 45 40 47 45 40 47 45 40 47 45 40 47 45 40 47 45 40 47 48 38 46 76 56 65 77 54 62 75 52 60 72 49 57 70 47 55 67 44 52 65 42 50 64 41 49 65 42 50 66 43 51 68 45 53 71 48 56 73 50 58 76 53 61 78 55 63 79 56 64 80 54 67 78 54 67 78 54 67 76 56 67 76 56 67 73 57 67 71 58 67 69 59 67 45 40 46 42 41 46 41 42 46 38 43 46 38 43 46 35 45 46 35 45 46 39 43 46 53 40 47 59 38 47 59 38 47 59 38 47 59 38 47 59 38 47 59 38 47 59 38 47 56 35 44 57 36 45 59 38 47 62 41 50 66 45 54 69 48 57 72 51 60 70 53 59 74 65 68 73 69 68 77 73 72 83 79 78 89 85 84 95 91 90 99 95 94 102 98 97 93 89 88 93 89 88 93 89 88 93 89 88 93 89 88 93 89 88 93 89 88 91 89 90 91 90 95 90 91 96 90 91 96 90 91 96 90 91 96 90 91 96 90 91 96 90 91 96 98 99 104 98 99 104 98 99 104 98 99 104 98 99 104 98 99 104 98 99 104 99 99 101 113 104 105 112 102 100 110 100 98 107 97 95 103 93 91 100 90 88 98 88 86 96 86 84 92 82 80 92 82 80 92 82 80 92 82 80 92 82 80 92 82 80 92 82 80 93 82 80 112 92 91 112 91 90 110 89 88 107 86 85 105 84 83 102 81 80 100 79 78 99 78 77 99 78 77 97 76 75 95 74 73 92 71 70 88 67 66 85 64 63 83 62 61 83 59 59 94 62 63 98 64 65 100 66 67 103 69 70 107 73 74 110 76 77 112 78 79 114 80 81 114 80 81 112 78 79 110 76 77 107 73 74 103 69 70 100 66 67 98 64 65 99 60 65 101 53 67 101 50 67 99 48 65 93 46 62 89 42 58 83 41 55 80 39 53 75 39 51 61 29 40 58 31 40
65 51 51 65 51 51 65 51 51 65 51 51 66 50 51 65 44 49 66 43 49 66 43 49 66 43 49 66 43 49 66 43 49 66 43 49 66 43 49 79 56 62 77 54 60 75 52 58 72 49 55 68 45 51 65 42 48 63 40 46 60 39 44 49 32 40 48 33 40 48 33 40 48 33 40 48 33 40 48 33 40 48 33 40 48 33 40 47 32 39 47 32 39 47 32 39 47 32 39 47 32 39 47 32 39 47 32 39 45 32 39 39 32 39 38 33 39 38 33 39 38 33 39 38 33 39 38 33 39 38 33 39 38 33 39 34 29 35 34 29 35 34 29 35 34 29 35 34 29 35 34 29 35 34 29 35 34 29 35 41 36 43 41 36 43 41 36 43 41 36 43 41 36 43 41 36 43 41 36 43 41 36 43 45 40 47 45 40 47 45 40 47 45 40 47 45 40 47 45 40 47 45 40 47 48 38 46 71 51 60 73 50 58 72 49 57 71 48 56 71 48 56 70 47 55 69 46 54 69 46 54 70 47 55 70 47 55 71 48 56 72 49 57 72 49 57 73 50 58 74 51 59 74 51 59 73 47 60 71 47 60 71 47 60 69 49 60 69 49 60 66 50 60 64 51 60 62 52 60 45 40 46 42 41 46 41 42 46 38 43 46 38 43 46 35 45 46 35 45 46 39 43 46 53 40 47 59 38 47 59 38 47 59 38 47 59 38 47 59 38 47 59 38 47 59 38 47 62 41 50 63 42 51 66 45 54 69 48 57 72 51 60 75 54 63 78 57 66 76 59 65 79 73 75 77 77 75 81 80 78 84 84 82 89 88 86 93 93 91 97 96 94 97 97 95 91 90 88 90 90 88 91 90 88 90 90 88 91 90 88 90 90 88 91 90 88 90 90 90 90 91 95 90 91 96 90 91 96 90 91 96 90 91 96 90 91 96 90 91 96 90 91 96 98 99 104 98 99 104 98 99 104 98 99 104 98 99 104 98 99 104 98 99 104 99 99 101 113 104 105 112 102 100 110 100 98 107 97 95 103 93 91 100 90 88 98 88 86 96 86 84 89 79 77 89 79 77 89 79 77 89 79 77 89 79 77 89 79 77 89 79 77 90 79 77 107 87 86 108 87 86 107 86 85 106 85 84 106 85 84 105 84 83 104 83 82 104 83 82 102 81 80 101 80 79 98 77 76 95 74 73 92 71 70 88 67 66 86 65 64 87 63 63 94 62 63 98 64 65 100 66 67 103 69 70 107 73 74 110 76 77 112 78 79 114 80 81 114 80 81 112 78 79 110 76 77 107 73 74 103 69 70 100 66 67 98 64 65 99 60 65 101 53 67 101 50 67 99 48 65 93 46 62 89 42 58 83 41 55 80 39 53 75 39 51 61 29 40 58 31 40
65 51 51 65 51 51 65 51 51 65 51 51 66 50 51 65 44 49 66 43 49 66 43 49 66 43 49 66 43 49 66 43 49 66 43 49 66 43 49 79 56 62 77 54 60 75 52 58 72 49 55 68 45 51 65 42 48 63 40 46 60 39 44 49 32 40 48 33 40 48 33 40 48 33 40 48 33 40 48 33 40 48 33 40 48 33 40 47 32 39 47 32 39 47 32 39 47 32 39 47 32 39 47 32 39 47 32 39 45 32 39 39 32 39 38 33 39 38 33 39 38 33 39 38 33 39 38 33 39 38 33 39 38 33 39 34 29 35 34 29 35 34 29 35 34 29 35 34 29 35 34 29 35 34 29 35 34 29 35 41 36 43 41 36 43 41 36 43 41 36 43 41 36 43 41 36 43 41 36 43 41 36 43 45 40 47 45 40 47 45 40 47 45 40 47 45 40 47 45 40 47 45 40 47 48 38 46 67 47 56 69 46 54 70 47 55 71 48 56 71 48 56 72 49 57 73 50 58 73 50 58 74 51 59 74 51 59 73 50 58 72 49 57 72 49 57 71 48 56 70 47 55 70 47 55 67 41 54 65 41 54 65 41 54 63 43 54 63 43 54 60 44 54 58 45 54 56 46 54 45 40 46 42 41 46 41 42 46 38 43 46 38 43 46 35 45 46 35 45 46 39 43 46 53 40 47 59 38 47 59 38 47 59 38 47 59 38 47 59 38 47 59 38 47 59 38 47 69 48 57 70 49 58 73 52 61 76 55 64 79 58 67 82 61 70 85 64 73 82 67 72 86 82 83 83 85 82 86 86 84 87 89 86 91 91 89 92 94 91 95 95 93 95 97 94 90 90 88 89 91 88 90 90 88 89 91 88 90 90 88 89 91 88 90 90 88 89 91 90 90 91 95 90 91 96 90 91 96 90 91 96 90 91 96 90 91 96 90 91 96 90 91 96 98 99 104 98 99 104 98 99 104 98 99 104 98 99 104 98 99 104 98 99 104 99 99 101 113 104 105 112 102 100 110 100 98 107 97 95 103 93 91 100 90 88 98 88 86 96 86 84 85 75 73 85 75 73 85 75 73 85 75 73 85 75 73 85 75 73 85 75 73 86 75 73 103 83 82 104 83 82 105 84 83 106 85 84 106 85 84 107 86 85 108 87 86 108 87 86 105 84 83 104 83 82 102 81 80 98 77 76 95 74 73 92 71 70 89 68 67 90 66 66 94 62 63 98 64 65 100 66 67 103 69 70 107 73 74 110 76 77 112 78 79 114 80 81 114 80 81 112 78 79 110 76 77 107 73 74 103 69 70 100 66 67 98 64 65 99 60 65 101 53 67 101 50 67 99 48 65 93 46 62 89 42 58 83 41 55 80 39 53 75 39 51 61 29 40 58 31 40
65 51 51 65 51 51 65 51 51 65 51 51 66 50 51 65 44 49 66 43 49 66 43 49 66 43 49 66 43 49 66 43 49 66 43 49 66 43 49 79 56 62 77 54 60 75 52 58 72 49 55 68 45 51 65 42 48 63 40 46 60 39 44 49 32 40 48 33 40 48 33 40 48 33 40 48 33 40 48 33 40 48 33 40 48 33 40 47 32 39 47 32 39 47 32 39 47 32 39 47 32 39 47 32 39 47 32 39 45 32 39 39 32 39 38 33 39 38 33 39 38 33 39 38 33 39 38 33 39 38 33 39 38 33 39 34 29 35 34 29 35 34 29 35 34 29 35 34 29 35 34 29 35 34 29 35 34 29 35 41 36 43 41 36 43 41 36 43 41 36 43 41 36 43 41 36 43 41 36 43 41 36 43 45 40 47 45 40 47 45 40 47 45 40 47 45 40 47 45 40 47 45 40 47 48 38 46 62 42 51 65 42 50 67 44 52 70 47 55 72 49 57 75 52 60 77 54 62 78 55 63 79 56 64 78 55 63 76 53 61 73 50 58 71 48 56 68 45 53 66 43 51 65 42 50 60 34 47 58 34 47 58 34 47 56 36 47 56 36 47 53 37 47 51 38 47 49 39 47 45 40 46 42 41 46 41 42 46 38 43 46 38 43 46 35 45 46 35 45 46 39 43 46 53 40 47 59 38 47 59 38 47 59 38 47 59 38 47 59 38 47 59 38 47 59 38 47 75 54 63 76 55 64 79 58 67 82 61 70 86 65 74 89 68 77 91 70 79 88 73 78 92 90 91 88 93 89 91 93 90 90 95 91 92 94 91 91 96 92 93 95 92 92 97 93 89 91 88 87 92 88 89 91 88 87 92 88 89 91 88 87 92 88 89 91 88 89 91 90 90 91 95 90 91 96 90 91 96 90 91 96 90 91 96 90 91 96 90 91 96 90 91 96 98 99 104 98 99 104 98 99 104 98 99 104 98 99 104 98 99 104 98 99 104 99 99 101 113 104 105 112 102 100 110 100 98 107 97 95 103 93 91 100 90 88 98 88 86 96 86 84 82 72 70 82 72 70 82 72 70 82 72 70 82 72 70 82 72 70 82 72 70 83 72 70 98 78 77 100 79 78 102 81 80 105 84 83 107 86 85 110 89 88 112 91 90 113 92 91 109 88 87 107 86 85 105 84 83 102 81 80 98 77 76 95 74 73 93 72 71 93 69 69 94 62 63 98 64 65 100 66 67 103 69 70 107 73 74 110 76 77 112 78 79 114 80 81 114 80 81 112 78 79 110 76 77 107 73 74 103 69 70 100 66 67 98 64 65 99 60 65 101 53 67 101 50 67 99 48 65 93 46 62 89 42 58 83 41 55 80 39 53 75 39 51 61 29 40 58 31 40
65 51 51 65 51 51 65 51 51 65 51 51 66 50 51 65 44 49 66 43 49 66 43 49 66 43 49 66 43 49 66 43 49 66 43 49 66 43 49 79 56 62 77 54 60 75 52 58 72 49 55 68 45 51 65 42 48 63 40 46 60 39 44 49 32 40 48 33 40 48 33 40 48 33 40 48 33 40 48 33 40 48 33 40 48 33 40 47 32 39 47 32 39 47 32 39 47 32 39 47 32 39 47 32 39 47 32 39 45 32 39 39 32 39 38 33 39 38 33 39 38 33 39 38 33 39 38 33 39 38 33 39 38 33 39 34 29 35 34 29 35 34 29 35 34 29 35 34 29 35 34 29 35 34 29 35 34 29 35 41 36 43 41 36 43 41 36 43 41 36 43 41 36 43 41 36 43 41 36 43 41 36 43 45 40 47 45 40 47 45 40 47 45 40 47 45 40 47 45 40 47 45 40 47 48 38 46 59 39 48 62 39 47 65 42 50 69 46 54 73 50 58 77 54 62 80 57 65 81 58 66 82 59 67 81 58 66 78 55 63 74 51 59 70 47 55 66 43 51 63 40 48 62 39 47 55 29 42 53 29 42 53 29 42 51 31 42 51 31 42 48 32 42 46 33 42 44 34 42 45 40 46 42 41 46 41 42 46 38 43 46 38 43 46 35 45 46 35 45 46 39 43 46 53 40 47 59 38 47 59 38 47 59 38 47 59 38 47 59 38 47 59 38 47 59 38 47 80 59 68 81 60 69 84 63 72 87 66 75 90 69 78 94 73 82 96 75 84 93 78 83 98 96 97 93 99 95 93 98 94 92 98 94 92 97 93 90 96 92 91 96 92 90 96 92 87 92 88 86 92 88 87 92 88 86 92 88 87 92 88 86 92 88 87 92 88 87 91 90 90 91 95 90 91 96 90 91 96 90 91 96 90 91 96 90 91 96 90 91 96 90 91 96 98 99 104 98 99 104 98 99 104 98 99 104 98 99 104 98 99 104 98 99 104 99 99 101 113 104 105 112 102 100 110 100 98 107 97 95 103 93 91 100 90 88 98 88 86 96 86 84 80 70 68 80 70 68 80 70 68 80 70 68 80 70 68 80 70 68 80 70 68 81 70 68 95 75 74 97 76 75 100 79 78 104 83 82 108 87 86 112 91 90 115 94 93 116 95 94 111 90 89 110 89 88 107 86 85 104 83 82 101 80 79 97 76 75 95 74 73 96 72 72 94 62 63 98 64 65 100 66 67 103 69 70 107 73 74 110 76 77 112 78 79 114 80 81 114 80 81 112 78 79 110 76 77 107 73 74 103 69 70 100 66 67 98 64 65 99 60 65 101 53 67 101 50 67 99 48 65 93 46 62 89 42 58 83 41 55 80 39 53 75 39 51 61 29 40 58 31 40
65 51 51 65 51 51 65 51 51 65 51 51 66 50 51 65 44 49 66 43 49 66 43 49 66 43 49 66 43 49 66 43 49 66 43 49 66 43 49 79 56 62 77 54 60 75 52 58 72 49 55 68 45 51 65 42 48 63 40 46 60 39 44 49 32 40 48 33 40 49 32 40 48 33 40 49 32 40 48 33 40 49 32 40 48 33 40 48 31 39 47 32 39 48 31 39 47 32 39 48 31 39 47 32 39 48 31 39 47 32 39 42 31 39 41 31 40 41 31 40 41 31 40 39 32 40 39 32 40 39 32 40 38 33 40 34 29 36 32 29 36 32 29 36 32 29 36 31 30 36 31 30 36 31 30 36 31 30 36 39 36 43 39 37 42 41 36 43 39 37 42 41 36 43 39 37 42 41 36 43 39 37 42 45 40 47 43 41 46 45 40 47 43 41 46 45 40 47 43 41 46 45 40 47 46 39 46 55 38 44 59 40 44 63 42 49 67 48 52 72 51 58 76 57 61 80 59 66 81 62 66 83 62 69 80 61 65 78 57 64 72 53 57 69 48 55 63 44 48 61 40 47 59 38 45 50 29 38 50 29 38 49 29 40 47 30 38 47 30 40 46 31 38 44 31 40 42 33 38 46 39 46 43 41 44 42 41 46 41 42 44 41 42 46 39 43 44 38 43 46 42 42 44 53 40 47 56 39 45 58 39 45 56 39 45 58 39 45 56 39 45 58 39 45 56 39 45 82 63 69 81 64 70 85 66 72 87 70 76 92 73 79 93 76 82 98 79 85 94 82 86 101 99 100 98 100 97 98 100 97 96 98 95 95 97 94 94 96 93 93 95 92 92 94 91 89 91 88 89 91 88 89 91 88 89 91 88 89 91 88 89 91 88 89 91 88 89 91 90 91 91 93 91 90 95 91 90 95 91 90 95 91 90 95 91 90 95 91 90 95 91 90 95 99 98 103 99 98 103 99 98 103 99 98 103 99 98 103 99 98 103 99 98 103 100 98 101 113 105 103 112 102 100 111 100 98 107 97 95 104 93 91 100 90 88 99 88 86 96 86 84 79 68 66 78 68 66 79 68 66 78 68 66 79 68 66 78 68 66 79 68 66 81 67 66 93 73 72 96 75 74 99 78 77 104 83 82 108 87 86 113 92 91 116 95 94 118 97 96 112 91 90 111 90 89 109 88 87 105 84 83 102 81 80 99 78 77 96 75 74 97 73 73 92 63 65 95 65 65 97 67 69 100 70 70 105 73 76 108 76 77 110 78 81 114 80 81 114 79 83 113 77 79 111 75 79 108 72 74 106 67 72 103 64 67 101 62 67 100 59 67 101 53 67 99 51 67 97 49 65 91 47 62 87 43 58 82 41 55 78 40 53 73 40 51 60 30 40 57 31 40
70 56 56 70 56 56 70 56 56 70 56 56 71 55 56 69 46 52 71 46 52 71 46 52 71 46 52 71 46 52 71 46 52 71 46 52 71 46 52 75 50 56 73 48 54 71 46 52 68 43 49 64 39 45 61 36 42 59 34 40 55 32 38 50 30 39 48 31 39 50 30 39 48 31 39 50 30 39 48 31 39 50 30 39 48 31 39 34 14 23 33 16 24 37 17 26 39 22 30 44 24 33 45 28 36 50 30 39 51 31 42 54 34 46 52 34 48 52 34 48 51 35 48 49 35 48 48 36 48 47 37 48 45 37 48 44 41 50 43 42 50 42 42 50 40 43 50 39 44 50 37 44 50 37 44 50 39 44 50 34 35 39 36 36 38 40 38 43 42 42 44 46 44 49 49 49 51 52 50 55 52 52 54 51 49 54 49 49 51 48 46 51 45 45 47 44 42 47 41 41 43 41 39 44 42 37 41 57 47 48 60 48 48 67 52 55 72 60 60 80 65 68 85 73 73 92 77 80 92 80 80 98 83 86 94 82 82 91 76 79 82 70 70 78 63 66 69 57 57 66 51 54 64 49 52 58 43 48 58 43 48 56 43 50 56 44 48 56 43 50 56 44 48 55 44 50 55 44 48 44 35 40 44 35 38 42 36 40 42 36 38 42 36 40 42 36 38 41 36 40 42 36 38 59 49 50 60 50 51 63 51 53 66 56 57 70 58 60 72 62 63 76 64 66 76 66 67 99 87 89 98 88 89 99 87 89 98 88 89 99 87 89 98 88 89 99 87 89 98 88 89 100 94 96 99 95 96 99 95 96 99 95 96 99 95 96 99 95 96 99 95 96 99 95 96 95 91 92 95 91 92 95 91 92 95 91 92 95 91 92 95 91 92 95 91 92 95 91 92 97 93 94 95 93 94 95 93 94 95 93 94 95 93 94 95 93 94 95 93 94 95 93 94 100 98 99 100 98 99 100 98 99 100 98 99 100 98 99 100 98 99 100 98 99 103 97 97 118 108 106 116 105 101 112 98 95 102 91 87 96 82 79 86 75 71 82 68 65 77 66 62 83 69 66 81 70 66 83 69 66 81 70 66 83 69 66 81 70 66 83 69 66 84 69 66 86 66 65 89 65 65 89 65 65 89 65 65 89 65 65 89 65 65 89 65 65 89 65 65 104 80 80 105 81 81 108 84 84 111 87 87 114 90 90 118 94 94 120 96 96 119 98 97 107 86 85 107 86 85 107 85 87 109 85 85 110 84 87 112 83 85 113 82 87 114 82 85 107 70 77 109 70 75 110 69 77 111 68 75 113 67 77 114 67 75 114 67 77 114 66 78 108 61 77 104 60 77 99 55 72 90 49 65 84 43 59 74 38 52 67 33 47 63 33 45 52 26 37 51 30 39
70 56 56 70 56 56 70 56 56 70 56 56 71 55 56 69 46 52 71 46 52 71 46 52 71 46 52 71 46 52 71 46 52 71 46 52 71 46 52 75 50 56 73 48 54 71 46 52 68 43 49 64 39 45 61 36 42 59 34 40 55 32 38 51 30 39 50 30 39 50 30 39 50 30 39 50 30 39 50 30 39 50 30 39 50 30 39 35 15 24 36 16 25 39 19 28 42 22 31 45 25 34 49 29 38 51 31 40 52 32 43 58 34 50 57 34 52 57 34 52 54 36 52 54 36 52 51 37 52 50 38 52 47 39 52 44 41 52 42 42 52 40 43 52 37 44 52 37 44 52 35 46 52 35 46 52 36 45 50 35 39 42 39 39 41 41 41 43 45 45 47 48 48 50 51 51 53 54 54 56 55 55 57 53 53 55 52 52 54 50 50 52 47 47 49 44 44 46 42 42 44 40 40 42 40 38 39 56 47 48 59 49 48 64 54 53 71 61 60 77 67 66 84 74 73 89 79 78 91 81 80 95 85 84 93 83 82 88 78 77 81 71 70 75 65 64 68 58 57 63 53 52 61 51 50 55 44 48 55 44 48 55 44 48 55 44 48 55 44 48 55 44 48 55 44 48 55 44 48 47 36 40 47 36 40 47 36 40 47 36 40 47 36 40 47 36 40 47 36 40 47 37 38 59 50 51 60 52 50 63 55 53 66 58 56 69 61 59 73 65 63 75 67 65 76 68 66 97 89 87 97 89 87 97 89 87 97 89 87 97 89 87 97 89 87 97 89 87 97 89 87 100 91 94 100 91 94 100 91 94 100 91 94 100 91 94 100 91 94 100 91 94 100 91 94 98 89 92 98 89 92 98 89 92 98 89 92 98 89 92 98 89 92 98 89 92 96 90 92 98 92 92 97 93 92 97 93 92 97 93 92 97 93 92 97 93 92 97 93 92 97 93 92 102 98 97 102 98 97 102 98 97 102 98 97 102 98 97 102 98 97 102 98 97 103 98 95 117 106 104 116 102 99 111 97 94 104 90 87 96 82 79 89 75 72 84 70 67 81 67 64 83 69 66 83 69 66 83 69 66 83 69 66 83 69 66 83 69 66 83 69 66 84 69 66 87 66 65 89 65 65 89 65 65 89 65 65 89 65 65 89 65 65 89 65 65 89 65 65 103 79 79 104 80 80 106 82 82 110 86 86 113 89 89 116 92 92 119 95 95 118 97 96 105 87 87 103 87 87 106 86 87 106 86 87 109 84 87 110 84 87 112 83 87 114 82 87 107 70 77 110 69 77 111 68 77 113 67 77 116 66 77 116 66 77 118 64 77 117 65 78 108 61 77 103 60 77 98 55 72 88 50 65 82 44 59 72 38 52 66 34 47 61 33 45 50 27 37 50 30 39
70 56 56 70 56 56 70 56 56 70 56 56 71 55 56 69 46 52 71 46 52 71 46 52 71 46 52 71 46 52 71 46 52 71 46 52 71 46 52 75 50 56 73 48 54 71 46 52 68 43 49 64 39 45 61 36 42 59 34 40 55 32 38 51 30 39 50 30 39 50 30 39 50 30 39 50 30 39 50 30 39 50 30 39 50 30 39 37 17 26 39 19 28 41 21 30 44 24 33 48 28 37 51 31 40 53 33 42 55 35 46 60 36 52 59 36 54 59 36 54 56 38 54 56 38 54 53 39 54 52 40 54 49 41 54 44 41 52 42 42 52 40 43 52 37 44 52 37 44 52 35 46 52 35 46 52 36 45 50 40 44 47 44 44 46 46 46 48 49 49 51 53 53 55 56 56 58 59 59 61 60 60 62 59 59 61 57 57 59 54 54 56 50 50 52 46 46 48 42 42 44 39 39 41 39 37 38 56 47 48 59 49 48 64 54 53 71 61 60 77 67 66 84 74 73 89 79 78 91 81 80 95 85 84 93 83 82 88 78 77 81 71 70 75 65 64 68 58 57 63 53 52 61 51 50 55 44 48 55 44 48 55 44 48 55 44 48 55 44 48 55 44 48 55 44 48 55 44 48 52 41 45 52 41 45 52 41 45 52 41 45 52 41 45 52 41 45 52 41 45 52 42 43 61 52 53 63 55 53 65 57 55 68 60 58 72 64 62 75 67 65 77 69 67 79 71 69 97 89 87 97 89 87 97 89 87 97 89 87 97 89 87 97 89 87 97 89 87 97 89 87 98 89 92 98 89 92 98 89 92 98 89 92 98 89 92 98 89 92 98 89 92 98 89 92 98 89 92 98 89 92 98 89 92 98 89 92 98 89 92 98 89 92 98 89 92 96 90 92 98 92 92 97 93 92 97 93 92 97 93 92 97 93 92 97 93 92 97 93 92 97 93 92 102 98 97 102 98 97 102 98 97 102 98 97 102 98 97 102 98 97 102 98 97 103 98 95 113 102 100 113 99 96 109 95 92 103 89 86 97 83 80 91 77 74 87 73 70 85 71 68 83 69 66 83 69 66 83 69 66 83 69 66 83 69 66 83 69 66 83 69 66 84 69 66 87 66 65 89 65 65 89 65 65 89 65 65 89 65 65 89 65 65 89 65 65 89 65 65 100 76 76 102 78 78 104 80 80 107 83 83 111 87 87 114 90 90 116 92 92 116 95 94 105 87 87 103 87 87 106 86 87 106 86 87 109 84 87 110 84 87 112 83 87 114 82 87 107 70 77 110 69 77 111 68 77 113 67 77 116 66 77 116 66 77 118 64 77 117 65 78 108 61 77 103 60 77 98 55 72 88 50 65 82 44 59 72 38 52 66 34 47 61 33 45 50 27 37 50 30 39
70 56 56 70 56 56 70 56 56 70 56 56 71 55 56 69 46 52 71 46 52 71 46 52 71 46 52 71 46 52 71 46 52 71 46 52 71 46 52 75 50 56 73 48 54 71 46 52 68 43 49 64 39 45 61 36 42 59 34 40 55 32 38 51 30 39 50 30 39 50 30 39 50 30 39 50 30 39 50 30 39 50 30 39 50 30 39 41 21 30 42 22 31 44 24 33 48 28 37 51 31 40 54 34 43 57 37 46 58 38 49 63 39 55 62 39 57 62 39 57 59 41 57 59 41 57 56 42 57 55 43 57 52 44 57 44 41 52 42 42 52 40 43 52 37 44 52 37 44 52 35 46 52 35 46 52 36 45 50 46 50 53 50 50 52 53 53 55 56 56 58 59 59 61 62 62 64 65 65 67 66 66 68 66 66 68 64 64 66 60 60 62 54 54 56 48 48 50 43 43 45 39 39 41 37 35 36 56 47 48 59 49 48 64 54 53 71 61 60 77 67 66 84 74 73 89 79 78 91 81 80 95 85 84 93 83 82 88 78 77 81 71 70 75 65 64 68 58 57 63 53 52 61 51 50 55 44 48 55 44 48 55 44 48 55 44 48 55 44 48 55 44 48 55 44 48 55 44 48 59 48 52 59 48 52 59 48 52 59 48 52 59 48 52 59 48 52 59 48 52 59 49 50 65 56 57 66 58 56 68 60 58 72 64 62 75 67 65 78 70 68 81 73 71 82 74 72 97 89 87 97 89 87 97 89 87 97 89 87 97 89 87 97 89 87 97 89 87 97 89 87 95 86 89 95 86 89 95 86 89 95 86 89 95 86 89 95 86 89 95 86 89 95 86 89 98 89 92 98 89 92 98 89 92 98 89 92 98 89 92 98 89 92 98 89 92 96 90 92 98 92 92 97 93 92 97 93 92 97 93 92 97 93 92 97 93 92 97 93 92 97 93 92 102 98 97 102 98 97 102 98 97 102 98 97 102 98 97 102 98 97 102 98 97 103 98 95 109 98 96 109 95 92 106 92 89 102 88 85 98 84 81 94 80 77 91 77 74 89 75 72 83 69 66 83 69 66 83 69 66 83 69 66 83 69 66 83 69 66 83 69 66 84 69 66 87 66 65 89 65 65 89 65 65 89 65 65 89 65 65 89 65 65 89 65 65 89 65 65 97 73 73 98 74 74 101 77 77 104 80 80 107 83 83 111 87 87 113 89 89 112 91 90 105 87 87 103 87 87 106 86 87 106 86 87 109 84 87 110 84 87 112 83 87 114 82 87 107 70 77 110 69 77 111 68 77 113 67 77 116 66 77 116 66 77 118 64 77 117 65 78 108 61 77 103 60 77 98 55 72 88 50 65 82 44 59 72 38 52 66 34 47 61 33 45 50 27 37 50 30 39
70 56 56 70 56 56 70 56 56 70 56 56 71 55 56 69 46 52 71 46 52 71 46 52 71 46 52 71 46 52 71 46 52 71 46 52 71 46 52 75 50 56 73 48 54 71 46 52 68 43 49 64 39 45 61 36 42 59 34 40 55 32 38 51 30 39 50 30 39 50 30 39 50 30 39 50 30 39 50 30 39 50 30 39 50 30 39 44 24 33 45 25 34 48 28 37 51 31 40 54 34 43 58 38 47 60 40 49 61 41 52 67 43 59 66 43 61 66 43 61 63 45 61 63 45 61 60 46 61 59 47 61 56 48 61 44 41 52 42 42 52 40 43 52 37 44 52 37 44 52 35 46 52 35 46 52 36 45 50 53 57 60 57 57 59 60 60 62 63 63 65 66 66 68 69 69 71 72 72 74 73 73 75 74 74 76 71 71 73 66 66 68 59 59 61 51 51 53 44 44 46 38 38 40 36 34 35 56 47 48 59 49 48 64 54 53 71 61 60 77 67 66 84 74 73 89 79 78 91 81 80 95 85 84 93 83 82 88 78 77 81 71 70 75 65 64 68 58 57 63 53 52 61 51 50 55 44 48 55 44 48 55 44 48 55 44 48 55 44 48 55 44 48 55 44 48 55 44 48 65 54 58 65 54 58 65 54 58 65 54 58 65 54 58 65 54 58 65 54 58 65 55 56 68 59 60 69 61 59 72 64 62 75 67 65 78 70 68 82 74 72 84 76 74 85 77 75 97 89 87 97 89 87 97 89 87 97 89 87 97 89 87 97 89 87 97 89 87 97 89 87 91 82 85 91 82 85 91 82 85 91 82 85 91 82 85 91 82 85 91 82 85 91 82 85 98 89 92 98 89 92 98 89 92 98 89 92 98 89 92 98 89 92 98 89 92 96 90 92 98 92 92 97 93 92 97 93 92 97 93 92 97 93 92 97 93 92 97 93 92 97 93 92 102 98 97 102 98 97 102 98 97 102 98 97 102 98 97 102 98 97 102 98 97 103 98 95 104 93 91 105 91 88 104 90 87 101 87 84 99 85 82 96 82 79 95 81 78 94 80 77 83 69 66 83 69 66 83 69 66 83 69 66 83 69 66 83 69 66 83 69 66 84 69 66 87 66 65 89 65 65 89 65 65 89 65 65 89 65 65 89 65 65 89 65 65 89 65 65 94 70 70 95 71 71 97 73 73 101 77 77 104 80 80 107 83 83 110 86 86 109 88 87 105 87 87 103 87 87 106 86 87 106 86 87 109 84 87 110 84 87 112 83 87 114 82 87 107 70 77 110 69 77 111 68 77 113 67 77 116 66 77 116 66 77 118 64 77 117 65 78 108 61 77 103 60 77 98 55 72 88 50 65 82 44 59 72 38 52 66 34 47 61 33 45 50 27 37 50 30 39
70 56 56 70 56 56 70 56 56 70 56 56 71 55 56 69 46 52 71 46 52 71 46 52 71 46 52 71 46 52 71 46 52 71 46 52 71 46 52 75 50 56 73 48 54 71 46 52 68 43 49 64 39 45 61 36 42 59 34 40 55 32 38 51 30 39 50 30 39 50 30 39 50 30 39 50 30 39 50 30 39 50 30 39 50 30 39 47 27 36 49 29 38 51 31 40 54 34 43 58 38 47 61 41 50 63 43 52 65 45 56 70 46 62 69 46 64 69 46 64 66 48 64 66 48 64 63 49 64 62 50 64 59 51 64 44 41 52 42 42 52 40 43 52 37 44 52 37 44 52 35 46 52 35 46 52 36 45 50 59 63 66 63 63 65 66 66 68 69 69 71 73 73 75 76 76 78 78 78 80 79 79 81 82 82 84 78 78 80 72 72 74 63 63 65 53 53 55 44 44 46 37 37 39 35 33 34 56 47 48 59 49 48 64 54 53 71 61 60 77 67 66 84 74 73 89 79 78 91 81 80 95 85 84 93 83 82 88 78 77 81 71 70 75 65 64 68 58 57 63 53 52 61 51 50 55 44 48 55 44 48 55 44 48 55 44 48 55 44 48 55 44 48 55 44 48 55 44 48 72 61 65 72 61 65 72 61 65 72 61 65 72 61 65 72 61 65 72 61 65 72 62 63 71 62 63 73 65 63 75 67 65 78 70 68 82 74 72 85 77 75 87 79 77 89 81 79 97 89 87 97 89 87 97 89 87 97 89 87 97 89 87 97 89 87 97 89 87 97 89 87 88 79 82 88 79 82 88 79 82 88 79 82 88 79 82 88 79 82 88 79 82 88 79 82 98 89 92 98 89 92 98 89 92 98 89 92 98 89 92 98 89 92 98 89 92 96 90 92 98 92 92 97 93 92 97 93 92 97 93 92 97 93 92 97 93 92 97 93 92 97 93 92 102 98 97 102 98 97 102 98 97 102 98 97 102 98 97 102 98 97 102 98 97 103 98 95 100 89 87 102 88 85 101 87 84 100 86 83 100 86 83 99 85 82 98 84 81 98 84 81 83 69 66 83 69 66 83 69 66 83 69 66 83 69 66 83 69 66 83 69 66 84 69 66 87 66 65 89 65 65 89 65 65 89 65 65 89 65 65 89 65 65 89 65 65 89 65 65 90 66 66 92 68 68 94 70 70 97 73 73 101 77 77 104 80 80 106 82 82 106 85 84 105 87 87 103 87 87 106 86 87 106 86 87 109 84 87 110 84 87 112 83 87 114 82 87 107 70 77 110 69 77 111 68 77 113 67 77 116 66 77 116 66 77 118 64 77 117 65 78 108 61 77 103 60 77 98 55 72 88 50 65 82 44 59 72 38 52 66 34 47 61 33 45 50 27 37 50 30 39
70 56 56 70 56 56 70 56 56 70 56 56 71 55 56 69 46 52 71 46 52 71 46 52 71 46 52 71 46 52 71 46 52 71 46 52 71 46 52 75 50 56 73 48 54 71 46 52 68 43 49 64 39 45 61 36 42 59 34 40 55 32 38 51 30 39 50 30 39 50 30 39 50 30 39 50 30 39 50 30 39 50 30 39 50 30 39 50 30 39 51 31 40 53 33 42 57 37 46 60 40 49 63 43 52 66 46 55 67 47 58 72 48 64 71 48 66 71 48 66 68 50 66 68 50 66 65 51 66 64 52 66 61 53 66 44 41 52 42 42 52 40 43 52 37 44 52 37 44 52 35 46 52 35 46 52 36 45 50 64 68 71 68 68 70 71 71 73 74 74 76 77 77 79 81 81 83 83 83 85 84 84 86 88 88 90 84 84 86 76 76 78 66 66 68 55 55 57 45 45 47 37 37 39 34 32 33 56 47 48 59 49 48 64 54 53 71 61 60 77 67 66 84 74 73 89 79 78 91 81 80 95 85 84 93 83 82 88 78 77 81 71 70 75 65 64 68 58 57 63 53 52 61 51 50 55 44 48 55 44 48 55 44 48 55 44 48 55 44 48 55 44 48 55 44 48 55 44 48 77 66 70 77 66 70 77 66 70 77 66 70 77 66 70 77 66 70 77 66 70 77 67 68 74 65 66 75 67 65 77 69 67 81 73 71 84 76 74 87 79 77 90 82 80 91 83 81 97 89 87 97 89 87 97 89 87 97 89 87 97 89 87 97 89 87 97 89 87 97 89 87 86 77 80 86 77 80 86 77 80 86 77 80 86 77 80 86 77 80 86 77 80 86 77 80 98 89 92 98 89 92 98 89 92 98 89 92 98 89 92 98 89 92 98 89 92 96 90 92 98 92 92 97 93 92 97 93 92 97 93 92 97 93 92 97 93 92 97 93 92 97 93 92 102 98 97 102 98 97 102 98 97 102 98 97 102 98 97 102 98 97 102 98 97 103 98 95 96 85 83 99 85 82 99 85 82 100 86 83 100 86 83 101 87 84 101 87 84 102 88 85 83 69 66 83 69 66 83 69 66 83 69 66 83 69 66 83 69 66 83 69 66 84 69 66 87 66 65 89 65 65 89 65 65 89 65 65 89 65 65 89 65 65 89 65 65 89 65 65 88 64 64 89 65 65 92 68 68 95 71 71 98 74 74 102 78 78 104 80 80 103 82 81 105 87 87 103 87 87 106 86 87 106 86 87 109 84 87 110 84 87 112 83 87 114 82 87 107 70 77 110 69 77 111 68 77 113 67 77 116 66 77 116 66 77 118 64 77 117 65 78 108 61 77 103 60 77 98 55 72 88 50 65 82 44 59 72 38 52 66 34 47 61 33 45 50 27 37 50 30 39
70 56 56 70 56 56 70 56 56 70 56 56 71 55 56 69 46 52 71 46 52 71 46 52 71 46 52 71 46 52 71 46 52 71 46 52 71 46 52 75 50 56 73 48 54 71 46 52 68 43 49 64 39 45 61 36 42 59 34 40 55 32 38 51 30 39 50 30 39 50 30 39 50 30 39 50 30 39 50 30 39 50 30 39 50 30 39 51 31 40 52 32 41 55 35 44 58 38 47 61 41 50 65 45 54 67 47 56 68 48 59 74 50 66 73 50 68 73 50 68 70 52 68 70 52 68 67 53 68 66 54 68 63 55 68 44 41 52 42 42 52 40 43 52 37 44 52 37 44 52 35 46 52 35 46 52 36 45 50 67 71 74 71 71 73 73 73 75 77 77 79 80 80 82 83 83 85 86 86 88 87 87 89 91 91 93 87 87 89 78 78 80 67 67 69 56 56 58 45 45 47 37 37 39 33 31 32 56 47 48 59 49 48 64 54 53 71 61 60 77 67 66 84 74 73 89 79 78 91 81 80 95 85 84 93 83 82 88 78 77 81 71 70 75 65 64 68 58 57 63 53 52 61 51 50 55 44 48 55 44 48 55 44 48 55 44 48 55 44 48 55 44 48 55 44 48 55 44 48 79 68 72 79 68 72 79 68 72 79 68 72 79 68 72 79 68 72 79 68 72 79 69 70 75 66 67 76 68 66 79 71 69 82 74 72 85 77 75 89 81 79 91 83 81 92 84 82 97 89 87 97 89 87 97 89 87 97 89 87 97 89 87 97 89 87 97 89 87 97 89 87 84 75 78 84 75 78 84 75 78 84 75 78 84 75 78 84 75 78 84 75 78 84 75 78 98 89 92 98 89 92 98 89 92 98 89 92 98 89 92 98 89 92 98 89 92 96 90 92 98 92 92 97 93 92 97 93 92 97 93 92 97 93 92 97 93 92 97 93 92 97 93 92 102 98 97 102 98 97 102 98 97 102 98 97 102 98 97 102 98 97 102 98 97 103 98 95 95 84 82 97 83 80 98 84 81 99 85 82 101 87 84 102 88 85 103 89 86 103 89 86 83 69 66 83 69 66 83 69 66 83 69 66 83 69 66 83 69 66 83 69 66 84 69 66 87 66 65 89 65 65 89 65 65 89 65 65 89 65 65 89 65 65 89 65 65 89 65 65 87 63 63 88 64 64 90 66 66 94 70 70 97 73 73 100 76 76 103 79 79 102 81 80 105 87 87 103 87 87 106 86 87 106 86 87 109 84 87 110 84 87 112 83 87 114 82 87 107 70 77 110 69 77 111 68 77 113 67 77 116 66 77 116 66 77 118 64 77 117 65 78 108 61 77 103 60 77 98 55 72 88 50 65 82 44 59 72 38 52 66 34 47 61 33 45 50 27 37 50 30 39
81 67 67 77 63 63 74 60 60 72 58 58 71 55 56 74 51 57 76 51 57 76 51 57 76 51 57 76 51 57 76 51 57 76 51 57 76 51 57 74 49 55 72 47 53 70 45 51 67 42 48 63 38 44 60 35 41 58 33 39 54 31 37 42 21 30 42 22 31 44 24 33 48 28 37 51 31 40 54 34 43 57 37 46 58 38 47 67 47 56 67 47 56 67 47 56 67 47 56 67 47 56 67 47 56 67 47 56 67 47 58 79 55 71 76 53 71 74 51 69 68 50 66 64 46 62 58 44 59 55 43 57 50 42 55 36 33 44 37 37 47 40 43 52 43 50 58 50 57 65 54 65 71 59 70 76 63 72 77 83 87 90 86 86 88 86 86 88 86 86 88 86 86 88 86 86 88 86 86 88 86 86 88 95 95 97 91 91 93 84 84 86 74 74 76 64 64 66 54 54 56 47 47 49 44 42 43 53 44 45 57 47 46 63 53 52 70 60 59 78 68 67 86 76 75 92 82 81 95 85 84 94 84 83 91 81 80 85 75 74 78 68 67 70 60 59 62 52 51 56 46 45 53 43 42 50 39 43 52 41 45 54 43 47 57 46 50 61 50 54 64 53 57 66 55 59 68 57 61 85 74 78 85 74 78 85 74 78 85 74 78 85 74 78 85 74 78 85 74 78 85 75 76 86 77 78 88 80 78 90 82 80 93 85 83 97 89 87 100 92 90 102 94 92 104 96 94 102 94 92 102 94 92 102 94 92 102 94 92 102 94 92 102 94 92 102 94 92 102 94 92 94 85 88 87 78 81 77 68 71 68 59 62 65 56 59 67 58 61 73 64 67 77 68 71 98 89 92 98 89 92 98 89 92 98 89 92 98 89 92 98 89 92 98 89 92 96 90 92 101 95 95 100 96 95 100 96 95 100 96 95 100 96 95 100 96 95 100 96 95 100 96 95 102 98 97 102 98 97 102 98 97 102 98 97 102 98 97 102 98 97 102 98 97 103 98 95 90 79 77 92 78 75 92 78 75 92 78 75 92 78 75 92 78 75 92 78 75 92 78 75 101 87 84 101 87 84 100 86 83 99 85 82 97 83 80 96 82 79 95 81 78 96 81 78 100 79 78 102 78 78 102 78 78 102 78 78 102 78 78 102 78 78 102 78 78 102 78 78 91 67 67 91 67 67 91 67 67 91 67 67 91 67 67 91 67 67 91 67 67 89 68 67 113 95 95 109 93 93 110 90 91 107 87 88 106 81 84 104 78 81 104 75 79 104 72 77 107 70 77 110 69 77 111 68 77 113 67 77 116 66 77 116 66 77 118 64 77 117 65 78 105 58 74 100 57 74 95 52 69 85 47 62 79 41 56 69 35 49 63 31 44 58 30 42 60 37 47 58 38 47
81 67 67 77 63 63 74 60 60 72 58 58 71 55 56 74 51 57 76 51 57 76 51 57 76 51 57 76 51 57 76 51 57 76 51 57 76 51 57 74 49 55 72 47 53 70 45 51 67 42 48 63 38 44 60 35 41 58 33 39 54 31 37 43 22 31 43 23 32 46 26 35 49 29 38 52 32 41 56 36 45 58 38 47 59 39 48 69 49 58 69 49 58 69 49 58 69 49 58 69 49 58 69 49 58 69 49 58 69 49 60 79 55 71 76 53 71 74 51 69 68 50 66 64 46 62 58 44 59 55 43 57 50 42 55 37 34 45 38 38 48 41 44 53 44 51 59 51 58 66 55 66 72 60 71 77 64 73 78 83 87 90 86 86 88 86 86 88 86 86 88 86 86 88 86 86 88 86 86 88 86 86 88 95 95 97 91 91 93 84 84 86 74 74 76 64 64 66 54 54 56 47 47 49 44 42 43 52 43 44 56 46 45 61 51 50 68 58 57 75 65 64 82 72 71 88 78 77 91 81 80 91 81 80 88 78 77 83 73 72 76 66 65 69 59 58 62 52 51 56 46 45 53 43 42 50 39 43 52 41 45 54 43 47 57 46 50 61 50 54 64 53 57 66 55 59 68 57 61 83 72 76 83 72 76 83 72 76 83 72 76 83 72 76 83 72 76 83 72 76 83 73 74 86 77 78 88 80 78 90 82 80 93 85 83 97 89 87 100 92 90 102 94 92 104 96 94 102 94 92 102 94 92 102 94 92 102 94 92 102 94 92 102 94 92 102 94 92 102 94 92 94 85 88 87 78 81 77 68 71 68 59 62 65 56 59 67 58 61 73 64 67 77 68 71 98 89 92 98 89 92 98 89 92 98 89 92 98 89 92 98 89 92 98 89 92 96 90 92 101 95 95 100 96 95 100 96 95 100 96 95 100 96 95 100 96 95 100 96 95 100 96 95 102 98 97 102 98 97 102 98 97 102 98 97 102 98 97 102 98 97 102 98 97 103 98 95 90 79 77 92 78 75 92 78 75 92 78 75 92 78 75 92 78 75 92 78 75 92 78 75 100 86 83 99 85 82 99 85 82 98 84 81 98 84 81 97 83 80 97 83 80 97 82 79 102 81 80 104 80 80 104 80 80 104 80 80 104 80 80 104 80 80 104 80 80 104 80 80 93 69 69 93 69 69 93 69 69 93 69 69 93 69 69 93 69 69 93 69 69 91 70 69 113 95 95 109 93 93 110 90 91 107 87 88 106 81 84 104 78 81 104 75 79 104 72 77 107 70 77 110 69 77 111 68 77 113 67 77 116 66 77 116 66 77 118 64 77 117 65 78 105 58 74 100 57 74 95 52 69 85 47 62 79 41 56 69 35 49 63 31 44 58 30 42 60 37 47 58 38 47
81 67 67 77 63 63 74 60 60 72 58 58 71 55 56 74 51 57 76 51 57 76 51 57 76 51 57 76 51 57 76 51 57 76 51 57 76 51 57 74 49 55 72 47 53 70 45 51 67 42 48 63 38 44 60 35 41 58 33 39 54 31 37 45 24 33 46 26 35 48 28 37 51 31 40 55 35 44 58 38 47 60 40 49 62 42 51 71 51 60 71 51 60 71 51 60 71 51 60 71 51 60 71 51 60 71 51 60 71 51 62 79 55 71 76 53 71 74 51 69 68 50 66 64 46 62 58 44 59 55 43 57 50 42 55 40 37 48 40 40 50 43 46 55 47 54 62 54 61 69 58 69 75 63 74 80 66 75 80 83 87 90 86 86 88 86 86 88 86 86 88 86 86 88 86 86 88 86 86 88 86 86 88 95 95 97 91 91 93 84 84 86 74 74 76 64 64 66 54 54 56 47 47 49 44 42 43 50 41 42 54 44 43 58 48 47 64 54 53 70 60 59 76 66 65 80 70 69 82 72 71 85 75 74 83 73 72 79 69 68 73 63 62 67 57 56 61 51 50 57 47 46 54 44 43 50 39 43 52 41 45 54 43 47 57 46 50 61 50 54 64 53 57 66 55 59 68 57 61 81 70 74 81 70 74 81 70 74 81 70 74 81 70 74 81 70 74 81 70 74 81 71 72 86 77 78 88 80 78 90 82 80 93 85 83 97 89 87 100 92 90 102 94 92 104 96 94 102 94 92 102 94 92 102 94 92 102 94 92 102 94 92 102 94 92 102 94 92 102 94 92 94 85 88 87 78 81 77 68 71 68 59 62 65 56 59 67 58 61 73 64 67 77 68 71 98 89 92 98 89 92 98 89 92 98 89 92 98 89 92 98 89 92 98 89 92 96 90 92 101 95 95 100 96 95 100 96 95 100 96 95 100 96 95 100 96 95 100 96 95 100 96 95 102 98 97 102 98 97 102 98 97 102 98 97 102 98 97 102 98 97 102 98 97 103 98 95 90 79 77 92 78 75 92 78 75 92 78 75 92 78 75 92 78 75 92 78 75 92 78 75 96 82 79 96 82 79 97 83 80 98 84 81 98 84 81 99 85 82 100 86 83 101 86 83 104 83 82 106 82 82 106 82 82 106 82 82 106 82 82 106 82 82 106 82 82 106 82 82 95 71 71 95 71 71 95 71 71 95 71 71 95 71 71 95 71 71 95 71 71 93 72 71 113 95 95 109 93 93 110 90 91 107 87 88 106 81 84 104 78 81 104 75 79 104 72 77 107 70 77 110 69 77 111 68 77 113 67 77 116 66 77 116 66 77 118 64 77 117 65 78 105 58 74 100 57 74 95 52 69 85 47 62 79 41 56 69 35 49 63 31 44 58 30 42 60 37 47 58 38 47
81 67 67 77 63 63 74 60 60 72 58 58 71 55 56 74 51 57 76 51 57 76 51 57 76 51 57 76 51 57 76 51 57 76 51 57 76 51 57 74 49 55 72 47 53 70 45 51 67 42 48 63 38 44 60 35 41 58 33 39 54 31 37 49 28 37 49 29 38 51 31 40 55 35 44 58 38 47 61 41 50 64 44 53 65 45 54 74 54 63 74 54 63 74 54 63 74 54 63 74 54 63 74 54 63 74 54 63 74 54 65 79 55 71 76 53 71 74 51 69 68 50 66 64 46 62 58 44 59 55 43 57 50 42 55 43 40 51 44 44 54 46 49 58 50 57 65 57 64 72 61 72 78 66 77 83 70 79 84 83 87 90 86 86 88 86 86 88 86 86 88 86 86 88 86 86 88 86 86 88 86 86 88 95 95 97 91 91 93 84 84 86 74 74 76 64 64 66 54 54 56 47 47 49 44 42 43 48 39 40 51 41 40 54 44 43 58 48 47 63 53 52 67 57 56 70 60 59 71 61 60 78 68 67 76 66 65 73 63 62 69 59 58 65 55 54 60 50 49 57 47 46 56 46 45 50 39 43 52 41 45 54 43 47 57 46 50 61 50 54 64 53 57 66 55 59 68 57 61 78 67 71 78 67 71 78 67 71 78 67 71 78 67 71 78 67 71 78 67 71 78 68 69 86 77 78 88 80 78 90 82 80 93 85 83 97 89 87 100 92 90 102 94 92 104 96 94 102 94 92 102 94 92 102 94 92 102 94 92 102 94 92 102 94 92 102 94 92 102 94 92 94 85 88 87 78 81 77 68 71 68 59 62 65 56 59 67 58 61 73 64 67 77 68 71 98 89 92 98 89 92 98 89 92 98 89 92 98 89 92 98 89 92 98 89 92 96 90 92 101 95 95 100 96 95 100 96 95 100 96 95 100 96 95 100 96 95 100 96 95 100 96 95 102 98 97 102 98 97 102 98 97 102 98 97 102 98 97 102 98 97 102 98 97 103 98 95 90 79 77 92 78 75 92 78 75 92 78 75 92 78 75 92 78 75 92 78 75 92 78 75 92 78 75 93 79 76 94 80 77 97 83 80 99 85 82 102 88 85 103 89 86 105 90 87 107 86 85 109 85 85 109 85 85 109 85 85 109 85 85 109 85 85 109 85 85 109 85 85 98 74 74 98 74 74 98 74 74 98 74 74 98 74 74 98 74 74 98 74 74 96 75 74 113 95 95 109 93 93 110 90 91 107 87 88 106 81 84 104 78 81 104 75 79 104 72 77 107 70 77 110 69 77 111 68 77 113 67 77 116 66 77 116 66 77 118 64 77 117 65 78 105 58 74 100 57 74 95 52 69 85 47 62 79 41 56 69 35 49 63 31 44 58 30 42 60 37 47 58 38 47
81 67 67 77 63 63 74 60 60 72 58 58 71 55 56 74 51 57 76 51 57 76 51 57 76 51 57 76 51 57 76 51 57 76 51 57 76 51 57 74 49 55 72 47 53 70 45 51 67 42 48 63 38 44 60 35 41 58 33 39 54 31 37 52 31 40 52 32 41 55 35 44 58 38 47 61 41 50 65 45 54 67 47 56 68 48 57 78 58 67 78 58 67 78 58 67 78 58 67 78 58 67 78 58 67 78 58 67 78 58 69 79 55 71 76 53 71 74 51 69 68 50 66 64 46 62 58 44 59 55 43 57 50 42 55 46 43 54 47 47 57 50 53 62 53 60 68 60 67 75 65 76 82 69 80 86 73 82 87 83 87 90 86 86 88 86 86 88 86 86 88 86 86 88 86 86 88 86 86 88 86 86 88 95 95 97 91 91 93 84 84 86 74 74 76 64 64 66 54 54 56 47 47 49 44 42 43 46 37 38 48 38 37 50 40 39 52 42 41 55 45 44 57 47 46 59 49 48 60 50 49 70 60 59 69 59 58 67 57 56 65 55 54 62 52 51 60 50 49 58 48 47 57 47 46 50 39 43 52 41 45 54 43 47 57 46 50 61 50 54 64 53 57 66 55 59 68 57 61 74 63 67 74 63 67 74 63 67 74 63 67 74 63 67 74 63 67 74 63 67 74 64 65 86 77 78 88 80 78 90 82 80 93 85 83 97 89 87 100 92 90 102 94 92 104 96 94 102 94 92 102 94 92 102 94 92 102 94 92 102 94 92 102 94 92 102 94 92 102 94 92 94 85 88 87 78 81 77 68 71 68 59 62 65 56 59 67 58 61 73 64 67 77 68 71 98 89 92 98 89 92 98 89 92 98 89 92 98 89 92 98 89 92 98 89 92 96 90 92 101 95 95 100 96 95 100 96 95 100 96 95 100 96 95 100 96 95 100 96 95 100 96 95 102 98 97 102 98 97 102 98 97 102 98 97 102 98 97 102 98 97 102 98 97 103 98 95 90 79 77 92 78 75 92 78 75 92 78 75 92 78 75 92 78 75 92 78 75 92 78 75 87 73 70 89 75 72 92 78 75 96 82 79 100 86 83 104 90 87 107 93 90 110 95 92 111 90 89 113 89 89 113 89 89 113 89 89 113 89 89 113 89 89 113 89 89 113 89 89 102 78 78 102 78 78 102 78 78 102 78 78 102 78 78 102 78 78 102 78 78 100 79 78 113 95 95 109 93 93 110 90 91 107 87 88 106 81 84 104 78 81 104 75 79 104 72 77 107 70 77 110 69 77 111 68 77 113 67 77 116 66 77 116 66 77 118 64 77 117 65 78 105 58 74 100 57 74 95 52 69 85 47 62 79 41 56 69 35 49 63 31 44 58 30 42 60 37 47 58 38 47
81 67 67 77 63 63 74 60 60 72 58 58 71 55 56 74 51 57 76 51 57 76 51 57 76 51 57 76 51 57 76 51 57 76 51 57 76 51 57 74 49 55 72 47 53 70 45 51 67 42 48 63 38 44 60 35 41 58 33 39 54 31 37 55 34 43 56 36 45 58 38 47 61 41 50 65 45 54 68 48 57 70 50 59 72 52 61 81 61 70 81 61 70 81 61 70 81 61 70 81 61 70 81 61 70 81 61 70 81 61 72 79 55 71 76 53 71 74 51 69 68 50 66 64 46 62 58 44 59 55 43 57 50 42 55 50 47 58 50 50 60 53 56 65 56 63 71 63 70 78 68 79 85 73 84 90 76 85 90 83 87 90 86 86 88 86 86 88 86 86 88 86 86 88 86 86 88 86 86 88 86 86 88 95 95 97 91 91 93 84 84 86 74 74 76 64 64 66 54 54 56 47 47 49 44 42 43 44 35 36 46 36 35 46 36 35 47 37 36 48 38 37 48 38 37 49 39 38 49 39 38 62 52 51 62 52 51 61 51 50 60 50 49 60 50 49 59 49 48 59 49 48 58 48 47 50 39 43 52 41 45 54 43 47 57 46 50 61 50 54 64 53 57 66 55 59 68 57 61 71 60 64 71 60 64 71 60 64 71 60 64 71 60 64 71 60 64 71 60 64 71 61 62 86 77 78 88 80 78 90 82 80 93 85 83 97 89 87 100 92 90 102 94 92 104 96 94 102 94 92 102 94 92 102 94 92 102 94 92 102 94 92 102 94 92 102 94 92 102 94 92 94 85 88 87 78 81 77 68 71 68 59 62 65 56 59 67 58 61 73 64 67 77 68 71 98 89 92 98 89 92 98 89 92 98 89 92 98 89 92 98 89 92 98 89 92 96 90 92 101 95 95 100 96 95 100 96 95 100 96 95 100 96 95 100 96 95 100 96 95 100 96 95 102 98 97 102 98 97 102 98 97 102 98 97 102 98 97 102 98 97 102 98 97 103 98 95 90 79 77 92 78 75 92 78 75 92 78 75 92 78 75 92 78 75 92 78 75 92 78 75 83 69 66 85 71 68 89 75 72 95 81 78 101 87 84 107 93 90 111 97 94 114 99 96 114 93 92 116 92 92 116 92 92 116 92 92 116 92 92 116 92 92 116 92 92 116 92 92 105 81 81 105 81 81 105 81 81 105 81 81 105 81 81 105 81 81 105 81 81 103 82 81 113 95 95 109 93 93 110 90 91 107 87 88 106 81 84 104 78 81 104 75 79 104 72 77 107 70 77 110 69 77 111 68 77 113 67 77 116 66 77 116 66 77 118 64 77 117 65 78 105 58 74 100 57 74 95 52 69 85 47 62 79 41 56 69 35 49 63 31 44 58 30 42 60 37 47 58 38 47
81 67 67 77 63 63 74 60 60 72 58 58 71 55 56 74 51 57 76 51 57 76 51 57 76 51 57 76 51 57 76 51 57 76 51 57 76 51 57 74 49 55 72 47 53 70 45 51 67 42 48 63 38 44 60 35 41 58 33 39 54 31 37 58 37 46 58 38 47 60 40 49 64 44 53 67 47 56 70 50 59 73 53 62 74 54 63 83 63 72 83 63 72 83 63 72 83 63 72 83 63 72 83 63 72 83 63 72 83 63 74 79 55 71 76 53 71 74 51 69 68 50 66 64 46 62 58 44 59 55 43 57 50 42 55 52 49 60 53 53 63 56 59 68 59 66 74 66 73 81 70 81 87 75 86 92 79 88 93 83 87 90 86 86 88 86 86 88 86 86 88 86 86 88 86 86 88 86 86 88 86 86 88 95 95 97 91 91 93 84 84 86 74 74 76 64 64 66 54 54 56 47 47 49 44 42 43 43 34 35 44 34 33 43 33 32 43 33 32 42 32 31 41 31 30 41 31 30 41 31 30 56 46 45 56 46 45 57 47 46 57 47 46 58 48 47 59 49 48 59 49 48 59 49 48 50 39 43 52 41 45 54 43 47 57 46 50 61 50 54 64 53 57 66 55 59 68 57 61 69 58 62 69 58 62 69 58 62 69 58 62 69 58 62 69 58 62 69 58 62 69 59 60 86 77 78 88 80 78 90 82 80 93 85 83 97 89 87 100 92 90 102 94 92 104 96 94 102 94 92 102 94 92 102 94 92 102 94 92 102 94 92 102 94 92 102 94 92 102 94 92 94 85 88 87 78 81 77 68 71 68 59 62 65 56 59 67 58 61 73 64 67 77 68 71 98 89 92 98 89 92 98 89 92 98 89 92 98 89 92 98 89 92 98 89 92 96 90 92 101 95 95 100 96 95 100 96 95 100 96 95 100 96 95 100 96 95 100 96 95 100 96 95 102 98 97 102 98 97 102 98 97 102 98 97 102 98 97 102 98 97 102 98 97 103 98 95 90 79 77 92 78 75 92 78 75 92 78 75 92 78 75 92 78 75 92 78 75 92 78 75 79 65 62 82 68 65 87 73 70 94 80 77 102 88 85 109 95 92 114 100 97 118 103 100 116 95 94 118 94 94 118 94 94 118 94 94 118 94 94 118 94 94 118 94 94 118 94 94 107 83 83 107 83 83 107 83 83 107 83 83 107 83 83 107 83 83 107 83 83 105 84 83 113 95 95 109 93 93 110 90 91 107 87 88 106 81 84 104 78 81 104 75 79 104 72 77 107 70 77 110 69 77 111 68 77 113 67 77 116 66 77 116 66 77 118 64 77 117 65 78 105 58 74 100 57 74 95 52 69 85 47 62 79 41 56 69 35 49 63 31 44 58 30 42 60 37 47 58 38 47
79 67 67 77 63 63 72 60 60 72 58 58 71 55 56 73 52 57 74 51 57 76 51 57 74 51 57 76 51 57 74 51 57 76 51 57 74 51 57 74 49 55 70 47 53 70 45 51 65 42 48 63 38 44 58 35 41 58 33 39 54 31 37 59 38 45 59 40 46 62 43 49 65 46 52 68 49 55 72 53 59 74 55 61 75 56 62 85 66 72 85 66 72 85 66 72 85 66 72 85 66 72 85 66 72 85 66 72 85 65 74 78 56 69 75 54 69 73 52 67 68 50 64 63 47 60 58 44 57 55 43 55 52 42 53 55 49 59 56 53 62 60 59 67 65 65 73 70 73 80 75 80 86 80 85 91 83 88 92 85 86 90 86 86 88 86 85 90 86 86 88 86 85 90 86 86 88 86 85 90 86 86 88 95 94 99 91 91 93 84 83 88 74 74 76 64 63 68 54 54 56 47 46 51 44 42 45 40 34 36 39 33 35 41 32 35 37 31 33 38 29 32 35 29 31 36 27 30 33 27 29 52 43 46 51 45 47 53 44 47 53 47 49 56 47 50 55 49 51 58 49 52 59 50 53 49 40 43 51 42 45 53 44 49 56 47 50 60 51 56 63 54 57 65 56 61 67 58 61 66 57 62 66 57 60 66 57 62 66 57 60 66 57 62 66 57 60 66 57 62 64 58 60 84 78 78 85 81 78 87 83 82 90 86 83 94 90 89 97 93 90 99 95 94 101 97 94 99 95 94 99 95 92 99 95 94 99 95 92 99 95 94 99 95 92 99 95 94 102 93 94 96 84 86 92 75 81 81 66 71 72 57 62 69 54 59 71 56 61 75 63 67 79 67 71 99 88 92 99 88 92 98 89 92 98 89 92 98 89 92 98 89 92 96 90 92 96 90 90 101 96 93 101 96 92 101 96 93 101 96 92 101 96 93 101 96 92 101 96 93 101 96 92 103 98 95 103 98 94 103 98 95 103 98 94 103 98 95 103 98 94 103 98 95 105 97 94 92 78 75 93 78 75 93 78 75 93 78 75 93 78 75 93 78 75 93 78 75 93 78 75 78 63 60 81 66 63 87 72 69 95 80 77 103 88 85 111 96 93 117 102 99 122 104 102 117 97 96 118 97 94 118 97 96 118 97 94 118 97 96 118 97 94 118 97 96 118 97 94 107 86 85 107 86 83 107 86 85 107 86 83 107 86 85 107 86 83 107 86 85 107 86 85 115 93 95 113 91 93 113 88 92 110 85 88 107 80 85 106 77 81 105 74 80 104 72 77 107 70 78 109 69 77 110 68 78 111 68 77 113 67 78 114 67 77 116 66 78 113 67 78 101 60 74 96 60 74 89 55 69 82 48 62 75 43 56 67 37 49 60 32 44 55 32 42 59 38 47 58 38 47
80 70 68 78 67 65 73 63 61 72 61 59 73 59 59 72 53 57 73 52 59 74 51 59 73 52 59 74 51 59 73 52 59 74 51 59 73 52 59 72 49 57 69 48 55 68 45 53 64 43 50 61 38 46 57 36 43 56 33 41 53 32 37 63 44 46 65 46 48 70 51 53 77 58 60 83 64 66 90 71 73 95 76 78 97 78 80 108 89 91 106 87 89 104 85 87 101 82 84 97 78 80 94 75 77 92 73 75 90 71 75 85 68 76 83 67 77 81 65 75 77 61 71 72 59 68 69 56 65 66 53 62 64 53 61 80 69 77 80 70 78 82 72 80 86 76 84 87 80 87 90 83 90 93 86 93 93 88 94 84 82 87 84 82 87 84 81 88 84 82 87 84 81 88 84 82 87 84 81 88 84 82 87 98 95 102 93 91 96 85 82 89 74 72 77 63 60 67 52 50 55 43 40 47 39 36 43 39 36 45 38 37 45 39 36 45 38 37 45 39 36 45 38 37 45 39 36 45 38 37 45 43 40 49 42 41 49 43 40 49 42 41 49 43 40 49 42 41 49 43 40 49 43 40 47 47 45 50 47 45 48 47 45 50 47 45 48 47 45 50 47 45 48 47 45 50 47 45 48 64 62 67 65 63 66 67 65 70 71 69 72 74 72 77 77 75 78 80 78 83 81 79 82 93 95 94 93 95 92 93 95 94 93 95 92 93 95 94 93 95 92 93 95 94 93 95 92 103 105 104 102 104 101 100 102 101 96 98 95 93 95 94 90 92 89 87 89 88 91 85 85 82 59 65 88 57 65 87 57 65 85 58 65 85 58 65 84 59 65 82 59 65 80 61 65 91 75 78 90 78 80 91 81 82 93 84 85 97 88 89 98 92 92 99 95 94 102 97 94 103 96 90 104 95 86 104 95 88 104 95 86 104 95 88 104 95 86 104 95 88 104 95 86 108 99 92 106 97 88 104 95 88 101 92 83 97 88 81 94 85 76 92 83 76 91 80 74 118 103 98 118 100 96 114 96 92 110 92 88 105 87 83 101 83 79 97 79 75 96 78 74 83 65 61 85 67 63 88 70 66 93 75 71 97 79 75 102 84 80 105 87 83 107 89 85 113 94 90 113 94 88 113 94 90 113 94 88 113 94 90 113 94 88 113 94 90 113 94 88 102 83 79 104 85 79 106 87 83 109 90 84 113 94 90 116 97 91 118 99 95 121 100 97 116 87 92 116 83 90 114 81 90 111 78 85 107 74 83 106 71 78 104 68 78 102 67 74 107 69 80 107 70 78 109 69 80 109 69 78 109 69 80 110 68 78 110 68 80 107 69 80 95 68 77 83 62 69 70 49 56 58 37 44 51 30 37 49 30 36 52 33 39 53 36 42 55 38 44 55 38 44
81 71 69 78 68 66 75 65 63 72 62 60 72 60 60 72 53 57 73 52 59 73 52 59 73 52 59 73 52 59 73 52 59 73 52 59 73 52 59 71 50 57 69 48 55 67 46 53 64 43 50 60 39 46 57 36 43 55 34 41 53 32 37 63 44 46 65 47 47 70 52 52 77 59 59 83 65 65 90 72 72 95 77 77 97 79 79 108 90 90 106 88 88 104 86 86 101 83 83 97 79 79 94 76 76 92 74 74 88 72 73 83 68 73 80 67 74 77 64 71 74 61 68 71 58 65 67 54 61 65 52 59 64 51 58 78 65 72 79 66 73 82 69 76 85 72 79 88 75 82 92 79 86 94 81 88 94 83 89 89 84 91 87 84 91 87 84 91 87 84 91 87 84 91 87 84 91 87 84 91 87 84 91 93 90 97 89 86 93 81 78 85 71 68 75 60 57 64 50 47 54 42 39 46 37 36 44 38 36 47 37 37 49 37 37 49 37 37 49 37 37 49 37 37 49 37 37 49 37 37 49 41 41 53 41 41 53 41 41 53 41 41 53 41 41 53 41 41 53 41 41 53 41 41 51 46 45 51 46 45 50 46 45 50 46 45 50 46 45 50 46 45 50 46 45 50 46 45 50 64 63 68 65 64 69 68 67 72 71 70 75 74 73 78 78 77 82 80 79 84 80 81 83 91 95 96 90 96 94 91 95 94 90 96 94 91 95 94 90 96 94 91 95 94 90 96 94 100 104 103 98 104 102 96 100 99 92 98 96 90 94 93 85 91 89 84 88 87 90 84 86 87 57 65 92 54 65 92 54 65 89 56 65 89 56 65 87 57 65 85 58 65 82 59 65 93 74 78 92 77 80 92 80 82 93 84 85 97 88 89 97 93 92 99 95 94 101 98 93 104 95 88 105 95 85 105 95 85 105 95 85 105 95 85 105 95 85 105 95 85 105 95 85 109 99 89 107 97 87 105 95 85 102 92 82 98 88 78 95 85 75 93 83 73 93 80 71 117 99 95 116 97 93 113 94 90 109 90 86 105 86 82 102 83 79 99 80 76 97 78 74 86 67 63 87 68 64 90 71 67 94 75 71 98 79 75 102 83 79 105 86 82 106 87 83 110 93 86 110 93 86 110 93 86 110 93 86 110 93 86 110 93 86 110 93 86 110 93 86 101 84 77 103 86 79 105 88 81 108 91 84 112 95 88 115 98 91 117 100 93 121 100 97 118 85 92 119 81 92 117 79 90 114 76 87 110 72 83 107 69 80 105 67 78 103 65 76 107 69 80 107 69 80 107 69 80 107 69 80 107 69 80 107 69 80 107 69 80 103 72 80 91 70 77 79 64 69 66 51 56 54 39 44 47 32 37 46 31 36 49 34 39 52 37 42 54 39 44 54 39 44
84 74 72 80 70 68 77 67 65 75 65 63 74 62 62 72 53 57 73 52 59 73 52 59 73 52 59 73 52 59 73 52 59 73 52 59 73 52 59 71 50 57 69 48 55 67 46 53 64 43 50 60 39 46 57 36 43 55 34 41 53 32 37 63 44 46 65 47 47 70 52 52 77 59 59 83 65 65 90 72 72 95 77 77 97 79 79 108 90 90 106 88 88 104 86 86 101 83 83 97 79 79 94 76 76 92 74 74 88 72 73 81 66 71 77 64 71 75 62 69 72 59 66 68 55 62 65 52 59 63 50 57 61 48 55 73 60 67 74 61 68 77 64 71 80 67 74 84 71 78 87 74 81 89 76 83 89 78 84 92 87 94 90 87 94 90 87 94 90 87 94 90 87 94 90 87 94 90 87 94 90 87 94 85 82 89 81 78 85 74 71 78 66 63 70 56 53 60 47 44 51 40 37 44 36 35 43 38 36 47 37 37 49 37 37 49 37 37 49 37 37 49 37 37 49 37 37 49 37 37 49 41 41 53 41 41 53 41 41 53 41 41 53 41 41 53 41 41 53 41 41 53 41 41 51 46 45 51 46 45 50 46 45 50 46 45 50 46 45 50 46 45 50 46 45 50 46 45 50 66 65 70 68 67 72 70 69 74 73 72 77 77 76 81 80 79 84 82 81 86 84 84 86 93 94 96 91 95 94 93 95 94 91 95 94 93 95 94 91 95 94 93 95 94 91 95 94 100 102 101 96 100 99 96 98 97 91 95 94 89 91 90 84 88 87 84 86 85 89 80 83 87 57 65 92 54 65 92 54 65 89 56 65 89 56 65 87 57 65 85 58 65 82 59 65 93 74 78 92 77 80 92 80 82 93 84 85 97 88 89 97 93 92 99 95 94 101 98 93 104 95 88 105 95 85 105 95 85 105 95 85 105 95 85 105 95 85 105 95 85 105 95 85 109 99 89 107 97 87 105 95 85 102 92 82 98 88 78 95 85 75 93 83 73 93 80 71 111 93 89 111 92 88 109 90 86 106 87 83 104 85 81 101 82 78 99 80 76 98 79 75 89 70 66 90 71 67 92 73 69 95 76 72 97 78 74 100 81 77 102 83 79 103 84 80 108 91 84 108 91 84 108 91 84 108 91 84 108 91 84 108 91 84 108 91 84 108 91 84 101 84 77 103 86 79 105 88 81 108 91 84 112 95 88 115 98 91 117 100 93 121 100 97 118 85 92 119 81 92 117 79 90 114 76 87 110 72 83 107 69 80 105 67 78 103 65 76 107 69 80 107 69 80 107 69 80 107 69 80 107 69 80 107 69 80 107 69 80 103 72 80 91 70 77 79 64 69 66 51 56 54 39 44 47 32 37 46 31 36 49 34 39 52 37 42 54 39 44 54 39 44
87 77 75 84 74 72 80 70 68 78 68 66 78 66 66 72 53 57 73 52 59 73 52 59 73 52 59 73 52 59 73 52 59 73 52 59 73 52 59 71 50 57 69 48 55 67 46 53 64 43 50 60 39 46 57 36 43 55 34 41 53 32 37 63 44 46 65 47 47 70 52 52 77 59 59 83 65 65 90 72 72 95 77 77 97 79 79 108 90 90 106 88 88 104 86 86 101 83 83 97 79 79 94 76 76 92 74 74 88 72 73 77 62 67 74 61 68 72 59 66 68 55 62 65 52 59 62 49 56 59 46 53 58 45 52 67 54 61 68 55 62 71 58 65 74 61 68 77 64 71 80 67 74 83 70 77 83 72 78 91 86 93 89 86 93 89 86 93 89 86 93 89 86 93 89 86 93 89 86 93 89 86 93 74 71 78 71 68 75 66 63 70 58 55 62 51 48 55 43 40 47 38 35 42 34 33 41 38 36 47 37 37 49 37 37 49 37 37 49 37 37 49 37 37 49 37 37 49 37 37 49 41 41 53 41 41 53 41 41 53 41 41 53 41 41 53 41 41 53 41 41 53 41 41 51 46 45 51 46 45 50 46 45 50 46 45 50 46 45 50 46 45 50 46 45 50 46 45 50 70 69 74 71 70 75 73 72 77 77 76 81 80 79 84 83 82 87 86 85 90 87 87 89 94 94 96 93 95 94 94 94 94 93 95 94 94 94 94 93 95 94 94 94 94 93 95 94 97 97 97 95 97 96 94 94 94 89 91 90 87 87 87 83 85 84 81 81 81 86 77 80 87 57 65 92 54 65 92 54 65 89 56 65 89 56 65 87 57 65 85 58 65 82 59 65 93 74 78 92 77 80 92 80 82 93 84 85 97 88 89 97 93 92 99 95 94 101 98 93 104 95 88 105 95 85 105 95 85 105 95 85 105 95 85 105 95 85 105 95 85 105 95 85 109 99 89 107 97 87 105 95 85 102 92 82 98 88 78 95 85 75 93 83 73 93 80 71 103 85 81 104 85 81 103 84 80 102 83 79 101 82 78 100 81 77 100 81 77 99 80 76 94 75 71 94 75 71 95 76 72 96 77 73 96 77 73 97 78 74 98 79 75 98 79 75 105 88 81 105 88 81 105 88 81 105 88 81 105 88 81 105 88 81 105 88 81 105 88 81 101 84 77 103 86 79 105 88 81 108 91 84 112 95 88 115 98 91 117 100 93 121 100 97 118 85 92 119 81 92 117 79 90 114 76 87 110 72 83 107 69 80 105 67 78 103 65 76 107 69 80 107 69 80 107 69 80 107 69 80 107 69 80 107 69 80 107 69 80 103 72 80 91 70 77 79 64 69 66 51 56 54 39 44 47 32 37 46 31 36 49 34 39 52 37 42 54 39 44 54 39 44
90 80 78 87 77 75 84 74 72 81 71 69 81 69 69 72 53 57 73 52 59 73 52 59 73 52 59 73 52 59 73 52 59 73 52 59 73 52 59 71 50 57 69 48 55 67 46 53 64 43 50 60 39 46 57 36 43 55 34 41 53 32 37 63 44 46 65 47 47 70 52 52 77 59 59 83 65 65 90 72 72 95 77 77 97 79 79 108 90 90 106 88 88 104 86 86 101 83 83 97 79 79 94 76 76 92 74 74 88 72 73 74 59 64 71 58 65 68 55 62 65 52 59 62 49 56 58 45 52 56 43 50 55 42 49 60 47 54 61 48 55 64 51 58 67 54 61 70 57 64 73 60 67 76 63 70 76 65 71 84 79 86 82 79 86 82 79 86 82 79 86 82 79 86 82 79 86 82 79 86 82 79 86 63 60 67 60 57 64 56 53 60 51 48 55 45 42 49 39 36 43 35 32 39 32 31 39 38 36 47 37 37 49 37 37 49 37 37 49 37 37 49 37 37 49 37 37 49 37 37 49 41 41 53 41 41 53 41 41 53 41 41 53 41 41 53 41 41 53 41 41 53 41 41 51 46 45 51 46 45 50 46 45 50 46 45 50 46 45 50 46 45 50 46 45 50 46 45 50 73 72 77 74 73 78 77 76 81 80 79 84 83 82 87 87 86 91 89 88 93 90 90 92 94 94 96 94 94 94 95 93 94 94 94 94 95 93 94 94 94 94 95 93 94 94 94 94 95 93 94 93 93 93 91 89 90 87 87 87 85 83 84 80 80 80 79 77 78 84 73 77 87 57 65 92 54 65 92 54 65 89 56 65 89 56 65 87 57 65 85 58 65 82 59 65 93 74 78 92 77 80 92 80 82 93 84 85 97 88 89 97 93 92 99 95 94 101 98 93 104 95 88 105 95 85 105 95 85 105 95 85 105 95 85 105 95 85 105 95 85 105 95 85 109 99 89 107 97 87 105 95 85 102 92 82 98 88 78 95 85 75 93 83 73 93 80 71 95 77 73 96 77 73 97 78 74 98 79 75 99 80 76 100 81 77 100 81 77 101 82 78 98 79 75 98 79 75 97 78 74 96 77 73 96 77 73 95 76 72 94 75 71 94 75 71 101 84 77 101 84 77 101 84 77 101 84 77 101 84 77 101 84 77 101 84 77 101 84 77 101 84 77 103 86 79 105 88 81 108 91 84 112 95 88 115 98 91 117 100 93 121 100 97 118 85 92 119 81 92 117 79 90 114 76 87 110 72 83 107 69 80 105 67 78 103 65 76 107 69 80 107 69 80 107 69 80 107 69 80 107 69 80 107 69 80 107 69 80 103 72 80 91 70 77 79 64 69 66 51 56 54 39 44 47 32 37 46 31 36 49 34 39 52 37 42 54 39 44 54 39 44
94 84 82 90 80 78 87 77 75 85 75 73 84 72 72 72 53 57 73 52 59 73 52 59 73 52 59 73 52 59 73 52 59 73 52 59 73 52 59 71 50 57 69 48 55 67 46 53 64 43 50 60 39 46 57 36 43 55 34 41 53 32 37 63 44 46 65 47 47 70 52 52 77 59 59 83 65 65 90 72 72 95 77 77 97 79 79 108 90 90 106 88 88 104 86 86 101 83 83 97 79 79 94 76 76 92 74 74 88 72 73 71 56 61 67 54 61 65 52 59 62 49 56 58 45 52 55 42 49 53 40 47 51 38 45 54 41 48 55 42 49 57 44 51 60 47 54 64 51 58 67 54 61 70 57 64 70 59 65 72 67 74 70 67 74 70 67 74 70 67 74 70 67 74 70 67 74 70 67 74 70 67 74 52 49 56 50 47 54 47 44 51 43 40 47 39 36 43 35 32 39 32 29 36 30 29 37 38 36 47 37 37 49 37 37 49 37 37 49 37 37 49 37 37 49 37 37 49 37 37 49 41 41 53 41 41 53 41 41 53 41 41 53 41 41 53 41 41 53 41 41 53 41 41 51 46 45 51 46 45 50 46 45 50 46 45 50 46 45 50 46 45 50 46 45 50 46 45 50 76 75 80 78 77 82 80 79 84 83 82 87 87 86 91 90 89 94 92 91 96 94 94 96 95 93 96 97 93 94 97 93 94 97 93 94 97 93 94 97 93 94 97 93 94 97 93 94 94 90 91 92 88 89 90 86 87 87 83 84 83 79 80 80 76 77 78 74 75 81 69 73 88 57 65 92 54 65 92 54 65 89 56 65 89 56 65 87 57 65 85 58 65 82 59 65 93 74 78 92 77 80 92 80 82 93 84 85 97 88 89 97 93 92 99 95 94 101 98 93 104 95 88 105 95 85 105 95 85 105 95 85 105 95 85 105 95 85 105 95 85 105 95 85 109 99 89 107 97 87 105 95 85 102 92 82 98 88 78 95 85 75 93 83 73 93 80 71 87 69 65 89 70 66 91 72 68 94 75 71 96 77 73 99 80 76 101 82 78 102 83 79 103 84 80 102 83 79 100 81 77 97 78 74 95 76 72 92 73 69 90 71 67 89 70 66 98 81 74 98 81 74 98 81 74 98 81 74 98 81 74 98 81 74 98 81 74 98 81 74 101 84 77 103 86 79 105 88 81 108 91 84 112 95 88 115 98 91 117 100 93 121 100 97 118 85 92 119 81 92 117 79 90 114 76 87 110 72 83 107 69 80 105 67 78 103 65 76 107 69 80 107 69 80 107 69 80 107 69 80 107 69 80 107 69 80 107 69 80 103 72 80 91 70 77 79 64 69 66 51 56 54 39 44 47 32 37 46 31 36 49 34 39 52 37 42 54 39 44 54 39 44
96 86 84 93 83 81 89 79 77 87 77 75 87 75 75 72 53 57 73 52 59 73 52 59 73 52 59 73 52 59 73 52 59 73 52 59 73 52 59 71 50 57 69 48 55 67 46 53 64 43 50 60 39 46 57 36 43 55 34 41 53 32 37 63 44 46 65 47 47 70 52 52 77 59 59 83 65 65 90 72 72 95 77 77 97 79 79 108 90 90 106 88 88 104 86 86 101 83 83 97 79 79 94 76 76 92 74 74 88 72 73 68 53 58 65 52 59 63 50 57 59 46 53 56 43 50 53 40 47 50 37 44 49 36 43 49 36 43 50 37 44 52 39 46 56 43 50 59 46 53 62 49 56 65 52 59 65 54 60 59 54 61 57 54 61 57 54 61 57 54 61 57 54 61 57 54 61 57 54 61 57 54 61 43 40 47 42 39 46 40 37 44 38 35 42 35 32 39 32 29 36 30 27 34 28 27 35 38 36 47 37 37 49 37 37 49 37 37 49 37 37 49 37 37 49 37 37 49 37 37 49 41 41 53 41 41 53 41 41 53 41 41 53 41 41 53 41 41 53 41 41 53 41 41 51 46 45 51 46 45 50 46 45 50 46 45 50 46 45 50 46 45 50 46 45 50 46 45 50 79 78 83 80 79 84 82 81 86 86 85 90 89 88 93 92 91 96 95 94 99 97 95 98 97 92 96 98 92 94 98 92 94 98 92 94 98 92 94 98 92 94 98 92 94 98 92 94 92 86 88 91 85 87 89 83 85 85 79 81 82 76 78 79 73 75 76 70 72 81 66 71 88 57 65 92 54 65 92 54 65 89 56 65 89 56 65 87 57 65 85 58 65 82 59 65 93 74 78 92 77 80 92 80 82 93 84 85 97 88 89 97 93 92 99 95 94 101 98 93 104 95 88 105 95 85 105 95 85 105 95 85 105 95 85 105 95 85 105 95 85 105 95 85 109 99 89 107 97 87 105 95 85 102 92 82 98 88 78 95 85 75 93 83 73 93 80 71 81 63 59 84 65 61 87 68 64 91 72 68 95 76 72 98 79 75 101 82 78 103 84 80 106 87 83 105 86 82 102 83 79 98 79 75 94 75 71 90 71 67 87 68 64 86 67 63 96 79 72 96 79 72 96 79 72 96 79 72 96 79 72 96 79 72 96 79 72 96 79 72 101 84 77 103 86 79 105 88 81 108 91 84 112 95 88 115 98 91 117 100 93 121 100 97 118 85 92 119 81 92 117 79 90 114 76 87 110 72 83 107 69 80 105 67 78 103 65 76 107 69 80 107 69 80 107 69 80 107 69 80 107 69 80 107 69 80 107 69 80 103 72 80 91 70 77 79 64 69 66 51 56 54 39 44 47 32 37 46 31 36 49 34 39 52 37 42 54 39 44 54 39 44
97 87 85 94 84 82 91 81 79 88 78 76 88 76 76 72 53 57 73 52 59 73 52 59 73 52 59 73 52 59 73 52 59 73 52 59 73 52 59 71 50 57 69 48 55 67 46 53 64 43 50 60 39 46 57 36 43 55 34 41 53 32 37 63 44 46 65 47 47 70 52 52 77 59 59 83 65 65 90 72 72 95 77 77 97 79 79 108 90 90 106 88 88 104 86 86 101 83 83 97 79 79 94 76 76 92 74 74 88 72 73 67 52 57 64 51 58 61 48 55 58 45 52 55 42 49 51 38 45 49 36 43 48 35 42 46 33 40 47 34 41 50 37 44 53 40 47 56 43 50 60 47 54 62 49 56 62 51 57 51 46 53 49 46 53 49 46 53 49 46 53 49 46 53 49 46 53 49 46 53 49 46 53 39 36 43 38 35 42 37 34 41 35 32 39 33 30 37 31 28 35 29 26 33 27 26 34 38 36 47 37 37 49 37 37 49 37 37 49 37 37 49 37 37 49 37 37 49 37 37 49 41 41 53 41 41 53 41 41 53 41 41 53 41 41 53 41 41 53 41 41 53 41 41 51 46 45 51 46 45 50 46 45 50 46 45 50 46 45 50 46 45 50 46 45 50 46 45 50 80 79 84 81 80 85 84 83 88 87 86 91 90 89 94 94 93 98 96 95 100 98 96 99 100 91 96 101 90 94 101 90 94 101 90 94 101 90 94 101 90 94 101 90 94 101 90 94 94 83 87 93 82 86 90 79 83 87 76 80 84 73 77 80 69 73 78 67 71 81 64 70 89 56 65 92 54 65 92 54 65 89 56 65 89 56 65 87 57 65 85 58 65 82 59 65 93 74 78 92 77 80 92 80 82 93 84 85 97 88 89 97 93 92 99 95 94 101 98 93 104 95 88 105 95 85 105 95 85 105 95 85 105 95 85 105 95 85 105 95 85 105 95 85 109 99 89 107 97 87 105 95 85 102 92 82 98 88 78 95 85 75 93 83 73 93 80 71 78 60 56 81 62 58 85 66 62 89 70 66 94 75 71 98 79 75 102 83 79 103 84 80 108 89 85 106 87 83 103 84 80 98 79 75 94 75 71 89 70 66 86 67 63 84 65 61 94 77 70 94 77 70 94 77 70 94 77 70 94 77 70 94 77 70 94 77 70 94 77 70 101 84 77 103 86 79 105 88 81 108 91 84 112 95 88 115 98 91 117 100 93 121 100 97 118 85 92 119 81 92 117 79 90 114 76 87 110 72 83 107 69 80 105 67 78 103 65 76 107 69 80 107 69 80 107 69 80 107 69 80 107 69 80 107 69 80 107 69 80 103 72 80 91 70 77 79 64 69 66 51 56 54 39 44 47 32 37 46 31 36 49 34 39 52 37 42 54 39 44 54 39 44
94 84 82 91 81 79 88 78 76 85 75 73 85 73 73 72 53 57 73 52 59 73 52 59 73 52 59 73 52 59 73 52 59 73 52 59 73 52 59 69 48 55 67 46 53 65 44 51 62 41 48 58 37 44 55 34 41 53 32 39 51 30 35 63 44 46 65 47 47 70 52 52 77 59 59 83 65 65 90 72 72 95 77 77 97 79 79 102 84 84 105 87 87 108 90 90 107 89 89 100 82 82 88 70 70 75 57 57 65 49 50 61 46 51 57 44 51 55 42 49 52 39 46 48 35 42 45 32 39 43 30 37 41 28 35 45 32 39 45 32 39 45 32 39 45 32 39 45 32 39 45 32 39 45 32 39 44 33 39 37 32 39 35 32 39 35 32 39 35 32 39 35 32 39 35 32 39 35 32 39 35 32 39 36 33 40 36 33 40 36 33 40 36 33 40 36 33 40 36 33 40 36 33 40 35 34 42 38 36 47 37 37 49 37 37 49 37 37 49 37 37 49 37 37 49 37 37 49 37 37 49 41 41 53 41 41 53 41 41 53 41 41 53 41 41 53 41 41 53 41 41 53 41 41 51 38 37 43 40 39 44 42 41 46 45 44 49 49 48 53 52 51 56 54 53 58 56 55 60 84 83 88 84 83 88 84 83 88 84 83 88 84 83 88 84 83 88 84 83 88 87 82 86 90 79 85 93 78 83 93 78 83 93 78 83 93 78 83 93 78 83 93 78 83 93 78 83 80 65 70 78 63 68 75 60 65 70 55 60 66 51 56 61 46 51 58 43 48 60 39 46 89 56 65 94 56 67 96 58 69 96 63 72 100 67 76 101 71 79 101 74 81 100 77 83 107 88 92 104 89 92 102 90 92 100 91 92 100 91 92 97 93 92 97 93 92 97 94 89 100 91 84 101 91 81 101 91 81 101 91 81 101 91 81 101 91 81 101 91 81 101 91 81 98 88 78 98 88 78 98 88 78 98 88 78 98 88 78 98 88 78 98 88 78 100 87 78 93 75 71 94 75 71 94 75 71 94 75 71 94 75 71 94 75 71 94 75 71 94 75 71 101 82 78 102 83 79 105 86 82 108 89 85 111 92 88 115 96 92 117 98 94 118 99 95 104 87 80 104 87 80 104 87 80 104 87 80 104 87 80 104 87 80 104 87 80 104 87 80 111 94 87 111 94 87 111 94 87 111 94 87 111 94 87 111 94 87 111 94 87 113 92 89 109 76 83 112 74 85 112 74 85 112 74 85 112 74 85 112 74 85 112 74 85 112 74 85 117 79 90 117 79 90 117 79 90 117 79 90 117 79 90 117 79 90 117 79 90 113 82 90 79 58 65 68 53 58 58 43 48 49 34 39 46 31 36 48 33 38 54 39 44 58 43 48 61 46 51 59 44 49
93 83 81 90 80 78 86 76 74 84 74 72 84 72 72 70 51 55 71 50 57 71 50 57 71 50 57 71 50 57 71 50 57 71 50 57 71 50 57 69 48 55 67 46 53 65 44 51 62 41 48 58 37 44 55 34 41 53 32 39 51 30 35 63 44 46 65 47 47 70 52 52 77 59 59 83 65 65 90 72 72 95 77 77 97 79 79 102 84 84 105 87 87 108 90 90 107 89 89 100 82 82 88 70 70 75 57 57 65 49 50 61 46 51 57 44 51 55 42 49 52 39 46 48 35 42 45 32 39 43 30 37 41 28 35 45 32 39 45 32 39 45 32 39 45 32 39 45 32 39 45 32 39 45 32 39 44 33 39 37 32 39 35 32 39 35 32 39 35 32 39 35 32 39 35 32 39 35 32 39 35 32 39 36 33 40 36 33 40 36 33 40 36 33 40 36 33 40 36 33 40 36 33 40 35 34 42 38 36 47 37 37 49 37 37 49 37 37 49 37 37 49 37 37 49 37 37 49 37 37 49 41 41 53 41 41 53 41 41 53 41 41 53 41 41 53 41 41 53 41 41 53 41 41 51 38 37 43 40 39 44 42 41 46 45 44 49 49 48 53 52 51 56 54 53 58 56 55 60 87 86 91 87 86 91 87 86 91 87 86 91 87 86 91 87 86 91 87 86 91 90 85 89 91 76 83 94 75 81 94 75 81 94 75 81 94 75 81 94 75 81 94 75 81 94 75 81 81 62 68 80 61 67 77 58 64 73 54 60 69 50 56 65 46 52 62 43 49 63 40 48 89 56 65 94 56 67 96 58 69 96 63 72 100 67 76 101 71 79 101 74 81 100 77 83 107 88 92 104 89 92 102 90 92 100 91 92 100 91 92 97 93 92 97 93 92 97 94 89 100 91 84 101 91 81 101 91 81 101 91 81 101 91 81 101 91 81 101 91 81 101 91 81 98 88 78 98 88 78 98 88 78 98 88 78 98 88 78 98 88 78 98 88 78 100 87 78 93 75 71 94 75 71 94 75 71 94 75 71 94 75 71 94 75 71 94 75 71 94 75 71 100 81 77 101 82 78 103 84 80 107 88 84 110 91 87 113 94 90 116 97 93 117 98 94 104 87 80 104 87 80 104 87 80 104 87 80 104 87 80 104 87 80 104 87 80 104 87 80 111 94 87 111 94 87 111 94 87 111 94 87 111 94 87 111 94 87 111 94 87 113 92 89 109 76 83 112 74 85 112 74 85 112 74 85 112 74 85 112 74 85 112 74 85 112 74 85 117 79 90 117 79 90 117 79 90 117 79 90 117 79 90 117 79 90 117 79 90 113 82 90 79 58 65 68 53 58 58 43 48 49 34 39 46 31 36 48 33 38 54 39 44 58 43 48 61 46 51 59 44 49
91 81 79 87 77 75 84 74 72 82 72 70 81 69 69 68 49 53 69 48 55 69 48 55 69 48 55 69 48 55 69 48 55 69 48 55 69 48 55 69 48 55 67 46 53 65 44 51 62 41 48 58 37 44 55 34 41 53 32 39 51 30 35 63 44 46 65 47 47 70 52 52 77 59 59 83 65 65 90 72 72 95 77 77 97 79 79 102 84 84 105 87 87 108 90 90 107 89 89 100 82 82 88 70 70 75 57 57 65 49 50 61 46 51 57 44 51 55 42 49 52 39 46 48 35 42 45 32 39 43 30 37 41 28 35 45 32 39 45 32 39 45 32 39 45 32 39 45 32 39 45 32 39 45 32 39 44 33 39 37 32 39 35 32 39 35 32 39 35 32 39 35 32 39 35 32 39 35 32 39 35 32 39 36 33 40 36 33 40 36 33 40 36 33 40 36 33 40 36 33 40 36 33 40 35 34 42 38 36 47 37 37 49 37 37 49 37 37 49 37 37 49 37 37 49 37 37 49 37 37 49 41 41 53 41 41 53 41 41 53 41 41 53 41 41 53 41 41 53 41 41 53 41 41 51 38 37 43 40 39 44 42 41 46 45 44 49 49 48 53 52 51 56 54 53 58 56 55 60 90 89 94 90 89 94 90 89 94 90 89 94 90 89 94 90 89 94 90 89 94 94 88 92 87 70 78 90 69 76 90 69 76 90 69 76 90 69 76 90 69 76 90 69 76 90 69 76 79 58 65 78 57 64 76 55 62 73 52 59 71 50 57 68 47 54 66 45 52 68 42 51 91 55 65 94 56 67 96 58 69 96 63 72 100 67 76 101 71 79 101 74 81 100 77 83 107 88 92 104 89 92 102 90 92 100 91 92 100 91 92 97 93 92 97 93 92 97 94 89 100 91 84 101 91 81 101 91 81 101 91 81 101 91 81 101 91 81 101 91 81 101 91 81 98 88 78 98 88 78 98 88 78 98 88 78 98 88 78 98 88 78 98 88 78 100 87 78 93 75 71 94 75 71 94 75 71 94 75 71 94 75 71 94 75 71 94 75 71 94 75 71 97 78 74 99 80 76 101 82 78 104 85 81 108 89 85 111 92 88 113 94 90 115 96 92 104 87 80 104 87 80 104 87 80 104 87 80 104 87 80 104 87 80 104 87 80 104 87 80 111 94 87 111 94 87 111 94 87 111 94 87 111 94 87 111 94 87 111 94 87 113 92 89 109 76 83 112 74 85 112 74 85 112 74 85 112 74 85 112 74 85 112 74 85 112 74 85 117 79 90 117 79 90 117 79 90 117 79 90 117 79 90 117 79 90 117 79 90 113 82 90 79 58 65 68 53 58 58 43 48 49 34 39 46 31 36 48 33 38 54 39 44 58 43 48 61 46 51 59 44 49
87 77 75 84 74 72 81 71 69 78 68 66 78 66 66 65 46 50 66 45 52 66 45 52 66 45 52 66 45 52 66 45 52 66 45 52 66 45 52 69 48 55 67 46 53 65 44 51 62 41 48 58 37 44 55 34 41 53 32 39 51 30 35 63 44 46 65 47 47 70 52 52 77 59 59 83 65 65 90 72 72 95 77 77 97 79 79 102 84 84 105 87 87 108 90 90 107 89 89 100 82 82 88 70 70 75 57 57 65 49 50 61 46 51 57 44 51 55 42 49 52 39 46 48 35 42 45 32 39 43 30 37 41 28 35 45 32 39 45 32 39 45 32 39 45 32 39 45 32 39 45 32 39 45 32 39 44 33 39 37 32 39 35 32 39 35 32 39 35 32 39 35 32 39 35 32 39 35 32 39 35 32 39 36 33 40 36 33 40 36 33 40 36 33 40 36 33 40 36 33 40 36 33 40 35 34 42 38 36 47 37 37 49 37 37 49 37 37 49 37 37 49 37 37 49 37 37 49 37 37 49 41 41 53 41 41 53 41 41 53 41 41 53 41 41 53 41 41 53 41 41 53 41 41 51 38 37 43 40 39 44 42 41 46 45 44 49 49 48 53 52 51 56 54 53 58 56 55 60 89 88 93 89 88 93 89 88 93 89 88 93 89 88 93 89 88 93 89 88 93 93 87 91 82 62 71 84 61 69 86 60 69 84 61 69 86 60 69 84 61 69 86 60 69 84 61 69 77 51 60 75 52 60 76 50 59 73 50 58 75 49 58 72 49 57 73 47 56 74 47 56 91 55 65 94 56 67 96 58 69 96 63 72 100 67 76 101 71 79 101 74 81 100 77 83 107 88 92 104 89 92 102 90 92 100 91 92 100 91 92 97 93 92 97 93 92 97 94 89 100 91 84 101 91 81 101 91 81 101 91 81 101 91 81 101 91 81 101 91 81 101 91 81 98 88 78 98 88 78 98 88 78 98 88 78 98 88 78 98 88 78 98 88 78 100 87 78 93 75 71 94 75 71 94 75 71 94 75 71 94 75 71 94 75 71 94 75 71 94 75 71 94 75 71 95 76 72 98 79 75 101 82 78 104 85 81 108 89 85 110 91 87 111 92 88 104 87 80 104 87 80 104 87 80 104 87 80 104 87 80 104 87 80 104 87 80 104 87 80 111 94 87 111 94 87 111 94 87 111 94 87 111 94 87 111 94 87 111 94 87 113 92 89 109 76 83 112 74 85 112 74 85 112 74 85 112 74 85 112 74 85 112 74 85 112 74 85 117 79 90 117 79 90 117 79 90 117 79 90 117 79 90 117 79 90 117 79 90 113 82 90 79 58 65 68 53 58 58 43 48 49 34 39 46 31 36 48 33 38 54 39 44 58 43 48 61 46 51 59 44 49
84 74 72 81 71 69 77 67 65 75 65 63 75 63 63 61 42 46 62 41 48 62 41 48 62 41 48 62 41 48 62 41 48 62 41 48 62 41 48 69 48 55 67 46 53 65 44 51 62 41 48 58 37 44 55 34 41 53 32 39 51 30 35 63 44 46 65 47 47 70 52 52 77 59 59 83 65 65 90 72 72 95 77 77 97 79 79 102 84 84 105 87 87 108 90 90 107 89 89 100 82 82 88 70 70 75 57 57 65 49 50 61 46 51 57 44 51 55 42 49 52 39 46 48 35 42 45 32 39 43 30 37 41 28 35 45 32 39 45 32 39 45 32 39 45 32 39 45 32 39 45 32 39 45 32 39 44 33 39 37 32 39 35 32 39 35 32 39 35 32 39 35 32 39 35 32 39 35 32 39 35 32 39 36 33 40 36 33 40 36 33 40 36 33 40 36 33 40 36 33 40 36 33 40 35 34 42 38 36 47 37 37 49 37 37 49 37 37 49 37 37 49 37 37 49 37 37 49 37 37 49 41 41 53 41 41 53 41 41 53 41 41 53 41 41 53 41 41 53 41 41 53 41 41 51 38 37 43 40 39 44 42 41 46 45 44 49 49 48 53 52 51 56 54 53 58 56 55 60 82 81 86 82 81 86 82 81 86 82 81 86 82 81 86 82 81 86 82 81 86 86 80 84 76 56 65 80 54 63 81 54 63 80 54 63 81 54 63 80 54 63 81 54 63 80 54 63 74 47 56 73 47 56 75 48 57 75 49 58 76 49 58 76 50 59 78 51 60 80 50 60 91 55 65 94 56 67 96 58 69 96 63 72 100 67 76 101 71 79 101 74 81 100 77 83 107 88 92 104 89 92 102 90 92 100 91 92 100 91 92 97 93 92 97 93 92 97 94 89 100 91 84 101 91 81 101 91 81 101 91 81 101 91 81 101 91 81 101 91 81 101 91 81 98 88 78 98 88 78 98 88 78 98 88 78 98 88 78 98 88 78 98 88 78 100 87 78 93 75 71 94 75 71 94 75 71 94 75 71 94 75 71 94 75 71 94 75 71 94 75 71 91 72 68 92 73 69 94 75 71 98 79 75 101 82 78 104 85 81 107 88 84 108 89 85 104 87 80 104 87 80 104 87 80 104 87 80 104 87 80 104 87 80 104 87 80 104 87 80 111 94 87 111 94 87 111 94 87 111 94 87 111 94 87 111 94 87 111 94 87 113 92 89 109 76 83 112 74 85 112 74 85 112 74 85 112 74 85 112 74 85 112 74 85 112 74 85 117 79 90 117 79 90 117 79 90 117 79 90 117 79 90 117 79 90 117 79 90 113 82 90 79 58 65 68 53 58 58 43 48 49 34 39 46 31 36 48 33 38 54 39 44 58 43 48 61 46 51 59 44 49
81 71 69 77 67 65 74 64 62 72 62 60 71 59 59 58 39 43 59 38 45 59 38 45 59 38 45 59 38 45 59 38 45 59 38 45 59 38 45 69 48 55 67 46 53 65 44 51 62 41 48 58 37 44 55 34 41 53 32 39 51 30 35 63 44 46 65 47 47 70 52 52 77 59 59 83 65 65 90 72 72 95 77 77 97 79 79 102 84 84 105 87 87 108 90 90 107 89 89 100 82 82 88 70 70 75 57 57 65 49 50 61 46 51 57 44 51 55 42 49 52 39 46 48 35 42 45 32 39 43 30 37 41 28 35 45 32 39 45 32 39 45 32 39 45 32 39 45 32 39 45 32 39 45 32 39 44 33 39 37 32 39 35 32 39 35 32 39 35 32 39 35 32 39 35 32 39 35 32 39 35 32 39 36 33 40 36 33 40 36 33 40 36 33 40 36 33 40 36 33 40 36 33 40 35 34 42 38 36 47 37 37 49 37 37 49 37 37 49 37 37 49 37 37 49 37 37 49 37 37 49 41 41 53 41 41 53 41 41 53 41 41 53 41 41 53 41 41 53 41 41 53 41 41 51 38 37 43 40 39 44 42 41 46 45 44 49 49 48 53 52 51 56 54 53 58 56 55 60 70 69 74 70 69 74 70 69 74 70 69 74 70 69 74 70 69 74 70 69 74 74 68 72 70 49 58 74 47 56 76 46 56 74 47 56 76 46 56 74 47 56 76 46 56 74 47 56 71 41 51 70 43 52 74 44 54 75 48 57 79 49 59 80 53 62 84 54 64 86 54 65 92 54 65 94 56 67 96 58 69 96 63 72 100 67 76 101 71 79 101 74 81 100 77 83 107 88 92 104 89 92 102 90 92 100 91 92 100 91 92 97 93 92 97 93 92 97 94 89 100 91 84 101 91 81 101 91 81 101 91 81 101 91 81 101 91 81 101 91 81 101 91 81 98 88 78 98 88 78 98 88 78 98 88 78 98 88 78 98 88 78 98 88 78 100 87 78 93 75 71 94 75 71 94 75 71 94 75 71 94 75 71 94 75 71 94 75 71 94 75 71 87 68 64 89 70 66 91 72 68 94 75 71 98 79 75 101 82 78 103 84 80 105 86 82 104 87 80 104 87 80 104 87 80 104 87 80 104 87 80 104 87 80 104 87 80 104 87 80 111 94 87 111 94 87 111 94 87 111 94 87 111 94 87 111 94 87 111 94 87 113 92 89 109 76 83 112 74 85 112 74 85 112 74 85 112 74 85 112 74 85 112 74 85 112 74 85 117 79 90 117 79 90 117 79 90 117 79 90 117 79 90 117 79 90 117 79 90 113 82 90 79 58 65 68 53 58 58 43 48 49 34 39 46 31 36 48 33 38 54 39 44 58 43 48 61 46 51 59 44 49
78 68 66 75 65 63 72 62 60 69 59 57 69 57 57 56 37 41 57 36 43 57 36 43 57 36 43 57 36 43 57 36 43 57 36 43 57 36 43 69 48 55 67 46 53 65 44 51 62 41 48 58 37 44 55 34 41 53 32 39 51 30 35 63 44 46 65 47 47 70 52 52 77 59 59 83 65 65 90 72 72 95 77 77 97 79 79 102 84 84 105 87 87 108 90 90 107 89 89 100 82 82 88 70 70 75 57 57 65 49 50 61 46 51 57 44 51 55 42 49 52 39 46 48 35 42 45 32 39 43 30 37 41 28 35 45 32 39 45 32 39 45 32 39 45 32 39 45 32 39 45 32 39 45 32 39 44 33 39 37 32 39 35 32 39 35 32 39 35 32 39 35 32 39 35 32 39 35 32 39 35 32 39 36 33 40 36 33 40 36 33 40 36 33 40 36 33 40 36 33 40 36 33 40 35 34 42 38 36 47 37 37 49 37 37 49 37 37 49 37 37 49 37 37 49 37 37 49 37 37 49 41 41 53 41 41 53 41 41 53 41 41 53 41 41 53 41 41 53 41 41 53 41 41 51 38 37 43 40 39 44 42 41 46 45 44 49 49 48 53 52 51 56 54 53 58 56 55 60 57 56 61 57 56 61 57 56 61 57 56 61 57 56 61 57 56 61 57 56 61 63 54 59 66 43 53 71 41 51 72 40 51 71 41 51 72 40 51 71 41 51 72 40 51 71 41 51 69 37 48 69 39 49 73 41 52 76 46 56 81 49 60 84 54 64 88 56 67 90 57 68 92 54 65 94 56 67 96 58 69 96 63 72 100 67 76 101 71 79 101 74 81 100 77 83 107 88 92 104 89 92 102 90 92 100 91 92 100 91 92 97 93 92 97 93 92 97 94 89 100 91 84 101 91 81 101 91 81 101 91 81 101 91 81 101 91 81 101 91 81 101 91 81 98 88 78 98 88 78 98 88 78 98 88 78 98 88 78 98 88 78 98 88 78 100 87 78 93 75 71 94 75 71 94 75 71 94 75 71 94 75 71 94 75 71 94 75 71 94 75 71 85 66 62 86 67 63 89 70 66 92 73 69 95 76 72 99 80 76 101 82 78 102 83 79 104 87 80 104 87 80 104 87 80 104 87 80 104 87 80 104 87 80 104 87 80 104 87 80 111 94 87 111 94 87 111 94 87 111 94 87 111 94 87 111 94 87 111 94 87 113 92 89 109 76 83 112 74 85 112 74 85 112 74 85 112 74 85 112 74 85 112 74 85 112 74 85 117 79 90 117 79 90 117 79 90 117 79 90 117 79 90 117 79 90 117 79 90 113 82 90 79 58 65 68 53 58 58 43 48 49 34 39 46 31 36 48 33 38 54 39 44 58 43 48 61 46 51 59 44 49
77 67 65 74 64 63 70 60 58 68 58 57 68 56 56 52 35 41 52 35 41 54 34 43 52 35 41 54 34 43 52 35 41 54 34 43 52 35 41 68 48 57 64 47 53 64 44 53 59 42 48 57 37 46 52 35 41 52 32 41 50 31 37 63 44 48 65 46 48 70 51 53 77 58 60 83 64 66 90 71 73 95 76 78 97 78 80 102 83 85 105 86 88 108 89 91 107 88 90 100 81 83 88 69 71 75 56 58 65 49 52 59 46 53 56 45 51 54 43 51 51 40 46 47 36 44 44 33 39 42 31 39 40 29 35 44 33 41 44 33 39 44 33 41 44 33 39 44 33 41 44 33 39 44 33 41 43 33 41 37 32 39 35 32 39 35 32 39 35 32 39 35 32 39 35 32 39 35 32 39 35 32 39 36 33 40 36 33 40 36 33 40 36 33 40 36 33 40 36 33 40 36 33 40 35 34 42 37 37 47 35 38 47 35 38 47 35 38 47 35 38 47 35 38 47 35 38 47 35 38 47 39 42 51 39 42 51 39 42 51 39 42 51 39 42 51 39 42 51 39 42 51 41 41 49 39 36 43 43 38 44 45 40 46 48 43 49 52 47 53 55 50 56 57 52 58 59 54 60 52 47 53 52 47 53 52 47 53 52 47 53 52 47 53 52 47 53 52 47 53 56 45 51 64 41 49 69 39 49 70 38 49 69 39 49 70 38 49 69 39 49 70 38 49 69 39 49 67 35 46 68 38 48 72 40 51 76 46 56 81 49 60 85 55 65 89 57 68 91 59 70 88 56 67 90 59 67 92 60 71 94 64 72 96 69 78 98 73 79 98 75 83 99 78 83 105 88 94 104 89 92 102 90 94 101 91 92 100 91 94 98 92 92 98 92 94 98 93 90 100 91 82 101 91 79 101 91 79 101 91 79 101 91 79 101 91 79 101 91 79 101 91 79 98 88 76 98 88 76 98 88 76 98 88 76 98 88 76 98 88 76 98 88 76 100 87 78 93 76 69 94 75 71 94 75 71 94 75 71 94 75 71 94 75 71 94 75 71 94 75 71 84 65 61 85 66 62 87 68 64 91 72 68 94 75 71 97 78 74 100 81 77 101 82 78 105 86 82 105 86 80 106 85 82 105 86 80 106 85 82 105 86 80 106 85 82 105 86 80 113 92 89 112 93 87 113 92 89 112 93 87 113 92 89 112 93 87 113 92 89 115 91 91 109 76 83 112 74 85 112 74 85 112 74 85 112 74 85 112 74 85 112 74 85 112 74 85 117 79 90 117 79 90 117 79 90 117 79 90 117 79 90 117 79 90 117 79 90 113 82 90 78 59 65 66 54 58 56 44 48 47 35 39 44 32 36 46 34 38 52 40 44 56 44 48 59 47 51 57 45 49
54 44 43 50 40 41 47 37 36 45 35 36 43 33 34 43 32 38 43 32 38 44 31 40 43 32 38 44 31 40 43 32 38 44 31 40 43 32 38 46 33 42 45 34 40 46 33 42 45 34 40 46 33 42 45 34 40 46 33 42 46 33 40 58 41 47 60 43 49 65 48 54 72 55 61 78 61 67 85 68 74 90 73 79 92 75 81 110 93 99 107 90 96 102 85 91 96 79 85 89 72 78 83 66 72 78 61 67 74 59 66 46 36 44 44 37 44 44 37 45 44 37 44 44 37 45 44 37 44 44 37 45 44 37 44 43 36 44 43 36 43 43 36 44 43 36 43 43 36 44 43 36 43 43 36 44 42 37 44 33 30 37 32 31 37 32 31 37 32 31 37 32 31 37 32 31 37 32 31 37 32 31 37 36 35 41 36 35 41 36 35 41 36 35 41 36 35 41 36 35 41 36 35 41 35 36 41 37 40 47 36 41 47 36 41 47 36 41 47 36 41 47 36 41 47 36 41 47 36 41 47 37 42 48 37 42 48 37 42 48 37 42 48 37 42 48 37 42 48 37 42 48 40 41 46 42 35 42 45 34 42 45 34 42 45 34 42 45 34 42 45 34 42 45 34 42 45 34 42 51 40 48 51 40 48 51 40 48 51 40 48 51 40 48 51 40 48 51 40 48 54 39 46 63 40 48 66 39 46 68 38 46 66 39 46 68 38 46 66 39 46 68 38 46 66 39 46 69 39 47 69 42 49 73 43 51 74 47 54 80 50 58 81 54 61 85 55 63 84 58 67 85 64 71 85 66 72 89 69 78 93 74 80 96 79 87 100 83 89 104 87 95 105 90 95 101 86 93 99 87 91 99 86 93 99 87 91 98 87 93 98 87 91 98 87 93 98 88 87 101 93 82 101 94 78 101 94 78 101 94 78 101 94 78 101 94 78 101 94 78 101 94 78 105 98 82 105 98 82 105 98 82 105 98 82 105 98 82 105 98 82 105 98 82 106 96 84 90 73 65 91 72 66 91 72 66 91 72 66 91 72 66 91 72 66 91 72 66 91 72 66 96 77 71 96 77 71 96 77 71 96 77 71 96 77 71 96 77 71 96 77 71 97 76 73 113 87 86 113 87 86 115 86 88 113 87 86 115 86 88 113 87 86 115 86 88 113 87 86 116 87 89 112 86 85 112 83 85 107 81 80 105 76 78 100 74 73 100 71 73 99 68 73 108 72 82 109 71 84 109 71 84 109 71 84 109 71 84 109 71 84 109 71 84 109 71 84 119 81 94 123 85 98 129 91 104 131 93 106 128 90 103 119 81 94 108 70 83 96 66 76 55 38 46 50 41 46 50 41 46 50 41 46 50 41 46 50 41 46 50 41 46 50 41 46 53 44 49 51 42 47
54 44 45 50 40 41 47 37 38 45 35 36 43 32 36 42 33 38 42 32 40 42 32 40 42 32 40 42 32 40 42 32 40 42 32 40 42 32 40 44 34 42 44 34 42 44 34 42 44 34 42 44 34 42 44 34 42 44 34 42 45 34 42 57 42 49 60 43 51 65 48 56 72 55 63 78 61 69 85 68 76 90 73 81 92 75 83 109 92 100 106 89 97 101 84 92 95 78 86 88 71 79 82 65 73 77 60 68 71 58 65 46 36 45 43 38 45 43 38 45 43 38 45 43 38 45 43 38 45 43 38 45 43 38 45 42 37 44 42 37 44 42 37 44 42 37 44 42 37 44 42 37 44 42 37 44 40 37 44 35 32 39 34 33 39 34 33 39 34 33 39 34 33 39 34 33 39 34 33 39 34 33 39 36 35 41 36 35 41 36 35 41 36 35 41 36 35 41 36 35 41 36 35 41 35 36 41 36 41 45 34 42 45 36 41 45 34 42 45 36 41 45 34 42 45 36 41 45 34 42 45 37 42 46 35 43 46 37 42 46 35 43 46 37 42 46 35 43 46 37 42 46 40 41 46 44 34 42 48 32 42 48 32 42 48 32 42 48 32 42 48 32 42 48 32 42 48 32 42 54 38 48 54 38 48 54 38 48 54 38 48 54 38 48 54 38 48 54 38 48 55 38 46 65 39 48 66 39 46 66 39 46 66 39 46 66 39 46 66 39 46 66 39 46 66 39 46 67 40 47 69 42 49 71 44 51 74 47 54 78 51 58 81 54 61 83 56 63 82 59 65 82 65 73 81 68 75 84 71 78 87 74 81 91 78 85 95 82 89 98 85 92 100 87 94 97 84 91 97 84 91 97 84 91 97 84 91 97 84 91 97 84 91 97 84 91 97 85 85 99 91 80 99 92 74 99 92 76 99 92 74 99 92 76 99 92 74 99 92 76 99 92 74 103 96 80 103 96 78 103 96 80 103 96 78 103 96 80 103 96 78 103 96 80 104 95 80 92 75 67 93 74 68 93 74 68 93 74 68 93 74 68 93 74 68 93 74 68 93 74 68 96 77 71 96 77 71 96 77 71 96 77 71 96 77 71 96 77 71 96 77 71 97 76 71 115 86 88 116 86 88 116 86 88 116 86 88 116 86 88 116 86 88 116 86 88 116 86 88 117 87 89 115 85 87 113 83 85 110 80 82 106 76 78 103 73 75 101 71 73 100 68 73 108 72 82 109 71 84 109 71 84 109 71 84 109 71 84 109 71 84 109 71 84 109 71 84 117 79 92 122 84 97 127 89 102 130 92 105 126 88 101 117 79 92 107 69 82 95 65 75 54 39 46 48 42 46 48 42 46 48 42 46 48 42 46 48 42 46 48 42 46 48 42 46 51 45 49 49 43 47
54 44 45 50 40 41 47 37 38 45 35 36 43 32 36 42 33 38 42 32 40 42 32 40 42 32 40 42 32 40 42 32 40 42 32 40 42 32 40 44 34 42 44 34 42 44 34 42 44 34 42 44 34 42 44 34 42 44 34 42 45 34 42 57 42 49 60 43 51 65 48 56 72 55 63 78 61 69 85 68 76 90 73 81 92 75 83 106 89 97 104 87 95 99 82 90 92 75 83 85 68 76 79 62 70 74 57 65 69 56 63 46 36 45 43 38 45 43 38 45 43 38 45 43 38 45 43 38 45 43 38 45 43 38 45 42 37 44 42 37 44 42 37 44 42 37 44 42 37 44 42 37 44 42 37 44 40 37 44 37 34 41 36 35 41 36 35 41 36 35 41 36 35 41 36 35 41 36 35 41 36 35 41 36 35 41 36 35 41 36 35 41 36 35 41 36 35 41 36 35 41 36 35 41 35 36 41 37 40 45 36 41 45 37 40 45 36 41 45 37 40 45 36 41 45 37 40 45 36 41 45 38 41 46 37 42 46 38 41 46 37 42 46 38 41 46 37 42 46 38 41 46 41 40 46 45 34 42 48 32 42 48 32 42 48 32 42 48 32 42 48 32 42 48 32 42 48 32 42 54 38 48 54 38 48 54 38 48 54 38 48 54 38 48 54 38 48 54 38 48 55 38 46 65 39 48 66 39 46 66 39 46 66 39 46 66 39 46 66 39 46 66 39 46 66 39 46 67 40 47 69 42 49 71 44 51 74 47 54 78 51 58 81 54 61 83 56 63 82 59 65 83 66 74 81 68 75 83 70 77 86 73 80 88 75 82 91 78 85 93 80 87 94 81 88 92 79 86 92 79 86 92 79 86 92 79 86 92 79 86 92 79 86 92 79 86 92 80 82 94 85 76 94 87 71 94 86 73 94 87 71 94 86 73 94 87 71 94 86 73 94 87 71 101 93 80 101 94 78 101 93 80 101 94 78 101 93 80 101 94 78 101 93 80 102 92 80 94 77 69 95 76 70 95 76 70 95 76 70 95 76 70 95 76 70 95 76 70 95 76 70 96 77 71 96 77 71 96 77 71 96 77 71 96 77 71 96 77 71 96 77 71 97 76 71 115 86 88 116 86 88 116 86 88 116 86 88 116 86 88 116 86 88 116 86 88 116 86 88 117 87 89 115 85 87 113 83 85 110 80 82 106 76 78 103 73 75 101 71 73 100 68 73 108 72 82 109 71 84 109 71 84 109 71 84 109 71 84 109 71 84 109 71 84 109 71 84 115 77 90 119 81 94 125 87 100 127 89 102 124 86 99 115 77 90 105 67 80 93 63 73 54 39 46 48 42 46 48 42 46 48 42 46 48 42 46 48 42 46 48 42 46 48 42 46 51 45 49 49 43 47
54 44 45 50 40 41 47 37 38 45 35 36 43 32 36 42 33 38 42 32 40 42 32 40 42 32 40 42 32 40 42 32 40 42 32 40 42 32 40 44 34 42 44 34 42 44 34 42 44 34 42 44 34 42 44 34 42 44 34 42 45 34 42 57 42 49 60 43 51 65 48 56 72 55 63 78 61 69 85 68 76 90 73 81 92 75 83 103 86 94 100 83 91 96 79 87 89 72 80 82 65 73 76 59 67 71 54 62 65 52 59 46 36 45 43 38 45 43 38 45 43 38 45 43 38 45 43 38 45 43 38 45 43 38 45 42 37 44 42 37 44 42 37 44 42 37 44 42 37 44 42 37 44 42 37 44 40 37 44 40 37 44 39 38 44 39 38 44 39 38 44 39 38 44 39 38 44 39 38 44 39 38 44 36 35 41 36 35 41 36 35 41 36 35 41 36 35 41 36 35 41 36 35 41 36 35 41 39 40 45 37 40 45 39 40 45 37 40 45 39 40 45 37 40 45 39 40 45 37 40 45 40 41 46 38 41 46 40 41 46 38 41 46 40 41 46 38 41 46 40 41 46 42 39 46 45 34 42 48 32 42 48 32 42 48 32 42 48 32 42 48 32 42 48 32 42 48 32 42 54 38 48 54 38 48 54 38 48 54 38 48 54 38 48 54 38 48 54 38 48 55 38 46 65 39 48 66 39 46 66 39 46 66 39 46 66 39 46 66 39 46 66 39 46 66 39 46 67 40 47 69 42 49 71 44 51 74 47 54 78 51 58 81 54 61 83 56 63 82 59 65 84 67 75 82 69 76 82 69 76 83 70 77 84 71 78 85 72 79 86 73 80 86 73 80 85 72 79 85 72 79 85 72 79 85 72 79 85 72 79 85 72 79 85 72 79 85 73 75 87 78 71 87 79 66 87 79 68 87 79 66 87 79 68 87 79 66 87 79 68 87 79 66 98 90 79 98 90 77 98 90 79 98 90 77 98 90 79 98 90 77 98 90 79 99 89 79 97 80 73 98 79 73 98 79 73 98 79 73 98 79 73 98 79 73 98 79 73 98 79 73 96 77 71 96 77 71 96 77 71 96 77 71 96 77 71 96 77 71 96 77 71 97 76 71 115 86 88 116 86 88 116 86 88 116 86 88 116 86 88 116 86 88 116 86 88 116 86 88 117 87 89 115 85 87 113 83 85 110 80 82 106 76 78 103 73 75 101 71 73 100 68 73 108 72 82 109 71 84 109 71 84 109 71 84 109 71 84 109 71 84 109 71 84 109 71 84 112 74 87 116 78 91 122 84 97 124 86 99 121 83 96 112 74 87 101 63 76 89 59 69 54 39 46 48 42 46 48 42 46 48 42 46 48 42 46 48 42 46 48 42 46 48 42 46 51 45 49 49 43 47
54 44 45 50 40 41 47 37 38 45 35 36 43 32 36 42 33 38 42 32 40 42 32 40 42 32 40 42 32 40 42 32 40 42 32 40 42 32 40 44 34 42 44 34 42 44 34 42 44 34 42 44 34 42 44 34 42 44 34 42 45 34 42 57 42 49 60 43 51 65 48 56 72 55 63 78 61 69 85 68 76 90 73 81 92 75 83 100 83 91 97 80 88 92 75 83 86 69 77 79 62 70 72 55 63 68 51 59 62 49 56 46 36 45 43 38 45 43 38 45 43 38 45 43 38 45 43 38 45 43 38 45 43 38 45 42 37 44 42 37 44 42 37 44 42 37 44 42 37 44 42 37 44 42 37 44 40 37 44 44 41 48 43 42 48 43 42 48 43 42 48 43 42 48 43 42 48 43 42 48 43 42 48 36 35 41 36 35 41 36 35 41 36 35 41 36 35 41 36 35 41 36 35 41 36 35 41 40 39 45 39 40 45 40 39 45 39 40 45 40 39 45 39 40 45 40 39 45 39 40 45 41 40 46 40 41 46 41 40 46 40 41 46 41 40 46 40 41 46 41 40 46 42 39 46 45 34 42 48 32 42 48 32 42 48 32 42 48 32 42 48 32 42 48 32 42 48 32 42 54 38 48 54 38 48 54 38 48 54 38 48 54 38 48 54 38 48 54 38 48 55 38 46 65 39 48 66 39 46 66 39 46 66 39 46 66 39 46 66 39 46 66 39 46 66 39 46 67 40 47 69 42 49 71 44 51 74 47 54 78 51 58 81 54 61 83 56 63 82 59 65 86 69 77 82 69 76 82 69 76 81 68 75 80 67 74 79 66 73 78 65 72 78 65 72 79 66 73 79 66 73 79 66 73 79 66 73 79 66 73 79 66 73 79 66 73 79 67 69 81 72 65 81 73 62 81 72 63 81 73 62 81 72 63 81 73 62 81 72 63 81 73 62 94 85 76 94 86 75 94 85 76 94 86 75 94 85 76 94 86 75 94 85 76 95 85 76 101 84 77 102 83 77 102 83 77 102 83 77 102 83 77 102 83 77 102 83 77 102 83 77 96 77 71 96 77 71 96 77 71 96 77 71 96 77 71 96 77 71 96 77 71 97 76 71 115 86 88 116 86 88 116 86 88 116 86 88 116 86 88 116 86 88 116 86 88 116 86 88 117 87 89 115 85 87 113 83 85 110 80 82 106 76 78 103 73 75 101 71 73 100 68 73 108 72 82 109 71 84 109 71 84 109 71 84 109 71 84 109 71 84 109 71 84 109 71 84 108 70 83 113 75 88 118 80 93 121 83 96 117 79 92 108 70 83 98 60 73 86 56 66 54 39 46 48 42 46 48 42 46 48 42 46 48 42 46 48 42 46 48 42 46 48 42 46 51 45 49 49 43 47
54 44 45 50 40 41 47 37 38 45 35 36 43 32 36 42 33 38 42 32 40 42 32 40 42 32 40 42 32 40 42 32 40 42 32 40 42 32 40 44 34 42 44 34 42 44 34 42 44 34 42 44 34 42 44 34 42 44 34 42 45 34 42 57 42 49 60 43 51 65 48 56 72 55 63 78 61 69 85 68 76 90 73 81 92 75 83 96 79 87 94 77 85 89 72 80 83 66 74 76 59 67 69 52 60 64 47 55 59 46 53 46 36 45 43 38 45 43 38 45 43 38 45 43 38 45 43 38 45 43 38 45 43 38 45 42 37 44 42 37 44 42 37 44 42 37 44 42 37 44 42 37 44 42 37 44 40 37 44 47 44 51 46 45 51 46 45 51 46 45 51 46 45 51 46 45 51 46 45 51 46 45 51 36 35 41 36 35 41 36 35 41 36 35 41 36 35 41 36 35 41 36 35 41 36 35 41 41 38 45 41 38 45 41 38 45 41 38 45 41 38 45 41 38 45 41 38 45 41 38 45 42 39 46 42 39 46 42 39 46 42 39 46 42 39 46 42 39 46 42 39 46 44 39 46 45 34 42 48 32 42 48 32 42 48 32 42 48 32 42 48 32 42 48 32 42 48 32 42 54 38 48 54 38 48 54 38 48 54 38 48 54 38 48 54 38 48 54 38 48 55 38 46 65 39 48 66 39 46 66 39 46 66 39 46 66 39 46 66 39 46 66 39 46 66 39 46 67 40 47 69 42 49 71 44 51 74 47 54 78 51 58 81 54 61 83 56 63 82 59 65 87 70 78 83 70 77 81 68 75 78 65 72 76 63 70 73 60 67 71 58 65 70 57 64 72 59 66 72 59 66 72 59 66 72 59 66 72 59 66 72 59 66 72 59 66 72 60 62 74 65 60 74 65 58 74 65 58 74 65 58 74 65 58 74 65 58 74 65 58 74 65 58 91 82 75 91 82 75 91 82 75 91 82 75 91 82 75 91 82 75 91 82 75 92 81 75 104 87 80 105 86 80 105 86 80 105 86 80 105 86 80 105 86 80 105 86 80 105 86 80 96 77 71 96 77 71 96 77 71 96 77 71 96 77 71 96 77 71 96 77 71 97 76 71 115 86 88 116 86 88 116 86 88 116 86 88 116 86 88 116 86 88 116 86 88 116 86 88 117 87 89 115 85 87 113 83 85 110 80 82 106 76 78 103 73 75 101 71 73 100 68 73 108 72 82 109 71 84 109 71 84 109 71 84 109 71 84 109 71 84 109 71 84 109 71 84 105 67 80 109 71 84 115 77 90 117 79 92 114 76 89 105 67 80 95 57 70 83 53 63 54 39 46 48 42 46 48 42 46 48 42 46 48 42 46 48 42 46 48 42 46 48 42 46 51 45 49 49 43 47
54 44 45 50 40 41 47 37 38 45 35 36 43 32 36 42 33 38 42 32 40 42 32 40 42 32 40 42 32 40 42 32 40 42 32 40 42 32 40 44 34 42 44 34 42 44 34 42 44 34 42 44 34 42 44 34 42 44 34 42 45 34 42 57 42 49 60 43 51 65 48 56 72 55 63 78 61 69 85 68 76 90 73 81 92 75 83 94 77 85 91 74 82 86 69 77 80 63 71 73 56 64 67 50 58 62 45 53 56 43 50 46 36 45 43 38 45 43 38 45 43 38 45 43 38 45 43 38 45 43 38 45 43 38 45 42 37 44 42 37 44 42 37 44 42 37 44 42 37 44 42 37 44 42 37 44 40 37 44 49 46 53 48 47 53 48 47 53 48 47 53 48 47 53 48 47 53 48 47 53 48 47 53 36 35 41 36 35 41 36 35 41 36 35 41 36 35 41 36 35 41 36 35 41 37 34 41 43 38 45 43 38 45 43 38 45 43 38 45 43 38 45 43 38 45 43 38 45 43 38 45 44 39 46 44 39 46 44 39 46 44 39 46 44 39 46 44 39 46 44 39 46 45 38 46 46 33 42 48 32 42 48 32 42 48 32 42 48 32 42 48 32 42 48 32 42 48 32 42 54 38 48 54 38 48 54 38 48 54 38 48 54 38 48 54 38 48 54 38 48 55 38 46 65 39 48 66 39 46 66 39 46 66 39 46 66 39 46 66 39 46 66 39 46 66 39 46 67 40 47 69 42 49 71 44 51 74 47 54 78 51 58 81 54 61 83 56 63 82 59 65 88 71 79 83 70 77 80 67 74 77 64 71 73 60 67 69 56 63 66 53 60 64 51 58 67 54 61 67 54 61 67 54 61 67 54 61 67 54 61 67 54 61 67 54 61 67 55 59 69 59 57 69 60 55 69 60 55 69 60 55 69 60 55 69 60 55 69 60 55 69 60 55 89 80 75 89 80 75 89 80 75 89 80 75 89 80 75 89 80 75 89 80 75 90 79 75 106 88 84 107 88 82 107 88 82 107 88 82 107 88 82 107 88 82 107 88 82 107 88 82 96 77 71 96 77 71 96 77 71 96 77 71 96 77 71 96 77 71 96 77 71 97 76 71 115 86 88 116 86 88 116 86 88 116 86 88 116 86 88 116 86 88 116 86 88 116 86 88 117 87 89 115 85 87 113 83 85 110 80 82 106 76 78 103 73 75 101 71 73 100 68 73 108 72 82 109 71 84 109 71 84 109 71 84 109 71 84 109 71 84 109 71 84 109 71 84 103 65 78 107 69 82 113 75 88 115 77 90 112 74 87 103 65 78 92 54 67 80 50 60 54 39 46 48 42 46 48 42 46 48 42 46 48 42 46 48 42 46 48 42 46 48 42 46 51 45 49 49 43 47
54 44 45 50 40 41 47 37 38 45 35 36 43 32 36 42 33 38 42 32 40 42 32 40 42 32 40 42 32 40 42 32 40 42 32 40 42 32 40 44 34 42 44 34 42 44 34 42 44 34 42 44 34 42 44 34 42 44 34 42 45 34 42 57 42 49 60 43 51 65 48 56 72 55 63 78 61 69 85 68 76 90 73 81 92 75 83 93 76 84 90 73 81 85 68 76 79 62 70 72 55 63 66 49 57 61 44 52 55 42 49 46 36 45 43 38 45 43 38 45 43 38 45 43 38 45 43 38 45 43 38 45 43 38 45 42 37 44 42 37 44 42 37 44 42 37 44 42 37 44 42 37 44 42 37 44 40 37 44 51 48 55 50 49 55 50 49 55 50 49 55 50 49 55 50 49 55 50 49 55 50 49 55 36 35 41 36 35 41 36 35 41 36 35 41 36 35 41 36 35 41 36 35 41 37 34 41 44 37 45 46 36 45 46 36 45 46 36 45 46 36 45 46 36 45 46 36 45 46 36 45 47 37 46 47 37 46 47 37 46 47 37 46 47 37 46 47 37 46 47 37 46 48 36 46 46 33 42 48 32 42 48 32 42 48 32 42 48 32 42 48 32 42 48 32 42 48 32 42 54 38 48 54 38 48 54 38 48 54 38 48 54 38 48 54 38 48 54 38 48 55 38 46 65 39 48 66 39 46 66 39 46 66 39 46 66 39 46 66 39 46 66 39 46 66 39 46 67 40 47 69 42 49 71 44 51 74 47 54 78 51 58 81 54 61 83 56 63 82 59 65 88 71 79 84 71 78 80 67 74 76 63 70 71 58 65 67 54 61 63 50 57 61 48 55 65 52 59 65 52 59 65 52 59 65 52 59 65 52 59 65 52 59 65 52 59 65 53 57 67 57 58 67 57 56 67 57 56 67 57 56 67 57 56 67 57 56 67 57 56 67 57 56 87 77 76 87 77 76 87 77 76 87 77 76 87 77 76 87 77 76 87 77 76 88 77 75 108 90 86 109 90 84 109 90 84 109 90 84 109 90 84 109 90 84 109 90 84 109 90 84 96 77 71 96 77 71 96 77 71 96 77 71 96 77 71 96 77 71 96 77 71 97 76 71 115 86 88 116 86 88 116 86 88 116 86 88 116 86 88 116 86 88 116 86 88 116 86 88 117 87 89 115 85 87 113 83 85 110 80 82 106 76 78 103 73 75 101 71 73 100 68 73 108 72 82 109 71 84 109 71 84 109 71 84 109 71 84 109 71 84 109 71 84 109 71 84 101 63 76 106 68 81 111 73 86 114 76 89 110 72 85 101 63 76 91 53 66 79 49 59 54 39 46 48 42 46 48 42 46 48 42 46 48 42 46 48 42 46 48 42 46 48 42 46 51 45 49 49 43 47
66 56 57 66 56 57 66 56 57 66 56 57 66 55 59 44 35 40 45 35 43 45 35 43 47 37 45 48 38 46 49 39 47 50 40 48 51 41 49 48 38 46 48 38 46 48 38 46 48 38 46 48 38 46 48 38 46 48 38 46 49 38 46 66 51 58 67 50 58 67 50 58 67 50 58 67 50 58 67 50 58 67 50 58 67 50 58 66 49 57 66 49 57 66 49 57 66 49 57 66 49 57 66 49 57 66 49 57 63 50 57 43 33 42 40 35 42 40 35 42 40 35 42 40 35 42 40 35 42 40 35 42 40 35 42 45 40 47 45 40 47 45 40 47 45 40 47 45 40 47 45 40 47 45 40 47 43 40 47 50 47 54 49 48 54 49 48 54 49 48 54 49 48 54 49 48 54 49 48 54 49 48 54 43 42 48 43 42 48 43 42 48 43 42 48 43 42 48 43 42 48 43 42 48 44 41 48 50 38 48 51 38 48 51 38 48 51 38 48 51 38 48 51 38 48 51 38 48 51 38 48 53 40 50 53 40 50 53 40 50 53 40 50 53 40 50 53 40 50 53 40 50 53 40 50 48 32 42 48 32 42 48 32 42 48 32 42 48 32 42 48 32 42 48 32 42 48 32 42 55 39 49 55 39 49 55 39 49 55 39 49 55 39 49 55 39 49 55 39 49 56 39 47 67 41 50 69 42 49 71 44 51 75 48 55 78 51 58 81 54 61 84 57 64 85 58 65 86 59 66 86 59 66 87 60 67 88 61 68 90 63 70 91 64 71 92 65 72 89 66 72 72 55 63 68 55 62 66 53 60 62 49 56 59 46 53 56 43 50 53 40 47 52 39 46 54 41 48 54 41 48 54 41 48 54 41 48 54 41 48 54 41 48 54 41 48 54 41 48 54 43 47 54 43 47 54 43 47 54 43 47 54 43 47 54 43 47 54 43 47 54 43 47 56 45 49 57 46 50 59 48 52 63 52 56 66 55 59 69 58 62 72 61 65 74 62 62 98 80 78 99 80 74 99 80 74 99 80 74 99 80 74 99 80 74 99 80 74 99 80 74 103 84 78 103 84 78 103 84 78 103 84 78 103 84 78 103 84 78 103 84 78 104 83 78 109 80 82 110 80 82 110 80 82 110 80 82 110 80 82 110 80 82 110 80 82 110 80 82 109 79 81 109 79 81 109 79 81 109 79 81 109 79 81 109 79 81 109 79 81 110 78 83 100 64 74 101 63 76 101 63 76 101 63 76 101 63 76 101 63 76 101 63 76 101 63 76 103 65 78 101 63 76 99 61 74 96 58 71 92 54 67 89 51 64 87 49 62 80 50 60 54 39 46 48 42 46 48 42 46 48 42 46 48 42 46 48 42 46 48 42 46 48 42 46 48 42 46 46 40 44
68 58 59 68 58 59 68 58 59 68 58 59 68 57 61 47 38 43 47 37 45 48 38 46 48 38 46 49 39 47 50 40 48 50 40 48 50 40 48 48 38 46 48 38 46 48 38 46 48 38 46 48 38 46 48 38 46 48 38 46 49 38 46 64 49 56 65 48 56 65 48 56 65 48 56 65 48 56 65 48 56 65 48 56 65 48 56 64 47 55 64 47 55 64 47 55 64 47 55 64 47 55 64 47 55 64 47 55 61 48 55 43 33 42 40 35 42 40 35 42 40 35 42 40 35 42 40 35 42 40 35 42 40 35 42 45 40 47 45 40 47 45 40 47 45 40 47 45 40 47 45 40 47 45 40 47 43 40 47 50 47 54 49 48 54 49 48 54 49 48 54 49 48 54 49 48 54 49 48 54 49 48 54 43 42 48 43 42 48 43 42 48 43 42 48 43 42 48 43 42 48 43 42 48 46 41 48 51 38 48 54 36 48 54 36 48 54 36 48 54 36 48 54 36 48 54 36 48 54 36 48 56 38 50 56 38 50 56 38 50 56 38 50 56 38 50 56 38 50 56 38 50 56 38 50 48 32 42 48 32 42 48 32 42 48 32 42 48 32 42 48 32 42 48 32 42 48 32 42 55 39 49 55 39 49 55 39 49 55 39 49 55 39 49 55 39 49 55 39 49 56 39 47 68 42 51 70 43 50 73 46 53 76 49 56 79 52 59 83 56 63 85 58 65 86 59 66 87 60 67 88 61 68 88 61 68 89 62 69 89 62 69 90 63 70 90 63 70 88 65 71 71 54 62 67 54 61 64 51 58 61 48 55 58 45 52 54 41 48 52 39 46 51 38 45 54 41 48 54 41 48 54 41 48 54 41 48 54 41 48 54 41 48 54 41 48 54 41 48 54 43 51 54 43 51 54 43 51 54 43 51 54 43 51 54 43 51 54 43 51 54 43 51 57 46 54 58 47 55 61 50 58 64 53 61 67 56 64 71 60 68 73 62 70 75 63 67 98 80 78 99 80 74 99 80 74 99 80 74 99 80 74 99 80 74 99 80 74 99 80 74 103 84 78 103 84 78 103 84 78 103 84 78 103 84 78 103 84 78 103 84 78 104 83 78 109 80 82 110 80 82 110 80 82 110 80 82 110 80 82 110 80 82 110 80 82 110 80 82 107 77 79 107 77 79 107 77 79 107 77 79 107 77 79 107 77 79 107 77 79 108 76 81 100 64 74 101 63 76 101 63 76 101 63 76 101 63 76 101 63 76 101 63 76 101 63 76 103 65 78 101 63 76 99 61 74 96 58 71 92 54 67 89 51 64 87 49 62 80 50 60 54 39 46 48 42 46 48 42 46 48 42 46 48 42 46 48 42 46 48 42 46 48 42 46 48 42 46 46 40 44
70 60 61 70 60 61 70 60 61 70 60 61 70 59 63 53 44 49 53 43 51 52 42 50 51 41 49 51 41 49 50 40 48 50 40 48 49 39 47 48 38 46 48 38 46 48 38 46 48 38 46 48 38 46 48 38 46 48 38 46 49 38 46 62 47 54 63 46 54 63 46 54 63 46 54 63 46 54 63 46 54 63 46 54 63 46 54 62 45 53 62 45 53 62 45 53 62 45 53 62 45 53 62 45 53 62 45 53 59 46 53 43 33 42 40 35 42 40 35 42 40 35 42 40 35 42 40 35 42 40 35 42 40 35 42 45 40 47 45 40 47 45 40 47 45 40 47 45 40 47 45 40 47 45 40 47 43 40 47 50 47 54 49 48 54 49 48 54 49 48 54 49 48 54 49 48 54 49 48 54 49 48 54 43 42 48 43 42 48 43 42 48 43 42 48 43 42 48 43 42 48 43 42 48 46 41 48 53 37 48 56 36 48 56 36 48 56 36 48 56 36 48 56 36 48 56 36 48 56 36 48 58 38 50 58 38 50 58 38 50 58 38 50 58 38 50 58 38 50 58 38 50 58 38 50 49 32 42 48 32 42 48 32 42 48 32 42 48 32 42 48 32 42 48 32 42 48 32 42 55 39 49 55 39 49 55 39 49 55 39 49 55 39 49 55 39 49 55 39 49 56 39 47 70 44 53 73 46 53 75 48 55 78 51 58 82 55 62 85 58 65 87 60 67 89 62 69 91 64 71 91 64 71 90 63 70 89 62 69 89 62 69 88 61 68 87 60 67 84 61 67 69 52 60 64 51 58 62 49 56 59 46 53 55 42 49 52 39 46 50 37 44 48 35 42 54 41 48 54 41 48 54 41 48 54 41 48 54 41 48 54 41 48 54 41 48 54 41 50 54 42 52 54 42 52 54 42 52 54 42 52 54 42 52 54 42 52 54 42 52 54 42 52 59 47 57 61 49 59 63 51 61 66 54 64 70 58 68 73 61 71 75 63 73 78 65 72 98 80 78 99 80 74 99 80 74 99 80 74 99 80 74 99 80 74 99 80 74 99 80 74 103 84 78 103 84 78 103 84 78 103 84 78 103 84 78 103 84 78 103 84 78 104 83 78 109 80 82 110 80 82 110 80 82 110 80 82 110 80 82 110 80 82 110 80 82 110 80 82 105 75 77 105 75 77 105 75 77 105 75 77 105 75 77 105 75 77 105 75 77 106 74 79 100 64 74 101 63 76 101 63 76 101 63 76 101 63 76 101 63 76 101 63 76 101 63 76 103 65 78 101 63 76 99 61 74 96 58 71 92 54 67 89 51 64 87 49 62 80 50 60 54 39 46 48 42 46 48 42 46 48 42 46 48 42 46 48 42 46 48 42 46 48 42 46 48 42 46 46 40 44
73 63 64 73 63 64 73 63 64 73 63 64 73 62 66 61 52 57 60 50 58 58 48 56 56 46 54 53 43 51 51 41 49 49 39 47 48 38 46 48 38 46 48 38 46 48 38 46 48 38 46 48 38 46 48 38 46 48 38 46 49 38 46 59 44 51 60 43 51 60 43 51 60 43 51 60 43 51 60 43 51 60 43 51 60 43 51 59 42 50 59 42 50 59 42 50 59 42 50 59 42 50 59 42 50 59 42 50 56 43 50 43 33 42 40 35 42 40 35 42 40 35 42 40 35 42 40 35 42 40 35 42 40 35 42 45 40 47 45 40 47 45 40 47 45 40 47 45 40 47 45 40 47 45 40 47 43 40 47 50 47 54 49 48 54 49 48 54 49 48 54 49 48 54 49 48 54 49 48 54 49 48 54 43 42 48 43 42 48 43 42 48 43 42 48 43 42 48 43 42 48 43 42 48 47 40 48 54 36 48 57 35 48 58 34 48 57 35 48 58 34 48 57 35 48 58 34 48 57 35 48 60 36 50 59 37 50 60 36 50 59 37 50 60 36 50 59 37 50 60 36 50 59 37 50 49 32 42 48 32 42 48 32 42 48 32 42 48 32 42 48 32 42 48 32 42 48 32 42 55 39 49 55 39 49 55 39 49 55 39 49 55 39 49 55 39 49 55 39 49 56 39 47 74 48 57 76 49 56 78 51 58 82 55 62 85 58 65 88 61 68 91 64 71 92 65 72 95 68 75 94 67 74 93 66 73 90 63 70 88 61 68 85 58 65 84 57 64 80 57 63 65 48 56 61 48 55 59 46 53 55 42 49 52 39 46 49 36 43 46 33 40 45 32 39 54 41 48 54 41 48 54 41 48 54 41 48 54 41 48 54 41 48 54 41 48 54 41 50 54 42 54 54 42 54 54 42 56 54 42 54 54 42 56 54 42 54 54 42 56 54 42 54 63 51 65 64 52 64 66 54 68 70 58 70 73 61 75 76 64 76 79 67 81 81 68 77 98 80 80 99 80 74 99 80 74 99 80 74 99 80 74 99 80 74 99 80 74 99 80 74 103 84 78 103 84 78 103 84 78 103 84 78 103 84 78 103 84 78 103 84 78 104 83 78 109 80 82 110 80 82 110 80 82 110 80 82 110 80 82 110 80 82 110 80 82 110 80 82 102 72 74 102 72 74 102 72 74 102 72 74 102 72 74 102 72 74 102 72 74 103 71 76 100 64 74 101 63 76 101 63 76 101 63 76 101 63 76 101 63 76 101 63 76 101 63 76 103 65 78 101 63 76 99 61 74 96 58 71 92 54 67 89 51 64 87 49 62 80 50 60 54 39 46 48 42 46 48 42 46 48 42 46 48 42 46 48 42 46 48 42 46 48 42 46 48 42 46 46 40 44
77 67 68 77 67 68 77 67 68 77 67 68 77 66 70 69 60 65 67 57 65 64 54 62 60 50 58 56 46 54 51 41 49 48 38 46 47 37 45 48 38 46 48 38 46 48 38 46 48 38 46 48 38 46 48 38 46 48 38 46 49 38 46 55 40 47 56 39 47 56 39 47 56 39 47 56 39 47 56 39 47 56 39 47 56 39 47 55 38 46 55 38 46 55 38 46 55 38 46 55 38 46 55 38 46 55 38 46 52 39 46 43 33 42 40 35 42 40 35 42 40 35 42 40 35 42 40 35 42 40 35 42 40 35 42 45 40 47 45 40 47 45 40 47 45 40 47 45 40 47 45 40 47 45 40 47 43 40 47 50 47 54 49 48 54 49 48 54 49 48 54 49 48 54 49 48 54 49 48 54 49 48 54 43 42 48 43 42 48 43 42 48 43 42 48 43 42 48 43 42 48 43 42 48 47 40 48 56 36 48 58 34 48 60 33 48 58 34 48 60 33 48 58 34 48 60 33 48 58 34 48 62 35 50 60 36 50 62 35 50 60 36 50 62 35 50 60 36 50 62 35 50 59 37 50 49 32 42 48 32 42 48 32 42 48 32 42 48 32 42 48 32 42 48 32 42 48 32 42 55 39 49 55 39 49 55 39 49 55 39 49 55 39 49 55 39 49 55 39 49 56 39 47 77 51 60 79 52 59 82 55 62 85 58 65 88 61 68 92 65 72 94 67 74 95 68 75 100 73 80 98 71 78 95 68 75 91 64 71 87 60 67 83 56 63 80 53 60 75 52 58 62 45 53 58 45 52 55 42 49 52 39 46 49 36 43 45 32 39 43 30 37 42 29 36 54 41 48 54 41 48 54 41 48 54 41 48 54 41 48 54 41 48 54 41 48 54 41 50 54 42 54 54 42 56 54 41 58 54 42 56 54 41 58 54 42 56 54 41 58 54 42 56 66 53 70 67 55 69 70 57 74 73 61 75 76 63 80 80 68 82 82 69 86 84 71 81 98 80 80 99 80 74 99 80 74 99 80 74 99 80 74 99 80 74 99 80 74 99 80 74 103 84 78 103 84 78 103 84 78 103 84 78 103 84 78 103 84 78 103 84 78 104 83 78 109 80 82 110 80 82 110 80 82 110 80 82 110 80 82 110 80 82 110 80 82 110 80 82 98 68 70 98 68 70 98 68 70 98 68 70 98 68 70 98 68 70 98 68 70 99 67 72 100 64 74 101 63 76 101 63 76 101 63 76 101 63 76 101 63 76 101 63 76 101 63 76 103 65 78 101 63 76 99 61 74 96 58 71 92 54 67 89 51 64 87 49 62 80 50 60 54 39 46 48 42 46 48 42 46 48 42 46 48 42 46 48 42 46 48 42 46 48 42 46 48 42 46 46 40 44
80 70 71 80 70 71 80 70 71 80 70 71 80 69 73 76 67 72 74 64 72 70 60 68 64 54 62 58 48 56 52 42 50 48 38 46 45 35 43 48 38 46 48 38 46 48 38 46 48 38 46 48 38 46 48 38 46 48 38 46 49 38 46 52 37 44 53 36 44 53 36 44 53 36 44 53 36 44 53 36 44 53 36 44 53 36 44 52 35 43 52 35 43 52 35 43 52 35 43 52 35 43 52 35 43 52 35 43 49 36 43 43 33 42 40 35 42 40 35 42 40 35 42 40 35 42 40 35 42 40 35 42 40 35 42 45 40 47 45 40 47 45 40 47 45 40 47 45 40 47 45 40 47 45 40 47 43 40 47 50 47 54 49 48 54 49 48 54 49 48 54 49 48 54 49 48 54 49 48 54 49 48 54 43 42 48 43 42 48 43 42 48 43 42 48 43 42 48 43 42 48 43 42 48 47 40 48 56 36 48 60 33 48 61 33 48 60 33 48 61 33 48 60 33 48 61 33 48 60 33 48 63 35 50 62 35 50 63 35 50 62 35 50 63 35 50 62 35 50 63 35 50 60 36 50 49 32 42 48 32 42 48 32 42 48 32 42 48 32 42 48 32 42 48 32 42 48 32 42 55 39 49 55 39 49 55 39 49 55 39 49 55 39 49 55 39 49 55 39 49 56 39 47 80 54 63 83 56 63 85 58 65 88 61 68 92 65 72 95 68 75 97 70 77 99 72 79 104 77 84 102 75 82 98 71 78 92 65 72 86 59 66 80 53 60 76 49 56 71 48 54 59 42 50 54 41 48 52 39 46 49 36 43 45 32 39 42 29 36 40 27 34 38 25 32 54 41 48 54 41 48 54 41 48 54 41 48 54 41 48 54 41 48 54 41 48 54 41 50 54 42 56 54 41 58 54 41 59 54 41 58 54 41 59 54 41 58 54 41 59 54 41 58 69 56 74 71 58 75 73 60 78 76 63 80 80 67 85 83 70 87 85 72 90 88 75 85 98 80 80 99 80 74 99 80 74 99 80 74 99 80 74 99 80 74 99 80 74 99 80 74 103 84 78 103 84 78 103 84 78 103 84 78 103 84 78 103 84 78 103 84 78 104 83 78 109 80 82 110 80 82 110 80 82 110 80 82 110 80 82 110 80 82 110 80 82 110 80 82 95 65 67 95 65 67 95 65 67 95 65 67 95 65 67 95 65 67 95 65 67 96 64 69 100 64 74 101 63 76 101 63 76 101 63 76 101 63 76 101 63 76 101 63 76 101 63 76 103 65 78 101 63 76 99 61 74 96 58 71 92 54 67 89 51 64 87 49 62 80 50 60 54 39 46 48 42 46 48 42 46 48 42 46 48 42 46 48 42 46 48 42 46 48 42 46 48 42 46 46 40 44
82 72 73 82 72 73 82 72 73 82 72 73 82 71 75 82 73 78 79 69 77 74 64 72 67 57 65 60 50 58 53 43 51 47 37 45 44 34 42 48 38 46 48 38 46 48 38 46 48 38 46 48 38 46 48 38 46 48 38 46 49 38 46 50 35 42 51 34 42 51 34 42 51 34 42 51 34 42 51 34 42 51 34 42 51 34 42 50 33 41 50 33 41 50 33 41 50 33 41 50 33 41 50 33 41 50 33 41 47 34 41 43 33 42 40 35 42 40 35 42 40 35 42 40 35 42 40 35 42 40 35 42 40 35 42 45 40 47 45 40 47 45 40 47 45 40 47 45 40 47 45 40 47 45 40 47 43 40 47 50 47 54 49 48 54 49 48 54 49 48 54 49 48 54 49 48 54 49 48 54 49 48 54 43 42 48 43 42 48 43 42 48 43 42 48 43 42 48 43 42 48 43 42 48 47 40 48 57 35 48 61 33 48 63 32 48 61 33 48 63 32 48 61 33 48 63 32 48 61 33 48 65 34 50 63 35 50 65 34 50 63 35 50 65 34 50 63 35 50 65 34 50 62 35 50 51 31 42 48 32 42 48 32 42 48 32 42 48 32 42 48 32 42 48 32 42 48 32 42 55 39 49 55 39 49 55 39 49 55 39 49 55 39 49 55 39 49 55 39 49 56 39 47 83 57 66 85 58 65 87 60 67 91 64 71 94 67 74 97 70 77 100 73 80 101 74 81 108 81 88 105 78 85 100 73 80 93 66 73 85 58 65 78 51 58 73 46 53 67 44 50 56 39 47 52 39 46 50 37 44 46 33 40 43 30 37 40 27 34 37 24 31 36 23 30 54 41 48 54 41 48 54 41 48 54 41 48 54 41 48 54 41 48 54 41 48 54 41 51 54 41 58 54 41 59 54 41 61 54 41 59 54 41 61 54 41 59 54 41 61 54 41 59 72 59 79 73 60 78 75 62 82 79 66 84 82 69 89 85 72 90 88 75 95 90 76 89 98 80 80 99 80 74 99 80 74 99 80 74 99 80 74 99 80 74 99 80 74 99 80 74 103 84 78 103 84 78 103 84 78 103 84 78 103 84 78 103 84 78 103 84 78 104 83 78 109 80 82 110 80 82 110 80 82 110 80 82 110 80 82 110 80 82 110 80 82 110 80 82 93 63 65 93 63 65 93 63 65 93 63 65 93 63 65 93 63 65 93 63 65 94 62 67 100 64 74 101 63 76 101 63 76 101 63 76 101 63 76 101 63 76 101 63 76 101 63 76 103 65 78 101 63 76 99 61 74 96 58 71 92 54 67 89 51 64 87 49 62 80 50 60 54 39 46 48 42 46 48 42 46 48 42 46 48 42 46 48 42 46 48 42 46 48 42 46 48 42 46 46 40 44
84 74 75 84 74 75 84 74 75 84 74 75 83 74 77 85 76 81 80 73 80 76 66 74 67 60 67 61 51 59 51 44 51 47 37 45 42 35 42 48 38 46 46 39 46 48 38 46 46 39 46 48 38 46 46 39 46 48 38 46 48 38 46 45 34 42 46 33 42 46 33 42 46 33 42 46 33 42 46 33 42 46 33 42 46 33 42 45 32 41 45 32 41 45 32 41 45 32 41 45 32 41 45 32 41 45 32 41 44 32 42 41 34 42 38 35 42 40 34 44 38 35 42 40 34 44 38 35 42 40 34 44 38 35 42 45 39 49 43 40 47 45 39 49 43 40 47 45 39 49 43 40 47 45 39 49 43 40 47 48 49 54 48 49 54 48 49 54 48 49 54 48 49 54 48 49 54 48 49 54 48 49 54 42 43 48 42 43 48 42 43 48 42 43 48 42 43 48 42 43 48 42 43 48 46 41 48 56 36 48 60 34 47 60 33 48 60 34 47 60 33 48 60 34 47 60 33 48 60 34 47 62 35 50 62 36 49 62 35 50 62 36 49 62 35 50 62 36 49 62 35 50 60 36 49 51 31 43 49 32 42 49 31 43 49 32 42 49 31 43 49 32 42 49 31 43 49 32 42 56 38 50 56 39 49 56 38 50 56 39 49 56 38 50 56 39 49 56 38 50 58 38 49 81 60 67 83 60 68 86 63 71 89 66 74 92 69 77 96 73 81 98 75 83 99 76 84 107 84 92 104 81 89 98 75 83 90 67 75 82 59 67 74 51 59 68 45 53 63 44 50 51 40 48 47 40 47 46 36 45 41 34 41 40 30 39 34 27 34 34 24 33 31 24 31 52 42 51 50 43 50 52 42 51 50 43 50 52 42 51 50 43 50 52 42 51 52 42 51 54 42 56 54 41 58 54 41 58 54 41 58 54 41 58 54 41 58 54 41 58 54 41 58 73 60 77 74 61 78 77 64 81 80 67 84 83 70 87 87 74 91 89 76 93 91 78 88 98 80 80 99 80 74 99 80 76 99 80 74 99 80 76 99 80 74 99 80 76 99 80 74 103 84 80 103 84 78 103 84 80 103 84 78 103 84 80 103 84 78 103 84 80 104 83 80 109 80 82 110 80 82 111 79 84 110 80 82 111 79 84 110 80 82 111 79 84 110 80 82 92 60 65 91 61 63 92 60 65 91 61 63 92 60 65 91 61 63 92 60 65 94 59 65 103 63 74 104 62 76 104 62 76 104 62 76 104 62 76 103 62 76 103 62 76 101 63 76 103 65 78 101 63 76 98 62 74 95 59 71 91 55 67 86 53 64 84 51 62 78 51 60 52 39 46 47 42 46 47 42 46 47 42 46 47 42 46 47 42 46 47 42 46 47 42 46 47 42 46 45 40 44
81 72 73 81 72 73 81 72 73 81 72 73 81 72 75 85 79 83 82 77 81 81 75 79 77 72 76 74 68 72 70 65 69 69 63 67 66 61 65 47 41 45 45 40 44 43 37 41 39 34 38 37 31 35 32 27 31 31 25 29 29 24 30 41 35 45 39 36 47 39 36 47 39 36 47 39 36 47 39 36 47 39 36 47 39 36 47 37 34 45 37 34 45 37 34 45 37 34 45 37 34 45 37 34 45 37 34 45 37 34 45 40 37 48 39 38 46 40 37 48 39 38 46 40 37 48 39 38 46 40 37 48 39 38 46 49 46 57 48 47 55 49 46 57 48 47 55 49 46 57 48 47 55 49 46 57 47 47 55 51 56 60 49 57 59 49 57 59 49 57 59 49 57 59 49 57 59 49 57 59 49 57 59 42 50 52 42 50 52 42 50 52 42 50 52 42 50 52 42 50 52 42 50 52 47 48 52 52 41 49 56 39 47 56 39 49 56 39 47 56 39 49 56 39 47 56 39 49 56 39 47 58 41 51 58 41 49 58 41 51 58 41 49 58 41 51 58 41 49 58 41 51 58 41 51 56 36 48 56 36 48 56 35 50 56 36 48 56 35 50 56 36 48 56 35 50 56 36 48 60 39 54 60 40 52 60 39 54 60 40 52 60 39 54 60 40 52 60 39 54 60 40 52 73 56 66 73 58 65 76 61 68 79 64 71 82 67 74 86 71 78 88 73 80 89 74 81 85 70 77 82 67 74 77 62 69 71 56 63 64 49 56 58 43 50 53 38 45 47 36 44 36 33 42 32 35 44 34 34 46 32 35 44 34 34 46 32 35 44 34 34 46 32 35 44 44 44 56 42 45 54 44 44 56 42 45 54 44 44 56 42 45 54 44 44 56 45 43 54 45 35 44 50 37 46 55 42 51 61 48 57 68 55 64 74 61 70 79 66 75 82 69 78 83 70 79 83 70 79 83 70 79 83 70 79 83 70 79 83 70 79 83 70 79 85 70 75 93 77 77 95 77 73 95 77 75 95 77 73 95 77 75 95 77 73 95 77 75 95 77 73 102 84 82 102 84 80 102 84 82 102 84 80 102 84 82 102 84 80 102 84 82 104 83 82 109 78 83 108 76 81 108 73 80 103 71 76 101 66 73 96 64 69 96 61 68 92 60 65 95 60 67 93 61 66 95 60 67 93 61 66 95 60 67 93 61 66 95 60 67 98 58 67 99 51 65 102 49 65 101 50 65 101 50 65 99 51 65 98 52 65 96 52 65 94 54 65 103 65 76 100 64 74 93 60 69 85 54 62 78 48 56 69 42 49 63 38 44 57 38 44 49 40 45 44 42 47 44 42 47 44 42 47 44 42 47 44 42 47 44 42 47 44 42 47 39 37 42 37 35 40
81 72 73 81 72 73 81 72 73 81 72 73 79 73 73 85 79 83 82 77 81 80 75 79 77 72 76 73 68 72 70 65 69 68 63 67 66 61 65 47 42 46 46 41 45 44 39 43 40 35 39 37 32 36 34 29 33 31 26 30 28 26 31 38 36 47 37 37 49 37 37 49 37 37 49 37 37 49 37 37 49 37 37 49 37 37 49 35 35 47 35 35 47 35 35 47 35 35 47 35 35 47 35 35 47 35 35 47 35 35 47 39 37 48 39 37 48 39 37 48 39 37 48 39 37 48 39 37 48 39 37 48 39 37 48 48 46 57 48 46 57 48 46 57 48 46 57 48 46 57 48 46 57 48 46 57 47 47 55 51 56 60 48 58 59 49 57 59 48 58 59 49 57 59 48 58 59 49 57 59 48 58 59 44 52 54 43 53 54 44 52 54 43 53 54 44 52 54 43 53 54 44 52 54 47 51 54 51 45 49 55 42 49 55 42 49 55 42 49 55 42 49 55 42 49 55 42 49 55 42 49 55 42 49 55 42 49 55 42 49 55 42 49 55 42 49 55 42 49 55 42 49 57 41 51 56 36 48 56 35 50 57 34 50 56 35 50 57 34 50 56 35 50 57 34 50 56 35 50 61 38 54 60 39 54 61 38 54 60 39 54 61 38 54 60 39 54 61 38 54 58 40 52 69 56 66 69 58 66 71 60 68 75 64 72 78 67 75 81 70 78 84 73 81 85 74 82 81 70 78 78 67 75 73 62 70 67 56 64 60 49 57 54 43 51 49 38 46 43 36 44 32 34 46 29 35 47 29 35 47 29 35 47 29 35 47 29 35 47 29 35 47 29 35 47 39 45 57 39 45 57 39 45 57 39 45 57 39 45 57 39 45 57 39 45 57 42 45 54 46 36 44 51 39 43 56 44 48 62 50 54 69 57 61 75 63 67 80 68 72 83 71 75 83 71 75 83 71 75 83 71 75 83 71 75 83 71 75 83 71 75 83 71 75 85 70 73 93 77 77 95 77 75 95 77 75 95 77 75 95 77 75 95 77 75 95 77 75 95 77 75 102 84 82 102 84 82 102 84 82 102 84 82 102 84 82 102 84 82 102 84 82 104 83 82 109 78 84 110 75 82 108 73 80 105 70 77 101 66 73 98 63 70 96 61 68 94 59 66 95 60 67 95 60 67 95 60 67 95 60 67 95 60 67 95 60 67 95 60 67 99 57 67 102 49 65 105 48 65 105 48 65 102 49 65 102 49 65 99 51 65 98 52 65 95 53 65 103 65 76 98 65 74 92 61 69 82 55 62 76 49 56 66 43 49 61 38 44 54 39 44 47 41 45 43 42 47 43 42 47 43 42 47 43 42 47 43 42 47 43 42 47 43 42 47 38 37 42 36 35 40
81 72 73 81 72 73 81 72 73 81 72 73 79 73 73 85 79 83 82 77 81 80 75 79 77 72 76 73 68 72 70 65 69 68 63 67 66 61 65 50 45 49 48 43 47 46 41 45 43 38 42 39 34 38 36 31 35 34 29 33 30 28 33 38 36 47 37 37 49 37 37 49 37 37 49 37 37 49 37 37 49 37 37 49 37 37 49 35 35 47 35 35 47 35 35 47 35 35 47 35 35 47 35 35 47 35 35 47 35 35 47 39 37 48 39 37 48 39 37 48 39 37 48 39 37 48 39 37 48 39 37 48 39 37 48 48 46 57 48 46 57 48 46 57 48 46 57 48 46 57 48 46 57 48 46 57 47 47 55 51 56 60 49 57 59 51 56 59 49 57 59 51 56 59 49 57 59 51 56 59 49 57 59 48 53 56 46 54 56 48 53 56 46 54 56 48 53 56 46 54 56 48 53 56 51 52 56 55 46 51 57 44 51 57 44 51 57 44 51 57 44 51 57 44 51 57 44 51 57 44 51 55 42 49 55 42 49 55 42 49 55 42 49 55 42 49 55 42 49 55 42 49 57 41 51 54 36 48 54 36 50 56 35 50 54 36 50 56 35 50 54 36 50 56 35 50 54 36 50 60 39 54 58 40 54 60 39 54 58 40 54 60 39 54 58 40 54 60 39 54 58 40 52 66 53 63 67 56 64 69 58 66 72 61 69 76 65 73 79 68 76 81 70 78 83 72 80 78 67 75 76 65 73 71 60 68 64 53 61 57 46 54 51 40 48 46 35 43 41 34 42 32 34 46 29 35 47 29 35 47 29 35 47 29 35 47 29 35 47 29 35 47 29 35 47 39 45 57 39 45 57 39 45 57 39 45 57 39 45 57 39 45 57 39 45 57 42 45 54 49 39 47 53 41 45 58 46 50 65 53 57 72 60 64 78 66 70 83 71 75 85 73 77 83 71 75 83 71 75 83 71 75 83 71 75 83 71 75 83 71 75 83 71 75 85 70 73 93 77 77 95 77 75 95 77 75 95 77 75 95 77 75 95 77 75 95 77 75 95 77 75 102 84 82 102 84 82 102 84 82 102 84 82 102 84 82 102 84 82 102 84 82 104 83 82 109 78 84 110 75 82 108 73 80 105 70 77 101 66 73 98 63 70 96 61 68 94 59 66 95 60 67 95 60 67 95 60 67 95 60 67 95 60 67 95 60 67 95 60 67 99 57 67 102 49 65 105 48 65 105 48 65 102 49 65 102 49 65 99 51 65 98 52 65 95 53 65 103 65 76 98 65 74 92 61 69 82 55 62 76 49 56 66 43 49 61 38 44 54 39 44 47 41 45 43 42 47 43 42 47 43 42 47 43 42 47 43 42 47 43 42 47 43 42 47 38 37 42 36 35 40
81 72 73 81 72 73 81 72 73 81 72 73 79 73 73 85 79 83 82 77 81 80 75 79 77 72 76 73 68 72 70 65 69 68 63 67 66 61 65 53 48 52 52 47 51 49 44 48 46 41 45 43 38 42 39 34 38 37 32 36 34 32 37 38 36 47 37 37 49 37 37 49 37 37 49 37 37 49 37 37 49 37 37 49 37 37 49 35 35 47 35 35 47 35 35 47 35 35 47 35 35 47 35 35 47 35 35 47 35 35 47 39 37 48 39 37 48 39 37 48 39 37 48 39 37 48 39 37 48 39 37 48 39 37 48 48 46 57 48 46 57 48 46 57 48 46 57 48 46 57 48 46 57 48 46 57 47 47 55 52 55 60 51 56 59 52 56 59 51 56 59 52 56 59 51 56 59 52 56 59 51 56 59 52 56 59 51 56 59 52 56 59 51 56 59 52 56 59 51 56 59 52 56 59 55 54 59 58 49 54 60 47 54 60 47 54 60 47 54 60 47 54 60 47 54 60 47 54 60 47 54 55 42 49 55 42 49 55 42 49 55 42 49 55 42 49 55 42 49 55 42 49 55 42 51 53 37 48 53 37 50 54 36 50 53 37 50 54 36 50 53 37 50 54 36 50 53 37 50 58 40 54 57 41 54 58 40 54 57 41 54 58 40 54 57 41 54 58 40 54 57 41 52 63 50 60 63 52 60 66 55 63 69 58 66 72 61 69 76 65 73 78 67 75 79 68 76 75 64 72 72 61 69 68 57 65 61 50 58 54 43 51 48 37 45 43 32 40 37 30 38 32 34 46 29 35 47 29 35 47 29 35 47 29 35 47 29 35 47 29 35 47 29 35 47 39 45 57 39 45 57 39 45 57 39 45 57 39 45 57 39 45 57 39 45 57 42 45 54 52 42 50 57 45 49 61 49 53 68 56 60 75 63 67 81 69 73 86 74 78 89 77 81 83 71 75 83 71 75 83 71 75 83 71 75 83 71 75 83 71 75 83 71 75 85 70 73 93 77 77 95 77 75 95 77 75 95 77 75 95 77 75 95 77 75 95 77 75 95 77 75 102 84 82 102 84 82 102 84 82 102 84 82 102 84 82 102 84 82 102 84 82 104 83 82 109 78 84 110 75 82 108 73 80 105 70 77 101 66 73 98 63 70 96 61 68 94 59 66 95 60 67 95 60 67 95 60 67 95 60 67 95 60 67 95 60 67 95 60 67 99 57 67 102 49 65 105 48 65 105 48 65 102 49 65 102 49 65 99 51 65 98 52 65 95 53 65 103 65 76 98 65 74 92 61 69 82 55 62 76 49 56 66 43 49 61 38 44 54 39 44 47 41 45 43 42 47 43 42 47 43 42 47 43 42 47 43 42 47 43 42 47 43 42 47 38 37 42 36 35 40
81 72 73 81 72 73 81 72 73 81 72 73 79 73 73 85 79 83 82 77 81 80 75 79 77 72 76 73 68 72 70 65 69 68 63 67 66 61 65 56 51 55 55 50 54 53 48 52 49 44 48 46 41 45 43 38 42 40 35 39 37 35 40 38 36 47 37 37 49 37 37 49 37 37 49 37 37 49 37 37 49 37 37 49 37 37 49 35 35 47 35 35 47 35 35 47 35 35 47 35 35 47 35 35 47 35 35 47 35 35 47 39 37 48 39 37 48 39 37 48 39 37 48 39 37 48 39 37 48 39 37 48 39 37 48 48 46 57 48 46 57 48 46 57 48 46 57 48 46 57 48 46 57 48 46 57 48 47 55 54 55 60 52 56 59 54 55 59 52 56 59 54 55 59 52 56 59 54 55 59 52 56 59 58 59 63 56 60 63 58 59 63 56 60 63 58 59 63 56 60 63 58 59 63 59 58 63 62 53 58 64 51 58 64 51 58 64 51 58 64 51 58 64 51 58 64 51 58 64 51 58 55 42 49 55 42 49 55 42 49 55 42 49 55 42 49 55 42 49 55 42 49 55 42 51 51 38 48 51 37 50 53 37 50 51 37 50 53 37 50 51 37 50 53 37 50 51 37 50 57 41 54 55 41 54 57 41 54 55 41 54 57 41 54 55 41 54 57 41 54 55 42 52 59 47 57 60 49 57 62 51 59 66 55 63 69 58 66 72 61 69 75 64 72 76 65 73 72 61 69 69 58 66 64 53 61 58 47 55 51 40 48 44 33 41 40 29 37 34 27 35 32 34 46 29 35 47 29 35 47 29 35 47 29 35 47 29 35 47 29 35 47 29 35 47 39 45 57 39 45 57 39 45 57 39 45 57 39 45 57 39 45 57 39 45 57 42 45 54 55 45 53 60 48 52 65 53 57 71 59 63 78 66 70 85 73 77 89 77 81 92 80 84 83 71 75 83 71 75 83 71 75 83 71 75 83 71 75 83 71 75 83 71 75 85 70 73 93 77 77 95 77 75 95 77 75 95 77 75 95 77 75 95 77 75 95 77 75 95 77 75 102 84 82 102 84 82 102 84 82 102 84 82 102 84 82 102 84 82 102 84 82 104 83 82 109 78 84 110 75 82 108 73 80 105 70 77 101 66 73 98 63 70 96 61 68 94 59 66 95 60 67 95 60 67 95 60 67 95 60 67 95 60 67 95 60 67 95 60 67 99 57 67 102 49 65 105 48 65 105 48 65 102 49 65 102 49 65 99 51 65 98 52 65 95 53 65 103 65 76 98 65 74 92 61 69 82 55 62 76 49 56 66 43 49 61 38 44 54 39 44 47 41 45 43 42 47 43 42 47 43 42 47 43 42 47 43 42 47 43 42 47 43 42 47 38 37 42 36 35 40
81 72 73 81 72 73 81 72 73 81 72 73 79 73 73 85 79 83 82 77 81 80 75 79 77 72 76 73 68 72 70 65 69 68 63 67 66 61 65 60 55 59 58 53 57 56 51 55 53 48 52 49 44 48 46 41 45 44 39 43 40 38 43 38 36 47 37 37 49 37 37 49 37 37 49 37 37 49 37 37 49 37 37 49 37 37 49 35 35 47 35 35 47 35 35 47 35 35 47 35 35 47 35 35 47 35 35 47 35 35 47 39 37 48 39 37 48 39 37 48 39 37 48 39 37 48 39 37 48 39 37 48 39 37 48 48 46 57 48 46 57 48 46 57 48 46 57 48 46 57 48 46 57 48 46 57 48 47 55 55 54 60 55 54 59 55 54 59 55 54 59 55 54 59 55 54 59 55 54 59 55 54 59 62 61 66 62 61 66 62 61 66 62 61 66 62 61 66 62 61 66 62 61 66 63 61 66 65 56 61 67 54 61 67 54 61 67 54 61 67 54 61 67 54 61 67 54 61 67 54 61 55 42 49 55 42 49 55 42 49 55 42 49 55 42 49 55 42 49 55 42 49 55 42 51 50 38 48 50 38 50 50 38 50 50 38 50 50 38 50 50 38 50 50 38 50 50 38 50 54 42 54 54 42 54 54 42 54 54 42 54 54 42 54 54 42 54 54 42 54 54 42 52 55 43 53 57 46 54 59 48 56 62 51 59 66 55 63 69 58 66 71 60 68 73 62 70 68 57 65 66 55 63 61 50 58 55 44 52 48 37 45 41 30 38 36 25 33 31 24 32 32 34 46 29 35 47 29 35 47 29 35 47 29 35 47 29 35 47 29 35 47 29 35 47 39 45 57 39 45 57 39 45 57 39 45 57 39 45 57 39 45 57 39 45 57 42 45 54 59 49 57 63 51 55 68 56 60 74 62 66 81 69 73 88 76 80 93 81 85 95 83 87 83 71 75 83 71 75 83 71 75 83 71 75 83 71 75 83 71 75 83 71 75 85 70 73 93 77 77 95 77 75 95 77 75 95 77 75 95 77 75 95 77 75 95 77 75 95 77 75 102 84 82 102 84 82 102 84 82 102 84 82 102 84 82 102 84 82 102 84 82 104 83 82 109 78 84 110 75 82 108 73 80 105 70 77 101 66 73 98 63 70 96 61 68 94 59 66 95 60 67 95 60 67 95 60 67 95 60 67 95 60 67 95 60 67 95 60 67 99 57 67 102 49 65 105 48 65 105 48 65 102 49 65 102 49 65 99 51 65 98 52 65 95 53 65 103 65 76 98 65 74 92 61 69 82 55 62 76 49 56 66 43 49 61 38 44 54 39 44 47 41 45 43 42 47 43 42 47 43 42 47 43 42 47 43 42 47 43 42 47 43 42 47 38 37 42 36 35 40
81 72 73 81 72 73 81 72 73 81 72 73 79 73 73 85 79 83 82 77 81 80 75 79 77 72 76 73 68 72 70 65 69 68 63 67 66 61 65 62 57 61 61 56 60 58 53 57 55 50 54 52 47 51 48 43 47 46 41 45 43 41 46 38 36 47 37 37 49 37 37 49 37 37 49 37 37 49 37 37 49 37 37 49 37 37 49 35 35 47 35 35 47 35 35 47 35 35 47 35 35 47 35 35 47 35 35 47 35 35 47 39 37 48 39 37 48 39 37 48 39 37 48 39 37 48 39 37 48 39 37 48 39 37 48 48 46 57 48 46 57 48 46 57 48 46 57 48 46 57 48 46 57 48 46 57 48 47 55 56 53 60 56 54 59 56 54 59 56 54 59 56 54 59 56 54 59 56 54 59 56 54 59 65 63 68 65 63 68 65 63 68 65 63 68 65 63 68 65 63 68 65 63 68 67 62 68 68 57 63 69 56 63 69 56 63 69 56 63 69 56 63 69 56 63 69 56 63 69 56 63 55 42 49 55 42 49 55 42 49 55 42 49 55 42 49 55 42 49 55 42 49 54 43 51 49 39 48 49 39 50 49 39 50 49 39 50 49 39 50 49 39 50 49 39 50 49 39 50 53 43 54 53 43 54 53 43 54 53 43 54 53 43 54 53 43 54 53 43 54 53 43 52 53 41 51 54 43 51 57 46 54 60 49 57 63 52 60 67 56 64 69 58 66 70 59 67 66 55 63 63 52 60 58 47 55 52 41 49 45 34 42 39 28 36 34 23 31 28 21 29 32 34 46 29 35 47 29 35 47 29 35 47 29 35 47 29 35 47 29 35 47 29 35 47 39 45 57 39 45 57 39 45 57 39 45 57 39 45 57 39 45 57 39 45 57 42 45 54 61 51 59 66 54 58 71 59 63 77 65 69 84 72 76 90 78 82 95 83 87 98 86 90 83 71 75 83 71 75 83 71 75 83 71 75 83 71 75 83 71 75 83 71 75 85 70 73 93 77 77 95 77 75 95 77 75 95 77 75 95 77 75 95 77 75 95 77 75 95 77 75 102 84 82 102 84 82 102 84 82 102 84 82 102 84 82 102 84 82 102 84 82 104 83 82 109 78 84 110 75 82 108 73 80 105 70 77 101 66 73 98 63 70 96 61 68 94 59 66 95 60 67 95 60 67 95 60 67 95 60 67 95 60 67 95 60 67 95 60 67 99 57 67 102 49 65 105 48 65 105 48 65 102 49 65 102 49 65 99 51 65 98 52 65 95 53 65 103 65 76 98 65 74 92 61 69 82 55 62 76 49 56 66 43 49 61 38 44 54 39 44 47 41 45 43 42 47 43 42 47 43 42 47 43 42 47 43 42 47 43 42 47 43 42 47 38 37 42 36 35 40
81 72 73 81 72 73 81 72 73 81 72 73 79 73 73 85 79 83 82 77 81 80 75 79 77 72 76 73 68 72 70 65 69 68 63 67 66 61 65 63 58 62 62 57 61 60 55 59 56 51 55 53 48 52 50 45 49 47 42 46 44 42 47 38 36 47 37 37 49 37 37 49 37 37 49 37 37 49 37 37 49 37 37 49 37 37 49 35 35 47 35 35 47 35 35 47 35 35 47 35 35 47 35 35 47 35 35 47 35 35 47 39 37 48 39 37 48 39 37 48 39 37 48 39 37 48 39 37 48 39 37 48 39 37 48 48 46 57 48 46 57 48 46 57 48 46 57 48 46 57 48 46 57 48 46 57 49 46 55 58 53 60 59 52 59 59 52 59 59 52 59 59 52 59 59 52 59 59 52 59 59 52 59 70 63 70 70 63 70 70 63 70 70 63 70 70 63 70 70 63 70 70 63 70 72 62 70 70 59 65 71 58 65 71 58 65 71 58 65 71 58 65 71 58 65 71 58 65 71 58 65 55 42 49 55 42 49 55 42 49 55 42 49 55 42 49 55 42 49 55 42 49 54 43 51 47 40 48 46 40 50 46 40 50 46 40 50 46 40 50 46 40 50 46 40 50 46 40 50 50 44 54 50 44 54 50 44 54 50 44 54 50 44 54 50 44 54 50 44 54 51 44 52 51 41 50 53 42 50 55 44 52 59 48 56 62 51 59 65 54 62 68 57 65 69 58 66 65 54 62 62 51 59 57 46 54 51 40 48 44 33 41 38 27 35 33 22 30 27 20 28 32 34 46 29 35 47 29 35 47 29 35 47 29 35 47 29 35 47 29 35 47 29 35 47 39 45 57 39 45 57 39 45 57 39 45 57 39 45 57 39 45 57 39 45 57 42 45 54 62 52 60 67 55 59 72 60 64 78 66 70 85 73 77 91 79 83 96 84 88 99 87 91 83 71 75 83 71 75 83 71 75 83 71 75 83 71 75 83 71 75 83 71 75 85 70 73 93 77 77 95 77 75 95 77 75 95 77 75 95 77 75 95 77 75 95 77 75 95 77 75 102 84 82 102 84 82 102 84 82 102 84 82 102 84 82 102 84 82 102 84 82 104 83 82 109 78 84 110 75 82 108 73 80 105 70 77 101 66 73 98 63 70 96 61 68 94 59 66 95 60 67 95 60 67 95 60 67 95 60 67 95 60 67 95 60 67 95 60 67 99 57 67 102 49 65 105 48 65 105 48 65 102 49 65 102 49 65 99 51 65 98 52 65 95 53 65 103 65 76 98 65 74 92 61 69 82 55 62 76 49 56 66 43 49 61 38 44 54 39 44 47 41 45 43 42 47 43 42 47 43 42 47 43 42 47 43 42 47 43 42 47 43 42 47 38 37 42 36 35 40
81 72 73 81 72 73 81 72 73 81 72 73 79 73 73 75 69 73 74 69 73 74 69 73 74 69 73 74 69 73 74 69 73 74 69 73 74 69 73 75 70 74 73 68 72 70 65 69 65 60 64 61 56 60 56 51 55 53 48 52 49 47 52 40 38 49 39 39 51 39 39 51 39 39 51 39 39 51 39 39 51 39 39 51 39 39 51 44 44 56 44 44 56 44 44 56 44 44 56 44 44 56 44 44 56 44 44 56 44 44 56 43 41 52 43 41 52 43 41 52 43 41 52 43 41 52 43 41 52 43 41 52 43 41 52 56 54 65 56 54 65 56 54 65 56 54 65 56 54 65 56 54 65 56 54 65 57 54 63 60 50 59 62 51 59 64 53 61 68 57 65 71 60 68 74 63 71 77 66 74 78 67 75 85 74 82 85 74 82 85 74 82 85 74 82 85 74 82 85 74 82 85 74 82 85 74 82 86 73 80 86 73 80 86 73 80 86 73 80 86 73 80 86 73 80 86 73 80 86 73 80 70 57 64 68 55 62 66 53 60 63 50 57 59 46 53 56 43 50 54 41 48 50 40 48 45 40 47 42 41 49 42 41 49 42 41 49 42 41 49 42 41 49 42 41 49 42 41 49 39 38 46 39 38 46 39 38 46 39 38 46 39 38 46 39 38 46 39 38 46 40 37 44 50 40 49 51 40 48 51 40 48 51 40 48 51 40 48 51 40 48 51 40 48 51 40 48 45 34 42 45 34 42 45 34 42 45 34 42 45 34 42 45 34 42 45 34 42 42 35 43 35 37 49 32 38 50 32 38 50 32 38 50 32 38 50 32 38 50 32 38 50 32 38 50 28 34 46 29 35 47 31 37 49 35 41 53 38 44 56 41 47 59 44 50 62 48 51 60 74 64 72 76 64 68 76 64 68 76 64 68 76 64 68 76 64 68 76 64 68 76 64 68 83 71 75 83 71 75 83 71 75 83 71 75 83 71 75 83 71 75 83 71 75 85 70 73 96 80 80 98 80 78 98 80 78 98 80 78 98 80 78 98 80 78 98 80 78 98 80 78 97 79 77 97 79 77 97 79 77 97 79 77 97 79 77 97 79 77 97 79 77 99 78 77 98 67 73 101 66 73 101 66 73 101 66 73 101 66 73 101 66 73 101 66 73 101 66 73 98 63 70 98 63 70 98 63 70 98 63 70 98 63 70 98 63 70 98 63 70 102 60 70 100 47 63 103 46 63 103 46 63 100 47 63 100 47 63 97 49 63 96 50 63 93 51 63 86 48 59 81 48 57 78 47 55 72 45 52 68 41 48 62 39 45 60 37 43 53 38 43 46 40 44 42 41 46 42 41 46 42 41 46 42 41 46 42 41 46 42 41 46 42 41 46 35 34 39 33 32 37
81 72 73 81 72 73 81 72 73 81 72 73 79 73 73 73 67 71 72 67 71 72 67 71 72 67 71 72 67 71 72 67 71 72 67 71 72 67 71 73 68 72 72 67 71 69 64 68 65 60 64 61 56 60 57 52 56 54 49 53 51 49 54 42 40 51 41 41 53 41 41 53 41 41 53 41 41 53 41 41 53 41 41 53 41 41 53 46 46 58 46 46 58 46 46 58 46 46 58 46 46 58 46 46 58 46 46 58 46 46 58 45 43 54 45 43 54 45 43 54 45 43 54 45 43 54 45 43 54 45 43 54 45 43 54 56 54 65 56 54 65 56 54 65 56 54 65 56 54 65 56 54 65 56 54 65 59 53 63 62 50 60 66 50 60 69 53 63 72 56 66 75 59 69 79 63 73 81 65 75 82 66 76 88 72 82 88 72 82 88 72 82 88 72 82 88 72 82 88 72 82 88 72 82 88 72 82 86 73 80 86 73 80 86 73 80 86 73 80 86 73 80 86 73 80 86 73 80 86 73 80 70 57 64 68 55 62 66 53 60 63 50 57 59 46 53 56 43 50 54 41 48 50 40 48 42 41 47 39 42 49 39 42 49 39 42 49 39 42 49 39 42 49 39 42 49 39 42 49 36 39 46 36 39 46 36 39 46 36 39 46 36 39 46 36 39 46 36 39 46 39 38 44 48 41 49 51 40 48 51 40 48 51 40 48 51 40 48 51 40 48 51 40 48 51 40 48 45 34 42 45 34 42 45 34 42 45 34 42 45 34 42 45 34 42 45 34 42 42 35 43 35 37 49 32 38 50 32 38 50 32 38 50 32 38 50 32 38 50 32 38 50 32 38 50 29 35 47 30 36 48 33 39 51 36 42 54 39 45 57 43 49 61 45 51 63 49 52 61 74 64 72 76 64 68 76 64 68 76 64 68 76 64 68 76 64 68 76 64 68 76 64 68 83 71 75 83 71 75 83 71 75 83 71 75 83 71 75 83 71 75 83 71 75 85 70 73 96 80 80 98 80 78 98 80 78 98 80 78 98 80 78 98 80 78 98 80 78 98 80 78 97 79 77 97 79 77 97 79 77 97 79 77 97 79 77 97 79 77 97 79 77 99 78 77 98 67 73 101 66 73 101 66 73 101 66 73 101 66 73 101 66 73 101 66 73 101 66 73 98 63 70 98 63 70 98 63 70 98 63 70 98 63 70 98 63 70 98 63 70 102 60 70 100 47 63 103 46 63 103 46 63 100 47 63 100 47 63 97 49 63 96 50 63 93 51 63 86 48 59 81 48 57 78 47 55 72 45 52 68 41 48 62 39 45 60 37 43 53 38 43 46 40 44 42 41 46 42 41 46 42 41 46 42 41 46 42 41 46 42 41 46 42 41 46 35 34 39 33 32 37
81 72 73 81 72 73 81 72 73 81 72 73 79 73 73 71 65 69 70 65 69 70 65 69 70 65 69 70 65 69 70 65 69 70 65 69 70 65 69 70 65 69 69 64 68 67 62 66 64 59 63 62 57 61 59 54 58 57 52 56 54 52 57 47 45 56 46 46 58 46 46 58 46 46 58 46 46 58 46 46 58 46 46 58 46 46 58 51 51 63 51 51 63 51 51 63 51 51 63 51 51 63 51 51 63 51 51 63 51 51 63 47 45 56 47 45 56 47 45 56 47 45 56 47 45 56 47 45 56 47 45 56 47 45 56 56 54 65 56 54 65 56 54 65 56 54 65 56 54 65 56 54 65 56 54 65 59 53 63 65 52 62 70 53 63 72 55 65 75 58 68 79 62 72 82 65 75 84 67 77 86 69 79 89 72 82 89 72 82 89 72 82 89 72 82 89 72 82 89 72 82 89 72 82 89 72 82 88 73 80 86 73 80 86 73 80 86 73 80 86 73 80 86 73 80 86 73 80 86 73 80 70 57 64 68 55 62 66 53 60 63 50 57 59 46 53 56 43 50 54 41 48 50 40 48 41 42 47 38 43 49 38 43 49 38 43 49 38 43 49 38 43 49 38 43 49 38 43 49 35 40 46 35 40 46 35 40 46 35 40 46 35 40 46 35 40 46 35 40 46 38 39 44 48 41 49 51 40 48 51 40 48 51 40 48 51 40 48 51 40 48 51 40 48 51 40 48 45 34 42 45 34 42 45 34 42 45 34 42 45 34 42 45 34 42 45 34 42 42 35 43 35 37 49 32 38 50 32 38 50 32 38 50 32 38 50 32 38 50 32 38 50 32 38 50 31 37 49 33 39 51 35 41 53 38 44 56 42 48 60 45 51 63 47 53 65 52 55 64 74 64 72 76 64 68 76 64 68 76 64 68 76 64 68 76 64 68 76 64 68 76 64 68 83 71 75 83 71 75 83 71 75 83 71 75 83 71 75 83 71 75 83 71 75 85 70 73 96 80 80 98 80 78 98 80 78 98 80 78 98 80 78 98 80 78 98 80 78 98 80 78 97 79 77 97 79 77 97 79 77 97 79 77 97 79 77 97 79 77 97 79 77 99 78 77 98 67 73 101 66 73 101 66 73 101 66 73 101 66 73 101 66 73 101 66 73 101 66 73 98 63 70 98 63 70 98 63 70 98 63 70 98 63 70 98 63 70 98 63 70 102 60 70 100 47 63 103 46 63 103 46 63 100 47 63 100 47 63 97 49 63 96 50 63 93 51 63 86 48 59 81 48 57 78 47 55 72 45 52 68 41 48 62 39 45 60 37 43 53 38 43 46 40 44 42 41 46 42 41 46 42 41 46 42 41 46 42 41 46 42 41 46 42 41 46 35 34 39 33 32 37
81 72 73 81 72 73 81 72 73 81 72 73 79 73 73 68 62 66 67 62 66 67 62 66 67 62 66 67 62 66 67 62 66 67 62 66 67 62 66 65 60 64 65 60 64 64 59 63 63 58 62 63 58 62 62 57 61 61 56 60 59 57 62 54 52 63 53 53 65 53 53 65 53 53 65 53 53 65 53 53 65 53 53 65 53 53 65 58 58 70 58 58 70 58 58 70 58 58 70 58 58 70 58 58 70 58 58 70 58 58 70 50 48 59 50 48 59 50 48 59 50 48 59 50 48 59 50 48 59 50 48 59 50 48 59 56 54 65 56 54 65 56 54 65 56 54 65 56 54 65 56 54 65 56 54 65 59 53 63 71 55 66 75 55 66 78 56 68 81 61 72 85 63 75 87 67 78 91 69 81 91 71 82 92 70 82 91 71 82 92 70 82 91 71 82 92 70 82 91 71 82 92 70 82 91 71 82 88 73 80 86 73 80 86 73 80 86 73 80 86 73 80 86 73 80 86 73 80 86 73 80 70 57 64 68 55 62 66 53 60 63 50 57 59 46 53 56 43 50 54 41 48 48 41 48 39 42 47 35 44 49 36 43 49 35 44 49 36 43 49 35 44 49 36 43 49 35 44 49 33 40 46 32 41 46 33 40 46 32 41 46 33 40 46 32 41 46 33 40 46 36 39 44 48 41 49 51 40 48 51 40 48 51 40 48 51 40 48 51 40 48 51 40 48 51 40 48 45 34 42 45 34 42 45 34 42 45 34 42 45 34 42 45 34 42 45 34 42 42 35 43 35 37 49 32 38 50 32 38 50 32 38 50 32 38 50 32 38 50 32 38 50 32 38 50 35 41 53 36 42 54 38 44 56 42 48 60 45 51 63 48 54 66 51 57 69 55 58 67 74 64 72 76 64 68 76 64 68 76 64 68 76 64 68 76 64 68 76 64 68 76 64 68 83 71 75 83 71 75 83 71 75 83 71 75 83 71 75 83 71 75 83 71 75 85 70 73 96 80 80 98 80 78 98 80 78 98 80 78 98 80 78 98 80 78 98 80 78 98 80 78 97 79 77 97 79 77 97 79 77 97 79 77 97 79 77 97 79 77 97 79 77 99 78 77 98 67 73 101 66 73 101 66 73 101 66 73 101 66 73 101 66 73 101 66 73 101 66 73 98 63 70 98 63 70 98 63 70 98 63 70 98 63 70 98 63 70 98 63 70 102 60 70 100 47 63 103 46 63 103 46 63 100 47 63 100 47 63 97 49 63 96 50 63 93 51 63 86 48 59 81 48 57 78 47 55 72 45 52 68 41 48 62 39 45 60 37 43 53 38 43 46 40 44 42 41 46 42 41 46 42 41 46 42 41 46 42 41 46 42 41 46 42 41 46 35 34 39 33 32 37
81 72 73 81 72 73 81 72 73 81 72 73 79 73 73 64 58 62 63 58 62 63 58 62 63 58 62 63 58 62 63 58 62 63 58 62 63 58 62 61 56 60 61 56 60 62 57 61 63 58 62 63 58 62 64 59 63 65 60 64 63 61 66 60 58 69 59 59 71 59 59 71 59 59 71 59 59 71 59 59 71 59 59 71 59 59 71 64 64 76 64 64 76 64 64 76 64 64 76 64 64 76 64 64 76 64 64 76 64 64 76 54 52 63 54 52 63 54 52 63 54 52 63 54 52 63 54 52 63 54 52 63 54 52 63 56 54 65 56 54 65 56 54 65 56 54 65 56 54 65 56 54 65 56 54 65 60 52 63 75 57 69 79 57 69 83 59 72 85 63 75 89 65 78 92 70 82 95 71 84 95 73 85 93 69 82 92 70 82 93 69 82 92 70 82 93 69 82 92 70 82 93 69 82 91 71 82 88 73 80 86 73 80 86 73 80 86 73 80 86 73 80 86 73 80 86 73 80 86 73 80 70 57 64 68 55 62 66 53 60 63 50 57 59 46 53 56 43 50 54 41 48 48 41 48 38 43 47 34 45 49 35 44 49 34 45 49 35 44 49 34 45 49 35 44 49 34 45 49 32 41 46 31 42 46 32 41 46 31 42 46 32 41 46 31 42 46 32 41 46 35 40 44 47 42 49 51 40 48 51 40 48 51 40 48 51 40 48 51 40 48 51 40 48 51 40 48 45 34 42 45 34 42 45 34 42 45 34 42 45 34 42 45 34 42 45 34 42 42 35 43 35 37 49 32 38 50 32 38 50 32 38 50 32 38 50 32 38 50 32 38 50 32 38 50 38 44 56 39 45 57 42 48 60 45 51 63 48 54 66 52 58 70 54 60 72 58 61 70 74 64 72 76 64 68 76 64 68 76 64 68 76 64 68 76 64 68 76 64 68 76 64 68 83 71 75 83 71 75 83 71 75 83 71 75 83 71 75 83 71 75 83 71 75 85 70 73 96 80 80 98 80 78 98 80 78 98 80 78 98 80 78 98 80 78 98 80 78 98 80 78 97 79 77 97 79 77 97 79 77 97 79 77 97 79 77 97 79 77 97 79 77 99 78 77 98 67 73 101 66 73 101 66 73 101 66 73 101 66 73 101 66 73 101 66 73 101 66 73 98 63 70 98 63 70 98 63 70 98 63 70 98 63 70 98 63 70 98 63 70 102 60 70 100 47 63 103 46 63 103 46 63 100 47 63 100 47 63 97 49 63 96 50 63 93 51 63 86 48 59 81 48 57 78 47 55 72 45 52 68 41 48 62 39 45 60 37 43 53 38 43 46 40 44 42 41 46 42 41 46 42 41 46 42 41 46 42 41 46 42 41 46 42 41 46 35 34 39 33 32 37
81 72 73 81 72 73 81 72 73 81 72 73 79 73 73 61 55 59 60 55 59 60 55 59 60 55 59 60 55 59 60 55 59 60 55 59 60 55 59 56 51 55 57 52 56 59 54 58 62 57 61 64 59 63 67 62 66 69 64 68 68 66 71 67 65 76 66 66 78 66 66 78 66 66 78 66 66 78 66 66 78 66 66 78 66 66 78 71 71 83 71 71 83 71 71 83 71 71 83 71 71 83 71 71 83 71 71 83 71 71 83 57 55 66 57 55 66 57 55 66 57 55 66 57 55 66 57 55 66 57 55 66 57 55 66 56 54 65 56 54 65 56 54 65 56 54 65 56 54 65 56 54 65 56 54 65 60 52 63 80 60 72 84 60 73 88 62 75 89 65 78 95 69 82 96 72 85 100 74 87 100 76 89 95 69 82 93 69 82 95 69 82 93 69 82 95 69 82 93 69 82 95 69 82 92 70 82 88 73 80 86 73 80 86 73 80 86 73 80 86 73 80 86 73 80 86 73 80 86 73 80 70 57 64 68 55 62 66 53 60 63 50 57 59 46 53 56 43 50 54 41 48 48 41 48 38 43 47 32 46 49 34 45 49 32 46 49 34 45 49 32 46 49 34 45 49 32 46 49 31 42 46 29 43 46 31 42 46 29 43 46 31 42 46 29 43 46 31 42 46 33 41 44 47 42 49 51 40 48 51 40 48 51 40 48 51 40 48 51 40 48 51 40 48 51 40 48 45 34 42 45 34 42 45 34 42 45 34 42 45 34 42 45 34 42 45 34 42 42 35 43 35 37 49 32 38 50 32 38 50 32 38 50 32 38 50 32 38 50 32 38 50 32 38 50 41 47 59 43 49 61 45 51 63 48 54 66 52 58 70 55 61 73 57 63 75 62 65 74 74 64 72 76 64 68 76 64 68 76 64 68 76 64 68 76 64 68 76 64 68 76 64 68 83 71 75 83 71 75 83 71 75 83 71 75 83 71 75 83 71 75 83 71 75 85 70 73 96 80 80 98 80 78 98 80 78 98 80 78 98 80 78 98 80 78 98 80 78 98 80 78 97 79 77 97 79 77 97 79 77 97 79 77 97 79 77 97 79 77 97 79 77 99 78 77 98 67 73 101 66 73 101 66 73 101 66 73 101 66 73 101 66 73 101 66 73 101 66 73 98 63 70 98 63 70 98 63 70 98 63 70 98 63 70 98 63 70 98 63 70 102 60 70 100 47 63 103 46 63 103 46 63 100 47 63 100 47 63 97 49 63 96 50 63 93 51 63 86 48 59 81 48 57 78 47 55 72 45 52 68 41 48 62 39 45 60 37 43 53 38 43 46 40 44 42 41 46 42 41 46 42 41 46 42 41 46 42 41 46 42 41 46 42 41 46 35 34 39 33 32 37
81 72 73 81 72 73 81 72 73 81 72 73 79 73 73 59 53 57 58 53 57 58 53 57 58 53 57 58 53 57 58 53 57 58 53 57 58 53 57 53 48 52 54 49 53 57 52 56 61 56 60 65 60 64 69 64 68 72 67 71 71 69 74 72 70 81 71 71 83 71 71 83 71 71 83 71 71 83 71 71 83 71 71 83 71 71 83 76 76 88 76 76 88 76 76 88 76 76 88 76 76 88 76 76 88 76 76 88 76 76 88 59 57 68 59 57 68 59 57 68 59 57 68 59 57 68 59 57 68 59 57 68 59 57 68 56 54 65 56 54 65 56 54 65 56 54 65 56 54 65 56 54 65 56 54 65 60 52 63 83 63 75 88 62 75 91 63 77 94 68 81 98 70 84 100 74 87 104 76 90 104 78 91 96 68 82 95 69 82 96 68 82 95 69 82 96 68 82 95 69 82 96 68 82 93 69 82 89 72 80 86 73 80 86 73 80 86 73 80 86 73 80 86 73 80 86 73 80 86 73 80 70 57 64 68 55 62 66 53 60 63 50 57 59 46 53 56 43 50 54 41 48 48 41 48 36 44 47 31 46 49 32 46 49 31 46 49 32 46 49 31 46 49 32 46 49 31 46 49 29 43 46 28 43 46 29 43 46 28 43 46 29 43 46 28 43 46 29 43 46 33 41 44 47 42 49 51 40 48 51 40 48 51 40 48 51 40 48 51 40 48 51 40 48 51 40 48 45 34 42 45 34 42 45 34 42 45 34 42 45 34 42 45 34 42 45 34 42 42 35 43 35 37 49 32 38 50 32 38 50 32 38 50 32 38 50 32 38 50 32 38 50 32 38 50 44 50 62 45 51 63 47 53 65 51 57 69 54 60 72 57 63 75 60 66 78 64 67 76 74 64 72 76 64 68 76 64 68 76 64 68 76 64 68 76 64 68 76 64 68 76 64 68 83 71 75 83 71 75 83 71 75 83 71 75 83 71 75 83 71 75 83 71 75 85 70 73 96 80 80 98 80 78 98 80 78 98 80 78 98 80 78 98 80 78 98 80 78 98 80 78 97 79 77 97 79 77 97 79 77 97 79 77 97 79 77 97 79 77 97 79 77 99 78 77 98 67 73 101 66 73 101 66 73 101 66 73 101 66 73 101 66 73 101 66 73 101 66 73 98 63 70 98 63 70 98 63 70 98 63 70 98 63 70 98 63 70 98 63 70 102 60 70 100 47 63 103 46 63 103 46 63 100 47 63 100 47 63 97 49 63 96 50 63 93 51 63 86 48 59 81 48 57 78 47 55 72 45 52 68 41 48 62 39 45 60 37 43 53 38 43 46 40 44 42 41 46 42 41 46 42 41 46 42 41 46 42 41 46 42 41 46 42 41 46 35 34 39 33 32 37
81 72 73 81 72 73 81 72 73 81 72 73 81 72 75 57 51 55 56 51 55 56 51 55 56 51 55 56 51 55 56 51 55 56 51 55 56 51 55 51 46 50 53 48 52 56 51 55 61 56 60 65 60 64 70 65 69 73 68 72 75 70 76 75 72 81 74 73 81 74 72 83 74 73 81 74 72 83 74 73 81 74 72 83 74 73 81 79 77 88 79 78 86 79 77 88 79 78 86 79 77 88 79 78 86 79 77 88 80 77 86 62 59 68 62 59 68 64 58 68 62 59 68 64 58 68 62 59 68 64 58 68 62 59 68 59 53 63 57 54 63 59 53 63 57 54 63 59 53 63 57 54 63 59 53 63 62 52 61 84 64 75 89 63 74 92 66 77 95 69 80 98 72 83 102 76 87 104 78 89 105 79 90 95 69 80 95 69 80 95 69 80 95 69 80 95 69 80 95 69 80 95 69 80 92 71 80 89 72 80 86 74 78 86 73 80 86 74 78 86 73 80 86 74 78 86 73 80 86 74 78 70 57 64 68 56 60 66 53 60 63 51 55 59 46 53 56 44 48 54 41 48 48 42 46 38 43 47 34 45 49 34 45 49 34 45 49 34 45 49 34 45 49 34 45 49 34 45 49 31 42 46 31 42 46 31 42 46 31 42 46 31 42 46 31 42 46 31 42 46 33 40 46 45 42 49 48 41 49 50 40 49 48 41 49 50 40 49 48 41 49 50 40 49 48 41 49 44 34 43 42 35 43 44 34 43 42 35 43 44 34 43 42 35 43 44 34 43 41 35 45 37 37 47 34 38 49 34 38 49 34 38 49 34 38 49 34 38 49 34 38 49 34 38 49 47 51 62 48 52 63 51 55 66 54 58 69 57 61 72 61 65 76 63 67 78 67 67 75 74 65 70 76 64 66 78 63 66 76 64 66 78 63 66 76 64 66 78 63 66 76 64 66 85 70 73 83 71 73 85 70 73 83 71 73 85 70 73 83 71 73 85 70 73 85 71 71 98 80 80 99 79 78 99 79 78 99 79 78 99 79 78 99 79 78 99 79 78 99 79 78 98 78 77 98 78 77 98 78 77 98 78 77 98 78 77 98 78 77 98 78 77 101 76 79 98 67 73 101 66 73 101 66 73 101 66 73 101 66 73 101 66 73 101 66 73 101 66 73 98 63 70 98 63 70 98 63 70 98 63 70 98 63 70 98 63 70 98 63 70 102 60 70 100 47 63 103 46 63 101 47 63 100 47 63 99 48 63 97 49 63 94 50 63 92 52 63 86 48 59 81 48 57 77 47 55 72 45 52 67 42 48 62 39 45 59 38 43 53 38 43 45 40 46 41 42 46 42 41 46 41 42 46 42 41 46 41 42 46 42 41 46 41 42 46 35 34 39 32 33 37
85 76 79 85 76 79 85 76 79 85 76 79 85 76 79 77 71 75 75 69 73 73 67 71 70 64 68 66 60 64 63 57 61 61 55 59 59 53 57 55 49 53 55 49 53 55 49 53 55 49 53 55 49 53 55 49 53 55 49 53 55 49 53 62 56 60 64 58 62 66 59 66 69 63 67 73 66 73 76 70 74 78 71 78 80 74 78 92 85 92 91 85 89 89 82 89 85 79 83 82 75 82 79 73 77 76 69 76 75 69 73 63 54 59 63 54 59 64 53 59 63 54 59 64 53 59 63 54 59 64 53 59 63 54 59 69 58 64 70 61 66 73 62 68 75 66 71 80 69 75 82 73 78 85 74 80 88 76 80 93 74 78 94 74 76 94 74 76 94 74 76 94 74 76 94 74 76 94 74 76 94 74 76 92 72 74 92 72 74 92 72 74 92 72 74 92 72 74 92 72 74 92 72 74 91 72 76 75 60 63 73 61 63 73 61 65 73 61 63 73 61 65 73 61 63 73 61 65 73 61 63 79 67 71 77 65 67 75 63 67 72 60 62 68 56 60 65 53 55 63 51 55 59 50 55 38 39 44 35 40 46 35 40 46 35 40 46 35 40 46 35 40 46 35 40 46 35 40 46 37 42 48 37 42 48 37 42 48 37 42 48 37 42 48 37 42 48 37 42 48 38 41 48 53 52 60 51 50 58 50 47 56 46 45 53 43 40 49 39 38 46 38 35 44 35 34 42 40 37 46 39 38 46 40 37 46 39 38 46 40 37 46 39 38 46 40 37 46 39 38 46 42 42 50 42 42 50 42 42 50 42 42 50 42 42 50 42 42 50 42 42 50 42 42 50 57 57 65 59 59 67 61 61 69 64 64 72 68 68 76 71 71 79 73 73 81 77 75 80 84 74 75 87 73 73 88 72 73 87 73 73 88 72 73 87 73 73 88 72 73 87 73 73 95 79 80 94 80 80 95 79 80 94 80 80 95 79 80 94 80 80 95 79 80 97 79 79 96 74 76 98 73 76 98 73 76 98 73 76 98 73 76 98 73 76 98 73 76 98 73 76 95 70 73 95 70 73 95 70 73 95 70 73 95 70 73 95 70 73 95 70 73 96 70 73 98 65 72 100 65 72 100 65 72 100 65 72 100 65 72 100 65 72 100 65 72 100 65 72 100 65 72 100 65 72 100 65 72 100 65 72 100 65 72 100 65 72 100 65 72 103 63 72 101 50 65 103 48 67 102 49 67 101 50 67 99 51 67 98 51 67 95 53 67 92 54 67 79 43 55 74 42 53 69 42 51 65 39 48 59 36 44 55 34 41 52 33 39 45 33 37 42 40 45 38 41 46 40 41 46 38 41 46 40 41 46 38 41 46 40 41 46 38 41 46 23 24 29 21 24 29
85 76 79 85 76 79 85 76 79 85 76 79 85 76 79 77 71 75 75 69 73 73 67 71 70 64 68 66 60 64 63 57 61 61 55 59 59 53 57 55 49 53 55 49 53 55 49 53 55 49 53 55 49 53 55 49 53 55 49 53 55 49 53 64 55 58 66 57 60 68 59 62 71 62 65 75 66 69 78 69 72 80 71 74 82 73 76 93 84 87 92 83 86 89 80 83 86 77 80 83 74 77 79 70 73 77 68 71 76 67 70 65 53 57 65 53 57 65 53 57 65 53 57 65 53 57 65 53 57 65 53 57 65 53 57 70 58 62 72 60 64 74 62 66 77 65 69 81 69 73 84 72 76 86 74 78 90 75 78 89 73 74 91 73 73 91 73 73 91 73 73 91 73 73 91 73 73 91 73 73 91 73 73 91 73 73 91 73 73 91 73 73 91 73 73 91 73 73 91 73 73 91 73 73 89 73 73 75 60 63 73 61 63 73 61 63 73 61 63 73 61 63 73 61 63 73 61 63 73 61 63 79 67 69 77 65 67 75 63 65 72 60 62 68 56 58 65 53 55 63 51 53 59 50 53 40 37 44 38 38 46 38 38 46 38 38 46 38 38 46 38 38 46 38 38 46 38 38 46 40 40 48 40 40 48 40 40 48 40 40 48 40 40 48 40 40 48 40 40 48 40 40 48 52 52 62 50 50 60 48 48 58 45 45 55 41 41 51 38 38 48 36 36 46 34 34 44 38 38 48 38 38 48 38 38 48 38 38 48 38 38 48 38 38 48 38 38 48 38 38 46 43 42 50 43 42 48 43 42 48 43 42 48 43 42 48 43 42 48 43 42 48 43 42 48 58 57 63 60 59 65 62 61 67 65 64 70 69 68 74 72 71 77 74 73 79 79 74 78 85 73 75 88 72 72 88 72 72 88 72 72 88 72 72 88 72 72 88 72 72 88 72 72 95 79 79 95 79 79 95 79 79 95 79 79 95 79 79 95 79 79 95 79 79 97 79 79 98 73 76 99 73 76 99 73 76 99 73 76 99 73 76 99 73 76 99 73 76 99 73 76 96 70 73 96 70 73 96 70 73 96 70 73 96 70 73 96 70 73 96 70 73 98 69 73 98 65 72 100 65 72 100 65 72 100 65 72 100 65 72 100 65 72 100 65 72 100 65 72 100 65 72 100 65 72 100 65 72 100 65 72 100 65 72 100 65 72 100 65 72 103 63 72 101 50 67 102 49 67 102 49 67 99 51 67 99 51 67 96 52 67 95 53 67 92 54 67 77 44 55 73 43 53 69 42 51 63 40 48 59 36 44 54 35 41 52 33 39 44 33 39 42 40 45 38 41 46 38 41 46 38 41 46 38 41 46 38 41 46 38 41 46 38 41 46 21 24 29 21 24 29
85 76 79 85 76 79 85 76 79 85 76 79 85 76 79 77 71 75 75 69 73 73 67 71 70 64 68 66 60 64 63 57 61 61 55 59 59 53 57 55 49 53 55 49 53 55 49 53 55 49 53 55 49 53 55 49 53 55 49 53 55 49 53 64 55 58 66 57 60 68 59 62 71 62 65 75 66 69 78 69 72 80 71 74 82 73 76 91 82 85 89 80 83 87 78 81 84 75 78 80 71 74 77 68 71 75 66 69 73 64 67 65 53 57 65 53 57 65 53 57 65 53 57 65 53 57 65 53 57 65 53 57 65 53 57 70 58 62 72 60 64 74 62 66 77 65 69 81 69 73 84 72 76 86 74 78 90 75 78 87 71 72 89 71 71 89 71 71 89 71 71 89 71 71 89 71 71 89 71 71 89 71 71 91 73 73 91 73 73 91 73 73 91 73 73 91 73 73 91 73 73 91 73 73 89 73 73 75 60 63 73 61 63 73 61 63 73 61 63 73 61 63 73 61 63 73 61 63 73 61 63 79 67 69 77 65 67 75 63 65 72 60 62 68 56 58 65 53 55 63 51 53 59 50 53 40 37 44 38 38 46 38 38 46 38 38 46 38 38 46 38 38 46 38 38 46 38 38 46 40 40 48 40 40 48 40 40 48 40 40 48 40 40 48 40 40 48 40 40 48 40 40 48 52 52 62 50 50 60 48 48 58 45 45 55 41 41 51 38 38 48 36 36 46 34 34 44 38 38 48 38 38 48 38 38 48 38 38 48 38 38 48 38 38 48 38 38 48 38 38 46 43 42 50 43 42 48 43 42 48 43 42 48 43 42 48 43 42 48 43 42 48 43 42 48 58 57 63 60 59 65 62 61 67 65 64 70 69 68 74 72 71 77 74 73 79 79 74 78 85 73 75 88 72 72 88 72 72 88 72 72 88 72 72 88 72 72 88 72 72 88 72 72 95 79 79 95 79 79 95 79 79 95 79 79 95 79 79 95 79 79 95 79 79 97 79 79 98 73 76 99 73 76 99 73 76 99 73 76 99 73 76 99 73 76 99 73 76 99 73 76 96 70 73 96 70 73 96 70 73 96 70 73 96 70 73 96 70 73 96 70 73 98 69 73 98 65 72 100 65 72 100 65 72 100 65 72 100 65 72 100 65 72 100 65 72 100 65 72 100 65 72 100 65 72 100 65 72 100 65 72 100 65 72 100 65 72 100 65 72 103 63 72 101 50 67 102 49 67 102 49 67 99 51 67 99 51 67 96 52 67 95 53 67 92 54 67 77 44 55 73 43 53 69 42 51 63 40 48 59 36 44 54 35 41 52 33 39 44 33 39 42 40 45 38 41 46 38 41 46 38 41 46 38 41 46 38 41 46 38 41 46 38 41 46 21 24 29 21 24 29
85 76 79 85 76 79 85 76 79 85 76 79 85 76 79 77 71 75 75 69 73 73 67 71 70 64 68 66 60 64 63 57 61 61 55 59 59 53 57 55 49 53 55 49 53 55 49 53 55 49 53 55 49 53 55 49 53 55 49 53 55 49 53 64 55 58 66 57 60 68 59 62 71 62 65 75 66 69 78 69 72 80 71 74 82 73 76 87 78 81 86 77 80 84 75 78 80 71 74 77 68 71 74 65 68 71 62 65 70 61 64 65 53 57 65 53 57 65 53 57 65 53 57 65 53 57 65 53 57 65 53 57 65 53 57 70 58 62 72 60 64 74 62 66 77 65 69 81 69 73 84 72 76 86 74 78 90 75 78 84 68 69 86 68 68 86 68 68 86 68 68 86 68 68 86 68 68 86 68 68 86 68 68 91 73 73 91 73 73 91 73 73 91 73 73 91 73 73 91 73 73 91 73 73 89 73 73 75 60 63 73 61 63 73 61 63 73 61 63 73 61 63 73 61 63 73 61 63 73 61 63 79 67 69 77 65 67 75 63 65 72 60 62 68 56 58 65 53 55 63 51 53 59 50 53 40 37 44 38 38 46 38 38 46 38 38 46 38 38 46 38 38 46 38 38 46 38 38 46 40 40 48 40 40 48 40 40 48 40 40 48 40 40 48 40 40 48 40 40 48 40 40 48 52 52 62 50 50 60 48 48 58 45 45 55 41 41 51 38 38 48 36 36 46 34 34 44 38 38 48 38 38 48 38 38 48 38 38 48 38 38 48 38 38 48 38 38 48 38 38 46 43 42 50 43 42 48 43 42 48 43 42 48 43 42 48 43 42 48 43 42 48 43 42 48 58 57 63 60 59 65 62 61 67 65 64 70 69 68 74 72 71 77 74 73 79 79 74 78 85 73 75 88 72 72 88 72 72 88 72 72 88 72 72 88 72 72 88 72 72 88 72 72 95 79 79 95 79 79 95 79 79 95 79 79 95 79 79 95 79 79 95 79 79 97 79 79 98 73 76 99 73 76 99 73 76 99 73 76 99 73 76 99 73 76 99 73 76 99 73 76 96 70 73 96 70 73 96 70 73 96 70 73 96 70 73 96 70 73 96 70 73 98 69 73 98 65 72 100 65 72 100 65 72 100 65 72 100 65 72 100 65 72 100 65 72 100 65 72 100 65 72 100 65 72 100 65 72 100 65 72 100 65 72 100 65 72 100 65 72 103 63 72 101 50 67 102 49 67 102 49 67 99 51 67 99 51 67 96 52 67 95 53 67 92 54 67 77 44 55 73 43 53 69 42 51 63 40 48 59 36 44 54 35 41 52 33 39 44 33 39 42 40 45 38 41 46 38 41 46 38 41 46 38 41 46 38 41 46 38 41 46 38 41 46 21 24 29 21 24 29
85 76 79 85 76 79 85 76 79 85 76 79 85 76 79 77 71 75 75 69 73 73 67 71 70 64 68 66 60 64 63 57 61 61 55 59 59 53 57 55 49 53 55 49 53 55 49 53 55 49 53 55 49 53 55 49 53 55 49 53 55 49 53 64 55 58 66 57 60 68 59 62 71 62 65 75 66 69 78 69 72 80 71 74 82 73 76 84 75 78 83 74 77 80 71 74 77 68 71 74 65 68 70 61 64 68 59 62 67 58 61 65 53 57 65 53 57 65 53 57 65 53 57 65 53 57 65 53 57 65 53 57 65 53 57 70 58 62 72 60 64 74 62 66 77 65 69 81 69 73 84 72 76 86 74 78 90 75 78 80 64 65 82 64 64 82 64 64 82 64 64 82 64 64 82 64 64 82 64 64 82 64 64 91 73 73 91 73 73 91 73 73 91 73 73 91 73 73 91 73 73 91 73 73 89 73 73 75 60 63 73 61 63 73 61 63 73 61 63 73 61 63 73 61 63 73 61 63 73 61 63 79 67 69 77 65 67 75 63 65 72 60 62 68 56 58 65 53 55 63 51 53 59 50 53 40 37 44 38 38 46 38 38 46 38 38 46 38 38 46 38 38 46 38 38 46 38 38 46 40 40 48 40 40 48 40 40 48 40 40 48 40 40 48 40 40 48 40 40 48 40 40 48 52 52 62 50 50 60 48 48 58 45 45 55 41 41 51 38 38 48 36 36 46 34 34 44 38 38 48 38 38 48 38 38 48 38 38 48 38 38 48 38 38 48 38 38 48 38 38 46 43 42 50 43 42 48 43 42 48 43 42 48 43 42 48 43 42 48 43 42 48 43 42 48 58 57 63 60 59 65 62 61 67 65 64 70 69 68 74 72 71 77 74 73 79 79 74 78 85 73 75 88 72 72 88 72 72 88 72 72 88 72 72 88 72 72 88 72 72 88 72 72 95 79 79 95 79 79 95 79 79 95 79 79 95 79 79 95 79 79 95 79 79 97 79 79 98 73 76 99 73 76 99 73 76 99 73 76 99 73 76 99 73 76 99 73 76 99 73 76 96 70 73 96 70 73 96 70 73 96 70 73 96 70 73 96 70 73 96 70 73 98 69 73 98 65 72 100 65 72 100 65 72 100 65 72 100 65 72 100 65 72 100 65 72 100 65 72 100 65 72 100 65 72 100 65 72 100 65 72 100 65 72 100 65 72 100 65 72 103 63 72 101 50 67 102 49 67 102 49 67 99 51 67 99 51 67 96 52 67 95 53 67 92 54 67 77 44 55 73 43 53 69 42 51 63 40 48 59 36 44 54 35 41 52 33 39 44 33 39 42 40 45 38 41 46 38 41 46 38 41 46 38 41 46 38 41 46 38 41 46 38 41 46 21 24 29 21 24 29
85 76 79 85 76 79 85 76 79 85 76 79 85 76 79 77 71 75 75 69 73 73 67 71 70 64 68 66 60 64 63 57 61 61 55 59 59 53 57 55 49 53 55 49 53 55 49 53 55 49 53 55 49 53 55 49 53 55 49 53 55 49 53 64 55 58 66 57 60 68 59 62 71 62 65 75 66 69 78 69 72 80 71 74 82 73 76 81 72 75 79 70 73 77 68 71 74 65 68 70 61 64 67 58 61 65 56 59 63 54 57 65 53 57 65 53 57 65 53 57 65 53 57 65 53 57 65 53 57 65 53 57 65 53 57 70 58 62 72 60 64 74 62 66 77 65 69 81 69 73 84 72 76 86 74 78 90 75 78 77 61 62 79 61 61 79 61 61 79 61 61 79 61 61 79 61 61 79 61 61 79 61 61 91 73 73 91 73 73 91 73 73 91 73 73 91 73 73 91 73 73 91 73 73 89 73 73 75 60 63 73 61 63 73 61 63 73 61 63 73 61 63 73 61 63 73 61 63 73 61 63 79 67 69 77 65 67 75 63 65 72 60 62 68 56 58 65 53 55 63 51 53 59 50 53 40 37 44 38 38 46 38 38 46 38 38 46 38 38 46 38 38 46 38 38 46 38 38 46 40 40 48 40 40 48 40 40 48 40 40 48 40 40 48 40 40 48 40 40 48 40 40 48 52 52 62 50 50 60 48 48 58 45 45 55 41 41 51 38 38 48 36 36 46 34 34 44 38 38 48 38 38 48 38 38 48 38 38 48 38 38 48 38 38 48 38 38 48 38 38 46 43 42 50 43 42 48 43 42 48 43 42 48 43 42 48 43 42 48 43 42 48 43 42 48 58 57 63 60 59 65 62 61 67 65 64 70 69 68 74 72 71 77 74 73 79 79 74 78 85 73 75 88 72 72 88 72 72 88 72 72 88 72 72 88 72 72 88 72 72 88 72 72 95 79 79 95 79 79 95 79 79 95 79 79 95 79 79 95 79 79 95 79 79 97 79 79 98 73 76 99 73 76 99 73 76 99 73 76 99 73 76 99 73 76 99 73 76 99 73 76 96 70 73 96 70 73 96 70 73 96 70 73 96 70 73 96 70 73 96 70 73 98 69 73 98 65 72 100 65 72 100 65 72 100 65 72 100 65 72 100 65 72 100 65 72 100 65 72 100 65 72 100 65 72 100 65 72 100 65 72 100 65 72 100 65 72 100 65 72 103 63 72 101 50 67 102 49 67 102 49 67 99 51 67 99 51 67 96 52 67 95 53 67 92 54 67 77 44 55 73 43 53 69 42 51 63 40 48 59 36 44 54 35 41 52 33 39 44 33 39 42 40 45 38 41 46 38 41 46 38 41 46 38 41 46 38 41 46 38 41 46 38 41 46 21 24 29 21 24 29
85 76 79 85 76 79 85 76 79 85 76 79 85 76 79 77 71 75 75 69 73 73 67 71 70 64 68 66 60 64 63 57 61 61 55 59 59 53 57 55 49 53 55 49 53 55 49 53 55 49 53 55 49 53 55 49 53 55 49 53 55 49 53 64 55 58 66 57 60 68 59 62 71 62 65 75 66 69 78 69 72 80 71 74 82 73 76 78 69 72 77 68 71 75 66 69 71 62 65 68 59 62 65 56 59 62 53 56 61 52 55 65 53 57 65 53 57 65 53 57 65 53 57 65 53 57 65 53 57 65 53 57 65 53 57 70 58 62 72 60 64 74 62 66 77 65 69 81 69 73 84 72 76 86 74 78 90 75 78 75 59 60 77 59 59 77 59 59 77 59 59 77 59 59 77 59 59 77 59 59 77 59 59 91 73 73 91 73 73 91 73 73 91 73 73 91 73 73 91 73 73 91 73 73 89 73 73 75 60 63 73 61 63 73 61 63 73 61 63 73 61 63 73 61 63 73 61 63 73 61 63 79 67 69 77 65 67 75 63 65 72 60 62 68 56 58 65 53 55 63 51 53 59 50 53 40 37 44 38 38 46 38 38 46 38 38 46 38 38 46 38 38 46 38 38 46 38 38 46 40 40 48 40 40 48 40 40 48 40 40 48 40 40 48 40 40 48 40 40 48 40 40 48 52 52 62 50 50 60 48 48 58 45 45 55 41 41 51 38 38 48 36 36 46 34 34 44 38 38 48 38 38 48 38 38 48 38 38 48 38 38 48 38 38 48 38 38 48 38 38 46 43 42 50 43 42 48 43 42 48 43 42 48 43 42 48 43 42 48 43 42 48 43 42 48 58 57 63 60 59 65 62 61 67 65 64 70 69 68 74 72 71 77 74 73 79 79 74 78 85 73 75 88 72 72 88 72 72 88 72 72 88 72 72 88 72 72 88 72 72 88 72 72 95 79 79 95 79 79 95 79 79 95 79 79 95 79 79 95 79 79 95 79 79 97 79 79 98 73 76 99 73 76 99 73 76 99 73 76 99 73 76 99 73 76 99 73 76 99 73 76 96 70 73 96 70 73 96 70 73 96 70 73 96 70 73 96 70 73 96 70 73 98 69 73 98 65 72 100 65 72 100 65 72 100 65 72 100 65 72 100 65 72 100 65 72 100 65 72 100 65 72 100 65 72 100 65 72 100 65 72 100 65 72 100 65 72 100 65 72 103 63 72 101 50 67 102 49 67 102 49 67 99 51 67 99 51 67 96 52 67 95 53 67 92 54 67 77 44 55 73 43 53 69 42 51 63 40 48 59 36 44 54 35 41 52 33 39 44 33 39 42 40 45 38 41 46 38 41 46 38 41 46 38 41 46 38 41 46 38 41 46 38 41 46 21 24 29 21 24 29
85 76 79 85 76 79 85 76 79 85 76 79 85 76 79 77 71 75 75 69 73 73 67 71 70 64 68 66 60 64 63 57 61 61 55 59 59 53 57 55 49 53 55 49 53 55 49 53 55 49 53 55 49 53 55 49 53 55 49 53 55 49 53 64 55 58 66 57 60 68 59 62 71 62 65 75 66 69 78 69 72 80 71 74 82 73 76 77 68 71 76 67 70 73 64 67 70 61 64 67 58 61 63 54 57 61 52 55 60 51 54 65 53 57 65 53 57 65 53 57 65 53 57 65 53 57 65 53 57 65 53 57 65 53 57 70 58 62 72 60 64 74 62 66 77 65 69 81 69 73 84 72 76 86 74 78 90 75 78 73 57 58 75 57 57 75 57 57 75 57 57 75 57 57 75 57 57 75 57 57 75 57 57 91 73 73 91 73 73 91 73 73 91 73 73 91 73 73 91 73 73 91 73 73 89 73 73 75 60 63 73 61 63 73 61 63 73 61 63 73 61 63 73 61 63 73 61 63 73 61 63 79 67 69 77 65 67 75 63 65 72 60 62 68 56 58 65 53 55 63 51 53 59 50 53 40 37 44 38 38 46 38 38 46 38 38 46 38 38 46 38 38 46 38 38 46 38 38 46 40 40 48 40 40 48 40 40 48 40 40 48 40 40 48 40 40 48 40 40 48 40 40 48 52 52 62 50 50 60 48 48 58 45 45 55 41 41 51 38 38 48 36 36 46 34 34 44 38 38 48 38 38 48 38 38 48 38 38 48 38 38 48 38 38 48 38 38 48 38 38 46 43 42 50 43 42 48 43 42 48 43 42 48 43 42 48 43 42 48 43 42 48 43 42 48 58 57 63 60 59 65 62 61 67 65 64 70 69 68 74 72 71 77 74 73 79 79 74 78 85 73 75 88 72 72 88 72 72 88 72 72 88 72 72 88 72 72 88 72 72 88 72 72 95 79 79 95 79 79 95 79 79 95 79 79 95 79 79 95 79 79 95 79 79 97 79 79 98 73 76 99 73 76 99 73 76 99 73 76 99 73 76 99 73 76 99 73 76 99 73 76 96 70 73 96 70 73 96 70 73 96 70 73 96 70 73 96 70 73 96 70 73 98 69 73 98 65 72 100 65 72 100 65 72 100 65 72 100 65 72 100 65 72 100 65 72 100 65 72 100 65 72 100 65 72 100 65 72 100 65 72 100 65 72 100 65 72 100 65 72 103 63 72 101 50 67 102 49 67 102 49 67 99 51 67 99 51 67 96 52 67 95 53 67 92 54 67 77 44 55 73 43 53 69 42 51 63 40 48 59 36 44 54 35 41 52 33 39 44 33 39 42 40 45 38 41 46 38 41 46 38 41 46 38 41 46 38 41 46 38 41 46 38 41 46 21 24 29 21 24 29
69 60 63 69 60 63 69 60 63 69 60 63 69 60 63 64 58 62 64 58 62 64 58 62 64 58 62 64 58 62 64 58 62 64 58 62 64 58 62 58 52 56 58 52 56 58 52 56 58 52 56 58 52 56 58 52 56 58 52 56 58 52 56 58 49 52 58 49 52 58 49 52 58 49 52 58 49 52 58 49 52 58 49 52 58 49 52 74 65 68 72 63 66 69 60 63 64 55 58 60 51 54 55 46 49 52 43 46 50 41 44 70 58 62 70 58 62 70 58 62 70 58 62 70 58 62 70 58 62 70 58 62 70 58 62 76 64 68 76 64 68 76 64 68 76 64 68 76 64 68 76 64 68 76 64 68 78 63 66 70 54 55 72 54 54 72 54 54 72 54 54 72 54 54 72 54 54 72 54 54 72 54 54 82 64 64 84 66 66 86 68 68 89 71 71 93 75 75 96 78 78 98 80 80 98 82 82 84 69 72 80 68 70 78 66 68 75 63 65 71 59 61 68 56 58 66 54 56 64 52 54 66 54 56 66 54 56 66 54 56 66 54 56 66 54 56 66 54 56 66 54 56 64 55 58 39 36 43 38 38 46 40 40 48 44 44 52 47 47 55 50 50 58 53 53 61 54 54 62 56 56 64 56 56 64 56 56 64 56 56 64 56 56 64 56 56 64 56 56 64 56 56 64 53 53 63 51 51 61 49 49 59 46 46 56 42 42 52 39 39 49 37 37 47 35 35 45 40 40 50 40 40 50 40 40 50 40 40 50 40 40 50 40 40 50 40 40 50 40 40 48 42 41 49 44 43 49 46 45 51 49 48 54 53 52 58 56 55 61 58 57 63 60 59 65 66 65 71 66 65 71 66 65 71 66 65 71 66 65 71 66 65 71 66 65 71 69 64 68 94 82 84 97 81 81 97 81 81 97 81 81 97 81 81 97 81 81 97 81 81 97 81 81 92 76 76 92 76 76 92 76 76 92 76 76 92 76 76 92 76 76 92 76 76 94 76 76 94 69 72 95 69 72 95 69 72 95 69 72 95 69 72 95 69 72 95 69 72 95 69 72 93 67 70 93 67 70 93 67 70 93 67 70 93 67 70 93 67 70 93 67 70 95 66 70 94 61 68 96 61 68 96 61 68 96 61 68 96 61 68 96 61 68 96 61 68 96 61 68 98 63 70 98 63 70 98 63 70 98 63 70 98 63 70 98 63 70 98 63 70 101 61 70 102 51 68 103 50 68 103 50 68 100 52 68 100 52 68 97 53 68 96 54 68 93 55 68 75 42 53 71 41 51 67 40 49 61 38 46 57 34 42 52 33 39 50 31 37 42 31 37 40 38 43 36 39 44 36 39 44 36 39 44 36 39 44 36 39 44 36 39 44 36 39 44 21 24 29 21 24 29
69 60 63 69 60 63 69 60 63 69 60 63 69 60 63 64 58 62 64 58 62 64 58 62 64 58 62 64 58 62 64 58 62 64 58 62 64 58 62 58 52 56 58 52 56 58 52 56 58 52 56 58 52 56 58 52 56 58 52 56 58 52 56 58 49 52 58 49 52 58 49 52 58 49 52 58 49 52 58 49 52 58 49 52 58 49 52 72 63 66 71 62 65 68 59 62 64 55 58 60 51 54 56 47 50 53 44 47 52 43 46 70 58 62 70 58 62 70 58 62 70 58 62 70 58 62 70 58 62 70 58 62 70 58 62 76 64 68 76 64 68 76 64 68 76 64 68 76 64 68 76 64 68 76 64 68 78 63 66 70 54 55 72 54 54 72 54 54 72 54 54 72 54 54 72 54 54 72 54 54 72 54 54 82 64 64 84 66 66 86 68 68 89 71 71 93 75 75 96 78 78 98 80 80 98 82 82 84 69 72 80 68 70 78 66 68 75 63 65 71 59 61 68 56 58 66 54 56 64 52 54 66 54 56 66 54 56 66 54 56 66 54 56 66 54 56 66 54 56 66 54 56 64 55 58 40 37 44 39 39 47 42 42 50 45 45 53 48 48 56 52 52 60 54 54 62 55 55 63 56 56 64 56 56 64 56 56 64 56 56 64 56 56 64 56 56 64 56 56 64 56 56 64 53 53 63 51 51 61 49 49 59 46 46 56 42 42 52 39 39 49 37 37 47 35 35 45 40 40 50 40 40 50 40 40 50 40 40 50 40 40 50 40 40 50 40 40 50 40 40 48 42 41 49 44 43 49 46 45 51 49 48 54 53 52 58 56 55 61 58 57 63 60 59 65 68 67 73 68 67 73 68 67 73 68 67 73 68 67 73 68 67 73 68 67 73 71 66 70 94 82 84 97 81 81 97 81 81 97 81 81 97 81 81 97 81 81 97 81 81 97 81 81 92 76 76 92 76 76 92 76 76 92 76 76 92 76 76 92 76 76 92 76 76 94 76 76 94 69 72 95 69 72 95 69 72 95 69 72 95 69 72 95 69 72 95 69 72 95 69 72 93 67 70 93 67 70 93 67 70 93 67 70 93 67 70 93 67 70 93 67 70 95 66 70 94 61 68 96 61 68 96 61 68 96 61 68 96 61 68 96 61 68 96 61 68 96 61 68 98 63 70 98 63 70 98 63 70 98 63 70 98 63 70 98 63 70 98 63 70 101 61 70 102 51 68 103 50 68 103 50 68 100 52 68 100 52 68 97 53 68 96 54 68 93 55 68 75 42 53 71 41 51 67 40 49 61 38 46 57 34 42 52 33 39 50 31 37 42 31 37 40 38 43 36 39 44 36 39 44 36 39 44 36 39 44 36 39 44 36 39 44 36 39 44 21 24 29 21 24 29
69 60 63 69 60 63 69 60 63 69 60 63 69 60 63 64 58 62 64 58 62 64 58 62 64 58 62 64 58 62 64 58 62 64 58 62 64 58 62 58 52 56 58 52 56 58 52 56 58 52 56 58 52 56 58 52 56 58 52 56 58 52 56 58 49 52 58 49 52 58 49 52 58 49 52 58 49 52 58 49 52 58 49 52 58 49 52 69 60 63 68 59 62 66 57 60 63 54 57 61 52 55 58 49 52 56 47 50 55 46 49 70 58 62 70 58 62 70 58 62 70 58 62 70 58 62 70 58 62 70 58 62 70 58 62 76 64 68 76 64 68 76 64 68 76 64 68 76 64 68 76 64 68 76 64 68 78 63 66 70 54 55 72 54 54 72 54 54 72 54 54 72 54 54 72 54 54 72 54 54 72 54 54 82 64 64 84 66 66 86 68 68 89 71 71 93 75 75 96 78 78 98 80 80 98 82 82 84 69 72 80 68 70 78 66 68 75 63 65 71 59 61 68 56 58 66 54 56 64 52 54 66 54 56 66 54 56 66 54 56 66 54 56 66 54 56 66 54 56 66 54 56 64 55 58 42 39 46 42 42 50 44 44 52 47 47 55 51 51 59 54 54 62 56 56 64 58 58 66 56 56 64 56 56 64 56 56 64 56 56 64 56 56 64 56 56 64 56 56 64 56 56 64 53 53 63 51 51 61 49 49 59 46 46 56 42 42 52 39 39 49 37 37 47 35 35 45 40 40 50 40 40 50 40 40 50 40 40 50 40 40 50 40 40 50 40 40 50 40 40 48 42 41 49 44 43 49 46 45 51 49 48 54 53 52 58 56 55 61 58 57 63 60 59 65 70 69 75 70 69 75 70 69 75 70 69 75 70 69 75 70 69 75 70 69 75 73 68 72 94 82 84 97 81 81 97 81 81 97 81 81 97 81 81 97 81 81 97 81 81 97 81 81 92 76 76 92 76 76 92 76 76 92 76 76 92 76 76 92 76 76 92 76 76 94 76 76 94 69 72 95 69 72 95 69 72 95 69 72 95 69 72 95 69 72 95 69 72 95 69 72 93 67 70 93 67 70 93 67 70 93 67 70 93 67 70 93 67 70 93 67 70 95 66 70 94 61 68 96 61 68 96 61 68 96 61 68 96 61 68 96 61 68 96 61 68 96 61 68 98 63 70 98 63 70 98 63 70 98 63 70 98 63 70 98 63 70 98 63 70 101 61 70 102 51 68 103 50 68 103 50 68 100 52 68 100 52 68 97 53 68 96 54 68 93 55 68 75 42 53 71 41 51 67 40 49 61 38 46 57 34 42 52 33 39 50 31 37 42 31 37 40 38 43 36 39 44 36 39 44 36 39 44 36 39 44 36 39 44 36 39 44 36 39 44 21 24 29 21 24 29
69 60 63 69 60 63 69 60 63 69 60 63 69 60 63 64 58 62 64 58 62 64 58 62 64 58 62 64 58 62 64 58 62 64 58 62 64 58 62 58 52 56 58 52 56 58 52 56 58 52 56 58 52 56 58 52 56 58 52 56 58 52 56 58 49 52 58 49 52 58 49 52 58 49 52 58 49 52 58 49 52 58 49 52 58 49 52 64 55 58 64 55 58 63 54 57 62 53 56 62 53 56 61 52 55 60 51 54 60 51 54 70 58 62 70 58 62 70 58 62 70 58 62 70 58 62 70 58 62 70 58 62 70 58 62 76 64 68 76 64 68 76 64 68 76 64 68 76 64 68 76 64 68 76 64 68 78 63 66 70 54 55 72 54 54 72 54 54 72 54 54 72 54 54 72 54 54 72 54 54 72 54 54 82 64 64 84 66 66 86 68 68 89 71 71 93 75 75 96 78 78 98 80 80 98 82 82 84 69 72 80 68 70 78 66 68 75 63 65 71 59 61 68 56 58 66 54 56 64 52 54 66 54 56 66 54 56 66 54 56 66 54 56 66 54 56 66 54 56 66 54 56 64 55 58 46 43 50 45 45 53 47 47 55 51 51 59 54 54 62 57 57 65 60 60 68 61 61 69 56 56 64 56 56 64 56 56 64 56 56 64 56 56 64 56 56 64 56 56 64 56 56 64 53 53 63 51 51 61 49 49 59 46 46 56 42 42 52 39 39 49 37 37 47 35 35 45 40 40 50 40 40 50 40 40 50 40 40 50 40 40 50 40 40 50 40 40 50 40 40 48 42 41 49 44 43 49 46 45 51 49 48 54 53 52 58 56 55 61 58 57 63 60 59 65 73 72 78 73 72 78 73 72 78 73 72 78 73 72 78 73 72 78 73 72 78 76 71 75 94 82 84 97 81 81 97 81 81 97 81 81 97 81 81 97 81 81 97 81 81 97 81 81 92 76 76 92 76 76 92 76 76 92 76 76 92 76 76 92 76 76 92 76 76 94 76 76 94 69 72 95 69 72 95 69 72 95 69 72 95 69 72 95 69 72 95 69 72 95 69 72 93 67 70 93 67 70 93 67 70 93 67 70 93 67 70 93 67 70 93 67 70 95 66 70 94 61 68 96 61 68 96 61 68 96 61 68 96 61 68 96 61 68 96 61 68 96 61 68 98 63 70 98 63 70 98 63 70 98 63 70 98 63 70 98 63 70 98 63 70 101 61 70 102 51 68 103 50 68 103 50 68 100 52 68 100 52 68 97 53 68 96 54 68 93 55 68 75 42 53 71 41 51 67 40 49 61 38 46 57 34 42 52 33 39 50 31 37 42 31 37 40 38 43 36 39 44 36 39 44 36 39 44 36 39 44 36 39 44 36 39 44 36 39 44 21 24 29 21 24 29
69 60 63 69 60 63 69 60 63 69 60 63 69 60 63 64 58 62 64 58 62 64 58 62 64 58 62 64 58 62 64 58 62 64 58 62 64 58 62 58 52 56 58 52 56 58 52 56 58 52 56 58 52 56 58 52 56 58 52 56 58 52 56 58 49 52 58 49 52 58 49 52 58 49 52 58 49 52 58 49 52 58 49 52 58 49 52 60 51 54 60 51 54 61 52 55 62 53 56 62 53 56 63 54 57 64 55 58 64 55 58 70 58 62 70 58 62 70 58 62 70 58 62 70 58 62 70 58 62 70 58 62 70 58 62 76 64 68 76 64 68 76 64 68 76 64 68 76 64 68 76 64 68 76 64 68 78 63 66 70 54 55 72 54 54 72 54 54 72 54 54 72 54 54 72 54 54 72 54 54 72 54 54 82 64 64 84 66 66 86 68 68 89 71 71 93 75 75 96 78 78 98 80 80 98 82 82 84 69 72 80 68 70 78 66 68 75 63 65 71 59 61 68 56 58 66 54 56 64 52 54 66 54 56 66 54 56 66 54 56 66 54 56 66 54 56 66 54 56 66 54 56 64 55 58 49 46 53 48 48 56 51 51 59 54 54 62 57 57 65 61 61 69 63 63 71 64 64 72 56 56 64 56 56 64 56 56 64 56 56 64 56 56 64 56 56 64 56 56 64 56 56 64 53 53 63 51 51 61 49 49 59 46 46 56 42 42 52 39 39 49 37 37 47 35 35 45 40 40 50 40 40 50 40 40 50 40 40 50 40 40 50 40 40 50 40 40 50 40 40 48 42 41 49 44 43 49 46 45 51 49 48 54 53 52 58 56 55 61 58 57 63 60 59 65 77 76 82 77 76 82 77 76 82 77 76 82 77 76 82 77 76 82 77 76 82 80 75 79 94 82 84 97 81 81 97 81 81 97 81 81 97 81 81 97 81 81 97 81 81 97 81 81 92 76 76 92 76 76 92 76 76 92 76 76 92 76 76 92 76 76 92 76 76 94 76 76 94 69 72 95 69 72 95 69 72 95 69 72 95 69 72 95 69 72 95 69 72 95 69 72 93 67 70 93 67 70 93 67 70 93 67 70 93 67 70 93 67 70 93 67 70 95 66 70 94 61 68 96 61 68 96 61 68 96 61 68 96 61 68 96 61 68 96 61 68 96 61 68 98 63 70 98 63 70 98 63 70 98 63 70 98 63 70 98 63 70 98 63 70 101 61 70 102 51 68 103 50 68 103 50 68 100 52 68 100 52 68 97 53 68 96 54 68 93 55 68 75 42 53 71 41 51 67 40 49 61 38 46 57 34 42 52 33 39 50 31 37 42 31 37 40 38 43 36 39 44 36 39 44 36 39 44 36 39 44 36 39 44 36 39 44 36 39 44 21 24 29 21 24 29
69 60 63 69 60 63 69 60 63 69 60 63 69 60 63 64 58 62 64 58 62 64 58 62 64 58 62 64 58 62 64 58 62 64 58 62 64 58 62 58 52 56 58 52 56 58 52 56 58 52 56 58 52 56 58 52 56 58 52 56 58 52 56 58 49 52 58 49 52 58 49 52 58 49 52 58 49 52 58 49 52 58 49 52 58 49 52 55 46 49 56 47 50 58 49 52 61 52 55 63 54 57 66 57 60 68 59 62 69 60 63 70 58 62 70 58 62 70 58 62 70 58 62 70 58 62 70 58 62 70 58 62 70 58 62 76 64 68 76 64 68 76 64 68 76 64 68 76 64 68 76 64 68 76 64 68 78 63 66 70 54 55 72 54 54 72 54 54 72 54 54 72 54 54 72 54 54 72 54 54 72 54 54 82 64 64 84 66 66 86 68 68 89 71 71 93 75 75 96 78 78 98 80 80 98 82 82 84 69 72 80 68 70 78 66 68 75 63 65 71 59 61 68 56 58 66 54 56 64 52 54 66 54 56 66 54 56 66 54 56 66 54 56 66 54 56 66 54 56 66 54 56 64 55 58 52 49 56 52 52 60 54 54 62 57 57 65 61 61 69 64 64 72 66 66 74 68 68 76 56 56 64 56 56 64 56 56 64 56 56 64 56 56 64 56 56 64 56 56 64 56 56 64 53 53 63 51 51 61 49 49 59 46 46 56 42 42 52 39 39 49 37 37 47 35 35 45 40 40 50 40 40 50 40 40 50 40 40 50 40 40 50 40 40 50 40 40 50 40 40 48 42 41 49 44 43 49 46 45 51 49 48 54 53 52 58 56 55 61 58 57 63 60 59 65 80 79 85 80 79 85 80 79 85 80 79 85 80 79 85 80 79 85 80 79 85 83 78 82 94 82 84 97 81 81 97 81 81 97 81 81 97 81 81 97 81 81 97 81 81 97 81 81 92 76 76 92 76 76 92 76 76 92 76 76 92 76 76 92 76 76 92 76 76 94 76 76 94 69 72 95 69 72 95 69 72 95 69 72 95 69 72 95 69 72 95 69 72 95 69 72 93 67 70 93 67 70 93 67 70 93 67 70 93 67 70 93 67 70 93 67 70 95 66 70 94 61 68 96 61 68 96 61 68 96 61 68 96 61 68 96 61 68 96 61 68 96 61 68 98 63 70 98 63 70 98 63 70 98 63 70 98 63 70 98 63 70 98 63 70 101 61 70 102 51 68 103 50 68 103 50 68 100 52 68 100 52 68 97 53 68 96 54 68 93 55 68 75 42 53 71 41 51 67 40 49 61 38 46 57 34 42 52 33 39 50 31 37 42 31 37 40 38 43 36 39 44 36 39 44 36 39 44 36 39 44 36 39 44 36 39 44 36 39 44 21 24 29 21 24 29
69 60 63 69 60 63 69 60 63 69 60 63 69 60 63 64 58 62 64 58 62 64 58 62 64 58 62 64 58 62 64 58 62 64 58 62 64 58 62 58 52 56 58 52 56 58 52 56 58 52 56 58 52 56 58 52 56 58 52 56 58 52 56 58 49 52 58 49 52 58 49 52 58 49 52 58 49 52 58 49 52 58 49 52 58 49 52 52 43 46 53 44 47 56 47 50 60 51 54 64 55 58 68 59 62 71 62 65 72 63 66 70 58 62 70 58 62 70 58 62 70 58 62 70 58 62 70 58 62 70 58 62 70 58 62 76 64 68 76 64 68 76 64 68 76 64 68 76 64 68 76 64 68 76 64 68 78 63 66 70 54 55 72 54 54 72 54 54 72 54 54 72 54 54 72 54 54 72 54 54 72 54 54 82 64 64 84 66 66 86 68 68 89 71 71 93 75 75 96 78 78 98 80 80 98 82 82 84 69 72 80 68 70 78 66 68 75 63 65 71 59 61 68 56 58 66 54 56 64 52 54 66 54 56 66 54 56 66 54 56 66 54 56 66 54 56 66 54 56 66 54 56 64 55 58 55 52 59 54 54 62 56 56 64 60 60 68 63 63 71 66 66 74 69 69 77 70 70 78 56 56 64 56 56 64 56 56 64 56 56 64 56 56 64 56 56 64 56 56 64 56 56 64 53 53 63 51 51 61 49 49 59 46 46 56 42 42 52 39 39 49 37 37 47 35 35 45 40 40 50 40 40 50 40 40 50 40 40 50 40 40 50 40 40 50 40 40 50 40 40 48 42 41 49 44 43 49 46 45 51 49 48 54 53 52 58 56 55 61 58 57 63 60 59 65 82 81 87 82 81 87 82 81 87 82 81 87 82 81 87 82 81 87 82 81 87 85 80 84 94 82 84 97 81 81 97 81 81 97 81 81 97 81 81 97 81 81 97 81 81 97 81 81 92 76 76 92 76 76 92 76 76 92 76 76 92 76 76 92 76 76 92 76 76 94 76 76 94 69 72 95 69 72 95 69 72 95 69 72 95 69 72 95 69 72 95 69 72 95 69 72 93 67 70 93 67 70 93 67 70 93 67 70 93 67 70 93 67 70 93 67 70 95 66 70 94 61 68 96 61 68 96 61 68 96 61 68 96 61 68 96 61 68 96 61 68 96 61 68 98 63 70 98 63 70 98 63 70 98 63 70 98 63 70 98 63 70 98 63 70 101 61 70 102 51 68 103 50 68 103 50 68 100 52 68 100 52 68 97 53 68 96 54 68 93 55 68 75 42 53 71 41 51 67 40 49 61 38 46 57 34 42 52 33 39 50 31 37 42 31 37 40 38 43 36 39 44 36 39 44 36 39 44 36 39 44 36 39 44 36 39 44 36 39 44 21 24 29 21 24 29
67 61 65 67 61 65 67 61 65 67 61 65 67 61 65 64 58 62 64 58 62 64 58 62 64 58 62 64 58 62 64 58 62 64 58 62 64 58 62 58 52 56 58 52 56 58 52 56 58 52 56 58 52 56 58 52 56 58 52 56 58 52 56 56 50 54 56 50 52 58 49 54 56 50 52 58 49 54 56 50 52 58 49 54 56 50 52 50 41 46 50 44 46 55 46 51 58 52 54 64 55 60 67 61 63 72 63 68 74 65 68 69 58 62 70 58 62 70 58 62 70 58 62 70 58 62 70 58 62 70 58 62 70 58 62 76 64 68 76 64 68 76 64 68 76 64 68 76 64 68 76 64 68 76 64 68 76 64 68 69 54 57 70 54 55 70 54 55 70 54 55 70 54 55 70 54 55 70 54 55 70 54 55 80 64 65 82 66 67 84 68 69 87 71 72 91 75 76 94 78 79 96 80 81 97 82 85 82 70 72 79 69 70 77 66 70 74 64 65 70 59 63 67 57 58 65 54 58 63 53 54 65 54 58 65 55 56 65 54 58 65 55 56 65 54 58 65 55 56 65 54 58 64 55 58 56 54 59 56 55 61 59 58 64 62 61 67 65 64 70 69 68 74 71 70 76 72 71 77 57 56 62 57 56 62 57 56 62 57 56 62 57 56 62 57 56 62 57 56 62 57 56 62 54 53 61 52 51 59 50 49 57 47 46 54 43 42 50 40 39 47 38 37 45 36 35 43 41 40 48 41 40 48 41 40 48 41 40 48 41 40 48 41 40 48 41 40 48 41 40 48 43 40 47 45 42 49 47 44 51 50 47 54 54 51 58 57 54 61 59 56 63 61 58 65 85 82 89 85 82 89 85 82 89 85 82 89 85 82 89 85 82 89 85 82 89 88 82 86 94 82 84 97 81 81 97 81 82 97 81 81 97 81 82 97 81 81 97 81 82 97 81 81 92 76 77 92 76 76 92 76 77 92 76 76 92 76 77 92 76 76 92 76 77 94 76 76 92 70 73 94 69 72 95 68 73 94 69 72 95 68 73 94 69 72 95 68 73 94 69 72 93 66 71 92 67 70 93 66 71 92 67 70 93 66 71 92 67 70 93 66 71 93 66 71 93 62 68 94 61 68 94 61 68 94 61 68 94 61 68 94 61 68 94 61 68 94 61 68 96 63 70 96 63 70 96 63 70 96 63 70 96 63 70 96 63 70 96 63 70 99 62 70 100 52 66 102 51 68 100 52 68 99 52 68 97 53 68 96 54 68 95 54 68 92 56 68 74 42 53 69 42 51 66 40 49 60 39 46 55 36 42 50 33 39 47 32 37 42 31 37 39 38 43 36 39 44 36 39 44 36 39 44 36 39 44 36 39 44 36 39 44 36 39 44 21 24 29 21 24 29
66 61 67 66 61 67 66 61 67 66 61 67 66 61 67 61 56 62 61 56 62 61 56 62 61 56 62 61 56 62 61 56 62 61 56 62 61 56 62 60 55 61 60 55 61 60 55 61 60 55 61 60 55 61 60 55 61 60 55 61 60 55 61 56 51 57 56 51 55 57 50 57 56 51 55 57 50 57 56 51 55 57 50 57 56 51 55 66 59 66 65 60 64 66 59 66 65 60 64 66 59 66 65 60 64 66 59 66 66 60 64 58 47 53 59 46 53 59 46 53 59 46 53 59 46 53 59 46 53 59 46 53 59 46 53 71 58 65 71 58 65 71 58 65 71 58 65 71 58 65 71 58 65 71 58 65 71 58 65 62 51 57 62 51 57 62 51 57 62 51 57 62 51 57 62 51 57 62 51 57 62 51 57 68 57 63 70 59 65 72 61 67 75 64 70 79 68 74 82 71 77 84 73 79 86 75 81 69 60 65 69 60 63 69 60 65 69 60 63 69 60 65 69 60 63 69 60 65 69 60 63 62 53 58 62 53 56 62 53 58 62 53 56 62 53 58 62 53 56 62 53 58 60 54 58 67 62 66 67 62 68 67 62 68 67 62 68 67 62 68 67 62 68 67 62 68 67 62 68 62 57 63 62 57 63 62 57 63 62 57 63 62 57 63 62 57 63 62 57 63 62 57 63 52 45 53 52 45 53 52 45 53 52 45 53 52 45 53 52 45 53 52 45 53 52 45 53 50 43 51 50 43 51 50 43 51 50 43 51 50 43 51 50 43 51 50 43 51 50 43 51 45 40 46 48 43 49 54 49 55 62 57 63 70 65 71 78 73 79 84 79 85 87 82 88 94 89 95 94 89 95 94 89 95 94 89 95 94 89 95 94 89 95 94 89 95 97 88 93 94 79 82 95 79 80 95 79 82 95 79 80 95 79 82 95 79 80 95 79 82 95 79 80 95 79 82 95 79 80 95 79 82 95 79 80 95 79 82 95 79 80 95 79 82 97 78 80 89 66 72 89 67 70 91 66 72 89 67 70 91 66 72 89 67 70 91 66 72 89 67 70 86 61 67 84 62 65 86 61 67 84 62 65 86 61 67 84 62 65 86 61 67 86 61 65 91 62 67 92 61 66 92 61 66 92 61 66 92 61 66 92 61 66 92 61 66 92 61 66 96 65 70 96 65 70 96 65 70 96 65 70 96 65 70 96 65 70 96 65 70 99 64 71 96 54 66 99 52 68 97 53 68 96 54 68 95 54 68 92 56 68 90 57 68 88 58 68 68 42 51 63 42 49 60 41 47 55 38 44 50 35 40 45 33 37 42 31 35 37 31 35 48 47 52 43 46 51 41 44 49 38 41 46 34 37 42 31 34 39 29 32 37 27 30 35 20 23 28 20 23 28
64 61 68 64 61 68 64 61 68 64 61 68 64 61 68 63 58 64 63 58 64 63 58 64 63 58 64 63 58 64 63 58 64 63 58 64 63 58 64 60 55 61 60 55 61 60 55 61 60 55 61 60 55 61 60 55 61 60 55 61 60 55 61 56 51 57 56 51 57 56 51 57 56 51 57 56 51 57 56 51 57 56 51 57 56 51 57 65 60 66 65 60 66 65 60 66 65 60 66 65 60 66 65 60 66 65 60 66 66 59 66 60 49 55 61 48 55 61 48 55 61 48 55 61 48 55 61 48 55 61 48 55 61 48 55 71 58 65 71 58 65 71 58 65 71 58 65 71 58 65 71 58 65 71 58 65 70 59 65 62 51 59 61 51 59 61 51 59 61 51 59 61 51 59 61 51 59 61 51 59 61 51 59 67 57 65 69 59 67 71 61 69 74 64 72 78 68 76 81 71 79 83 73 81 85 75 83 67 61 65 67 61 65 67 61 65 67 61 65 67 61 65 67 61 65 67 61 65 67 61 65 60 54 58 60 54 58 60 54 58 60 54 58 60 54 58 60 54 58 60 54 58 60 54 58 68 62 66 68 62 66 68 62 66 68 62 66 68 62 66 68 62 66 68 62 66 68 62 66 63 57 61 63 57 61 63 57 61 63 57 61 63 57 61 63 57 61 63 57 61 63 57 61 56 46 54 56 46 54 56 46 54 56 46 54 56 46 54 56 46 54 56 46 54 56 46 54 54 44 52 54 44 52 54 44 52 54 44 52 54 44 52 54 44 52 54 44 52 54 44 52 48 41 48 51 44 51 56 49 56 63 56 63 71 64 71 78 71 78 83 76 83 86 79 86 93 86 93 93 86 93 93 86 93 93 86 93 93 86 93 93 86 93 93 86 93 95 86 91 92 77 82 93 77 80 93 77 80 93 77 80 93 77 80 93 77 80 93 77 80 93 77 80 93 77 80 93 77 80 93 77 80 93 77 80 93 77 80 93 77 80 93 77 80 95 76 80 86 65 70 87 64 70 87 64 70 87 64 70 87 64 70 87 64 70 87 64 70 87 64 70 82 59 65 82 59 65 82 59 65 82 59 65 82 59 65 82 59 65 82 59 65 84 59 63 87 60 65 89 60 64 89 60 64 89 60 64 89 60 64 89 60 64 89 60 64 89 60 64 95 66 70 95 66 70 95 66 70 95 66 70 95 66 70 95 66 70 95 66 70 97 64 71 95 55 66 96 54 68 96 54 68 93 55 68 93 55 68 90 57 68 89 57 68 86 59 68 66 43 51 62 43 49 58 41 47 52 40 44 48 36 40 43 34 37 41 32 35 36 31 35 47 48 52 43 46 51 41 44 49 38 41 46 34 37 42 31 34 39 29 32 37 27 30 35 20 23 28 20 23 28
64 61 68 64 61 68 64 61 68 64 61 68 64 61 68 65 60 66 65 60 66 65 60 66 65 60 66 65 60 66 65 60 66 65 60 66 65 60 66 60 55 61 60 55 61 60 55 61 60 55 61 60 55 61 60 55 61 60 55 61 60 55 61 56 51 57 56 51 57 56 51 57 56 51 57 56 51 57 56 51 57 56 51 57 56 51 57 65 60 66 65 60 66 65 60 66 65 60 66 65 60 66 65 60 66 65 60 66 66 59 66 62 51 57 63 50 57 63 50 57 63 50 57 63 50 57 63 50 57 63 50 57 63 50 57 71 58 65 71 58 65 71 58 65 71 58 65 71 58 65 71 58 65 71 58 65 70 59 65 62 51 59 61 51 59 61 51 59 61 51 59 61 51 59 61 51 59 61 51 59 61 51 59 67 57 65 69 59 67 71 61 69 74 64 72 78 68 76 81 71 79 83 73 81 85 75 83 67 61 65 67 61 65 67 61 65 67 61 65 67 61 65 67 61 65 67 61 65 67 61 65 60 54 58 60 54 58 60 54 58 60 54 58 60 54 58 60 54 58 60 54 58 60 54 58 68 62 66 68 62 66 68 62 66 68 62 66 68 62 66 68 62 66 68 62 66 68 62 66 63 57 61 63 57 61 63 57 61 63 57 61 63 57 61 63 57 61 63 57 61 63 57 61 58 48 56 58 48 56 58 48 56 58 48 56 58 48 56 58 48 56 58 48 56 58 48 56 56 46 54 56 46 54 56 46 54 56 46 54 56 46 54 56 46 54 56 46 54 56 46 54 52 45 52 54 47 54 58 51 58 64 57 64 70 63 70 76 69 76 80 73 80 82 75 82 91 84 91 91 84 91 91 84 91 91 84 91 91 84 91 91 84 91 91 84 91 93 84 89 90 75 80 91 75 78 91 75 78 91 75 78 91 75 78 91 75 78 91 75 78 91 75 78 91 75 78 91 75 78 91 75 78 91 75 78 91 75 78 91 75 78 91 75 78 93 74 78 84 63 68 85 62 68 85 62 68 85 62 68 85 62 68 85 62 68 85 62 68 85 62 68 80 57 63 80 57 63 80 57 63 80 57 63 80 57 63 80 57 63 80 57 63 82 57 61 85 58 63 87 58 62 87 58 62 87 58 62 87 58 62 87 58 62 87 58 62 87 58 62 95 66 70 95 66 70 95 66 70 95 66 70 95 66 70 95 66 70 95 66 70 97 64 71 95 55 66 96 54 68 96 54 68 93 55 68 93 55 68 90 57 68 89 57 68 86 59 68 66 43 51 62 43 49 58 41 47 52 40 44 48 36 40 43 34 37 41 32 35 36 31 35 47 48 52 43 46 51 41 44 49 38 41 46 34 37 42 31 34 39 29 32 37 27 30 35 20 23 28 20 23 28
64 61 68 64 61 68 64 61 68 64 61 68 64 61 68 68 63 69 68 63 69 68 63 69 68 63 69 68 63 69 68 63 69 68 63 69 68 63 69 60 55 61 60 55 61 60 55 61 60 55 61 60 55 61 60 55 61 60 55 61 60 55 61 56 51 57 56 51 57 56 51 57 56 51 57 56 51 57 56 51 57 56 51 57 56 51 57 65 60 66 65 60 66 65 60 66 65 60 66 65 60 66 65 60 66 65 60 66 66 59 66 65 54 60 66 53 60 66 53 60 66 53 60 66 53 60 66 53 60 66 53 60 66 53 60 71 58 65 71 58 65 71 58 65 71 58 65 71 58 65 71 58 65 71 58 65 70 59 65 62 51 59 61 51 59 61 51 59 61 51 59 61 51 59 61 51 59 61 51 59 61 51 59 67 57 65 69 59 67 71 61 69 74 64 72 78 68 76 81 71 79 83 73 81 85 75 83 67 61 65 67 61 65 67 61 65 67 61 65 67 61 65 67 61 65 67 61 65 67 61 65 60 54 58 60 54 58 60 54 58 60 54 58 60 54 58 60 54 58 60 54 58 60 54 58 68 62 66 68 62 66 68 62 66 68 62 66 68 62 66 68 62 66 68 62 66 68 62 66 63 57 61 63 57 61 63 57 61 63 57 61 63 57 61 63 57 61 63 57 61 63 57 61 61 51 59 61 51 59 61 51 59 61 51 59 61 51 59 61 51 59 61 51 59 61 51 59 59 49 57 59 49 57 59 49 57 59 49 57 59 49 57 59 49 57 59 49 57 59 49 57 56 49 56 58 51 58 61 54 61 65 58 65 69 62 69 73 66 73 76 69 76 78 71 78 88 81 88 88 81 88 88 81 88 88 81 88 88 81 88 88 81 88 88 81 88 90 81 86 87 72 77 88 72 75 88 72 75 88 72 75 88 72 75 88 72 75 88 72 75 88 72 75 88 72 75 88 72 75 88 72 75 88 72 75 88 72 75 88 72 75 88 72 75 90 71 75 81 60 65 82 59 65 82 59 65 82 59 65 82 59 65 82 59 65 82 59 65 82 59 65 77 54 60 77 54 60 77 54 60 77 54 60 77 54 60 77 54 60 77 54 60 79 54 58 82 55 60 84 55 59 84 55 59 84 55 59 84 55 59 84 55 59 84 55 59 84 55 59 95 66 70 95 66 70 95 66 70 95 66 70 95 66 70 95 66 70 95 66 70 97 64 71 95 55 66 96 54 68 96 54 68 93 55 68 93 55 68 90 57 68 89 57 68 86 59 68 66 43 51 62 43 49 58 41 47 52 40 44 48 36 40 43 34 37 41 32 35 36 31 35 47 48 52 43 46 51 41 44 49 38 41 46 34 37 42 31 34 39 29 32 37 27 30 35 20 23 28 20 23 28
64 61 68 64 61 68 64 61 68 64 61 68 64 61 68 72 67 73 72 67 73 72 67 73 72 67 73 72 67 73 72 67 73 72 67 73 72 67 73 60 55 61 60 55 61 60 55 61 60 55 61 60 55 61 60 55 61 60 55 61 60 55 61 56 51 57 56 51 57 56 51 57 56 51 57 56 51 57 56 51 57 56 51 57 56 51 57 65 60 66 65 60 66 65 60 66 65 60 66 65 60 66 65 60 66 65 60 66 66 59 66 69 58 64 70 57 64 70 57 64 70 57 64 70 57 64 70 57 64 70 57 64 70 57 64 71 58 65 71 58 65 71 58 65 71 58 65 71 58 65 71 58 65 71 58 65 70 59 65 62 51 59 61 51 59 61 51 59 61 51 59 61 51 59 61 51 59 61 51 59 61 51 59 67 57 65 69 59 67 71 61 69 74 64 72 78 68 76 81 71 79 83 73 81 85 75 83 67 61 65 67 61 65 67 61 65 67 61 65 67 61 65 67 61 65 67 61 65 67 61 65 60 54 58 60 54 58 60 54 58 60 54 58 60 54 58 60 54 58 60 54 58 60 54 58 68 62 66 68 62 66 68 62 66 68 62 66 68 62 66 68 62 66 68 62 66 68 62 66 63 57 61 63 57 61 63 57 61 63 57 61 63 57 61 63 57 61 63 57 61 63 57 61 65 55 63 65 55 63 65 55 63 65 55 63 65 55 63 65 55 63 65 55 63 65 55 63 63 53 61 63 53 61 63 53 61 63 53 61 63 53 61 63 53 61 63 53 61 63 53 61 61 54 61 62 55 62 63 56 63 66 59 66 68 61 68 71 64 71 72 65 72 73 66 73 84 77 84 84 77 84 84 77 84 84 77 84 84 77 84 84 77 84 84 77 84 86 77 82 83 68 73 84 68 71 84 68 71 84 68 71 84 68 71 84 68 71 84 68 71 84 68 71 84 68 71 84 68 71 84 68 71 84 68 71 84 68 71 84 68 71 84 68 71 86 67 71 77 56 61 78 55 61 78 55 61 78 55 61 78 55 61 78 55 61 78 55 61 78 55 61 73 50 56 73 50 56 73 50 56 73 50 56 73 50 56 73 50 56 73 50 56 75 50 54 78 51 56 80 51 55 80 51 55 80 51 55 80 51 55 80 51 55 80 51 55 80 51 55 95 66 70 95 66 70 95 66 70 95 66 70 95 66 70 95 66 70 95 66 70 97 64 71 95 55 66 96 54 68 96 54 68 93 55 68 93 55 68 90 57 68 89 57 68 86 59 68 66 43 51 62 43 49 58 41 47 52 40 44 48 36 40 43 34 37 41 32 35 36 31 35 47 48 52 43 46 51 41 44 49 38 41 46 34 37 42 31 34 39 29 32 37 27 30 35 20 23 28 20 23 28
64 61 68 64 61 68 64 61 68 64 61 68 64 61 68 75 70 76 75 70 76 75 70 76 75 70 76 75 70 76 75 70 76 75 70 76 75 70 76 60 55 61 60 55 61 60 55 61 60 55 61 60 55 61 60 55 61 60 55 61 60 55 61 56 51 57 56 51 57 56 51 57 56 51 57 56 51 57 56 51 57 56 51 57 56 51 57 65 60 66 65 60 66 65 60 66 65 60 66 65 60 66 65 60 66 65 60 66 66 59 66 72 61 67 73 60 67 73 60 67 73 60 67 73 60 67 73 60 67 73 60 67 73 60 67 71 58 65 71 58 65 71 58 65 71 58 65 71 58 65 71 58 65 71 58 65 70 59 65 62 51 59 61 51 59 61 51 59 61 51 59 61 51 59 61 51 59 61 51 59 61 51 59 67 57 65 69 59 67 71 61 69 74 64 72 78 68 76 81 71 79 83 73 81 85 75 83 67 61 65 67 61 65 67 61 65 67 61 65 67 61 65 67 61 65 67 61 65 67 61 65 60 54 58 60 54 58 60 54 58 60 54 58 60 54 58 60 54 58 60 54 58 60 54 58 68 62 66 68 62 66 68 62 66 68 62 66 68 62 66 68 62 66 68 62 66 68 62 66 63 57 61 63 57 61 63 57 61 63 57 61 63 57 61 63 57 61 63 57 61 63 57 61 68 58 66 68 58 66 68 58 66 68 58 66 68 58 66 68 58 66 68 58 66 68 58 66 66 56 64 66 56 64 66 56 64 66 56 64 66 56 64 66 56 64 66 56 64 66 56 64 65 58 65 65 58 65 66 59 66 67 60 67 67 60 67 68 61 68 69 62 69 69 62 69 81 74 81 81 74 81 81 74 81 81 74 81 81 74 81 81 74 81 81 74 81 83 74 79 80 65 70 81 65 68 81 65 68 81 65 68 81 65 68 81 65 68 81 65 68 81 65 68 81 65 68 81 65 68 81 65 68 81 65 68 81 65 68 81 65 68 81 65 68 83 64 68 74 53 58 75 52 58 75 52 58 75 52 58 75 52 58 75 52 58 75 52 58 75 52 58 70 47 53 70 47 53 70 47 53 70 47 53 70 47 53 70 47 53 70 47 53 72 47 51 75 48 53 77 48 52 77 48 52 77 48 52 77 48 52 77 48 52 77 48 52 77 48 52 95 66 70 95 66 70 95 66 70 95 66 70 95 66 70 95 66 70 95 66 70 97 64 71 95 55 66 96 54 68 96 54 68 93 55 68 93 55 68 90 57 68 89 57 68 86 59 68 66 43 51 62 43 49 58 41 47 52 40 44 48 36 40 43 34 37 41 32 35 36 31 35 47 48 52 43 46 51 41 44 49 38 41 46 34 37 42 31 34 39 29 32 37 27 30 35 20 23 28 20 23 28
64 61 68 64 61 68 64 61 68 64 61 68 64 61 68 77 72 78 77 72 78 77 72 78 77 72 78 77 72 78 77 72 78 77 72 78 77 72 78 60 55 61 60 55 61 60 55 61 60 55 61 60 55 61 60 55 61 60 55 61 60 55 61 56 51 57 56 51 57 56 51 57 56 51 57 56 51 57 56 51 57 56 51 57 56 51 57 65 60 66 65 60 66 65 60 66 65 60 66 65 60 66 65 60 66 65 60 66 66 59 66 74 63 69 75 62 69 75 62 69 75 62 69 75 62 69 75 62 69 75 62 69 75 62 69 71 58 65 71 58 65 71 58 65 71 58 65 71 58 65 71 58 65 71 58 65 70 59 65 62 51 59 61 51 59 61 51 59 61 51 59 61 51 59 61 51 59 61 51 59 61 51 59 67 57 65 69 59 67 71 61 69 74 64 72 78 68 76 81 71 79 83 73 81 85 75 83 67 61 65 67 61 65 67 61 65 67 61 65 67 61 65 67 61 65 67 61 65 67 61 65 60 54 58 60 54 58 60 54 58 60 54 58 60 54 58 60 54 58 60 54 58 60 54 58 68 62 66 68 62 66 68 62 66 68 62 66 68 62 66 68 62 66 68 62 66 68 62 66 63 57 61 63 57 61 63 57 61 63 57 61 63 57 61 63 57 61 63 57 61 63 57 61 70 60 68 70 60 68 70 60 68 70 60 68 70 60 68 70 60 68 70 60 68 70 60 68 68 58 66 68 58 66 68 58 66 68 58 66 68 58 66 68 58 66 68 58 66 68 58 66 69 62 69 68 61 68 68 61 68 67 60 67 67 60 67 66 59 66 66 59 66 65 58 65 79 72 79 79 72 79 79 72 79 79 72 79 79 72 79 79 72 79 79 72 79 81 72 77 78 63 68 79 63 66 79 63 66 79 63 66 79 63 66 79 63 66 79 63 66 79 63 66 79 63 66 79 63 66 79 63 66 79 63 66 79 63 66 79 63 66 79 63 66 81 62 66 72 51 56 73 50 56 73 50 56 73 50 56 73 50 56 73 50 56 73 50 56 73 50 56 68 45 51 68 45 51 68 45 51 68 45 51 68 45 51 68 45 51 68 45 51 70 45 49 73 46 51 75 46 50 75 46 50 75 46 50 75 46 50 75 46 50 75 46 50 75 46 50 95 66 70 95 66 70 95 66 70 95 66 70 95 66 70 95 66 70 95 66 70 97 64 71 95 55 66 96 54 68 96 54 68 93 55 68 93 55 68 90 57 68 89 57 68 86 59 68 66 43 51 62 43 49 58 41 47 52 40 44 48 36 40 43 34 37 41 32 35 36 31 35 47 48 52 43 46 51 41 44 49 38 41 46 34 37 42 31 34 39 29 32 37 27 30 35 20 23 28 20 23 28
64 61 68 64 61 68 64 61 68 64 61 68 64 61 68 79 74 80 79 74 80 79 74 80 79 74 80 79 74 80 79 74 80 79 74 80 79 74 80 60 55 61 60 55 61 60 55 61 60 55 61 60 55 61 60 55 61 60 55 61 60 55 61 56 51 57 56 51 57 56 51 57 56 51 57 56 51 57 56 51 57 56 51 57 56 51 57 65 60 66 65 60 66 65 60 66 65 60 66 65 60 66 65 60 66 65 60 66 66 59 66 76 65 71 77 64 71 77 64 71 77 64 71 77 64 71 77 64 71 77 64 71 77 64 71 71 58 65 71 58 65 71 58 65 71 58 65 71 58 65 71 58 65 71 58 65 70 59 65 62 51 59 61 51 59 61 51 59 61 51 59 61 51 59 61 51 59 61 51 59 61 51 59 67 57 65 69 59 67 71 61 69 74 64 72 78 68 76 81 71 79 83 73 81 85 75 83 67 61 65 67 61 65 67 61 65 67 61 65 67 61 65 67 61 65 67 61 65 67 61 65 60 54 58 60 54 58 60 54 58 60 54 58 60 54 58 60 54 58 60 54 58 60 54 58 68 62 66 68 62 66 68 62 66 68 62 66 68 62 66 68 62 66 68 62 66 68 62 66 63 57 61 63 57 61 63 57 61 63 57 61 63 57 61 63 57 61 63 57 61 63 57 61 72 62 70 72 62 70 72 62 70 72 62 70 72 62 70 72 62 70 72 62 70 72 62 70 70 60 68 70 60 68 70 60 68 70 60 68 70 60 68 70 60 68 70 60 68 70 60 68 70 63 70 70 63 70 69 62 69 68 61 68 66 59 66 65 58 65 64 57 64 64 57 64 77 70 77 77 70 77 77 70 77 77 70 77 77 70 77 77 70 77 77 70 77 79 70 75 76 61 66 77 61 64 77 61 64 77 61 64 77 61 64 77 61 64 77 61 64 77 61 64 77 61 64 77 61 64 77 61 64 77 61 64 77 61 64 77 61 64 77 61 64 79 60 64 70 49 54 71 48 54 71 48 54 71 48 54 71 48 54 71 48 54 71 48 54 71 48 54 66 43 49 66 43 49 66 43 49 66 43 49 66 43 49 66 43 49 66 43 49 68 43 47 71 44 49 73 44 48 73 44 48 73 44 48 73 44 48 73 44 48 73 44 48 73 44 48 95 66 70 95 66 70 95 66 70 95 66 70 95 66 70 95 66 70 95 66 70 97 64 71 95 55 66 96 54 68 96 54 68 93 55 68 93 55 68 90 57 68 89 57 68 86 59 68 66 43 51 62 43 49 58 41 47 52 40 44 48 36 40 43 34 37 41 32 35 36 31 35 47 48 52 43 46 51 41 44 49 38 41 46 34 37 42 31 34 39 29 32 37 27 30 35 20 23 28 20 23 28
65 62 69 65 62 69 65 62 69 65 62 69 65 62 69 74 69 75 74 69 75 74 69 75 74 69 75 74 69 75 74 69 75 74 69 75 74 69 75 79 74 80 77 72 78 75 70 76 72 67 73 68 63 69 65 60 66 63 58 64 61 56 62 59 54 60 59 54 60 59 54 60 59 54 60 59 54 60 59 54 60 59 54 60 59 54 60 68 63 69 68 63 69 68 63 69 68 63 69 68 63 69 68 63 69 68 63 69 69 62 69 78 67 73 79 66 73 79 66 73 79 66 73 79 66 73 79 66 73 79 66 73 79 66 73 69 56 63 68 55 62 66 53 60 62 49 56 59 46 53 56 43 50 53 40 47 51 40 46 56 45 53 55 45 53 55 45 53 55 45 53 55 45 53 55 45 53 55 45 53 55 45 53 51 41 49 51 41 49 51 41 49 51 41 49 51 41 49 51 41 49 51 41 49 51 41 49 53 47 51 55 49 53 57 51 55 60 54 58 64 58 62 67 61 65 69 63 67 71 65 69 71 65 69 69 63 67 67 61 65 64 58 62 60 54 58 57 51 55 55 49 53 53 47 51 55 49 53 55 49 53 55 49 53 55 49 53 55 49 53 55 49 53 55 49 53 55 49 53 69 63 67 69 63 67 69 63 67 69 63 67 69 63 67 69 63 67 69 63 67 69 63 67 74 64 72 74 64 72 74 64 72 74 64 72 74 64 72 74 64 72 74 64 72 74 64 72 72 62 70 70 60 68 68 58 66 65 55 63 61 51 59 58 48 56 56 46 54 54 44 52 52 45 52 52 45 52 52 45 52 52 45 52 52 45 52 52 45 52 52 45 52 52 45 52 60 53 60 60 53 60 60 53 60 60 53 60 60 53 60 60 53 60 60 53 60 62 53 58 69 54 59 70 54 57 70 54 57 70 54 57 70 54 57 70 54 57 70 54 57 70 54 57 68 52 55 68 52 55 68 52 55 68 52 55 68 52 55 68 52 55 68 52 55 70 51 55 70 49 54 71 48 54 71 48 54 71 48 54 71 48 54 71 48 54 71 48 54 71 48 54 73 50 56 73 50 56 73 50 56 73 50 56 73 50 56 73 50 56 73 50 56 75 50 54 82 55 60 84 55 59 84 55 59 84 55 59 84 55 59 84 55 59 84 55 59 84 55 59 80 51 55 82 53 57 84 55 59 87 58 62 91 62 66 94 65 69 96 67 71 100 67 74 105 65 76 104 62 76 102 60 74 96 58 71 92 54 67 86 53 64 83 51 62 78 51 60 58 35 43 56 37 43 54 37 43 51 39 43 51 39 43 49 40 43 49 40 43 46 41 45 46 47 51 42 45 50 40 43 48 37 40 45 33 36 41 30 33 38 28 31 36 26 29 34 20 23 28 20 23 28
67 64 71 67 64 71 67 64 71 67 64 71 67 64 71 74 69 75 74 69 75 74 69 75 74 69 75 74 69 75 74 69 75 74 69 75 74 69 75 79 74 80 77 72 78 75 70 76 72 67 73 68 63 69 65 60 66 63 58 64 61 56 62 59 54 60 59 54 60 59 54 60 59 54 60 59 54 60 59 54 60 59 54 60 59 54 60 68 63 69 68 63 69 68 63 69 68 63 69 68 63 69 68 63 69 68 63 69 69 62 69 78 67 73 79 66 73 79 66 73 79 66 73 79 66 73 79 66 73 79 66 73 79 66 73 72 59 66 71 58 65 68 55 62 65 52 59 62 49 56 58 45 52 56 43 50 54 43 49 56 45 53 55 45 53 55 45 53 55 45 53 55 45 53 55 45 53 55 45 53 55 45 53 51 41 49 51 41 49 51 41 49 51 41 49 51 41 49 51 41 49 51 41 49 51 41 49 53 47 51 55 49 53 57 51 55 60 54 58 64 58 62 67 61 65 69 63 67 71 65 69 71 65 69 69 63 67 67 61 65 64 58 62 60 54 58 57 51 55 55 49 53 53 47 51 55 49 53 55 49 53 55 49 53 55 49 53 55 49 53 55 49 53 55 49 53 55 49 53 69 63 67 69 63 67 69 63 67 69 63 67 69 63 67 69 63 67 69 63 67 69 63 67 74 64 72 74 64 72 74 64 72 74 64 72 74 64 72 74 64 72 74 64 72 74 64 72 72 62 70 70 60 68 68 58 66 65 55 63 61 51 59 58 48 56 56 46 54 54 44 52 52 45 52 52 45 52 52 45 52 52 45 52 52 45 52 52 45 52 52 45 52 52 45 52 58 51 58 58 51 58 58 51 58 58 51 58 58 51 58 58 51 58 58 51 58 60 51 56 69 54 59 70 54 57 70 54 57 70 54 57 70 54 57 70 54 57 70 54 57 70 54 57 68 52 55 68 52 55 68 52 55 68 52 55 68 52 55 68 52 55 68 52 55 70 51 55 70 49 54 71 48 54 71 48 54 71 48 54 71 48 54 71 48 54 71 48 54 71 48 54 73 50 56 73 50 56 73 50 56 73 50 56 73 50 56 73 50 56 73 50 56 75 50 54 82 55 60 84 55 59 84 55 59 84 55 59 84 55 59 84 55 59 84 55 59 84 55 59 80 51 55 82 53 57 84 55 59 87 58 62 91 62 66 94 65 69 96 67 71 100 67 74 105 65 76 104 62 76 102 60 74 96 58 71 92 54 67 86 53 64 83 51 62 78 51 60 58 35 43 56 37 43 54 37 43 51 39 43 51 39 43 49 40 43 49 40 43 46 41 45 46 47 51 42 45 50 40 43 48 37 40 45 33 36 41 30 33 38 28 31 36 26 29 34 20 23 28 20 23 28
69 66 73 69 66 73 69 66 73 69 66 73 69 66 73 74 69 75 74 69 75 74 69 75 74 69 75 74 69 75 74 69 75 74 69 75 74 69 75 79 74 80 77 72 78 75 70 76 72 67 73 68 63 69 65 60 66 63 58 64 61 56 62 59 54 60 59 54 60 59 54 60 59 54 60 59 54 60 59 54 60 59 54 60 59 54 60 68 63 69 68 63 69 68 63 69 68 63 69 68 63 69 68 63 69 68 63 69 69 62 69 78 67 73 79 66 73 79 66 73 79 66 73 79 66 73 79 66 73 79 66 73 79 66 73 77 64 71 76 63 70 73 60 67 70 57 64 66 53 60 63 50 57 61 48 55 59 48 54 56 45 53 55 45 53 55 45 53 55 45 53 55 45 53 55 45 53 55 45 53 55 45 53 51 41 49 51 41 49 51 41 49 51 41 49 51 41 49 51 41 49 51 41 49 51 41 49 53 47 51 55 49 53 57 51 55 60 54 58 64 58 62 67 61 65 69 63 67 71 65 69 71 65 69 69 63 67 67 61 65 64 58 62 60 54 58 57 51 55 55 49 53 53 47 51 55 49 53 55 49 53 55 49 53 55 49 53 55 49 53 55 49 53 55 49 53 55 49 53 69 63 67 69 63 67 69 63 67 69 63 67 69 63 67 69 63 67 69 63 67 69 63 67 74 64 72 74 64 72 74 64 72 74 64 72 74 64 72 74 64 72 74 64 72 74 64 72 72 62 70 70 60 68 68 58 66 65 55 63 61 51 59 58 48 56 56 46 54 54 44 52 52 45 52 52 45 52 52 45 52 52 45 52 52 45 52 52 45 52 52 45 52 52 45 52 56 49 56 56 49 56 56 49 56 56 49 56 56 49 56 56 49 56 56 49 56 58 49 54 69 54 59 70 54 57 70 54 57 70 54 57 70 54 57 70 54 57 70 54 57 70 54 57 68 52 55 68 52 55 68 52 55 68 52 55 68 52 55 68 52 55 68 52 55 70 51 55 70 49 54 71 48 54 71 48 54 71 48 54 71 48 54 71 48 54 71 48 54 71 48 54 73 50 56 73 50 56 73 50 56 73 50 56 73 50 56 73 50 56 73 50 56 75 50 54 82 55 60 84 55 59 84 55 59 84 55 59 84 55 59 84 55 59 84 55 59 84 55 59 80 51 55 82 53 57 84 55 59 87 58 62 91 62 66 94 65 69 96 67 71 100 67 74 105 65 76 104 62 76 102 60 74 96 58 71 92 54 67 86 53 64 83 51 62 78 51 60 58 35 43 56 37 43 54 37 43 51 39 43 51 39 43 49 40 43 49 40 43 46 41 45 46 47 51 42 45 50 40 43 48 37 40 45 33 36 41 30 33 38 28 31 36 26 29 34 20 23 28 20 23 28
72 69 76 72 69 76 72 69 76 72 69 76 72 69 76 74 69 75 74 69 75 74 69 75 74 69 75 74 69 75 74 69 75 74 69 75 74 69 75 79 74 80 77 72 78 75 70 76 72 67 73 68 63 69 65 60 66 63 58 64 61 56 62 59 54 60 59 54 60 59 54 60 59 54 60 59 54 60 59 54 60 59 54 60 59 54 60 68 63 69 68 63 69 68 63 69 68 63 69 68 63 69 68 63 69 68 63 69 69 62 69 78 67 73 79 66 73 79 66 73 79 66 73 79 66 73 79 66 73 79 66 73 79 66 73 83 70 77 82 69 76 79 66 73 76 63 70 73 60 67 70 57 64 67 54 61 65 54 60 56 45 53 55 45 53 55 45 53 55 45 53 55 45 53 55 45 53 55 45 53 55 45 53 51 41 49 51 41 49 51 41 49 51 41 49 51 41 49 51 41 49 51 41 49 51 41 49 53 47 51 55 49 53 57 51 55 60 54 58 64 58 62 67 61 65 69 63 67 71 65 69 71 65 69 69 63 67 67 61 65 64 58 62 60 54 58 57 51 55 55 49 53 53 47 51 55 49 53 55 49 53 55 49 53 55 49 53 55 49 53 55 49 53 55 49 53 55 49 53 69 63 67 69 63 67 69 63 67 69 63 67 69 63 67 69 63 67 69 63 67 69 63 67 74 64 72 74 64 72 74 64 72 74 64 72 74 64 72 74 64 72 74 64 72 74 64 72 72 62 70 70 60 68 68 58 66 65 55 63 61 51 59 58 48 56 56 46 54 54 44 52 52 45 52 52 45 52 52 45 52 52 45 52 52 45 52 52 45 52 52 45 52 52 45 52 53 46 53 53 46 53 53 46 53 53 46 53 53 46 53 53 46 53 53 46 53 55 46 51 69 54 59 70 54 57 70 54 57 70 54 57 70 54 57 70 54 57 70 54 57 70 54 57 68 52 55 68 52 55 68 52 55 68 52 55 68 52 55 68 52 55 68 52 55 70 51 55 70 49 54 71 48 54 71 48 54 71 48 54 71 48 54 71 48 54 71 48 54 71 48 54 73 50 56 73 50 56 73 50 56 73 50 56 73 50 56 73 50 56 73 50 56 75 50 54 82 55 60 84 55 59 84 55 59 84 55 59 84 55 59 84 55 59 84 55 59 84 55 59 80 51 55 82 53 57 84 55 59 87 58 62 91 62 66 94 65 69 96 67 71 100 67 74 105 65 76 104 62 76 102 60 74 96 58 71 92 54 67 86 53 64 83 51 62 78 51 60 58 35 43 56 37 43 54 37 43 51 39 43 51 39 43 49 40 43 49 40 43 46 41 45 46 47 51 42 45 50 40 43 48 37 40 45 33 36 41 30 33 38 28 31 36 26 29 34 20 23 28 20 23 28
76 73 80 76 73 80 76 73 80 76 73 80 76 73 80 74 69 75 74 69 75 74 69 75 74 69 75 74 69 75 74 69 75 74 69 75 74 69 75 79 74 80 77 72 78 75 70 76 72 67 73 68 63 69 65 60 66 63 58 64 61 56 62 59 54 60 59 54 60 59 54 60 59 54 60 59 54 60 59 54 60 59 54 60 59 54 60 68 63 69 68 63 69 68 63 69 68 63 69 68 63 69 68 63 69 68 63 69 69 62 69 78 67 73 79 66 73 79 66 73 79 66 73 79 66 73 79 66 73 79 66 73 79 66 73 90 77 84 89 76 83 86 73 80 83 70 77 80 67 74 77 64 71 74 61 68 72 61 67 56 45 53 55 45 53 55 45 53 55 45 53 55 45 53 55 45 53 55 45 53 55 45 53 51 41 49 51 41 49 51 41 49 51 41 49 51 41 49 51 41 49 51 41 49 51 41 49 53 47 51 55 49 53 57 51 55 60 54 58 64 58 62 67 61 65 69 63 67 71 65 69 71 65 69 69 63 67 67 61 65 64 58 62 60 54 58 57 51 55 55 49 53 53 47 51 55 49 53 55 49 53 55 49 53 55 49 53 55 49 53 55 49 53 55 49 53 55 49 53 69 63 67 69 63 67 69 63 67 69 63 67 69 63 67 69 63 67 69 63 67 69 63 67 74 64 72 74 64 72 74 64 72 74 64 72 74 64 72 74 64 72 74 64 72 74 64 72 72 62 70 70 60 68 68 58 66 65 55 63 61 51 59 58 48 56 56 46 54 54 44 52 52 45 52 52 45 52 52 45 52 52 45 52 52 45 52 52 45 52 52 45 52 52 45 52 49 42 49 49 42 49 49 42 49 49 42 49 49 42 49 49 42 49 49 42 49 51 42 47 69 54 59 70 54 57 70 54 57 70 54 57 70 54 57 70 54 57 70 54 57 70 54 57 68 52 55 68 52 55 68 52 55 68 52 55 68 52 55 68 52 55 68 52 55 70 51 55 70 49 54 71 48 54 71 48 54 71 48 54 71 48 54 71 48 54 71 48 54 71 48 54 73 50 56 73 50 56 73 50 56 73 50 56 73 50 56 73 50 56 73 50 56 75 50 54 82 55 60 84 55 59 84 55 59 84 55 59 84 55 59 84 55 59 84 55 59 84 55 59 80 51 55 82 53 57 84 55 59 87 58 62 91 62 66 94 65 69 96 67 71 100 67 74 105 65 76 104 62 76 102 60 74 96 58 71 92 54 67 86 53 64 83 51 62 78 51 60 58 35 43 56 37 43 54 37 43 51 39 43 51 39 43 49 40 43 49 40 43 46 41 45 46 47 51 42 45 50 40 43 48 37 40 45 33 36 41 30 33 38 28 31 36 26 29 34 20 23 28 20 23 28
79 76 83 79 76 83 79 76 83 79 76 83 79 76 83 74 69 75 74 69 75 74 69 75 74 69 75 74 69 75 74 69 75 74 69 75 74 69 75 79 74 80 77 72 78 75 70 76 72 67 73 68 63 69 65 60 66 63 58 64 61 56 62 59 54 60 59 54 60 59 54 60 59 54 60 59 54 60 59 54 60 59 54 60 59 54 60 68 63 69 68 63 69 68 63 69 68 63 69 68 63 69 68 63 69 68 63 69 69 62 69 78 67 73 79 66 73 79 66 73 79 66 73 79 66 73 79 66 73 79 66 73 79 66 73 96 83 90 95 82 89 93 80 87 90 77 84 86 73 80 83 70 77 80 67 74 78 67 73 56 45 53 55 45 53 55 45 53 55 45 53 55 45 53 55 45 53 55 45 53 55 45 53 51 41 49 51 41 49 51 41 49 51 41 49 51 41 49 51 41 49 51 41 49 51 41 49 53 47 51 55 49 53 57 51 55 60 54 58 64 58 62 67 61 65 69 63 67 71 65 69 71 65 69 69 63 67 67 61 65 64 58 62 60 54 58 57 51 55 55 49 53 53 47 51 55 49 53 55 49 53 55 49 53 55 49 53 55 49 53 55 49 53 55 49 53 55 49 53 69 63 67 69 63 67 69 63 67 69 63 67 69 63 67 69 63 67 69 63 67 69 63 67 74 64 72 74 64 72 74 64 72 74 64 72 74 64 72 74 64 72 74 64 72 74 64 72 72 62 70 70 60 68 68 58 66 65 55 63 61 51 59 58 48 56 56 46 54 54 44 52 52 45 52 52 45 52 52 45 52 52 45 52 52 45 52 52 45 52 52 45 52 52 45 52 46 39 46 46 39 46 46 39 46 46 39 46 46 39 46 46 39 46 46 39 46 48 39 44 69 54 59 70 54 57 70 54 57 70 54 57 70 54 57 70 54 57 70 54 57 70 54 57 68 52 55 68 52 55 68 52 55 68 52 55 68 52 55 68 52 55 68 52 55 70 51 55 70 49 54 71 48 54 71 48 54 71 48 54 71 48 54 71 48 54 71 48 54 71 48 54 73 50 56 73 50 56 73 50 56 73 50 56 73 50 56 73 50 56 73 50 56 75 50 54 82 55 60 84 55 59 84 55 59 84 55 59 84 55 59 84 55 59 84 55 59 84 55 59 80 51 55 82 53 57 84 55 59 87 58 62 91 62 66 94 65 69 96 67 71 100 67 74 105 65 76 104 62 76 102 60 74 96 58 71 92 54 67 86 53 64 83 51 62 78 51 60 58 35 43 56 37 43 54 37 43 51 39 43 51 39 43 49 40 43 49 40 43 46 41 45 46 47 51 42 45 50 40 43 48 37 40 45 33 36 41 30 33 38 28 31 36 26 29 34 20 23 28 20 23 28
81 78 85 81 78 85 81 78 85 81 78 85 81 78 85 74 69 75 74 69 75 74 69 75 74 69 75 74 69 75 74 69 75 74 69 75 74 69 75 79 74 80 77 72 78 75 70 76 72 67 73 68 63 69 65 60 66 63 58 64 61 56 62 59 54 60 59 54 60 59 54 60 59 54 60 59 54 60 59 54 60 59 54 60 59 54 60 68 63 69 68 63 69 68 63 69 68 63 69 68 63 69 68 63 69 68 63 69 69 62 69 78 67 73 79 66 73 79 66 73 79 66 73 79 66 73 79 66 73 79 66 73 79 66 73 101 88 95 100 87 94 98 85 92 94 81 88 91 78 85 88 75 82 85 72 79 83 72 78 56 45 53 55 45 53 55 45 53 55 45 53 55 45 53 55 45 53 55 45 53 55 45 53 51 41 49 51 41 49 51 41 49 51 41 49 51 41 49 51 41 49 51 41 49 51 41 49 53 47 51 55 49 53 57 51 55 60 54 58 64 58 62 67 61 65 69 63 67 71 65 69 71 65 69 69 63 67 67 61 65 64 58 62 60 54 58 57 51 55 55 49 53 53 47 51 55 49 53 55 49 53 55 49 53 55 49 53 55 49 53 55 49 53 55 49 53 55 49 53 69 63 67 69 63 67 69 63 67 69 63 67 69 63 67 69 63 67 69 63 67 69 63 67 74 64 72 74 64 72 74 64 72 74 64 72 74 64 72 74 64 72 74 64 72 74 64 72 72 62 70 70 60 68 68 58 66 65 55 63 61 51 59 58 48 56 56 46 54 54 44 52 52 45 52 52 45 52 52 45 52 52 45 52 52 45 52 52 45 52 52 45 52 52 45 52 44 37 44 44 37 44 44 37 44 44 37 44 44 37 44 44 37 44 44 37 44 46 37 42 69 54 59 70 54 57 70 54 57 70 54 57 70 54 57 70 54 57 70 54 57 70 54 57 68 52 55 68 52 55 68 52 55 68 52 55 68 52 55 68 52 55 68 52 55 70 51 55 70 49 54 71 48 54 71 48 54 71 48 54 71 48 54 71 48 54 71 48 54 71 48 54 73 50 56 73 50 56 73 50 56 73 50 56 73 50 56 73 50 56 73 50 56 75 50 54 82 55 60 84 55 59 84 55 59 84 55 59 84 55 59 84 55 59 84 55 59 84 55 59 80 51 55 82 53 57 84 55 59 87 58 62 91 62 66 94 65 69 96 67 71 100 67 74 105 65 76 104 62 76 102 60 74 96 58 71 92 54 67 86 53 64 83 51 62 78 51 60 58 35 43 56 37 43 54 37 43 51 39 43 51 39 43 49 40 43 49 40 43 46 41 45 46 47 51 42 45 50 40 43 48 37 40 45 33 36 41 30 33 38 28 31 36 26 29 34 20 23 28 20 23 28
82 81 86 83 81 86 82 81 86 83 81 86 83 81 86 72 69 76 74 69 76 74 69 76 74 69 76 74 69 76 74 69 76 74 69 76 74 69 76 79 74 81 77 72 79 75 70 77 72 67 74 68 63 70 65 60 67 63 58 65 61 56 63 59 54 61 59 54 61 59 54 61 59 54 61 59 54 61 59 54 61 59 54 61 59 54 61 68 63 70 68 63 70 68 63 70 68 63 70 68 63 70 68 63 70 68 63 70 69 62 69 78 67 75 78 67 73 78 67 75 78 67 73 78 67 75 78 67 73 78 67 75 78 67 73 103 92 100 102 91 97 99 88 96 96 85 91 93 82 90 89 78 84 87 76 84 86 75 83 55 45 53 53 46 53 55 45 53 53 46 53 55 45 53 53 46 53 55 45 53 53 46 53 51 41 49 49 42 49 51 41 49 49 42 49 51 41 49 49 42 49 51 41 49 49 42 49 53 46 53 55 49 53 57 51 55 60 54 58 64 58 62 67 61 65 69 63 67 71 65 69 71 65 69 69 63 67 67 61 65 64 58 62 60 54 58 57 51 55 55 49 53 53 47 51 55 49 53 55 49 53 55 49 53 55 49 53 55 49 53 55 49 53 55 49 53 55 49 53 69 63 67 69 63 67 69 63 67 69 63 67 69 63 67 69 63 67 69 63 67 69 63 67 72 65 72 72 65 72 74 64 72 72 65 72 74 64 72 72 65 72 74 64 72 72 65 72 72 62 70 68 61 68 68 58 66 63 56 63 61 51 59 56 49 56 56 46 54 52 45 52 52 45 52 51 46 52 52 45 53 51 46 52 52 45 53 51 46 52 52 45 53 51 46 52 42 35 43 41 36 42 42 35 43 41 36 42 42 35 43 41 36 42 42 35 43 44 34 42 67 55 59 69 54 57 70 53 59 69 54 57 70 53 59 69 54 57 70 53 59 69 54 57 68 51 57 67 52 55 68 51 57 67 52 55 68 51 57 67 52 55 68 51 57 68 52 55 70 49 54 70 49 54 70 49 54 70 49 54 70 49 54 70 49 54 70 49 54 70 49 54 72 51 56 72 51 56 72 51 56 72 51 56 72 51 56 72 51 56 72 51 56 73 50 56 81 56 60 82 56 59 82 56 59 82 56 59 82 56 59 82 56 59 82 56 59 82 56 59 78 52 55 80 54 57 82 56 59 85 59 62 89 63 66 92 66 69 94 68 71 99 68 74 103 65 78 103 62 76 99 61 76 95 59 71 89 55 69 85 53 64 80 52 64 75 52 60 57 36 45 54 37 43 51 38 45 50 39 43 49 40 45 47 41 43 46 41 45 43 43 45 46 47 52 41 46 52 40 43 50 36 41 47 33 36 43 29 34 40 28 31 38 25 30 36 20 23 30 19 24 30
84 86 83 81 81 79 77 79 76 76 76 74 74 74 76 75 72 81 75 72 83 75 72 83 75 72 83 75 72 83 75 72 83 75 72 83 75 72 83 70 67 78 70 67 78 70 67 78 70 67 78 70 67 78 70 67 78 70 67 78 72 66 78 62 56 66 63 55 66 63 55 66 63 55 66 63 55 66 63 55 66 63 55 66 63 55 66 69 61 72 69 61 72 69 61 72 69 61 72 69 61 72 69 61 72 69 61 72 69 61 72 78 68 77 80 70 78 82 72 81 85 75 83 89 79 88 92 82 90 94 84 93 96 86 94 91 81 90 91 81 89 91 81 90 91 81 89 91 81 90 91 81 89 91 81 90 89 82 90 78 71 79 74 69 76 70 63 71 63 58 65 57 50 58 50 45 52 46 39 47 42 37 44 55 48 56 54 49 56 55 48 56 54 49 56 55 48 56 54 49 56 55 48 56 54 49 55 67 62 68 67 62 68 67 62 68 67 62 68 67 62 68 67 62 68 67 62 68 67 62 68 68 63 69 66 61 67 64 59 65 61 56 62 57 52 58 54 49 55 52 47 53 50 45 51 51 46 50 53 48 52 55 50 54 58 53 57 62 57 61 65 60 64 67 62 66 69 64 68 74 69 73 74 69 73 74 69 73 74 69 73 74 69 73 74 69 73 74 69 73 74 69 73 80 75 81 80 75 82 81 74 82 80 75 82 81 74 82 80 75 82 81 74 82 80 75 82 93 86 94 89 84 91 84 77 85 75 70 77 68 61 69 59 54 61 54 47 55 50 45 52 48 43 50 46 43 50 48 42 52 46 43 50 48 42 52 46 43 50 48 42 52 46 43 50 44 38 48 42 39 46 44 38 48 42 39 46 44 38 48 42 39 46 44 38 48 45 38 46 60 49 55 61 49 53 63 48 55 61 49 53 63 48 55 61 49 53 63 48 55 61 49 53 56 41 48 56 44 48 60 45 52 61 49 53 67 52 59 68 56 60 72 57 64 74 59 64 78 62 65 80 61 65 80 61 65 80 61 65 80 61 65 80 61 65 80 61 65 80 61 65 92 73 77 90 71 75 88 69 73 85 66 70 81 62 66 78 59 63 76 57 61 74 55 59 85 65 67 86 64 67 86 64 67 86 64 67 86 64 67 86 64 67 86 64 67 86 64 67 84 62 65 84 62 65 84 62 65 84 62 65 84 62 65 84 62 65 84 62 65 86 61 67 93 61 74 92 58 72 89 57 72 85 55 67 79 51 65 75 49 60 70 48 60 65 48 56 53 37 47 50 39 45 47 40 47 46 41 45 44 42 47 43 43 45 42 43 47 40 44 47 42 47 53 38 45 53 38 42 51 33 40 48 31 35 44 26 33 41 26 30 39 22 29 37 21 25 34 19 26 34
84 86 81 80 82 79 77 79 74 75 77 74 73 75 74 75 72 81 75 71 85 75 71 85 75 71 85 75 71 85 75 71 85 75 71 85 75 71 85 70 66 80 70 66 80 70 66 80 70 66 80 70 66 80 70 66 80 70 66 80 70 66 80 63 55 68 63 55 68 63 55 68 63 55 68 63 55 68 63 55 68 63 55 68 63 55 68 69 61 74 69 61 74 69 61 74 69 61 74 69 61 74 69 61 74 69 61 74 69 61 72 76 68 79 78 71 79 80 73 81 83 76 84 87 80 88 90 83 91 92 85 93 94 87 95 89 82 90 89 82 90 89 82 90 89 82 90 89 82 90 89 82 90 89 82 90 89 82 90 78 73 80 75 70 77 70 65 72 64 59 66 57 52 59 51 46 53 46 41 48 43 38 45 54 49 56 54 49 56 54 49 56 54 49 56 54 49 56 54 49 56 54 49 56 54 49 56 67 62 68 67 62 68 67 62 68 67 62 68 67 62 68 67 62 68 67 62 68 67 62 68 68 63 69 66 61 67 64 59 65 61 56 62 57 52 58 54 49 55 52 47 53 50 45 51 51 46 50 53 48 52 55 50 54 58 53 57 62 57 61 65 60 64 67 62 66 69 64 68 74 69 73 74 69 73 74 69 73 74 69 73 74 69 73 74 69 73 74 69 73 74 69 73 80 75 82 80 75 82 80 75 82 80 75 82 80 75 82 80 75 82 80 75 82 80 75 82 90 85 92 87 82 89 82 77 84 75 70 77 67 62 69 60 55 62 55 50 57 52 47 54 48 45 54 48 45 54 48 45 54 48 45 54 48 45 54 48 45 54 48 45 54 48 45 54 44 41 50 44 41 50 44 41 50 44 41 50 44 41 50 44 41 50 44 41 50 46 41 48 62 51 59 63 50 57 63 50 57 63 50 57 63 50 57 63 50 57 63 50 57 63 50 57 54 41 48 56 43 50 58 45 52 61 48 55 65 52 59 68 55 62 70 57 64 72 60 64 78 61 67 78 62 65 78 62 65 78 62 65 78 62 65 78 62 65 78 62 65 78 62 65 90 74 77 88 72 75 86 70 73 83 67 70 79 63 66 76 60 63 74 58 61 72 56 59 85 65 67 85 65 67 85 65 67 85 65 67 85 65 67 85 65 67 85 65 67 85 65 67 83 63 65 83 63 65 83 63 65 83 63 65 83 63 65 83 63 65 83 63 65 84 61 67 92 62 74 90 59 74 88 57 72 82 56 69 78 52 65 72 50 62 69 49 60 64 48 58 50 39 47 47 40 47 46 41 47 43 42 47 43 42 47 40 44 47 40 44 47 39 44 48 40 47 55 38 45 55 36 43 53 33 40 50 29 36 46 26 33 43 24 31 41 22 29 39 19 26 36 19 26 36
84 86 83 80 82 81 77 79 76 75 77 76 73 74 76 75 72 81 75 71 85 75 71 85 75 71 85 75 71 85 75 71 85 75 71 85 75 71 85 70 66 80 70 66 80 70 66 80 70 66 80 70 66 80 70 66 80 70 66 80 70 66 80 63 55 68 63 55 68 63 55 68 63 55 68 63 55 68 63 55 68 63 55 68 63 55 68 69 61 74 69 61 74 69 61 74 69 61 74 69 61 74 69 61 74 69 61 74 69 61 72 76 68 79 78 71 79 80 73 81 83 76 84 87 80 88 90 83 91 92 85 93 94 87 95 89 82 90 89 82 90 89 82 90 89 82 90 89 82 90 89 82 90 89 82 90 89 82 90 80 75 82 78 73 80 73 68 75 67 62 69 60 55 62 53 48 55 48 43 50 46 41 48 54 49 56 54 49 56 54 49 56 54 49 56 54 49 56 54 49 56 54 49 56 54 49 56 67 62 68 67 62 68 67 62 68 67 62 68 67 62 68 67 62 68 67 62 68 67 62 68 68 63 69 66 61 67 64 59 65 61 56 62 57 52 58 54 49 55 52 47 53 50 45 51 51 46 50 53 48 52 55 50 54 58 53 57 62 57 61 65 60 64 67 62 66 69 64 68 74 69 73 74 69 73 74 69 73 74 69 73 74 69 73 74 69 73 74 69 73 74 69 73 80 75 82 80 75 82 80 75 82 80 75 82 80 75 82 80 75 82 80 75 82 80 75 82 86 81 88 84 79 86 80 75 82 74 69 76 68 63 70 62 57 64 58 53 60 56 51 58 50 47 56 50 47 56 50 47 56 50 47 56 50 47 56 50 47 56 50 47 56 50 47 56 46 43 52 46 43 52 46 43 52 46 43 52 46 43 52 46 43 52 46 43 52 48 43 50 64 53 61 65 52 59 65 52 59 65 52 59 65 52 59 65 52 59 65 52 59 65 52 59 54 41 48 56 43 50 58 45 52 61 48 55 65 52 59 68 55 62 70 57 64 72 60 64 78 61 67 78 62 65 78 62 65 78 62 65 78 62 65 78 62 65 78 62 65 78 62 65 90 74 77 88 72 75 86 70 73 83 67 70 79 63 66 76 60 63 74 58 61 72 56 59 85 65 67 85 65 67 85 65 67 85 65 67 85 65 67 85 65 67 85 65 67 85 65 67 83 63 65 83 63 65 83 63 65 83 63 65 83 63 65 83 63 65 83 63 65 84 61 67 92 62 74 90 59 74 88 57 72 82 56 69 78 52 65 72 50 62 69 49 60 64 48 58 50 39 47 47 40 47 46 41 47 43 42 47 43 42 47 40 44 47 40 44 47 39 44 48 40 47 55 38 45 55 36 43 53 33 40 50 29 36 46 26 33 43 24 31 41 22 29 39 19 26 36 19 26 36
84 86 85 80 81 83 77 79 78 75 76 78 73 74 78 75 72 83 75 71 85 75 71 85 75 71 85 75 71 85 75 71 85 75 71 85 75 71 85 70 66 80 70 66 80 70 66 80 70 66 80 70 66 80 70 66 80 70 66 80 70 66 80 63 55 68 63 55 68 63 55 68 63 55 68 63 55 68 63 55 68 63 55 68 63 55 68 69 61 74 69 61 74 69 61 74 69 61 74 69 61 74 69 61 74 69 61 74 69 61 72 76 68 79 78 71 79 80 73 81 83 76 84 87 80 88 90 83 91 92 85 93 94 87 95 89 82 90 89 82 90 89 82 90 89 82 90 89 82 90 89 82 90 89 82 90 89 82 90 84 79 86 81 76 83 76 71 78 70 65 72 63 58 65 56 51 58 52 47 54 49 44 51 54 49 56 54 49 56 54 49 56 54 49 56 54 49 56 54 49 56 54 49 56 54 49 56 67 62 68 67 62 68 67 62 68 67 62 68 67 62 68 67 62 68 67 62 68 67 62 68 68 63 69 66 61 67 64 59 65 61 56 62 57 52 58 54 49 55 52 47 53 50 45 51 51 46 50 53 48 52 55 50 54 58 53 57 62 57 61 65 60 64 67 62 66 69 64 68 74 69 73 74 69 73 74 69 73 74 69 73 74 69 73 74 69 73 74 69 73 74 69 73 80 75 82 80 75 82 80 75 82 80 75 82 80 75 82 80 75 82 80 75 82 80 75 82 82 77 84 80 75 82 77 72 79 73 68 75 69 64 71 65 60 67 62 57 64 60 55 62 53 50 59 53 50 59 53 50 59 53 50 59 53 50 59 53 50 59 53 50 59 53 50 59 49 46 55 49 46 55 49 46 55 49 46 55 49 46 55 49 46 55 49 46 55 51 46 53 67 56 64 68 55 62 68 55 62 68 55 62 68 55 62 68 55 62 68 55 62 68 55 62 54 41 48 56 43 50 58 45 52 61 48 55 65 52 59 68 55 62 70 57 64 72 60 64 78 61 67 78 62 65 78 62 65 78 62 65 78 62 65 78 62 65 78 62 65 78 62 65 90 74 77 88 72 75 86 70 73 83 67 70 79 63 66 76 60 63 74 58 61 72 56 59 85 65 67 85 65 67 85 65 67 85 65 67 85 65 67 85 65 67 85 65 67 85 65 67 83 63 65 83 63 65 83 63 65 83 63 65 83 63 65 83 63 65 83 63 65 84 61 67 92 62 74 90 59 74 88 57 72 82 56 69 78 52 65 72 50 62 69 49 60 64 48 58 50 39 47 47 40 47 46 41 47 43 42 47 43 42 47 40 44 47 40 44 47 39 44 48 40 47 55 38 45 55 36 43 53 33 40 50 29 36 46 26 33 43 24 31 41 22 29 39 19 26 36 19 26 36
84 85 87 80 81 85 77 78 80 75 76 80 73 74 79 75 72 83 75 71 85 75 71 85 75 71 85 75 71 85 75 71 85 75 71 85 75 71 85 70 66 80 70 66 80 70 66 80 70 66 80 70 66 80 70 66 80 70 66 80 70 66 80 63 55 68 63 55 68 63 55 68 63 55 68 63 55 68 63 55 68 63 55 68 63 55 68 69 61 74 69 61 74 69 61 74 69 61 74 69 61 74 69 61 74 69 61 74 69 61 72 76 68 79 78 71 79 80 73 81 83 76 84 87 80 88 90 83 91 92 85 93 94 87 95 89 82 90 89 82 90 89 82 90 89 82 90 89 82 90 89 82 90 89 82 90 89 82 90 87 82 89 84 79 86 80 75 82 73 68 75 66 61 68 60 55 62 55 50 57 52 47 54 54 49 56 54 49 56 54 49 56 54 49 56 54 49 56 54 49 56 54 49 56 54 49 56 67 62 68 67 62 68 67 62 68 67 62 68 67 62 68 67 62 68 67 62 68 67 62 68 68 63 69 66 61 67 64 59 65 61 56 62 57 52 58 54 49 55 52 47 53 50 45 51 51 46 50 53 48 52 55 50 54 58 53 57 62 57 61 65 60 64 67 62 66 69 64 68 74 69 73 74 69 73 74 69 73 74 69 73 74 69 73 74 69 73 74 69 73 74 69 73 80 75 82 80 75 82 80 75 82 80 75 82 80 75 82 80 75 82 80 75 82 80 75 82 77 72 79 76 71 78 75 70 77 72 67 74 70 65 72 67 62 69 66 61 68 65 60 67 57 54 63 57 54 63 57 54 63 57 54 63 57 54 63 57 54 63 57 54 63 57 54 63 53 50 59 53 50 59 53 50 59 53 50 59 53 50 59 53 50 59 53 50 59 55 50 57 71 60 68 72 59 66 72 59 66 72 59 66 72 59 66 72 59 66 72 59 66 72 59 66 54 41 48 56 43 50 58 45 52 61 48 55 65 52 59 68 55 62 70 57 64 72 60 64 78 61 67 78 62 65 78 62 65 78 62 65 78 62 65 78 62 65 78 62 65 78 62 65 90 74 77 88 72 75 86 70 73 83 67 70 79 63 66 76 60 63 74 58 61 72 56 59 85 65 67 85 65 67 85 65 67 85 65 67 85 65 67 85 65 67 85 65 67 85 65 67 83 63 65 83 63 65 83 63 65 83 63 65 83 63 65 83 63 65 83 63 65 84 61 67 92 62 74 90 59 74 88 57 72 82 56 69 78 52 65 72 50 62 69 49 60 64 48 58 50 39 47 47 40 47 46 41 47 43 42 47 43 42 47 40 44 47 40 44 47 39 44 48 40 47 55 38 45 55 36 43 53 33 40 50 29 36 46 26 33 43 24 31 41 22 29 39 19 26 36 19 26 36
84 85 90 80 81 86 77 78 83 75 76 81 73 73 81 75 72 83 75 71 85 75 71 85 75 71 85 75 71 85 75 71 85 75 71 85 75 71 85 70 66 80 70 66 80 70 66 80 70 66 80 70 66 80 70 66 80 70 66 80 70 66 80 63 55 68 63 55 68 63 55 68 63 55 68 63 55 68 63 55 68 63 55 68 63 55 68 69 61 74 69 61 74 69 61 74 69 61 74 69 61 74 69 61 74 69 61 74 69 61 72 76 68 79 78 71 79 80 73 81 83 76 84 87 80 88 90 83 91 92 85 93 94 87 95 89 82 90 89 82 90 89 82 90 89 82 90 89 82 90 89 82 90 89 82 90 89 82 90 90 85 92 88 83 90 83 78 85 76 71 78 69 64 71 63 58 65 58 53 60 56 51 58 54 49 56 54 49 56 54 49 56 54 49 56 54 49 56 54 49 56 54 49 56 54 49 56 67 62 68 67 62 68 67 62 68 67 62 68 67 62 68 67 62 68 67 62 68 67 62 68 68 63 69 66 61 67 64 59 65 61 56 62 57 52 58 54 49 55 52 47 53 50 45 51 51 46 50 53 48 52 55 50 54 58 53 57 62 57 61 65 60 64 67 62 66 69 64 68 74 69 73 74 69 73 74 69 73 74 69 73 74 69 73 74 69 73 74 69 73 74 69 73 80 75 82 80 75 82 80 75 82 80 75 82 80 75 82 80 75 82 80 75 82 80 75 82 73 68 75 73 68 75 72 67 74 71 66 73 71 66 73 70 65 72 69 64 71 69 64 71 60 57 66 60 57 66 60 57 66 60 57 66 60 57 66 60 57 66 60 57 66 60 57 66 56 53 62 56 53 62 56 53 62 56 53 62 56 53 62 56 53 62 56 53 62 58 53 60 74 63 71 75 62 69 75 62 69 75 62 69 75 62 69 75 62 69 75 62 69 75 62 69 54 41 48 56 43 50 58 45 52 61 48 55 65 52 59 68 55 62 70 57 64 72 60 64 78 61 67 78 62 65 78 62 65 78 62 65 78 62 65 78 62 65 78 62 65 78 62 65 90 74 77 88 72 75 86 70 73 83 67 70 79 63 66 76 60 63 74 58 61 72 56 59 85 65 67 85 65 67 85 65 67 85 65 67 85 65 67 85 65 67 85 65 67 85 65 67 83 63 65 83 63 65 83 63 65 83 63 65 83 63 65 83 63 65 83 63 65 84 61 67 92 62 74 90 59 74 88 57 72 82 56 69 78 52 65 72 50 62 69 49 60 64 48 58 50 39 47 47 40 47 46 41 47 43 42 47 43 42 47 40 44 47 40 44 47 39 44 48 40 47 55 38 45 55 36 43 53 33 40 50 29 36 46 26 33 43 24 31 41 22 29 39 19 26 36 19 26 36
84 84 92 80 80 88 77 77 85 75 75 83 73 73 83 75 71 85 75 71 85 75 71 85 75 71 85 75 71 85 75 71 85 75 71 85 75 71 85 70 66 80 70 66 80 70 66 80 70 66 80 70 66 80 70 66 80 70 66 80 70 66 80 63 55 68 63 55 68 63 55 68 63 55 68 63 55 68 63 55 68 63 55 68 63 55 68 69 61 74 69 61 74 69 61 74 69 61 74 69 61 74 69 61 74 69 61 74 69 61 72 76 68 79 78 71 79 80 73 81 83 76 84 87 80 88 90 83 91 92 85 93 94 87 95 89 82 90 89 82 90 89 82 90 89 82 90 89 82 90 89 82 90 89 82 90 89 82 90 93 88 95 90 85 92 85 80 87 79 74 81 72 67 74 66 61 68 61 56 63 58 53 60 54 49 56 54 49 56 54 49 56 54 49 56 54 49 56 54 49 56 54 49 56 54 49 56 67 62 68 67 62 68 67 62 68 67 62 68 67 62 68 67 62 68 67 62 68 67 62 68 68 63 69 66 61 67 64 59 65 61 56 62 57 52 58 54 49 55 52 47 53 50 45 51 51 46 50 53 48 52 55 50 54 58 53 57 62 57 61 65 60 64 67 62 66 69 64 68 74 69 73 74 69 73 74 69 73 74 69 73 74 69 73 74 69 73 74 69 73 74 69 73 80 75 82 80 75 82 80 75 82 80 75 82 80 75 82 80 75 82 80 75 82 80 75 82 69 64 71 70 65 72 70 65 72 71 66 73 71 66 73 72 67 74 72 67 74 73 68 75 62 59 68 62 59 68 62 59 68 62 59 68 62 59 68 62 59 68 62 59 68 62 59 68 58 55 64 58 55 64 58 55 64 58 55 64 58 55 64 58 55 64 58 55 64 60 55 62 76 65 73 77 64 71 77 64 71 77 64 71 77 64 71 77 64 71 77 64 71 77 64 71 54 41 48 56 43 50 58 45 52 61 48 55 65 52 59 68 55 62 70 57 64 72 60 64 78 61 67 78 62 65 78 62 65 78 62 65 78 62 65 78 62 65 78 62 65 78 62 65 90 74 77 88 72 75 86 70 73 83 67 70 79 63 66 76 60 63 74 58 61 72 56 59 85 65 67 85 65 67 85 65 67 85 65 67 85 65 67 85 65 67 85 65 67 85 65 67 83 63 65 83 63 65 83 63 65 83 63 65 83 63 65 83 63 65 83 63 65 84 61 67 92 62 74 90 59 74 88 57 72 82 56 69 78 52 65 72 50 62 69 49 60 64 48 58 50 39 47 47 40 47 46 41 47 43 42 47 43 42 47 40 44 47 40 44 47 39 44 48 40 47 55 38 45 55 36 43 53 33 40 50 29 36 46 26 33 43 24 31 41 22 29 39 19 26 36 19 26 36
84 84 96 80 80 92 77 77 89 75 75 87 73 73 85 75 71 85 75 71 85 75 71 85 75 71 85 75 71 85 75 71 85 75 71 85 75 71 85 70 66 80 70 66 80 70 66 80 70 66 80 70 66 80 70 66 80 70 66 80 70 66 80 63 55 68 63 55 68 63 55 68 63 55 68 63 55 68 63 55 68 63 55 68 63 55 68 69 61 74 69 61 74 69 61 74 69 61 74 69 61 74 69 61 74 69 61 74 69 61 72 76 68 79 78 71 79 80 73 81 83 76 84 87 80 88 90 83 91 92 85 93 94 87 95 89 82 90 89 82 90 89 82 90 89 82 90 89 82 90 89 82 90 89 82 90 89 82 90 94 89 96 91 86 93 86 81 88 80 75 82 73 68 75 67 62 69 62 57 64 59 54 61 54 49 56 54 49 56 54 49 56 54 49 56 54 49 56 54 49 56 54 49 56 54 49 56 67 62 68 67 62 68 67 62 68 67 62 68 67 62 68 67 62 68 67 62 68 67 62 68 68 63 69 66 61 67 64 59 65 61 56 62 57 52 58 54 49 55 52 47 53 50 45 51 51 46 50 53 48 52 55 50 54 58 53 57 62 57 61 65 60 64 67 62 66 69 64 68 74 69 73 74 69 73 74 69 73 74 69 73 74 69 73 74 69 73 74 69 73 74 69 73 80 75 82 80 75 82 80 75 82 80 75 82 80 75 82 80 75 82 80 75 82 80 75 82 68 63 70 68 63 70 69 64 71 70 65 72 72 67 74 73 68 75 74 69 76 74 69 76 64 61 70 64 61 70 64 61 70 64 61 70 64 61 70 64 61 70 64 61 70 64 61 70 60 57 66 60 57 66 60 57 66 60 57 66 60 57 66 60 57 66 60 57 66 62 57 64 78 67 75 79 66 73 79 66 73 79 66 73 79 66 73 79 66 73 79 66 73 79 66 73 54 41 48 56 43 50 58 45 52 61 48 55 65 52 59 68 55 62 70 57 64 72 60 64 78 61 67 78 62 65 78 62 65 78 62 65 78 62 65 78 62 65 78 62 65 78 62 65 90 74 77 88 72 75 86 70 73 83 67 70 79 63 66 76 60 63 74 58 61 72 56 59 85 65 67 85 65 67 85 65 67 85 65 67 85 65 67 85 65 67 85 65 67 85 65 67 83 63 65 83 63 65 83 63 65 83 63 65 83 63 65 83 63 65 83 63 65 84 61 67 92 62 74 90 59 74 88 57 72 82 56 69 78 52 65 72 50 62 69 49 60 64 48 58 50 39 47 47 40 47 46 41 47 43 42 47 43 42 47 40 44 47 40 44 47 39 44 48 40 47 55 38 45 55 36 43 53 33 40 50 29 36 46 26 33 43 24 31 41 22 29 39 19 26 36 19 26 36
70 69 85 70 69 85 70 69 85 70 69 85 70 69 83 71 67 82 71 67 81 71 67 81 71 67 81 71 67 81 71 67 81 71 67 81 71 67 81 70 66 80 70 66 80 70 66 80 70 66 80 70 66 80 70 66 80 70 66 80 70 66 80 70 62 75 70 62 75 70 62 75 70 62 75 70 62 75 70 62 75 70 62 75 70 62 75 69 61 74 69 61 74 69 61 74 69 61 74 69 61 74 69 61 74 69 61 74 69 61 72 75 67 78 76 69 77 79 72 80 82 75 83 85 78 86 89 82 90 91 84 92 92 85 93 87 80 88 87 80 88 87 80 88 87 80 88 87 80 88 87 80 88 87 80 88 87 80 88 87 82 89 86 81 88 84 79 86 80 75 82 77 72 79 74 69 76 71 66 73 70 65 72 58 53 60 60 55 62 62 57 64 65 60 67 69 64 71 72 67 74 74 69 76 76 71 78 72 67 73 70 65 71 68 63 69 65 60 66 61 56 62 58 53 59 56 51 57 54 49 55 58 53 59 58 53 59 58 53 59 58 53 59 58 53 59 58 53 59 58 53 59 58 53 59 69 64 68 69 64 68 69 64 68 69 64 68 69 64 68 69 64 68 69 64 68 69 64 68 73 68 72 73 68 72 73 68 72 73 68 72 73 68 72 73 68 72 73 68 72 73 68 72 88 83 90 88 83 90 88 83 90 88 83 90 88 83 90 88 83 90 88 83 90 88 83 90 80 75 82 80 75 82 80 75 82 80 75 82 80 75 82 80 75 82 80 75 82 80 75 82 62 59 68 62 59 68 62 59 68 62 59 68 62 59 68 62 59 68 62 59 68 62 59 68 72 69 78 72 69 78 72 69 78 72 69 78 72 69 78 72 69 78 72 69 78 74 69 76 78 67 75 79 66 73 79 66 73 79 66 73 79 66 73 79 66 73 79 66 73 79 66 73 71 58 65 71 58 65 71 58 65 71 58 65 71 58 65 71 58 65 71 58 65 71 59 63 83 66 72 83 67 70 83 67 70 83 67 70 83 67 70 83 67 70 83 67 70 83 67 70 88 72 75 88 72 75 88 72 75 88 72 75 88 72 75 88 72 75 88 72 75 88 72 75 90 70 72 90 70 72 90 70 72 90 70 72 90 70 72 90 70 72 90 70 72 90 70 72 80 60 62 80 60 62 80 60 62 80 60 62 80 60 62 80 60 62 80 60 62 81 58 64 87 57 69 85 54 69 83 52 67 77 51 64 73 47 60 67 45 57 64 44 55 59 43 53 49 38 46 46 39 46 45 40 46 42 41 46 42 41 46 39 43 46 39 43 46 38 43 47 38 45 53 36 43 53 34 41 51 31 38 48 27 34 44 24 31 41 22 29 39 20 27 37 20 27 37 20 27 37
68 66 87 68 66 87 68 66 87 68 66 87 68 67 85 69 65 80 69 65 79 69 65 79 69 65 79 69 65 79 69 65 79 69 65 79 69 65 79 70 66 80 70 66 80 70 66 80 70 66 80 70 66 80 70 66 80 70 66 80 70 66 80 70 62 75 70 62 75 70 62 75 70 62 75 70 62 75 70 62 75 70 62 75 70 62 75 69 61 74 69 61 74 69 61 74 69 61 74 69 61 74 69 61 74 69 61 74 69 61 72 74 66 77 75 68 76 77 70 78 81 74 82 84 77 85 87 80 88 90 83 91 91 84 92 85 78 86 85 78 86 85 78 86 85 78 86 85 78 86 85 78 86 85 78 86 85 78 86 86 81 88 85 80 87 82 77 84 79 74 81 76 71 78 72 67 74 70 65 72 69 64 71 58 53 60 60 55 62 62 57 64 65 60 67 69 64 71 72 67 74 74 69 76 76 71 78 72 67 73 70 65 71 68 63 69 65 60 66 61 56 62 58 53 59 56 51 57 54 49 55 54 49 55 54 49 55 54 49 55 54 49 55 54 49 55 54 49 55 54 49 55 54 49 55 63 58 62 63 58 62 63 58 62 63 58 62 63 58 62 63 58 62 63 58 62 63 58 62 71 66 70 71 66 70 71 66 70 71 66 70 71 66 70 71 66 70 71 66 70 71 66 70 86 81 88 86 81 88 86 81 88 86 81 88 86 81 88 86 81 88 86 81 88 86 81 88 78 73 80 78 73 80 78 73 80 78 73 80 78 73 80 78 73 80 78 73 80 78 73 80 68 65 74 68 65 74 68 65 74 68 65 74 68 65 74 68 65 74 68 65 74 68 65 74 72 69 78 72 69 78 72 69 78 72 69 78 72 69 78 72 69 78 72 69 78 74 69 76 78 67 75 79 66 73 79 66 73 79 66 73 79 66 73 79 66 73 79 66 73 79 66 73 71 58 65 71 58 65 71 58 65 71 58 65 71 58 65 71 58 65 71 58 65 71 59 63 83 66 72 83 67 70 83 67 70 83 67 70 83 67 70 83 67 70 83 67 70 83 67 70 88 72 75 88 72 75 88 72 75 88 72 75 88 72 75 88 72 75 88 72 75 88 72 75 90 70 72 90 70 72 90 70 72 90 70 72 90 70 72 90 70 72 90 70 72 90 70 72 80 60 62 80 60 62 80 60 62 80 60 62 80 60 62 80 60 62 80 60 62 81 58 64 87 57 69 85 54 69 83 52 67 77 51 64 73 47 60 67 45 57 64 44 55 59 43 53 49 38 46 46 39 46 45 40 46 42 41 46 42 41 46 39 43 46 39 43 46 38 43 47 38 45 53 36 43 53 34 41 51 31 38 48 27 34 44 24 31 41 22 29 39 20 27 37 20 27 37 20 27 37
66 64 86 66 64 86 66 64 86 66 64 86 66 64 85 67 63 78 67 63 77 67 63 77 67 63 77 67 63 77 67 63 77 67 63 77 67 63 77 70 66 80 70 66 80 70 66 80 70 66 80 70 66 80 70 66 80 70 66 80 70 66 80 70 62 75 70 62 75 70 62 75 70 62 75 70 62 75 70 62 75 70 62 75 70 62 75 69 61 74 69 61 74 69 61 74 69 61 74 69 61 74 69 61 74 69 61 74 69 61 72 71 63 74 73 66 74 75 68 76 78 71 79 82 75 83 85 78 86 87 80 88 89 82 90 83 76 84 83 76 84 83 76 84 83 76 84 83 76 84 83 76 84 83 76 84 83 76 84 84 79 86 82 77 84 80 75 82 77 72 79 73 68 75 70 65 72 68 63 70 66 61 68 58 53 60 60 55 62 62 57 64 65 60 67 69 64 71 72 67 74 74 69 76 76 71 78 72 67 73 70 65 71 68 63 69 65 60 66 61 56 62 58 53 59 56 51 57 54 49 55 48 43 49 48 43 49 48 43 49 48 43 49 48 43 49 48 43 49 48 43 49 48 43 49 55 50 54 55 50 54 55 50 54 55 50 54 55 50 54 55 50 54 55 50 54 55 50 54 69 64 68 69 64 68 69 64 68 69 64 68 69 64 68 69 64 68 69 64 68 69 64 68 81 76 83 81 76 83 81 76 83 81 76 83 81 76 83 81 76 83 81 76 83 81 76 83 76 71 78 76 71 78 76 71 78 76 71 78 76 71 78 76 71 78 76 71 78 76 71 78 76 73 82 76 73 82 76 73 82 76 73 82 76 73 82 76 73 82 76 73 82 76 73 82 72 69 78 72 69 78 72 69 78 72 69 78 72 69 78 72 69 78 72 69 78 74 69 76 78 67 75 79 66 73 79 66 73 79 66 73 79 66 73 79 66 73 79 66 73 79 66 73 71 58 65 71 58 65 71 58 65 71 58 65 71 58 65 71 58 65 71 58 65 71 59 63 83 66 72 83 67 70 83 67 70 83 67 70 83 67 70 83 67 70 83 67 70 83 67 70 88 72 75 88 72 75 88 72 75 88 72 75 88 72 75 88 72 75 88 72 75 88 72 75 90 70 72 90 70 72 90 70 72 90 70 72 90 70 72 90 70 72 90 70 72 90 70 72 80 60 62 80 60 62 80 60 62 80 60 62 80 60 62 80 60 62 80 60 62 81 58 64 87 57 69 85 54 69 83 52 67 77 51 64 73 47 60 67 45 57 64 44 55 59 43 53 49 38 46 46 39 46 45 40 46 42 41 46 42 41 46 39 43 46 39 43 46 38 43 47 38 45 53 36 43 53 34 41 51 31 38 48 27 34 44 24 31 41 22 29 39 20 27 37 20 27 37 20 27 37
63 61 85 63 60 87 63 61 85 63 60 87 63 61 83 64 60 77 64 60 74 64 60 74 64 60 74 64 60 74 64 60 74 64 60 74 64 60 74 70 66 80 70 66 80 70 66 80 70 66 80 70 66 80 70 66 80 70 66 80 70 66 80 70 62 75 70 62 75 70 62 75 70 62 75 70 62 75 70 62 75 70 62 75 70 62 75 69 61 74 69 61 74 69 61 74 69 61 74 69 61 74 69 61 74 69 61 74 69 61 72 68 60 71 69 62 70 72 65 73 75 68 76 78 71 79 82 75 83 84 77 85 85 78 86 80 73 81 80 73 81 80 73 81 80 73 81 80 73 81 80 73 81 80 73 81 80 73 81 80 75 82 79 74 81 77 72 79 73 68 75 70 65 72 67 62 69 64 59 66 63 58 65 58 53 60 60 55 62 62 57 64 65 60 67 69 64 71 72 67 74 74 69 76 76 71 78 72 67 73 70 65 71 68 63 69 65 60 66 61 56 62 58 53 59 56 51 57 54 49 55 46 41 47 46 41 47 46 41 47 46 41 47 46 41 47 46 41 47 46 41 47 46 41 47 49 44 48 49 44 48 49 44 48 49 44 48 49 44 48 49 44 48 49 44 48 49 44 48 66 61 65 66 61 65 66 61 65 66 61 65 66 61 65 66 61 65 66 61 65 66 61 65 74 69 76 74 69 76 74 69 76 74 69 76 74 69 76 74 69 76 74 69 76 74 69 76 73 68 75 73 68 75 73 68 75 73 68 75 73 68 75 73 68 75 73 68 75 73 68 75 82 79 88 82 79 88 82 79 88 82 79 88 82 79 88 82 79 88 82 79 88 82 79 88 72 69 78 72 69 78 72 69 78 72 69 78 72 69 78 72 69 78 72 69 78 74 69 76 78 67 75 79 66 73 79 66 73 79 66 73 79 66 73 79 66 73 79 66 73 79 66 73 71 58 65 71 58 65 71 58 65 71 58 65 71 58 65 71 58 65 71 58 65 71 59 63 83 66 72 83 67 70 83 67 70 83 67 70 83 67 70 83 67 70 83 67 70 83 67 70 88 72 75 88 72 75 88 72 75 88 72 75 88 72 75 88 72 75 88 72 75 88 72 75 90 70 72 90 70 72 90 70 72 90 70 72 90 70 72 90 70 72 90 70 72 90 70 72 80 60 62 80 60 62 80 60 62 80 60 62 80 60 62 80 60 62 80 60 62 81 58 64 87 57 69 85 54 69 83 52 67 77 51 64 73 47 60 67 45 57 64 44 55 59 43 53 49 38 46 46 39 46 45 40 46 42 41 46 42 41 46 39 43 46 39 43 46 38 43 47 38 45 53 36 43 53 34 41 51 31 38 48 27 34 44 24 31 41 22 29 39 20 27 37 20 27 37 20 27 37
59 56 83 59 56 85 59 56 83 59 56 85 59 57 81 60 56 73 60 56 70 60 56 70 60 56 70 60 56 70 60 56 70 60 56 70 60 56 70 70 66 80 70 66 80 70 66 80 70 66 80 70 66 80 70 66 80 70 66 80 70 66 80 70 62 75 70 62 75 70 62 75 70 62 75 70 62 75 70 62 75 70 62 75 70 62 75 69 61 74 69 61 74 69 61 74 69 61 74 69 61 74 69 61 74 69 61 74 69 61 72 65 57 68 66 59 67 68 61 69 72 65 73 75 68 76 78 71 79 81 74 82 82 75 83 76 69 77 76 69 77 76 69 77 76 69 77 76 69 77 76 69 77 76 69 77 76 69 77 77 72 79 76 71 78 73 68 75 70 65 72 67 62 69 63 58 65 61 56 63 60 55 62 58 53 60 60 55 62 62 57 64 65 60 67 69 64 71 72 67 74 74 69 76 76 71 78 72 67 73 70 65 71 68 63 69 65 60 66 61 56 62 58 53 59 56 51 57 54 49 55 49 44 50 49 44 50 49 44 50 49 44 50 49 44 50 49 44 50 49 44 50 49 44 50 49 44 48 49 44 48 49 44 48 49 44 48 49 44 48 49 44 48 49 44 48 49 44 48 62 57 61 62 57 61 62 57 61 62 57 61 62 57 61 62 57 61 62 57 61 62 57 61 68 63 70 68 63 70 68 63 70 68 63 70 68 63 70 68 63 70 68 63 70 68 63 70 69 64 71 69 64 71 69 64 71 69 64 71 69 64 71 69 64 71 69 64 71 69 64 71 82 79 88 82 79 88 82 79 88 82 79 88 82 79 88 82 79 88 82 79 88 82 79 88 72 69 78 72 69 78 72 69 78 72 69 78 72 69 78 72 69 78 72 69 78 74 69 76 78 67 75 79 66 73 79 66 73 79 66 73 79 66 73 79 66 73 79 66 73 79 66 73 71 58 65 71 58 65 71 58 65 71 58 65 71 58 65 71 58 65 71 58 65 71 59 63 83 66 72 83 67 70 83 67 70 83 67 70 83 67 70 83 67 70 83 67 70 83 67 70 88 72 75 88 72 75 88 72 75 88 72 75 88 72 75 88 72 75 88 72 75 88 72 75 90 70 72 90 70 72 90 70 72 90 70 72 90 70 72 90 70 72 90 70 72 90 70 72 80 60 62 80 60 62 80 60 62 80 60 62 80 60 62 80 60 62 80 60 62 81 58 64 87 57 69 85 54 69 83 52 67 77 51 64 73 47 60 67 45 57 64 44 55 59 43 53 49 38 46 46 39 46 45 40 46 42 41 46 42 41 46 39 43 46 39 43 46 38 43 47 38 45 53 36 43 53 34 41 51 31 38 48 27 34 44 24 31 41 22 29 39 20 27 37 20 27 37 20 27 37
56 53 82 56 53 84 56 53 82 56 53 84 56 54 78 57 53 70 57 53 67 57 53 67 57 53 67 57 53 67 57 53 67 57 53 67 57 53 67 70 66 80 70 66 80 70 66 80 70 66 80 70 66 80 70 66 80 70 66 80 70 66 80 70 62 75 70 62 75 70 62 75 70 62 75 70 62 75 70 62 75 70 62 75 70 62 75 69 61 74 69 61 74 69 61 74 69 61 74 69 61 74 69 61 74 69 61 74 69 61 72 61 53 64 63 56 64 65 58 66 68 61 69 72 65 73 75 68 76 77 70 78 79 72 80 73 66 74 73 66 74 73 66 74 73 66 74 73 66 74 73 66 74 73 66 74 73 66 74 74 69 76 72 67 74 70 65 72 67 62 69 63 58 65 60 55 62 58 53 60 56 51 58 58 53 60 60 55 62 62 57 64 65 60 67 69 64 71 72 67 74 74 69 76 76 71 78 72 67 73 70 65 71 68 63 69 65 60 66 61 56 62 58 53 59 56 51 57 54 49 55 58 53 59 58 53 59 58 53 59 58 53 59 58 53 59 58 53 59 58 53 59 58 53 59 55 50 54 55 50 54 55 50 54 55 50 54 55 50 54 55 50 54 55 50 54 55 50 54 59 54 58 59 54 58 59 54 58 59 54 58 59 54 58 59 54 58 59 54 58 59 54 58 61 56 63 61 56 63 61 56 63 61 56 63 61 56 63 61 56 63 61 56 63 61 56 63 66 61 68 66 61 68 66 61 68 66 61 68 66 61 68 66 61 68 66 61 68 66 61 68 76 73 82 76 73 82 76 73 82 76 73 82 76 73 82 76 73 82 76 73 82 76 73 82 72 69 78 72 69 78 72 69 78 72 69 78 72 69 78 72 69 78 72 69 78 74 69 76 78 67 75 79 66 73 79 66 73 79 66 73 79 66 73 79 66 73 79 66 73 79 66 73 71 58 65 71 58 65 71 58 65 71 58 65 71 58 65 71 58 65 71 58 65 71 59 63 83 66 72 83 67 70 83 67 70 83 67 70 83 67 70 83 67 70 83 67 70 83 67 70 88 72 75 88 72 75 88 72 75 88 72 75 88 72 75 88 72 75 88 72 75 88 72 75 90 70 72 90 70 72 90 70 72 90 70 72 90 70 72 90 70 72 90 70 72 90 70 72 80 60 62 80 60 62 80 60 62 80 60 62 80 60 62 80 60 62 80 60 62 81 58 64 87 57 69 85 54 69 83 52 67 77 51 64 73 47 60 67 45 57 64 44 55 59 43 53 49 38 46 46 39 46 45 40 46 42 41 46 42 41 46 39 43 46 39 43 46 38 43 47 38 45 53 36 43 53 34 41 51 31 38 48 27 34 44 24 31 41 22 29 39 20 27 37 20 27 37 20 27 37
54 51 82 54 50 83 54 51 82 54 50 83 54 51 78 55 51 68 55 51 65 55 51 65 55 51 65 55 51 65 55 51 65 55 51 65 55 51 65 70 66 80 70 66 80 70 66 80 70 66 80 70 66 80 70 66 80 70 66 80 70 66 80 70 62 75 70 62 75 70 62 75 70 62 75 70 62 75 70 62 75 70 62 75 70 62 75 69 61 74 69 61 74 69 61 74 69 61 74 69 61 74 69 61 74 69 61 74 69 61 72 59 51 62 60 53 61 63 56 64 66 59 67 69 62 70 73 66 74 75 68 76 76 69 77 71 64 72 71 64 72 71 64 72 71 64 72 71 64 72 71 64 72 71 64 72 71 64 72 71 66 73 70 65 72 68 63 70 64 59 66 61 56 63 58 53 60 55 50 57 54 49 56 58 53 60 60 55 62 62 57 64 65 60 67 69 64 71 72 67 74 74 69 76 76 71 78 72 67 73 70 65 71 68 63 69 65 60 66 61 56 62 58 53 59 56 51 57 54 49 55 68 63 69 68 63 69 68 63 69 68 63 69 68 63 69 68 63 69 68 63 69 68 63 69 63 58 62 63 58 62 63 58 62 63 58 62 63 58 62 63 58 62 63 58 62 63 58 62 57 52 56 57 52 56 57 52 56 57 52 56 57 52 56 57 52 56 57 52 56 57 52 56 56 51 58 56 51 58 56 51 58 56 51 58 56 51 58 56 51 58 56 51 58 56 51 58 64 59 66 64 59 66 64 59 66 64 59 66 64 59 66 64 59 66 64 59 66 64 59 66 68 65 74 68 65 74 68 65 74 68 65 74 68 65 74 68 65 74 68 65 74 68 65 74 72 69 78 72 69 78 72 69 78 72 69 78 72 69 78 72 69 78 72 69 78 74 69 76 78 67 75 79 66 73 79 66 73 79 66 73 79 66 73 79 66 73 79 66 73 79 66 73 71 58 65 71 58 65 71 58 65 71 58 65 71 58 65 71 58 65 71 58 65 71 59 63 83 66 72 83 67 70 83 67 70 83 67 70 83 67 70 83 67 70 83 67 70 83 67 70 88 72 75 88 72 75 88 72 75 88 72 75 88 72 75 88 72 75 88 72 75 88 72 75 90 70 72 90 70 72 90 70 72 90 70 72 90 70 72 90 70 72 90 70 72 90 70 72 80 60 62 80 60 62 80 60 62 80 60 62 80 60 62 80 60 62 80 60 62 81 58 64 87 57 69 85 54 69 83 52 67 77 51 64 73 47 60 67 45 57 64 44 55 59 43 53 49 38 46 46 39 46 45 40 46 42 41 46 42 41 46 39 43 46 39 43 46 38 43 47 38 45 53 36 43 53 34 41 51 31 38 48 27 34 44 24 31 41 22 29 39 20 27 37 20 27 37 20 27 37
49 50 81 49 50 81 49 50 81 49 50 81 50 50 78 51 49 71 51 50 68 51 50 68 51 50 68 51 50 68 51 50 68 51 50 68 51 50 68 68 67 85 68 67 85 68 67 85 68 67 85 68 67 85 68 67 85 68 67 85 69 66 83 67 63 78 67 63 78 69 62 78 67 63 78 69 62 78 67 63 78 69 62 78 67 63 78 68 61 77 66 62 77 68 61 77 66 62 77 68 61 77 66 62 77 68 61 77 68 62 76 57 51 63 58 52 62 60 54 66 64 58 68 67 61 73 70 64 74 73 67 79 74 68 78 68 62 74 68 62 72 68 62 74 68 62 72 68 62 74 68 62 72 68 62 74 68 62 72 68 65 74 67 64 73 64 61 70 61 58 67 58 55 64 54 51 60 52 49 58 51 48 57 56 53 62 58 55 64 60 57 66 63 60 69 67 64 73 70 67 76 72 69 78 76 71 78 73 66 74 71 64 71 69 62 70 66 59 66 62 55 63 59 52 59 57 50 58 55 48 55 76 69 77 76 69 76 76 69 77 76 69 76 76 69 77 76 69 76 76 69 77 76 69 76 70 63 70 70 63 70 70 63 70 70 63 70 70 63 70 70 63 70 70 63 70 70 63 70 56 49 56 56 49 56 56 49 56 56 49 56 56 49 56 56 49 56 56 49 56 56 49 56 55 48 56 55 48 56 57 47 56 55 48 56 57 47 56 55 48 56 57 47 56 55 48 56 65 55 64 63 56 64 65 55 64 63 56 64 65 55 64 63 56 64 65 55 64 63 56 64 65 57 68 65 57 68 65 57 68 65 57 68 65 57 68 65 57 68 65 57 68 65 57 68 75 67 78 75 67 78 75 67 78 75 67 78 75 67 78 75 67 78 75 67 78 77 67 76 78 67 75 79 66 73 79 66 73 79 66 73 79 66 73 79 66 73 79 66 73 79 66 73 71 58 65 71 58 65 71 58 65 71 58 65 71 58 65 71 58 65 71 58 65 73 58 65 82 67 72 83 66 72 83 66 72 83 66 72 83 66 72 83 66 72 83 66 72 83 66 72 88 71 77 88 71 77 88 71 77 88 71 77 88 71 77 88 71 77 88 71 77 88 71 77 89 70 74 89 70 74 90 69 74 89 70 74 90 69 74 89 70 74 90 69 74 89 70 74 80 59 64 79 60 64 80 59 64 79 60 64 80 59 64 79 60 64 80 59 64 80 59 66 82 59 69 82 56 69 78 54 67 74 52 64 69 49 60 64 47 57 61 45 55 57 44 53 49 38 46 46 39 46 45 40 46 43 41 46 42 41 46 42 41 46 41 42 46 39 42 47 40 44 53 36 43 53 34 40 52 31 38 48 27 33 45 24 31 41 22 28 40 20 27 37 20 26 38 20 27 37
53 59 91 53 59 91 53 59 91 53 59 91 53 60 89 54 59 88 55 59 86 55 59 86 55 59 86 55 59 86 55 59 86 55 59 86 55 59 86 58 62 89 58 62 89 58 62 89 58 62 89 58 62 89 58 62 89 58 62 89 58 62 87 59 59 83 59 60 81 61 59 81 59 60 81 61 59 81 59 60 81 61 59 81 59 60 81 65 63 85 63 64 85 65 63 85 63 64 85 65 63 85 63 64 85 65 63 85 65 63 84 70 69 85 70 69 83 70 69 85 70 69 83 70 69 85 70 69 83 70 69 85 70 69 83 81 80 96 79 78 92 77 76 92 74 73 87 70 69 85 67 66 80 65 64 80 63 62 76 63 61 74 63 61 72 63 61 72 63 61 72 63 61 72 63 61 72 63 61 72 63 61 72 76 74 85 76 74 85 76 74 85 76 74 85 76 74 85 76 74 85 76 74 85 77 74 85 71 61 72 73 60 70 73 59 72 73 60 70 73 59 72 73 60 70 73 59 72 73 60 70 73 59 72 73 60 70 73 59 72 73 60 70 73 59 72 73 60 70 73 59 72 73 60 70 78 65 75 78 65 75 78 65 75 78 65 75 78 65 75 78 65 75 78 65 75 78 65 75 79 66 76 79 66 76 79 66 76 79 66 76 79 66 76 79 66 76 79 66 76 79 66 76 61 47 60 61 47 60 63 47 60 61 47 60 63 47 60 61 47 60 63 47 60 61 47 60 54 38 51 52 38 51 54 38 51 52 38 51 54 38 51 52 38 51 54 38 51 54 38 51 64 48 59 64 48 59 64 48 59 64 48 59 64 48 59 64 48 59 64 48 59 64 48 59 71 55 66 71 55 66 71 55 66 71 55 66 71 55 66 71 55 66 71 55 66 71 55 66 79 63 73 79 63 73 79 63 73 79 63 73 79 63 73 79 63 73 79 63 73 79 63 73 74 58 68 74 58 68 74 58 68 74 58 68 74 58 68 74 58 68 74 58 68 74 58 68 89 74 81 89 74 81 89 74 81 89 74 81 89 74 81 89 74 81 89 74 81 89 74 81 94 79 86 94 79 86 94 79 86 94 79 86 94 79 86 94 79 86 94 79 86 95 78 86 87 70 78 87 70 78 89 69 78 87 70 78 89 69 78 87 70 78 89 69 78 87 70 78 79 59 68 77 60 68 79 59 68 77 60 68 79 59 68 77 60 68 79 59 68 77 60 68 76 60 70 72 59 69 70 57 67 66 54 64 62 50 60 59 47 57 56 46 55 54 44 53 50 40 49 48 41 49 48 41 49 47 42 49 47 42 49 47 42 49 47 42 49 44 43 51 40 44 55 36 42 54 34 40 54 31 37 49 27 33 47 24 30 42 22 28 42 20 26 38 21 27 41 21 27 39
50 61 91 50 61 91 50 61 91 50 61 91 50 61 91 53 59 91 53 59 91 53 59 91 53 59 91 53 59 91 53 59 91 53 59 91 53 59 91 56 62 94 56 62 94 56 62 94 56 62 94 56 62 94 56 62 94 56 62 94 57 62 92 56 60 87 58 60 85 58 60 85 58 60 85 58 60 85 58 60 85 58 60 85 58 60 85 62 64 89 62 64 89 62 64 89 62 64 89 62 64 89 62 64 89 62 64 89 62 64 87 68 69 89 68 69 87 68 69 87 68 69 87 68 69 87 68 69 87 68 69 87 68 69 87 79 80 98 77 78 96 75 76 94 72 73 91 68 69 87 65 66 84 63 64 82 61 63 78 62 61 75 62 62 74 62 62 74 62 62 74 62 62 74 62 62 74 62 62 74 62 62 74 75 75 87 75 75 87 75 75 87 75 75 87 75 75 87 75 75 87 75 75 87 77 74 85 72 60 74 75 59 72 75 59 72 75 59 72 75 59 72 75 59 72 75 59 72 75 59 72 75 59 72 75 59 72 75 59 72 75 59 72 75 59 72 75 59 72 75 59 72 75 59 72 78 62 75 78 62 75 78 62 75 78 62 75 78 62 75 78 62 75 78 62 75 78 62 75 79 63 76 79 63 76 79 63 76 79 63 76 79 63 76 79 63 76 79 63 76 79 63 76 70 52 66 70 52 66 70 52 66 70 52 66 70 52 66 70 52 66 70 52 66 70 52 66 62 44 58 62 44 58 62 44 58 62 44 58 62 44 58 62 44 58 62 44 58 62 44 58 69 49 61 69 49 61 69 49 61 69 49 61 69 49 61 69 49 61 69 49 61 69 49 61 70 50 62 70 50 62 70 50 62 70 50 62 70 50 62 70 50 62 70 50 62 68 50 62 74 57 67 73 57 67 73 57 67 73 57 67 73 57 67 73 57 67 73 57 67 73 57 67 68 52 62 68 52 62 68 52 62 68 52 62 68 52 62 68 52 62 68 52 62 68 52 62 87 71 81 87 71 81 87 71 81 87 71 81 87 71 81 87 71 81 87 71 81 87 71 81 92 76 86 92 76 86 92 76 86 92 76 86 92 76 86 92 76 86 92 76 86 92 76 86 85 68 78 85 68 78 85 68 78 85 68 78 85 68 78 85 68 78 85 68 78 85 68 78 77 60 70 77 60 70 77 60 70 77 60 70 77 60 70 77 60 70 77 60 70 76 60 70 72 62 71 68 61 69 66 59 67 63 56 64 59 52 60 56 49 57 54 47 55 52 45 53 48 41 49 48 41 49 48 41 49 48 41 49 48 41 49 48 41 49 48 41 49 45 42 51 41 43 56 36 42 56 34 40 54 31 37 51 27 33 47 24 30 44 22 28 42 20 26 40 21 27 41 21 27 41
50 61 91 50 61 91 50 61 91 50 61 91 50 61 91 53 59 91 53 59 91 53 59 91 53 59 91 53 59 91 53 59 91 53 59 91 53 59 91 56 62 94 56 62 94 56 62 94 56 62 94 56 62 94 56 62 94 56 62 94 57 62 92 56 60 87 58 60 85 58 60 85 58 60 85 58 60 85 58 60 85 58 60 85 58 60 85 62 64 89 62 64 89 62 64 89 62 64 89 62 64 89 62 64 89 62 64 89 62 64 87 68 69 89 68 69 87 68 69 87 68 69 87 68 69 87 68 69 87 68 69 87 68 69 87 79 80 98 77 78 96 75 76 94 72 73 91 68 69 87 65 66 84 63 64 82 61 63 78 62 61 75 62 62 74 62 62 74 62 62 74 62 62 74 62 62 74 62 62 74 62 62 74 75 75 87 75 75 87 75 75 87 75 75 87 75 75 87 75 75 87 75 75 87 77 74 85 72 60 74 75 59 72 75 59 72 75 59 72 75 59 72 75 59 72 75 59 72 75 59 72 75 59 72 75 59 72 75 59 72 75 59 72 75 59 72 75 59 72 75 59 72 75 59 72 76 60 73 76 60 73 76 60 73 76 60 73 76 60 73 76 60 73 76 60 73 76 60 73 77 61 74 77 61 74 77 61 74 77 61 74 77 61 74 77 61 74 77 61 74 77 61 74 78 60 74 78 60 74 78 60 74 78 60 74 78 60 74 78 60 74 78 60 74 78 60 74 72 54 68 72 54 68 72 54 68 72 54 68 72 54 68 72 54 68 72 54 68 72 54 68 71 51 63 71 51 63 71 51 63 71 51 63 71 51 63 71 51 63 71 51 63 71 51 63 64 44 56 64 44 56 64 44 56 64 44 56 64 44 56 64 44 56 64 44 56 62 44 56 66 49 59 65 49 59 65 49 59 65 49 59 65 49 59 65 49 59 65 49 59 65 49 59 60 44 54 60 44 54 60 44 54 60 44 54 60 44 54 60 44 54 60 44 54 60 44 54 82 66 76 82 66 76 82 66 76 82 66 76 82 66 76 82 66 76 82 66 76 82 66 76 87 71 81 87 71 81 87 71 81 87 71 81 87 71 81 87 71 81 87 71 81 87 71 81 83 66 76 83 66 76 83 66 76 83 66 76 83 66 76 83 66 76 83 66 76 83 66 76 77 60 70 77 60 70 77 60 70 77 60 70 77 60 70 77 60 70 77 60 70 76 60 70 72 62 71 68 61 69 66 59 67 63 56 64 59 52 60 56 49 57 54 47 55 52 45 53 48 41 49 48 41 49 48 41 49 48 41 49 48 41 49 48 41 49 48 41 49 45 42 51 41 43 56 36 42 56 34 40 54 31 37 51 27 33 47 24 30 44 22 28 42 20 26 40 21 27 41 21 27 41
50 61 91 50 61 91 50 61 91 50 61 91 50 61 91 53 59 91 53 59 91 53 59 91 53 59 91 53 59 91 53 59 91 53 59 91 53 59 91 56 62 94 56 62 94 56 62 94 56 62 94 56 62 94 56 62 94 56 62 94 57 62 92 56 60 87 58 60 85 58 60 85 58 60 85 58 60 85 58 60 85 58 60 85 58 60 85 62 64 89 62 64 89 62 64 89 62 64 89 62 64 89 62 64 89 62 64 89 62 64 87 68 69 89 68 69 87 68 69 87 68 69 87 68 69 87 68 69 87 68 69 87 68 69 87 79 80 98 77 78 96 75 76 94 72 73 91 68 69 87 65 66 84 63 64 82 61 63 78 62 61 75 62 62 74 62 62 74 62 62 74 62 62 74 62 62 74 62 62 74 62 62 74 75 75 87 75 75 87 75 75 87 75 75 87 75 75 87 75 75 87 75 75 87 77 74 85 72 60 74 75 59 72 75 59 72 75 59 72 75 59 72 75 59 72 75 59 72 75 59 72 75 59 72 75 59 72 75 59 72 75 59 72 75 59 72 75 59 72 75 59 72 75 59 72 73 57 70 73 57 70 73 57 70 73 57 70 73 57 70 73 57 70 73 57 70 73 57 70 74 58 71 74 58 71 74 58 71 74 58 71 74 58 71 74 58 71 74 58 71 74 58 71 84 66 80 84 66 80 84 66 80 84 66 80 84 66 80 84 66 80 84 66 80 84 66 80 81 63 77 81 63 77 81 63 77 81 63 77 81 63 77 81 63 77 81 63 77 81 63 77 74 54 66 74 54 66 74 54 66 74 54 66 74 54 66 74 54 66 74 54 66 74 54 66 62 42 54 62 42 54 62 42 54 62 42 54 62 42 54 62 42 54 62 42 54 60 42 54 60 43 53 59 43 53 59 43 53 59 43 53 59 43 53 59 43 53 59 43 53 59 43 53 54 38 48 54 38 48 54 38 48 54 38 48 54 38 48 54 38 48 54 38 48 54 38 48 75 59 69 75 59 69 75 59 69 75 59 69 75 59 69 75 59 69 75 59 69 75 59 69 80 64 74 80 64 74 80 64 74 80 64 74 80 64 74 80 64 74 80 64 74 80 64 74 80 63 73 80 63 73 80 63 73 80 63 73 80 63 73 80 63 73 80 63 73 80 63 73 77 60 70 77 60 70 77 60 70 77 60 70 77 60 70 77 60 70 77 60 70 76 60 70 72 62 71 68 61 69 66 59 67 63 56 64 59 52 60 56 49 57 54 47 55 52 45 53 48 41 49 48 41 49 48 41 49 48 41 49 48 41 49 48 41 49 48 41 49 45 42 51 41 43 56 36 42 56 34 40 54 31 37 51 27 33 47 24 30 44 22 28 42 20 26 40 21 27 41 21 27 41
50 61 91 50 61 91 50 61 91 50 61 91 50 61 91 53 59 91 53 59 91 53 59 91 53 59 91 53 59 91 53 59 91 53 59 91 53 59 91 56 62 94 56 62 94 56 62 94 56 62 94 56 62 94 56 62 94 56 62 94 57 62 92 56 60 87 58 60 85 58 60 85 58 60 85 58 60 85 58 60 85 58 60 85 58 60 85 62 64 89 62 64 89 62 64 89 62 64 89 62 64 89 62 64 89 62 64 89 62 64 87 68 69 89 68 69 87 68 69 87 68 69 87 68 69 87 68 69 87 68 69 87 68 69 87 79 80 98 77 78 96 75 76 94 72 73 91 68 69 87 65 66 84 63 64 82 61 63 78 62 61 75 62 62 74 62 62 74 62 62 74 62 62 74 62 62 74 62 62 74 62 62 74 75 75 87 75 75 87 75 75 87 75 75 87 75 75 87 75 75 87 75 75 87 77 74 85 72 60 74 75 59 72 75 59 72 75 59 72 75 59 72 75 59 72 75 59 72 75 59 72 75 59 72 75 59 72 75 59 72 75 59 72 75 59 72 75 59 72 75 59 72 75 59 72 69 53 66 69 53 66 69 53 66 69 53 66 69 53 66 69 53 66 69 53 66 69 53 66 70 54 67 70 54 67 70 54 67 70 54 67 70 54 67 70 54 67 70 54 67 70 54 67 84 66 80 84 66 80 84 66 80 84 66 80 84 66 80 84 66 80 84 66 80 84 66 80 84 66 80 84 66 80 84 66 80 84 66 80 84 66 80 84 66 80 84 66 80 84 66 80 78 58 70 78 58 70 78 58 70 78 58 70 78 58 70 78 58 70 78 58 70 78 58 70 65 45 57 65 45 57 65 45 57 65 45 57 65 45 57 65 45 57 65 45 57 63 45 57 60 43 53 59 43 53 59 43 53 59 43 53 59 43 53 59 43 53 59 43 53 59 43 53 54 38 48 54 38 48 54 38 48 54 38 48 54 38 48 54 38 48 54 38 48 54 38 48 69 53 63 69 53 63 69 53 63 69 53 63 69 53 63 69 53 63 69 53 63 69 53 63 74 58 68 74 58 68 74 58 68 74 58 68 74 58 68 74 58 68 74 58 68 74 58 68 76 59 69 76 59 69 76 59 69 76 59 69 76 59 69 76 59 69 76 59 69 76 59 69 77 60 70 77 60 70 77 60 70 77 60 70 77 60 70 77 60 70 77 60 70 76 60 70 72 62 71 68 61 69 66 59 67 63 56 64 59 52 60 56 49 57 54 47 55 52 45 53 48 41 49 48 41 49 48 41 49 48 41 49 48 41 49 48 41 49 48 41 49 45 42 51 41 43 56 36 42 56 34 40 54 31 37 51 27 33 47 24 30 44 22 28 42 20 26 40 21 27 41 21 27 41
50 61 91 50 61 91 50 61 91 50 61 91 50 61 91 53 59 91 53 59 91 53 59 91 53 59 91 53 59 91 53 59 91 53 59 91 53 59 91 56 62 94 56 62 94 56 62 94 56 62 94 56 62 94 56 62 94 56 62 94 57 62 92 56 60 87 58 60 85 58 60 85 58 60 85 58 60 85 58 60 85 58 60 85 58 60 85 62 64 89 62 64 89 62 64 89 62 64 89 62 64 89 62 64 89 62 64 89 62 64 87 68 69 89 68 69 87 68 69 87 68 69 87 68 69 87 68 69 87 68 69 87 68 69 87 79 80 98 77 78 96 75 76 94 72 73 91 68 69 87 65 66 84 63 64 82 61 63 78 62 61 75 62 62 74 62 62 74 62 62 74 62 62 74 62 62 74 62 62 74 62 62 74 75 75 87 75 75 87 75 75 87 75 75 87 75 75 87 75 75 87 75 75 87 77 74 85 72 60 74 75 59 72 75 59 72 75 59 72 75 59 72 75 59 72 75 59 72 75 59 72 75 59 72 75 59 72 75 59 72 75 59 72 75 59 72 75 59 72 75 59 72 75 59 72 66 50 63 66 50 63 66 50 63 66 50 63 66 50 63 66 50 63 66 50 63 66 50 63 67 51 64 67 51 64 67 51 64 67 51 64 67 51 64 67 51 64 67 51 64 67 51 64 78 60 74 78 60 74 78 60 74 78 60 74 78 60 74 78 60 74 78 60 74 78 60 74 82 64 78 82 64 78 82 64 78 82 64 78 82 64 78 82 64 78 82 64 78 82 64 78 81 61 73 81 61 73 81 61 73 81 61 73 81 61 73 81 61 73 81 61 73 81 61 73 74 54 66 74 54 66 74 54 66 74 54 66 74 54 66 74 54 66 74 54 66 72 54 66 66 49 59 65 49 59 65 49 59 65 49 59 65 49 59 65 49 59 65 49 59 65 49 59 60 44 54 60 44 54 60 44 54 60 44 54 60 44 54 60 44 54 60 44 54 60 44 54 62 46 56 62 46 56 62 46 56 62 46 56 62 46 56 62 46 56 62 46 56 62 46 56 67 51 61 67 51 61 67 51 61 67 51 61 67 51 61 67 51 61 67 51 61 67 51 61 73 56 66 73 56 66 73 56 66 73 56 66 73 56 66 73 56 66 73 56 66 73 56 66 77 60 70 77 60 70 77 60 70 77 60 70 77 60 70 77 60 70 77 60 70 76 60 70 72 62 71 68 61 69 66 59 67 63 56 64 59 52 60 56 49 57 54 47 55 52 45 53 48 41 49 48 41 49 48 41 49 48 41 49 48 41 49 48 41 49 48 41 49 45 42 51 41 43 56 36 42 56 34 40 54 31 37 51 27 33 47 24 30 44 22 28 42 20 26 40 21 27 41 21 27 41
50 61 91 50 61 91 50 61 91 50 61 91 50 61 91 53 59 91 53 59 91 53 59 91 53 59 91 53 59 91 53 59 91 53 59 91 53 59 91 56 62 94 56 62 94 56 62 94 56 62 94 56 62 94 56 62 94 56 62 94 57 62 92 56 60 87 58 60 85 58 60 85 58 60 85 58 60 85 58 60 85 58 60 85 58 60 85 62 64 89 62 64 89 62 64 89 62 64 89 62 64 89 62 64 89 62 64 89 62 64 87 68 69 89 68 69 87 68 69 87 68 69 87 68 69 87 68 69 87 68 69 87 68 69 87 79 80 98 77 78 96 75 76 94 72 73 91 68 69 87 65 66 84 63 64 82 61 63 78 62 61 75 62 62 74 62 62 74 62 62 74 62 62 74 62 62 74 62 62 74 62 62 74 75 75 87 75 75 87 75 75 87 75 75 87 75 75 87 75 75 87 75 75 87 77 74 85 72 60 74 75 59 72 75 59 72 75 59 72 75 59 72 75 59 72 75 59 72 75 59 72 75 59 72 75 59 72 75 59 72 75 59 72 75 59 72 75 59 72 75 59 72 75 59 72 64 48 61 64 48 61 64 48 61 64 48 61 64 48 61 64 48 61 64 48 61 64 48 61 65 49 62 65 49 62 65 49 62 65 49 62 65 49 62 65 49 62 65 49 62 65 49 62 70 52 66 70 52 66 70 52 66 70 52 66 70 52 66 70 52 66 70 52 66 70 52 66 76 58 72 76 58 72 76 58 72 76 58 72 76 58 72 76 58 72 76 58 72 76 58 72 83 63 75 83 63 75 83 63 75 83 63 75 83 63 75 83 63 75 83 63 75 83 63 75 84 64 76 84 64 76 84 64 76 84 64 76 84 64 76 84 64 76 84 64 76 82 64 76 74 57 67 73 57 67 73 57 67 73 57 67 73 57 67 73 57 67 73 57 67 73 57 67 68 52 62 68 52 62 68 52 62 68 52 62 68 52 62 68 52 62 68 52 62 68 52 62 57 41 51 57 41 51 57 41 51 57 41 51 57 41 51 57 41 51 57 41 51 57 41 51 62 46 56 62 46 56 62 46 56 62 46 56 62 46 56 62 46 56 62 46 56 62 46 56 71 54 64 71 54 64 71 54 64 71 54 64 71 54 64 71 54 64 71 54 64 71 54 64 77 60 70 77 60 70 77 60 70 77 60 70 77 60 70 77 60 70 77 60 70 76 60 70 72 62 71 68 61 69 66 59 67 63 56 64 59 52 60 56 49 57 54 47 55 52 45 53 48 41 49 48 41 49 48 41 49 48 41 49 48 41 49 48 41 49 48 41 49 45 42 51 41 43 56 36 42 56 34 40 54 31 37 51 27 33 47 24 30 44 22 28 42 20 26 40 21 27 41 21 27 41
50 61 91 50 61 91 50 61 91 50 61 91 50 61 91 53 59 91 53 59 91 53 59 91 53 59 91 53 59 91 53 59 91 53 59 91 53 59 91 56 62 94 56 62 94 56 62 94 56 62 94 56 62 94 56 62 94 56 62 94 57 62 92 56 60 87 58 60 85 58 60 85 58 60 85 58 60 85 58 60 85 58 60 85 58 60 85 62 64 89 62 64 89 62 64 89 62 64 89 62 64 89 62 64 89 62 64 89 62 64 87 68 69 89 68 69 87 68 69 87 68 69 87 68 69 87 68 69 87 68 69 87 68 69 87 79 80 98 77 78 96 75 76 94 72 73 91 68 69 87 65 66 84 63 64 82 61 63 78 62 61 75 62 62 74 62 62 74 62 62 74 62 62 74 62 62 74 62 62 74 62 62 74 75 75 87 75 75 87 75 75 87 75 75 87 75 75 87 75 75 87 75 75 87 77 74 85 72 60 74 75 59 72 75 59 72 75 59 72 75 59 72 75 59 72 75 59 72 75 59 72 75 59 72 75 59 72 75 59 72 75 59 72 75 59 72 75 59 72 75 59 72 75 59 72 62 46 59 62 46 59 62 46 59 62 46 59 62 46 59 62 46 59 62 46 59 62 46 59 63 47 60 63 47 60 63 47 60 63 47 60 63 47 60 63 47 60 63 47 60 63 47 60 64 46 60 64 46 60 64 46 60 64 46 60 64 46 60 64 46 60 64 46 60 64 46 60 72 54 68 72 54 68 72 54 68 72 54 68 72 54 68 72 54 68 72 54 68 72 54 68 85 65 77 85 65 77 85 65 77 85 65 77 85 65 77 85 65 77 85 65 77 85 65 77 91 71 83 91 71 83 91 71 83 91 71 83 91 71 83 91 71 83 91 71 83 89 71 83 80 63 73 79 63 73 79 63 73 79 63 73 79 63 73 79 63 73 79 63 73 79 63 73 74 58 68 74 58 68 74 58 68 74 58 68 74 58 68 74 58 68 74 58 68 74 58 68 55 39 49 55 39 49 55 39 49 55 39 49 55 39 49 55 39 49 55 39 49 55 39 49 60 44 54 60 44 54 60 44 54 60 44 54 60 44 54 60 44 54 60 44 54 60 44 54 69 52 62 69 52 62 69 52 62 69 52 62 69 52 62 69 52 62 69 52 62 69 52 62 77 60 70 77 60 70 77 60 70 77 60 70 77 60 70 77 60 70 77 60 70 76 60 70 72 62 71 68 61 69 66 59 67 63 56 64 59 52 60 56 49 57 54 47 55 52 45 53 48 41 49 48 41 49 48 41 49 48 41 49 48 41 49 48 41 49 48 41 49 45 42 51 41 43 56 36 42 56 34 40 54 31 37 51 27 33 47 24 30 44 22 28 42 20 26 40 21 27 41 21 27 41
50 61 91 50 61 91 50 61 91 50 61 91 50 61 91 57 63 95 57 63 95 57 63 95 57 63 95 57 63 95 57 63 95 57 63 95 57 63 95 56 62 94 56 62 94 56 62 94 56 62 94 56 62 94 56 62 94 56 62 94 57 62 92 57 61 88 59 61 86 59 61 86 59 61 86 59 61 86 59 61 86 59 61 86 59 61 86 58 60 85 58 60 85 58 60 85 58 60 85 58 60 85 58 60 85 58 60 85 58 60 83 58 59 79 58 59 77 58 59 77 58 59 77 58 59 77 58 59 77 58 59 77 58 59 77 57 58 76 57 58 76 57 58 76 57 58 76 57 58 76 57 58 76 57 58 76 57 59 74 72 71 85 72 72 84 72 72 84 72 72 84 72 72 84 72 72 84 72 72 84 72 72 84 75 75 87 75 75 87 75 75 87 75 75 87 75 75 87 75 75 87 75 75 87 77 74 85 76 64 78 79 63 76 79 63 76 79 63 76 79 63 76 79 63 76 79 63 76 79 63 76 71 55 68 71 55 68 71 55 68 71 55 68 71 55 68 71 55 68 71 55 68 71 55 68 65 49 62 65 49 62 65 49 62 65 49 62 65 49 62 65 49 62 65 49 62 65 49 62 63 47 60 63 47 60 63 47 60 63 47 60 63 47 60 63 47 60 63 47 60 63 47 60 66 48 62 66 48 62 66 48 62 66 48 62 66 48 62 66 48 62 66 48 62 66 48 62 69 51 65 69 51 65 69 51 65 69 51 65 69 51 65 69 51 65 69 51 65 69 51 65 75 55 67 75 55 67 75 55 67 75 55 67 75 55 67 75 55 67 75 55 67 75 55 67 85 65 77 85 65 77 85 65 77 85 65 77 85 65 77 85 65 77 85 65 77 83 65 77 86 69 79 85 69 79 85 69 79 85 69 79 85 69 79 85 69 79 85 69 79 85 69 79 88 72 82 88 72 82 88 72 82 88 72 82 88 72 82 88 72 82 88 72 82 88 72 82 67 51 61 67 51 61 67 51 61 67 51 61 67 51 61 67 51 61 67 51 61 67 51 61 58 42 52 58 42 52 58 42 52 58 42 52 58 42 52 58 42 52 58 42 52 58 42 52 65 48 58 65 48 58 65 48 58 65 48 58 65 48 58 65 48 58 65 48 58 65 48 58 55 38 48 55 38 48 55 38 48 55 38 48 55 38 48 55 38 48 55 38 48 54 38 48 54 44 53 52 45 53 52 45 53 52 45 53 52 45 53 52 45 53 52 45 53 52 45 53 55 48 56 55 48 56 55 48 56 55 48 56 55 48 56 55 48 56 55 48 56 52 49 58 30 32 45 27 33 47 27 33 47 27 33 47 27 33 47 27 33 47 27 33 47 27 33 47 20 26 40 20 26 40
52 63 93 52 63 93 52 63 93 52 63 93 52 63 93 57 63 95 57 63 95 57 63 95 57 63 95 57 63 95 57 63 95 57 63 95 57 63 95 56 62 94 56 62 94 56 62 94 56 62 94 56 62 94 56 62 94 56 62 94 57 62 92 57 61 88 59 61 86 59 61 86 59 61 86 59 61 86 59 61 86 59 61 86 59 61 86 58 60 85 58 60 85 58 60 85 58 60 85 58 60 85 58 60 85 58 60 85 58 60 83 58 59 79 58 59 77 58 59 77 58 59 77 58 59 77 58 59 77 58 59 77 58 59 77 57 58 76 57 58 76 57 58 76 57 58 76 57 58 76 57 58 76 57 58 76 57 59 74 70 69 83 70 70 82 70 70 82 70 70 82 70 70 82 70 70 82 70 70 82 70 70 82 73 73 85 73 73 85 73 73 85 73 73 85 73 73 85 73 73 85 73 73 85 75 72 83 76 64 78 79 63 76 79 63 76 79 63 76 79 63 76 79 63 76 79 63 76 79 63 76 71 55 68 71 55 68 71 55 68 71 55 68 71 55 68 71 55 68 71 55 68 71 55 68 65 49 62 65 49 62 65 49 62 65 49 62 65 49 62 65 49 62 65 49 62 65 49 62 63 47 60 63 47 60 63 47 60 63 47 60 63 47 60 63 47 60 63 47 60 63 47 60 66 48 62 66 48 62 66 48 62 66 48 62 66 48 62 66 48 62 66 48 62 66 48 62 69 51 65 69 51 65 69 51 65 69 51 65 69 51 65 69 51 65 69 51 65 69 51 65 75 55 67 75 55 67 75 55 67 75 55 67 75 55 67 75 55 67 75 55 67 75 55 67 83 63 75 83 63 75 83 63 75 83 63 75 83 63 75 83 63 75 83 63 75 81 63 75 84 67 77 83 67 77 83 67 77 83 67 77 83 67 77 83 67 77 83 67 77 83 67 77 86 70 80 86 70 80 86 70 80 86 70 80 86 70 80 86 70 80 86 70 80 86 70 80 73 57 67 73 57 67 73 57 67 73 57 67 73 57 67 73 57 67 73 57 67 73 57 67 65 49 59 65 49 59 65 49 59 65 49 59 65 49 59 65 49 59 65 49 59 65 49 59 67 50 60 67 50 60 67 50 60 67 50 60 67 50 60 67 50 60 67 50 60 67 50 60 57 40 50 57 40 50 57 40 50 57 40 50 57 40 50 57 40 50 57 40 50 56 40 50 51 41 50 49 42 50 49 42 50 49 42 50 49 42 50 49 42 50 49 42 50 49 42 50 51 44 52 51 44 52 51 44 52 51 44 52 51 44 52 51 44 52 51 44 52 48 45 54 32 34 47 29 35 49 29 35 49 29 35 49 29 35 49 29 35 49 29 35 49 29 35 49 22 28 42 22 28 42
54 65 95 54 65 95 54 65 95 54 65 95 54 65 95 57 63 95 57 63 95 57 63 95 57 63 95 57 63 95 57 63 95 57 63 95 57 63 95 56 62 94 56 62 94 56 62 94 56 62 94 56 62 94 56 62 94 56 62 94 57 62 92 57 61 88 59 61 86 59 61 86 59 61 86 59 61 86 59 61 86 59 61 86 59 61 86 58 60 85 58 60 85 58 60 85 58 60 85 58 60 85 58 60 85 58 60 85 58 60 83 58 59 79 58 59 77 58 59 77 58 59 77 58 59 77 58 59 77 58 59 77 58 59 77 57 58 76 57 58 76 57 58 76 57 58 76 57 58 76 57 58 76 57 58 76 57 59 74 68 67 81 68 68 80 68 68 80 68 68 80 68 68 80 68 68 80 68 68 80 68 68 80 71 71 83 71 71 83 71 71 83 71 71 83 71 71 83 71 71 83 71 71 83 73 70 81 76 64 78 79 63 76 79 63 76 79 63 76 79 63 76 79 63 76 79 63 76 79 63 76 71 55 68 71 55 68 71 55 68 71 55 68 71 55 68 71 55 68 71 55 68 71 55 68 65 49 62 65 49 62 65 49 62 65 49 62 65 49 62 65 49 62 65 49 62 65 49 62 63 47 60 63 47 60 63 47 60 63 47 60 63 47 60 63 47 60 63 47 60 63 47 60 66 48 62 66 48 62 66 48 62 66 48 62 66 48 62 66 48 62 66 48 62 66 48 62 69 51 65 69 51 65 69 51 65 69 51 65 69 51 65 69 51 65 69 51 65 69 51 65 75 55 67 75 55 67 75 55 67 75 55 67 75 55 67 75 55 67 75 55 67 75 55 67 81 61 73 81 61 73 81 61 73 81 61 73 81 61 73 81 61 73 81 61 73 79 61 73 82 65 75 81 65 75 81 65 75 81 65 75 81 65 75 81 65 75 81 65 75 81 65 75 84 68 78 84 68 78 84 68 78 84 68 78 84 68 78 84 68 78 84 68 78 84 68 78 81 65 75 81 65 75 81 65 75 81 65 75 81 65 75 81 65 75 81 65 75 81 65 75 75 59 69 75 59 69 75 59 69 75 59 69 75 59 69 75 59 69 75 59 69 75 59 69 69 52 62 69 52 62 69 52 62 69 52 62 69 52 62 69 52 62 69 52 62 69 52 62 62 45 55 62 45 55 62 45 55 62 45 55 62 45 55 62 45 55 62 45 55 61 45 55 48 38 47 46 39 47 46 39 47 46 39 47 46 39 47 46 39 47 46 39 47 46 39 47 45 38 46 45 38 46 45 38 46 45 38 46 45 38 46 45 38 46 45 38 46 42 39 48 34 36 49 31 37 51 31 37 51 31 37 51 31 37 51 31 37 51 31 37 51 31 37 51 24 30 44 24 30 44
57 68 98 57 68 98 57 68 98 57 68 98 57 68 98 57 63 95 57 63 95 57 63 95 57 63 95 57 63 95 57 63 95 57 63 95 57 63 95 56 62 94 56 62 94 56 62 94 56 62 94 56 62 94 56 62 94 56 62 94 57 62 92 57 61 88 59 61 86 59 61 86 59 61 86 59 61 86 59 61 86 59 61 86 59 61 86 58 60 85 58 60 85 58 60 85 58 60 85 58 60 85 58 60 85 58 60 85 58 60 83 58 59 79 58 59 77 58 59 77 58 59 77 58 59 77 58 59 77 58 59 77 58 59 77 57 58 76 57 58 76 57 58 76 57 58 76 57 58 76 57 58 76 57 58 76 57 59 74 65 64 78 65 65 77 65 65 77 65 65 77 65 65 77 65 65 77 65 65 77 65 65 77 68 68 80 68 68 80 68 68 80 68 68 80 68 68 80 68 68 80 68 68 80 70 67 78 76 64 78 79 63 76 79 63 76 79 63 76 79 63 76 79 63 76 79 63 76 79 63 76 71 55 68 71 55 68 71 55 68 71 55 68 71 55 68 71 55 68 71 55 68 71 55 68 65 49 62 65 49 62 65 49 62 65 49 62 65 49 62 65 49 62 65 49 62 65 49 62 63 47 60 63 47 60 63 47 60 63 47 60 63 47 60 63 47 60 63 47 60 63 47 60 66 48 62 66 48 62 66 48 62 66 48 62 66 48 62 66 48 62 66 48 62 66 48 62 69 51 65 69 51 65 69 51 65 69 51 65 69 51 65 69 51 65 69 51 65 69 51 65 75 55 67 75 55 67 75 55 67 75 55 67 75 55 67 75 55 67 75 55 67 75 55 67 78 58 70 78 58 70 78 58 70 78 58 70 78 58 70 78 58 70 78 58 70 76 58 70 79 62 72 78 62 72 78 62 72 78 62 72 78 62 72 78 62 72 78 62 72 78 62 72 81 65 75 81 65 75 81 65 75 81 65 75 81 65 75 81 65 75 81 65 75 81 65 75 87 71 81 87 71 81 87 71 81 87 71 81 87 71 81 87 71 81 87 71 81 87 71 81 84 68 78 84 68 78 84 68 78 84 68 78 84 68 78 84 68 78 84 68 78 84 68 78 72 55 65 72 55 65 72 55 65 72 55 65 72 55 65 72 55 65 72 55 65 72 55 65 69 52 62 69 52 62 69 52 62 69 52 62 69 52 62 69 52 62 69 52 62 68 52 62 49 39 48 47 40 48 47 40 48 47 40 48 47 40 48 47 40 48 47 40 48 47 40 48 43 36 44 43 36 44 43 36 44 43 36 44 43 36 44 43 36 44 43 36 44 40 37 46 37 39 52 34 40 54 34 40 54 34 40 54 34 40 54 34 40 54 34 40 54 34 40 54 27 33 47 27 33 47
61 72 102 61 72 102 61 72 102 61 72 102 61 72 102 57 63 95 57 63 95 57 63 95 57 63 95 57 63 95 57 63 95 57 63 95 57 63 95 56 62 94 56 62 94 56 62 94 56 62 94 56 62 94 56 62 94 56 62 94 57 62 92 57 61 88 59 61 86 59 61 86 59 61 86 59 61 86 59 61 86 59 61 86 59 61 86 58 60 85 58 60 85 58 60 85 58 60 85 58 60 85 58 60 85 58 60 85 58 60 83 58 59 79 58 59 77 58 59 77 58 59 77 58 59 77 58 59 77 58 59 77 58 59 77 57 58 76 57 58 76 57 58 76 57 58 76 57 58 76 57 58 76 57 58 76 57 59 74 61 60 74 61 61 73 61 61 73 61 61 73 61 61 73 61 61 73 61 61 73 61 61 73 64 64 76 64 64 76 64 64 76 64 64 76 64 64 76 64 64 76 64 64 76 66 63 74 76 64 78 79 63 76 79 63 76 79 63 76 79 63 76 79 63 76 79 63 76 79 63 76 71 55 68 71 55 68 71 55 68 71 55 68 71 55 68 71 55 68 71 55 68 71 55 68 65 49 62 65 49 62 65 49 62 65 49 62 65 49 62 65 49 62 65 49 62 65 49 62 63 47 60 63 47 60 63 47 60 63 47 60 63 47 60 63 47 60 63 47 60 63 47 60 66 48 62 66 48 62 66 48 62 66 48 62 66 48 62 66 48 62 66 48 62 66 48 62 69 51 65 69 51 65 69 51 65 69 51 65 69 51 65 69 51 65 69 51 65 69 51 65 75 55 67 75 55 67 75 55 67 75 55 67 75 55 67 75 55 67 75 55 67 75 55 67 74 54 66 74 54 66 74 54 66 74 54 66 74 54 66 74 54 66 74 54 66 72 54 66 75 58 68 74 58 68 74 58 68 74 58 68 74 58 68 74 58 68 74 58 68 74 58 68 77 61 71 77 61 71 77 61 71 77 61 71 77 61 71 77 61 71 77 61 71 77 61 71 87 71 81 87 71 81 87 71 81 87 71 81 87 71 81 87 71 81 87 71 81 87 71 81 87 71 81 87 71 81 87 71 81 87 71 81 87 71 81 87 71 81 87 71 81 87 71 81 76 59 69 76 59 69 76 59 69 76 59 69 76 59 69 76 59 69 76 59 69 76 59 69 75 58 68 75 58 68 75 58 68 75 58 68 75 58 68 75 58 68 75 58 68 74 58 68 56 46 55 54 47 55 54 47 55 54 47 55 54 47 55 54 47 55 54 47 55 54 47 55 46 39 47 46 39 47 46 39 47 46 39 47 46 39 47 46 39 47 46 39 47 43 40 49 41 43 56 38 44 58 38 44 58 38 44 58 38 44 58 38 44 58 38 44 58 38 44 58 31 37 51 31 37 51
64 75 105 64 75 105 64 75 105 64 75 105 64 75 105 57 63 95 57 63 95 57 63 95 57 63 95 57 63 95 57 63 95 57 63 95 57 63 95 56 62 94 56 62 94 56 62 94 56 62 94 56 62 94 56 62 94 56 62 94 57 62 92 57 61 88 59 61 86 59 61 86 59 61 86 59 61 86 59 61 86 59 61 86 59 61 86 58 60 85 58 60 85 58 60 85 58 60 85 58 60 85 58 60 85 58 60 85 58 60 83 58 59 79 58 59 77 58 59 77 58 59 77 58 59 77 58 59 77 58 59 77 58 59 77 57 58 76 57 58 76 57 58 76 57 58 76 57 58 76 57 58 76 57 58 76 57 59 74 58 57 71 58 58 70 58 58 70 58 58 70 58 58 70 58 58 70 58 58 70 58 58 70 61 61 73 61 61 73 61 61 73 61 61 73 61 61 73 61 61 73 61 61 73 63 60 71 76 64 78 79 63 76 79 63 76 79 63 76 79 63 76 79 63 76 79 63 76 79 63 76 71 55 68 71 55 68 71 55 68 71 55 68 71 55 68 71 55 68 71 55 68 71 55 68 65 49 62 65 49 62 65 49 62 65 49 62 65 49 62 65 49 62 65 49 62 65 49 62 63 47 60 63 47 60 63 47 60 63 47 60 63 47 60 63 47 60 63 47 60 63 47 60 66 48 62 66 48 62 66 48 62 66 48 62 66 48 62 66 48 62 66 48 62 66 48 62 69 51 65 69 51 65 69 51 65 69 51 65 69 51 65 69 51 65 69 51 65 69 51 65 75 55 67 75 55 67 75 55 67 75 55 67 75 55 67 75 55 67 75 55 67 75 55 67 71 51 63 71 51 63 71 51 63 71 51 63 71 51 63 71 51 63 71 51 63 69 51 63 72 55 65 71 55 65 71 55 65 71 55 65 71 55 65 71 55 65 71 55 65 71 55 65 74 58 68 74 58 68 74 58 68 74 58 68 74 58 68 74 58 68 74 58 68 74 58 68 81 65 75 81 65 75 81 65 75 81 65 75 81 65 75 81 65 75 81 65 75 81 65 75 85 69 79 85 69 79 85 69 79 85 69 79 85 69 79 85 69 79 85 69 79 85 69 79 79 62 72 79 62 72 79 62 72 79 62 72 79 62 72 79 62 72 79 62 72 79 62 72 82 65 75 82 65 75 82 65 75 82 65 75 82 65 75 82 65 75 82 65 75 81 65 75 68 58 67 66 59 67 66 59 67 66 59 67 66 59 67 66 59 67 66 59 67 66 59 67 55 48 56 55 48 56 55 48 56 55 48 56 55 48 56 55 48 56 55 48 56 52 49 58 44 46 59 41 47 61 41 47 61 41 47 61 41 47 61 41 47 61 41 47 61 41 47 61 34 40 54 34 40 54
66 77 107 66 77 107 66 77 107 66 77 107 66 77 107 57 63 95 57 63 95 57 63 95 57 63 95 57 63 95 57 63 95 57 63 95 57 63 95 56 62 94 56 62 94 56 62 94 56 62 94 56 62 94 56 62 94 56 62 94 57 62 92 57 61 88 59 61 86 59 61 86 59 61 86 59 61 86 59 61 86 59 61 86 59 61 86 58 60 85 58 60 85 58 60 85 58 60 85 58 60 85 58 60 85 58 60 85 58 60 83 58 59 79 58 59 77 58 59 77 58 59 77 58 59 77 58 59 77 58 59 77 58 59 77 57 58 76 57 58 76 57 58 76 57 58 76 57 58 76 57 58 76 57 58 76 57 59 74 56 55 69 56 56 68 56 56 68 56 56 68 56 56 68 56 56 68 56 56 68 56 56 68 59 59 71 59 59 71 59 59 71 59 59 71 59 59 71 59 59 71 59 59 71 61 58 69 76 64 78 79 63 76 79 63 76 79 63 76 79 63 76 79 63 76 79 63 76 79 63 76 71 55 68 71 55 68 71 55 68 71 55 68 71 55 68 71 55 68 71 55 68 71 55 68 65 49 62 65 49 62 65 49 62 65 49 62 65 49 62 65 49 62 65 49 62 65 49 62 63 47 60 63 47 60 63 47 60 63 47 60 63 47 60 63 47 60 63 47 60 63 47 60 66 48 62 66 48 62 66 48 62 66 48 62 66 48 62 66 48 62 66 48 62 66 48 62 69 51 65 69 51 65 69 51 65 69 51 65 69 51 65 69 51 65 69 51 65 69 51 65 75 55 67 75 55 67 75 55 67 75 55 67 75 55 67 75 55 67 75 55 67 75 55 67 69 49 61 69 49 61 69 49 61 69 49 61 69 49 61 69 49 61 69 49 61 67 49 61 70 53 63 69 53 63 69 53 63 69 53 63 69 53 63 69 53 63 69 53 63 69 53 63 72 56 66 72 56 66 72 56 66 72 56 66 72 56 66 72 56 66 72 56 66 72 56 66 73 57 67 73 57 67 73 57 67 73 57 67 73 57 67 73 57 67 73 57 67 73 57 67 79 63 73 79 63 73 79 63 73 79 63 73 79 63 73 79 63 73 79 63 73 79 63 73 81 64 74 81 64 74 81 64 74 81 64 74 81 64 74 81 64 74 81 64 74 81 64 74 87 70 80 87 70 80 87 70 80 87 70 80 87 70 80 87 70 80 87 70 80 86 70 80 81 71 80 79 72 80 79 72 80 79 72 80 79 72 80 79 72 80 79 72 80 79 72 80 65 58 66 65 58 66 65 58 66 65 58 66 65 58 66 65 58 66 65 58 66 62 59 68 46 48 61 43 49 63 43 49 63 43 49 63 43 49 63 43 49 63 43 49 63 43 49 63 36 42 56 36 42 56
65 80 113 66 79 113 65 80 113 66 79 113 66 79 113 52 65 100 54 64 100 54 64 100 54 64 100 54 64 100 54 64 100 54 64 100 54 64 100 53 63 99 53 63 99 53 63 99 53 63 99 53 63 99 53 63 99 53 63 99 53 63 98 55 61 93 55 62 90 56 61 91 55 62 90 56 61 91 55 62 90 56 61 91 55 62 90 55 60 90 54 61 89 55 60 90 54 61 89 55 60 90 54 61 89 55 60 90 55 60 89 54 60 84 55 60 82 55 60 82 55 60 82 55 60 82 55 60 82 55 60 82 55 60 82 54 59 81 54 59 81 54 59 81 54 59 81 54 59 81 54 59 81 54 59 81 54 59 79 51 54 73 51 54 71 51 54 71 51 54 71 51 54 71 51 54 71 51 54 71 51 54 71 54 57 74 54 57 74 54 57 74 54 57 74 54 57 74 54 57 74 54 57 74 57 56 74 72 65 81 75 64 81 75 64 81 75 64 81 75 64 81 75 64 81 75 64 81 75 64 81 67 56 73 67 56 73 67 56 73 67 56 73 67 56 73 67 56 73 67 56 73 67 56 73 63 49 66 65 48 66 65 48 66 65 48 66 65 48 66 65 48 66 65 48 66 65 48 66 63 46 64 63 46 64 63 46 64 63 46 64 63 46 64 63 46 64 63 46 64 63 46 64 63 49 66 63 49 64 63 49 66 63 49 64 63 49 66 63 49 64 63 49 66 63 49 64 66 52 69 66 52 67 66 52 69 66 52 67 66 52 69 66 52 67 66 52 69 66 52 67 72 55 71 73 55 69 73 55 69 73 55 69 73 55 69 73 55 69 73 55 69 73 55 69 65 47 61 65 47 61 65 47 61 65 47 61 65 47 61 65 47 61 65 47 61 65 47 61 67 51 62 67 51 62 67 51 62 67 51 62 67 51 62 67 51 62 67 51 62 67 51 62 70 54 65 70 54 65 70 54 65 70 54 65 70 54 65 70 54 65 70 54 65 70 54 65 67 51 62 67 51 62 67 51 62 67 51 62 67 51 62 67 51 62 67 51 62 67 51 62 75 59 70 75 59 70 75 59 70 75 59 70 75 59 70 75 59 70 75 59 70 75 59 70 83 65 77 83 66 76 85 65 77 83 66 76 85 65 77 83 66 76 85 65 77 83 66 76 91 71 83 89 72 82 91 71 83 89 72 82 91 71 83 89 72 82 91 71 83 89 71 83 91 78 88 90 78 88 90 78 88 90 78 88 90 78 88 90 78 88 90 78 88 90 78 88 75 63 73 75 63 73 75 63 73 75 63 73 75 63 73 75 63 73 75 63 73 74 64 75 52 48 62 50 49 63 51 49 63 50 49 63 51 49 63 50 49 63 51 49 63 50 49 63 44 42 56 43 42 56
87 106 146 88 106 146 87 106 146 88 106 146 87 106 148 63 82 125 63 81 127 63 81 127 63 81 127 63 81 127 63 81 127 63 81 127 63 81 127 55 73 119 55 73 119 55 73 119 55 73 119 55 73 119 55 73 119 55 73 119 56 73 117 56 71 110 56 72 106 57 71 108 56 72 106 57 71 108 56 72 106 57 71 108 56 72 106 48 62 99 47 63 97 48 62 99 47 63 97 48 62 99 47 63 97 48 62 99 48 62 97 52 65 99 52 65 99 52 65 99 52 65 99 52 65 99 52 65 99 52 65 99 52 65 99 47 60 94 47 60 94 47 60 94 47 60 94 47 60 94 47 60 94 47 60 94 49 60 92 48 57 88 50 57 86 50 57 86 50 57 86 50 57 86 50 57 86 50 57 86 50 57 86 49 56 85 49 56 85 49 56 85 49 56 85 49 56 85 49 56 85 49 56 85 50 55 84 51 55 80 53 55 78 53 55 78 53 55 78 53 55 78 53 55 78 53 55 78 53 55 78 53 55 78 53 55 78 53 55 78 53 55 78 53 55 78 53 55 78 53 55 78 56 54 78 63 50 76 65 49 76 65 49 76 65 49 76 65 49 76 65 49 76 65 49 76 65 49 76 63 47 74 63 47 74 63 47 74 63 47 74 63 47 74 63 47 74 63 47 74 62 48 73 61 52 73 60 53 71 60 52 73 60 53 71 60 52 73 60 53 71 60 52 73 60 53 71 61 53 74 61 54 72 61 53 74 61 54 72 61 53 74 61 54 72 61 53 74 62 53 72 66 55 72 67 54 72 67 54 72 67 54 72 67 54 72 67 54 72 67 54 72 67 54 72 68 55 73 68 55 73 68 55 73 68 55 73 68 55 73 68 55 73 68 55 73 69 55 72 72 55 71 73 55 71 73 55 71 73 55 71 73 55 71 73 55 71 73 55 71 73 55 71 75 57 73 75 57 73 75 57 73 75 57 73 75 57 73 75 57 73 75 57 73 75 57 73 73 56 72 73 56 72 73 56 72 73 56 72 73 56 72 73 56 72 73 56 72 73 56 72 73 56 72 73 56 72 73 56 72 73 56 72 73 56 72 73 56 72 73 56 72 74 56 72 74 53 68 74 54 66 75 52 68 74 54 66 75 52 68 74 54 66 75 52 68 74 54 66 75 52 68 74 54 66 75 52 68 74 54 66 75 52 68 74 54 66 75 52 68 74 54 66 87 67 79 87 67 79 87 67 79 87 67 79 87 67 79 87 67 79 87 67 79 87 67 79 91 71 83 91 71 83 91 71 83 91 71 83 91 71 83 91 71 83 91 71 83 89 71 83 88 72 85 86 72 85 88 72 85 86 72 85 88 72 85 86 72 85 88 72 85 86 72 85 65 49 62 63 49 62
85 107 148 85 106 149 85 107 148 85 106 149 85 106 149 67 89 138 67 89 138 67 89 139 67 89 138 67 89 139 67 89 138 67 89 139 67 89 138 54 76 126 54 76 125 54 76 126 54 76 125 54 76 126 54 76 125 54 76 126 54 76 123 50 69 111 50 69 109 50 69 109 50 69 109 50 69 109 50 69 109 50 69 109 50 69 109 46 65 105 46 65 105 46 65 105 46 65 105 46 65 105 46 65 105 46 65 105 46 65 105 50 65 104 50 65 104 50 65 104 50 65 104 50 65 104 50 65 104 50 65 104 50 65 104 45 60 99 45 60 99 45 60 99 45 60 99 45 60 99 45 60 99 45 60 99 46 60 97 45 58 93 47 57 92 47 57 92 47 57 92 47 57 92 47 57 92 47 57 92 47 57 92 46 56 91 46 56 91 46 56 91 46 56 91 46 56 91 46 56 91 46 56 91 46 57 89 49 56 85 49 56 84 49 56 84 49 56 84 49 56 84 49 56 84 49 56 84 49 56 84 49 56 84 49 56 84 49 56 84 49 56 84 49 56 84 49 56 84 49 56 84 53 54 82 61 50 82 64 49 80 65 48 80 64 49 80 65 48 80 64 49 80 65 48 80 64 49 80 63 46 78 62 47 78 63 46 78 62 47 78 63 46 78 62 47 78 63 46 78 61 48 76 58 53 76 57 54 75 57 54 75 57 54 75 57 54 75 57 54 75 57 54 75 57 54 75 58 55 76 58 55 76 58 55 76 58 55 76 58 55 76 58 55 76 58 55 76 59 54 74 64 55 76 66 54 74 66 54 74 66 54 74 66 54 74 66 54 74 66 54 74 66 54 74 67 55 75 67 55 75 67 55 75 67 55 75 67 55 75 67 55 75 67 55 75 68 55 73 72 55 74 73 54 73 73 54 73 73 54 73 73 54 73 73 54 73 73 54 73 73 54 73 75 56 75 75 56 75 75 56 75 75 56 75 75 56 75 75 56 75 75 56 75 75 56 75 73 56 74 73 56 74 73 56 74 73 56 74 73 56 74 73 56 74 73 56 74 73 56 74 73 56 74 73 56 74 73 56 74 73 56 74 73 56 74 73 56 74 73 56 74 74 56 72 74 53 70 75 52 68 75 52 68 75 52 68 75 52 68 75 52 68 75 52 68 75 52 68 75 52 68 75 52 68 75 52 68 75 52 68 75 52 68 75 52 68 75 52 68 75 52 68 87 63 77 87 63 77 87 63 77 87 63 77 87 63 77 87 63 77 87 63 77 87 63 77 91 67 81 91 67 81 91 67 81 91 67 81 91 67 81 91 67 81 91 67 81 91 67 81 90 68 81 90 68 81 90 68 81 90 68 81 90 68 81 90 68 81 90 68 81 90 68 81 75 53 66 75 53 66
85 107 146 85 107 148 85 107 146 85 107 148 85 107 148 77 99 146 77 99 146 77 99 148 77 99 146 77 99 148 77 99 146 77 99 148 77 99 146 59 81 130 59 81 128 59 81 130 59 81 128 59 81 130 59 81 128 59 81 130 59 82 126 47 66 108 47 66 106 47 66 106 47 66 106 47 66 106 47 66 106 47 66 106 47 66 106 48 67 107 48 67 107 48 67 107 48 67 107 48 67 107 48 67 107 48 67 107 48 67 107 50 65 104 50 65 104 50 65 104 50 65 104 50 65 104 50 65 104 50 65 104 50 65 104 45 60 99 45 60 99 45 60 99 45 60 99 45 60 99 45 60 99 45 60 99 46 60 97 45 58 93 47 57 92 47 57 92 47 57 92 47 57 92 47 57 92 47 57 92 47 57 92 46 56 91 46 56 91 46 56 91 46 56 91 46 56 91 46 56 91 46 56 91 46 57 89 49 56 85 49 56 84 49 56 84 49 56 84 49 56 84 49 56 84 49 56 84 49 56 84 49 56 84 49 56 84 49 56 84 49 56 84 49 56 84 49 56 84 49 56 84 53 54 82 60 51 82 63 50 80 64 49 80 63 50 80 64 49 80 63 50 80 64 49 80 63 50 80 62 47 78 61 48 78 62 47 78 61 48 78 62 47 78 61 48 78 62 47 78 59 49 76 58 53 76 57 54 75 57 54 75 57 54 75 57 54 75 57 54 75 57 54 75 57 54 75 58 55 76 58 55 76 58 55 76 58 55 76 58 55 76 58 55 76 58 55 76 59 54 74 64 55 76 66 54 74 66 54 74 66 54 74 66 54 74 66 54 74 66 54 74 66 54 74 67 55 75 67 55 75 67 55 75 67 55 75 67 55 75 67 55 75 67 55 75 68 55 73 72 55 74 73 54 73 73 54 73 73 54 73 73 54 73 73 54 73 73 54 73 73 54 73 75 56 75 75 56 75 75 56 75 75 56 75 75 56 75 75 56 75 75 56 75 75 56 75 73 56 74 73 56 74 73 56 74 73 56 74 73 56 74 73 56 74 73 56 74 73 56 74 73 56 74 73 56 74 73 56 74 73 56 74 73 56 74 73 56 74 73 56 74 74 56 72 74 53 70 75 52 68 75 52 68 75 52 68 75 52 68 75 52 68 75 52 68 75 52 68 75 52 68 75 52 68 75 52 68 75 52 68 75 52 68 75 52 68 75 52 68 75 52 68 85 61 75 85 61 75 85 61 75 85 61 75 85 61 75 85 61 75 85 61 75 85 61 75 89 65 79 89 65 79 89 65 79 89 65 79 89 65 79 89 65 79 89 65 79 89 65 79 88 66 79 88 66 79 88 66 79 88 66 79 88 66 79 88 66 79 88 66 79 88 66 79 83 61 74 83 61 74
85 107 144 85 107 146 85 107 144 85 107 146 85 107 146 86 109 153 86 109 153 86 108 155 86 109 153 86 108 155 86 109 153 86 108 155 86 109 153 66 88 135 66 89 133 66 88 135 66 89 133 66 88 135 66 89 133 66 88 135 66 89 133 48 67 109 48 67 107 48 67 107 48 67 107 48 67 107 48 67 107 48 67 107 48 67 107 51 70 110 51 70 110 51 70 110 51 70 110 51 70 110 51 70 110 51 70 110 51 70 110 50 65 104 50 65 104 50 65 104 50 65 104 50 65 104 50 65 104 50 65 104 50 65 104 45 60 99 45 60 99 45 60 99 45 60 99 45 60 99 45 60 99 45 60 99 46 60 97 45 58 93 47 57 92 47 57 92 47 57 92 47 57 92 47 57 92 47 57 92 47 57 92 46 56 91 46 56 91 46 56 91 46 56 91 46 56 91 46 56 91 46 56 91 46 57 89 49 56 85 49 56 84 49 56 84 49 56 84 49 56 84 49 56 84 49 56 84 49 56 84 49 56 84 49 56 84 49 56 84 49 56 84 49 56 84 49 56 84 49 56 84 51 55 82 58 51 82 61 50 80 63 50 80 61 50 80 63 50 80 61 50 80 63 50 80 61 50 80 61 48 78 59 48 78 61 48 78 59 48 78 61 48 78 59 48 78 61 48 78 59 49 76 58 53 76 57 54 75 57 54 75 57 54 75 57 54 75 57 54 75 57 54 75 57 54 75 58 55 76 58 55 76 58 55 76 58 55 76 58 55 76 58 55 76 58 55 76 59 54 74 64 55 76 66 54 74 66 54 74 66 54 74 66 54 74 66 54 74 66 54 74 66 54 74 67 55 75 67 55 75 67 55 75 67 55 75 67 55 75 67 55 75 67 55 75 68 55 73 72 55 74 73 54 73 73 54 73 73 54 73 73 54 73 73 54 73 73 54 73 73 54 73 75 56 75 75 56 75 75 56 75 75 56 75 75 56 75 75 56 75 75 56 75 75 56 75 73 56 74 73 56 74 73 56 74 73 56 74 73 56 74 73 56 74 73 56 74 73 56 74 73 56 74 73 56 74 73 56 74 73 56 74 73 56 74 73 56 74 73 56 74 74 56 72 74 53 70 75 52 68 75 52 68 75 52 68 75 52 68 75 52 68 75 52 68 75 52 68 75 52 68 75 52 68 75 52 68 75 52 68 75 52 68 75 52 68 75 52 68 75 52 68 82 58 72 82 58 72 82 58 72 82 58 72 82 58 72 82 58 72 82 58 72 82 58 72 86 62 76 86 62 76 86 62 76 86 62 76 86 62 76 86 62 76 86 62 76 86 62 76 85 63 76 85 63 76 85 63 76 85 63 76 85 63 76 85 63 76 85 63 76 85 63 76 89 67 80 89 67 80
85 108 142 85 107 144 85 108 142 85 107 144 85 107 144 89 112 154 89 112 154 89 112 156 89 112 154 89 112 156 89 112 154 89 112 156 89 112 154 72 95 139 72 95 137 72 95 139 72 95 137 72 95 139 72 95 137 72 95 139 72 95 137 55 74 116 55 74 114 55 74 114 55 74 114 55 74 114 55 74 114 55 74 114 55 74 114 55 74 114 55 74 114 55 74 114 55 74 114 55 74 114 55 74 114 55 74 114 55 74 114 50 65 104 50 65 104 50 65 104 50 65 104 50 65 104 50 65 104 50 65 104 50 65 104 45 60 99 45 60 99 45 60 99 45 60 99 45 60 99 45 60 99 45 60 99 46 60 97 45 58 93 47 57 92 47 57 92 47 57 92 47 57 92 47 57 92 47 57 92 47 57 92 46 56 91 46 56 91 46 56 91 46 56 91 46 56 91 46 56 91 46 56 91 46 57 89 49 56 85 49 56 84 49 56 84 49 56 84 49 56 84 49 56 84 49 56 84 49 56 84 49 56 84 49 56 84 49 56 84 49 56 84 49 56 84 49 56 84 49 56 84 51 55 82 57 52 82 60 51 80 61 50 80 60 51 80 61 50 80 60 51 80 61 50 80 60 51 80 59 48 78 58 49 78 59 48 78 58 49 78 59 48 78 58 49 78 59 48 78 58 49 76 58 53 76 57 54 75 57 54 75 57 54 75 57 54 75 57 54 75 57 54 75 57 54 75 58 55 76 58 55 76 58 55 76 58 55 76 58 55 76 58 55 76 58 55 76 59 54 74 64 55 76 66 54 74 66 54 74 66 54 74 66 54 74 66 54 74 66 54 74 66 54 74 67 55 75 67 55 75 67 55 75 67 55 75 67 55 75 67 55 75 67 55 75 68 55 73 72 55 74 73 54 73 73 54 73 73 54 73 73 54 73 73 54 73 73 54 73 73 54 73 75 56 75 75 56 75 75 56 75 75 56 75 75 56 75 75 56 75 75 56 75 75 56 75 73 56 74 73 56 74 73 56 74 73 56 74 73 56 74 73 56 74 73 56 74 73 56 74 73 56 74 73 56 74 73 56 74 73 56 74 73 56 74 73 56 74 73 56 74 74 56 72 74 53 70 75 52 68 75 52 68 75 52 68 75 52 68 75 52 68 75 52 68 75 52 68 75 52 68 75 52 68 75 52 68 75 52 68 75 52 68 75 52 68 75 52 68 75 52 68 78 54 68 78 54 68 78 54 68 78 54 68 78 54 68 78 54 68 78 54 68 78 54 68 82 58 72 82 58 72 82 58 72 82 58 72 82 58 72 82 58 72 82 58 72 82 58 72 81 59 72 81 59 72 81 59 72 81 59 72 81 59 72 81 59 72 81 59 72 81 59 72 89 67 80 89 67 80
85 108 140 85 108 140 85 108 140 85 108 140 85 108 142 87 111 149 87 110 151 87 110 151 87 110 151 87 110 151 87 110 151 87 110 151 87 110 151 79 102 143 79 102 143 79 102 143 79 102 143 79 102 143 79 102 143 79 102 143 79 102 143 67 86 126 67 86 126 67 86 126 67 86 126 67 86 126 67 86 126 67 86 126 67 86 126 58 77 117 58 77 117 58 77 117 58 77 117 58 77 117 58 77 117 58 77 117 58 77 117 50 65 104 50 65 104 50 65 104 50 65 104 50 65 104 50 65 104 50 65 104 50 65 104 45 60 99 45 60 99 45 60 99 45 60 99 45 60 99 45 60 99 45 60 99 46 60 97 45 58 93 47 57 92 47 57 92 47 57 92 47 57 92 47 57 92 47 57 92 47 57 92 46 56 91 46 56 91 46 56 91 46 56 91 46 56 91 46 56 91 46 56 91 46 57 89 49 56 85 49 56 84 49 56 84 49 56 84 49 56 84 49 56 84 49 56 84 49 56 84 49 56 84 49 56 84 49 56 84 49 56 84 49 56 84 49 56 84 49 56 84 51 55 82 56 53 82 58 52 80 58 52 80 58 52 80 58 52 80 58 52 80 58 52 80 58 52 80 56 50 78 56 50 78 56 50 78 56 50 78 56 50 78 56 50 78 56 50 78 56 50 76 57 53 76 57 54 75 57 54 75 57 54 75 57 54 75 57 54 75 57 54 75 57 54 75 58 55 76 58 55 76 58 55 76 58 55 76 58 55 76 58 55 76 58 55 76 59 54 74 64 55 76 66 54 74 66 54 74 66 54 74 66 54 74 66 54 74 66 54 74 66 54 74 67 55 75 67 55 75 67 55 75 67 55 75 67 55 75 67 55 75 67 55 75 68 55 73 72 55 74 73 54 73 73 54 73 73 54 73 73 54 73 73 54 73 73 54 73 73 54 73 75 56 75 75 56 75 75 56 75 75 56 75 75 56 75 75 56 75 75 56 75 75 56 75 73 56 74 73 56 74 73 56 74 73 56 74 73 56 74 73 56 74 73 56 74 73 56 74 73 56 74 73 56 74 73 56 74 73 56 74 73 56 74 73 56 74 73 56 74 74 56 72 74 53 70 75 52 68 75 52 68 75 52 68 75 52 68 75 52 68 75 52 68 75 52 68 75 52 68 75 52 68 75 52 68 75 52 68 75 52 68 75 52 68 75 52 68 75 52 68 75 51 65 75 51 65 75 51 65 75 51 65 75 51 65 75 51 65 75 51 65 75 51 65 79 55 69 79 55 69 79 55 69 79 55 69 79 55 69 79 55 69 79 55 69 79 55 69 78 56 69 78 56 69 78 56 69 78 56 69 78 56 69 78 56 69 78 56 69 78 56 69 83 61 74 83 61 74
85 108 139 85 108 139 85 108 139 85 108 139 85 108 140 81 105 141 81 105 143 81 105 143 81 105 143 81 105 143 81 105 143 81 105 143 81 105 143 84 108 146 84 108 146 84 108 146 84 108 146 84 108 146 84 108 146 84 108 146 84 108 146 80 99 139 80 99 139 80 99 139 80 99 139 80 99 139 80 99 139 80 99 139 80 99 139 60 79 119 60 79 119 60 79 119 60 79 119 60 79 119 60 79 119 60 79 119 60 79 119 50 65 104 50 65 104 50 65 104 50 65 104 50 65 104 50 65 104 50 65 104 50 65 104 45 60 99 45 60 99 45 60 99 45 60 99 45 60 99 45 60 99 45 60 99 46 60 97 45 58 93 47 57 92 47 57 92 47 57 92 47 57 92 47 57 92 47 57 92 47 57 92 46 56 91 46 56 91 46 56 91 46 56 91 46 56 91 46 56 91 46 56 91 46 57 89 49 56 85 49 56 84 49 56 84 49 56 84 49 56 84 49 56 84 49 56 84 49 56 84 49 56 84 49 56 84 49 56 84 49 56 84 49 56 84 49 56 84 49 56 84 50 56 82 54 54 82 57 53 80 57 53 80 57 53 80 57 53 80 57 53 80 57 53 80 57 53 80 55 51 78 55 51 78 55 51 78 55 51 78 55 51 78 55 51 78 55 51 78 55 51 76 57 53 76 57 54 75 57 54 75 57 54 75 57 54 75 57 54 75 57 54 75 57 54 75 58 55 76 58 55 76 58 55 76 58 55 76 58 55 76 58 55 76 58 55 76 59 54 74 64 55 76 66 54 74 66 54 74 66 54 74 66 54 74 66 54 74 66 54 74 66 54 74 67 55 75 67 55 75 67 55 75 67 55 75 67 55 75 67 55 75 67 55 75 68 55 73 72 55 74 73 54 73 73 54 73 73 54 73 73 54 73 73 54 73 73 54 73 73 54 73 75 56 75 75 56 75 75 56 75 75 56 75 75 56 75 75 56 75 75 56 75 75 56 75 73 56 74 73 56 74 73 56 74 73 56 74 73 56 74 73 56 74 73 56 74 73 56 74 73 56 74 73 56 74 73 56 74 73 56 74 73 56 74 73 56 74 73 56 74 74 56 72 74 53 70 75 52 68 75 52 68 75 52 68 75 52 68 75 52 68 75 52 68 75 52 68 75 52 68 75 52 68 75 52 68 75 52 68 75 52 68 75 52 68 75 52 68 75 52 68 73 49 63 73 49 63 73 49 63 73 49 63 73 49 63 73 49 63 73 49 63 73 49 63 77 53 67 77 53 67 77 53 67 77 53 67 77 53 67 77 53 67 77 53 67 77 53 67 76 54 67 76 54 67 76 54 67 76 54 67 76 54 67 76 54 67 76 54 67 76 54 67 75 53 66 75 53 66
85 109 135 85 109 135 85 109 135 85 109 135 85 109 137 77 102 133 77 101 135 77 101 135 77 101 135 77 101 135 77 101 135 77 101 135 77 101 135 86 110 144 86 110 144 86 110 144 86 110 144 86 110 144 86 110 144 86 110 144 86 110 144 88 107 147 88 107 147 88 107 147 88 107 147 88 107 147 88 107 147 88 107 147 88 107 147 62 81 121 62 81 121 62 81 121 62 81 121 62 81 121 62 81 121 62 81 121 62 81 121 50 65 104 50 65 104 50 65 104 50 65 104 50 65 104 50 65 104 50 65 104 50 65 104 45 60 99 45 60 99 45 60 99 45 60 99 45 60 99 45 60 99 45 60 99 46 60 97 45 58 93 47 57 92 47 57 92 47 57 92 47 57 92 47 57 92 47 57 92 47 57 92 46 56 91 46 56 91 46 56 91 46 56 91 46 56 91 46 56 91 46 56 91 46 57 89 49 56 85 49 56 84 49 56 84 49 56 84 49 56 84 49 56 84 49 56 84 49 56 84 49 56 84 49 56 84 49 56 84 49 56 84 49 56 84 49 56 84 49 56 84 50 56 82 53 54 82 54 54 80 54 54 80 54 54 80 54 54 80 54 54 80 54 54 80 54 54 80 52 52 78 52 52 78 52 52 78 52 52 78 52 52 78 52 52 78 52 52 78 52 52 76 57 53 76 57 54 75 57 54 75 57 54 75 57 54 75 57 54 75 57 54 75 57 54 75 58 55 76 58 55 76 58 55 76 58 55 76 58 55 76 58 55 76 58 55 76 59 54 74 64 55 76 66 54 74 66 54 74 66 54 74 66 54 74 66 54 74 66 54 74 66 54 74 67 55 75 67 55 75 67 55 75 67 55 75 67 55 75 67 55 75 67 55 75 68 55 73 72 55 74 73 54 73 73 54 73 73 54 73 73 54 73 73 54 73 73 54 73 73 54 73 75 56 75 75 56 75 75 56 75 75 56 75 75 56 75 75 56 75 75 56 75 75 56 75 73 56 74 73 56 74 73 56 74 73 56 74 73 56 74 73 56 74 73 56 74 73 56 74 73 56 74 73 56 74 73 56 74 73 56 74 73 56 74 73 56 74 73 56 74 74 56 72 74 53 70 75 52 68 75 52 68 75 52 68 75 52 68 75 52 68 75 52 68 75 52 68 75 52 68 75 52 68 75 52 68 75 52 68 75 52 68 75 52 68 75 52 68 75 52 68 71 47 61 71 47 61 71 47 61 71 47 61 71 47 61 71 47 61 71 47 61 71 47 61 75 51 65 75 51 65 75 51 65 75 51 65 75 51 65 75 51 65 75 51 65 75 51 65 74 52 65 74 52 65 74 52 65 74 52 65 74 52 65 74 52 65 74 52 65 74 52 65 69 47 60 69 47 60
