P3
172 37
255
121 108 126 121 108 126 121 108 126 121 108 126 126 113 131 126 113 131 126 113 131 126 113 131 126 113 131 126 113 131 126 113 131 126 113 131 130 113 131 130 113 131 130 113 131 130 113 131 130 113 131 130 113 131 130 113 131 130 113 131 116 99 117 115 98 116 113 96 114 109 92 110 106 89 107 103 86 104 100 83 101 97 83 100 89 75 92 87 74 91 85 72 89 81 68 85 78 65 82 75 62 79 72 59 76 71 58 75 57 44 61 56 43 60 53 40 57 50 37 54 47 34 51 43 30 47 41 28 45 39 28 44 21 13 26 18 12 24 16 10 22 13 7 19 9 3 15 6 0 12 4 0 10 3 0 9 5 0 11 5 0 11 5 0 11 5 0 11 5 0 11 5 0 11 5 0 11 3 0 11 13 10 19 12 11 19 12 11 19 12 11 19 12 11 19 12 11 19 12 11 19 12 11 19 8 7 15 8 7 15 8 7 15 8 7 15 8 7 15 8 7 15 8 7 15 8 7 15 7 7 15 7 7 15 7 7 15 7 7 15 7 7 15 7 7 15 7 7 15 7 7 15 9 9 17 9 9 17 9 9 17 9 9 17 9 9 17 9 9 17 9 9 17 9 9 17 7 10 15 7 10 15 7 10 15 7 10 15 7 10 15 7 10 15 7 10 15 7 10 15 0 3 8 0 3 8 0 3 8 0 3 8 0 3 8 0 3 8 0 3 8 0 4 7 7 11 14 7 11 12 7 11 12 7 11 12 7 11 12 7 11 12 7 11 12 7 11 12 10 14 15 12 16 17 14 18 19 17 21 22 21 25 26 24 28 29 26 30 31 28 32 31 26 30 29 32 37 33 41 46 42 54 59 55 68 73 69 81 86 82 90 95 91 96 101 97 100 105 101 106 111 107 114 119 115 119 124 120 119 124 120 114 119 115 106 111 107 102 104 101 65 65 65 59 57 58 49 47 48 40 38 39 37 35 36 39 37 38 45 43 44 49 47 48 42 40 41 42 40 41 42 40 41 42 40 41 42 40 41 42 40 41 42 40 41 42 40 41 39 37 40 39 37 40 39 37 40 39 37 40 39 37 40 39 37 40 39 37 40 39 37 40 43 41 44 43 41 44 43 41 44 43 41 44 43 41 44 43 41 44 43 41 44 43 41 44
121 108 128 120 109 126 121 108 128 120 109 126 126 113 133 125 114 131 126 113 133 125 114 131 126 113 133 125 114 131 126 113 133 126 113 131 128 113 132 128 114 131 128 114 131 128 114 131 128 114 131 128 114 131 128 114 131 128 114 131 113 99 116 112 98 115 109 95 112 106 92 109 103 89 106 99 85 102 97 83 100 95 82 99 87 74 91 85 74 90 82 71 87 79 68 84 76 65 81 72 61 77 70 59 75 69 58 74 53 42 58 52 41 57 50 39 55 46 35 51 43 32 48 40 29 45 37 26 42 34 26 41 16 10 24 12 9 20 10 7 18 7 4 15 3 0 11 1 0 9 1 0 9 1 0 9 1 0 9 1 0 9 1 0 9 1 0 9 1 0 9 1 0 9 1 0 9 1 0 9 12 10 21 11 11 19 11 11 19 11 11 19 11 11 19 11 11 19 11 11 19 11 11 19 7 7 15 7 7 15 7 7 15 7 7 15 7 7 15 7 7 15 7 7 15 7 7 15 7 7 15 5 8 15 7 7 15 5 8 15 7 7 15 5 8 15 7 7 15 5 8 15 9 9 17 7 10 17 9 9 17 7 10 17 9 9 17 7 10 17 9 9 17 7 10 17 7 10 15 7 11 14 7 10 15 7 11 14 7 10 15 7 11 14 7 10 15 7 11 14 0 3 8 0 4 7 0 3 8 0 4 7 0 3 8 0 4 7 0 3 8 0 4 7 7 11 12 7 11 12 7 11 12 7 11 12 7 11 12 7 11 12 7 11 12 7 11 12 10 14 15 12 16 17 14 18 19 17 21 22 21 25 26 24 28 29 26 30 31 28 32 31 26 31 27 32 37 33 41 46 42 54 59 55 68 73 69 81 86 82 90 95 91 96 101 97 99 104 100 104 109 105 112 117 113 118 123 119 118 123 119 112 117 113 104 109 105 101 103 100 65 65 65 59 57 58 49 47 48 40 38 39 37 35 36 39 37 38 45 43 44 49 47 48 42 40 41 42 40 41 42 40 41 42 40 41 42 40 41 42 40 41 42 40 41 42 40 41 39 37 40 39 37 40 39 37 40 39 37 40 39 37 40 39 37 40 39 37 40 39 37 40 43 41 44 43 41 44 43 41 44 43 41 44 43 41 44 43 41 44 43 41 44 43 41 44
112 100 122 110 101 120 112 100 122 110 101 120 113 101 123 111 102 121 113 101 123 111 102 121 113 101 123 111 102 121 113 101 123 113 101 121 119 108 125 119 108 125 120 109 126 121 110 127 123 112 129 124 113 130 125 114 131 125 114 131 111 100 117 108 97 114 104 93 110 97 86 103 90 79 96 84 73 90 79 68 85 74 65 82 64 55 72 61 54 70 59 52 68 56 49 65 52 45 61 49 42 58 47 40 56 45 38 54 10 3 19 10 3 19 10 3 19 10 3 19 10 3 19 10 3 19 10 3 19 8 4 18 6 4 17 6 4 17 6 4 17 6 4 17 6 4 17 6 4 17 6 4 17 6 4 17 9 7 20 9 7 20 9 7 20 9 7 20 9 7 20 9 7 20 9 7 20 8 8 18 6 9 18 6 9 18 6 9 18 6 9 18 6 9 18 6 9 18 6 9 18 6 9 18 7 10 19 7 10 19 7 10 19 7 10 19 7 10 19 7 10 19 7 10 19 7 10 19 8 11 18 7 12 18 8 11 18 7 12 18 8 11 18 7 12 18 8 11 18 7 12 18 8 11 18 7 12 18 8 11 18 7 12 18 8 11 18 7 12 18 8 11 18 8 11 16 9 13 16 9 13 14 9 13 16 9 13 14 9 13 16 9 13 14 9 13 16 9 13 14 0 3 6 0 3 4 0 3 6 0 3 4 0 3 6 0 3 4 0 3 6 0 3 4 2 6 7 2 6 7 2 6 7 2 6 7 2 6 7 2 6 7 2 6 7 2 6 7 14 18 19 16 20 21 18 22 23 21 25 26 25 29 30 28 32 33 30 34 35 32 36 35 45 51 47 47 54 47 52 59 52 59 66 59 65 72 65 72 79 72 77 84 77 79 86 79 95 102 95 101 108 101 109 116 109 114 121 114 114 121 114 109 116 109 101 108 101 96 101 95 64 64 62 58 57 55 48 47 45 39 38 36 36 35 33 38 37 35 44 43 41 48 47 45 40 39 37 40 39 37 40 39 37 40 39 37 40 39 37 40 39 37 40 39 37 40 39 37 38 36 37 38 36 37 38 36 37 38 36 37 38 36 37 38 36 37 38 36 37 38 36 37 38 36 37 38 36 37 38 36 37 38 36 37 38 36 37 38 36 37 38 36 37 38 36 37
106 97 118 106 97 118 106 97 118 106 97 118 109 100 121 109 100 121 109 100 121 109 100 121 109 100 121 109 100 121 109 100 121 109 100 119 115 106 125 115 106 123 115 106 123 116 107 124 116 107 124 117 108 125 117 108 125 118 109 126 104 95 112 101 92 109 96 87 104 90 81 98 83 74 91 77 68 85 72 63 80 68 61 77 59 52 68 55 51 66 53 49 64 50 46 61 46 42 57 43 39 54 41 37 52 39 35 50 8 4 19 8 4 19 8 4 19 8 4 19 8 4 19 8 4 19 8 4 19 7 5 19 6 4 17 5 5 17 5 5 17 5 5 17 5 5 17 5 5 17 5 5 17 5 5 17 8 8 20 8 8 20 8 8 20 8 8 20 8 8 20 8 8 20 8 8 20 6 8 20 6 9 18 5 9 18 5 9 18 5 9 18 5 9 18 5 9 18 5 9 18 5 9 18 6 10 19 6 10 19 6 10 19 6 10 19 6 10 19 6 10 19 6 10 19 6 10 19 7 12 18 7 12 18 7 12 18 7 12 18 7 12 18 7 12 18 7 12 18 7 12 18 7 12 18 7 12 18 7 12 18 7 12 18 7 12 18 7 12 18 7 12 18 7 12 16 9 13 16 9 13 14 9 13 14 9 13 14 9 13 14 9 13 14 9 13 14 9 13 14 0 3 4 0 3 4 0 3 4 0 3 4 0 3 4 0 3 4 0 3 4 0 3 4 2 6 7 2 6 7 2 6 7 2 6 7 2 6 7 2 6 7 2 6 7 2 6 7 14 18 19 16 20 21 18 22 23 21 25 26 25 29 30 28 32 33 30 34 35 32 36 35 45 51 47 47 54 47 52 59 52 59 66 59 65 72 65 72 79 72 77 84 77 79 86 79 94 101 94 99 106 99 107 114 107 113 120 113 113 120 113 107 114 107 99 106 99 95 100 94 64 64 62 58 57 55 48 47 45 39 38 36 36 35 33 38 37 35 44 43 41 48 47 45 40 39 37 40 39 37 40 39 37 40 39 37 40 39 37 40 39 37 40 39 37 40 39 37 38 36 37 38 36 37 38 36 37 38 36 37 38 36 37 38 36 37 38 36 37 38 36 37 38 36 37 38 36 37 38 36 37 38 36 37 38 36 37 38 36 37 38 36 37 38 36 37
99 90 111 99 90 111 99 90 111 99 90 111 104 95 116 104 95 116 104 95 116 104 95 116 104 95 116 104 95 116 104 95 116 104 95 114 111 102 121 110 101 118 110 101 118 109 100 117 108 99 116 108 99 116 107 98 115 107 98 115 94 85 102 91 82 99 86 77 94 80 71 88 73 64 81 67 58 75 62 53 70 58 51 67 51 44 60 48 44 59 46 42 57 42 38 53 39 35 50 36 32 47 33 29 44 32 28 43 8 4 19 8 4 19 8 4 19 8 4 19 8 4 19 8 4 19 8 4 19 7 5 19 6 4 17 5 5 17 5 5 17 5 5 17 5 5 17 5 5 17 5 5 17 5 5 17 8 8 20 8 8 20 8 8 20 8 8 20 8 8 20 8 8 20 8 8 20 6 8 20 6 9 18 5 9 18 5 9 18 5 9 18 5 9 18 5 9 18 5 9 18 5 9 18 6 10 19 6 10 19 6 10 19 6 10 19 6 10 19 6 10 19 6 10 19 6 10 19 7 12 18 7 12 18 7 12 18 7 12 18 7 12 18 7 12 18 7 12 18 7 12 18 7 12 18 7 12 18 7 12 18 7 12 18 7 12 18 7 12 18 7 12 18 7 12 16 9 13 16 9 13 14 9 13 14 9 13 14 9 13 14 9 13 14 9 13 14 9 13 14 0 3 4 0 3 4 0 3 4 0 3 4 0 3 4 0 3 4 0 3 4 0 3 4 2 6 7 2 6 7 2 6 7 2 6 7 2 6 7 2 6 7 2 6 7 2 6 7 14 18 19 16 20 21 18 22 23 21 25 26 25 29 30 28 32 33 30 34 35 32 36 35 45 51 47 47 54 47 52 59 52 59 66 59 65 72 65 72 79 72 77 84 77 79 86 79 91 98 91 97 104 97 105 112 105 111 118 111 111 118 111 105 112 105 97 104 97 92 97 91 64 64 62 58 57 55 48 47 45 39 38 36 36 35 33 38 37 35 44 43 41 48 47 45 40 39 37 40 39 37 40 39 37 40 39 37 40 39 37 40 39 37 40 39 37 40 39 37 38 36 37 38 36 37 38 36 37 38 36 37 38 36 37 38 36 37 38 36 37 38 36 37 38 36 37 38 36 37 38 36 37 38 36 37 38 36 37 38 36 37 38 36 37 38 36 37
89 80 101 89 80 101 89 80 101 89 80 101 97 88 109 97 88 109 97 88 109 97 88 109 97 88 109 97 88 109 97 88 109 97 88 107 105 96 115 105 96 113 103 94 111 100 91 108 98 89 106 96 87 104 94 85 102 93 84 101 81 72 89 79 70 87 74 65 82 67 58 75 60 51 68 54 45 62 49 40 57 46 39 55 42 35 51 39 35 50 36 32 47 33 29 44 29 25 40 26 22 37 24 20 35 23 19 34 8 4 19 8 4 19 8 4 19 8 4 19 8 4 19 8 4 19 8 4 19 7 5 19 6 4 17 5 5 17 5 5 17 5 5 17 5 5 17 5 5 17 5 5 17 5 5 17 8 8 20 8 8 20 8 8 20 8 8 20 8 8 20 8 8 20 8 8 20 6 8 20 6 9 18 5 9 18 5 9 18 5 9 18 5 9 18 5 9 18 5 9 18 5 9 18 6 10 19 6 10 19 6 10 19 6 10 19 6 10 19 6 10 19 6 10 19 6 10 19 7 12 18 7 12 18 7 12 18 7 12 18 7 12 18 7 12 18 7 12 18 7 12 18 7 12 18 7 12 18 7 12 18 7 12 18 7 12 18 7 12 18 7 12 18 7 12 16 9 13 16 9 13 14 9 13 14 9 13 14 9 13 14 9 13 14 9 13 14 9 13 14 0 3 4 0 3 4 0 3 4 0 3 4 0 3 4 0 3 4 0 3 4 0 3 4 2 6 7 2 6 7 2 6 7 2 6 7 2 6 7 2 6 7 2 6 7 2 6 7 14 18 19 16 20 21 18 22 23 21 25 26 25 29 30 28 32 33 30 34 35 32 36 35 45 51 47 47 54 47 52 59 52 59 66 59 65 72 65 72 79 72 77 84 77 79 86 79 88 95 88 94 101 94 102 109 102 107 114 107 107 114 107 102 109 102 94 101 94 89 94 88 64 64 62 58 57 55 48 47 45 39 38 36 36 35 33 38 37 35 44 43 41 48 47 45 40 39 37 40 39 37 40 39 37 40 39 37 40 39 37 40 39 37 40 39 37 40 39 37 38 36 37 38 36 37 38 36 37 38 36 37 38 36 37 38 36 37 38 36 37 38 36 37 38 36 37 38 36 37 38 36 37 38 36 37 38 36 37 38 36 37 38 36 37 38 36 37
79 70 91 79 70 91 79 70 91 79 70 91 91 82 103 91 82 103 91 82 103 91 82 103 91 82 103 91 82 103 91 82 103 91 82 101 100 91 110 98 89 106 95 86 103 91 82 99 87 78 95 83 74 91 79 70 87 78 69 86 67 58 75 65 56 73 60 51 68 54 45 62 47 38 55 40 31 48 35 26 43 32 25 41 31 24 40 28 24 39 26 22 37 23 19 34 19 15 30 16 12 27 13 9 24 12 8 23 8 4 19 8 4 19 8 4 19 8 4 19 8 4 19 8 4 19 8 4 19 7 5 19 6 4 17 5 5 17 5 5 17 5 5 17 5 5 17 5 5 17 5 5 17 5 5 17 8 8 20 8 8 20 8 8 20 8 8 20 8 8 20 8 8 20 8 8 20 6 8 20 6 9 18 5 9 18 5 9 18 5 9 18 5 9 18 5 9 18 5 9 18 5 9 18 6 10 19 6 10 19 6 10 19 6 10 19 6 10 19 6 10 19 6 10 19 6 10 19 7 12 18 7 12 18 7 12 18 7 12 18 7 12 18 7 12 18 7 12 18 7 12 18 7 12 18 7 12 18 7 12 18 7 12 18 7 12 18 7 12 18 7 12 18 7 12 16 9 13 16 9 13 14 9 13 14 9 13 14 9 13 14 9 13 14 9 13 14 9 13 14 0 3 4 0 3 4 0 3 4 0 3 4 0 3 4 0 3 4 0 3 4 0 3 4 2 6 7 2 6 7 2 6 7 2 6 7 2 6 7 2 6 7 2 6 7 2 6 7 14 18 19 16 20 21 18 22 23 21 25 26 25 29 30 28 32 33 30 34 35 32 36 35 45 51 47 47 54 47 52 59 52 59 66 59 65 72 65 72 79 72 77 84 77 79 86 79 85 92 85 90 97 90 98 105 98 104 111 104 104 111 104 98 105 98 90 97 90 86 91 85 64 64 62 58 57 55 48 47 45 39 38 36 36 35 33 38 37 35 44 43 41 48 47 45 40 39 37 40 39 37 40 39 37 40 39 37 40 39 37 40 39 37 40 39 37 40 39 37 38 36 37 38 36 37 38 36 37 38 36 37 38 36 37 38 36 37 38 36 37 38 36 37 38 36 37 38 36 37 38 36 37 38 36 37 38 36 37 38 36 37 38 36 37 38 36 37
69 60 81 69 60 81 69 60 81 69 60 81 84 75 96 84 75 96 84 75 96 84 75 96 84 75 96 84 75 96 84 75 96 84 75 94 95 86 105 92 83 100 88 79 96 82 73 90 76 67 84 71 62 79 66 57 74 64 55 72 55 46 63 52 43 60 47 38 55 41 32 49 34 25 42 28 19 36 23 14 31 19 12 28 22 15 31 19 15 30 16 12 27 13 9 24 10 6 21 6 2 17 4 0 15 3 0 14 8 4 19 8 4 19 8 4 19 8 4 19 8 4 19 8 4 19 8 4 19 7 5 19 6 4 17 5 5 17 5 5 17 5 5 17 5 5 17 5 5 17 5 5 17 5 5 17 8 8 20 8 8 20 8 8 20 8 8 20 8 8 20 8 8 20 8 8 20 6 8 20 6 9 18 5 9 18 5 9 18 5 9 18 5 9 18 5 9 18 5 9 18 5 9 18 6 10 19 6 10 19 6 10 19 6 10 19 6 10 19 6 10 19 6 10 19 6 10 19 7 12 18 7 12 18 7 12 18 7 12 18 7 12 18 7 12 18 7 12 18 7 12 18 7 12 18 7 12 18 7 12 18 7 12 18 7 12 18 7 12 18 7 12 18 7 12 16 9 13 16 9 13 14 9 13 14 9 13 14 9 13 14 9 13 14 9 13 14 9 13 14 0 3 4 0 3 4 0 3 4 0 3 4 0 3 4 0 3 4 0 3 4 0 3 4 2 6 7 2 6 7 2 6 7 2 6 7 2 6 7 2 6 7 2 6 7 2 6 7 14 18 19 16 20 21 18 22 23 21 25 26 25 29 30 28 32 33 30 34 35 32 36 35 45 51 47 47 54 47 52 59 52 59 66 59 65 72 65 72 79 72 77 84 77 79 86 79 81 88 81 87 94 87 95 102 95 101 108 101 101 108 101 95 102 95 87 94 87 82 87 81 64 64 62 58 57 55 48 47 45 39 38 36 36 35 33 38 37 35 44 43 41 48 47 45 40 39 37 40 39 37 40 39 37 40 39 37 40 39 37 40 39 37 40 39 37 40 39 37 38 36 37 38 36 37 38 36 37 38 36 37 38 36 37 38 36 37 38 36 37 38 36 37 38 36 37 38 36 37 38 36 37 38 36 37 38 36 37 38 36 37 38 36 37 38 36 37
62 53 74 62 53 74 62 53 74 62 53 74 79 70 91 79 70 91 79 70 91 79 70 91 79 70 91 79 70 91 79 70 91 79 70 89 91 82 101 88 79 96 83 74 91 76 67 84 68 59 76 61 52 69 56 47 64 53 44 61 45 36 53 42 33 50 37 28 45 31 22 39 24 15 32 18 9 26 13 4 21 9 2 18 15 8 24 11 7 22 9 5 20 6 2 17 2 0 13 1 0 12 1 0 12 1 0 12 8 4 19 8 4 19 8 4 19 8 4 19 8 4 19 8 4 19 8 4 19 7 5 19 6 4 17 5 5 17 5 5 17 5 5 17 5 5 17 5 5 17 5 5 17 5 5 17 8 8 20 8 8 20 8 8 20 8 8 20 8 8 20 8 8 20 8 8 20 6 8 20 6 9 18 5 9 18 5 9 18 5 9 18 5 9 18 5 9 18 5 9 18 5 9 18 6 10 19 6 10 19 6 10 19 6 10 19 6 10 19 6 10 19 6 10 19 6 10 19 7 12 18 7 12 18 7 12 18 7 12 18 7 12 18 7 12 18 7 12 18 7 12 18 7 12 18 7 12 18 7 12 18 7 12 18 7 12 18 7 12 18 7 12 18 7 12 16 9 13 16 9 13 14 9 13 14 9 13 14 9 13 14 9 13 14 9 13 14 9 13 14 0 3 4 0 3 4 0 3 4 0 3 4 0 3 4 0 3 4 0 3 4 0 3 4 2 6 7 2 6 7 2 6 7 2 6 7 2 6 7 2 6 7 2 6 7 2 6 7 14 18 19 16 20 21 18 22 23 21 25 26 25 29 30 28 32 33 30 34 35 32 36 35 45 51 47 47 54 47 52 59 52 59 66 59 65 72 65 72 79 72 77 84 77 79 86 79 79 86 79 85 92 85 93 100 93 98 105 98 98 105 98 93 100 93 85 92 85 80 85 79 64 64 62 58 57 55 48 47 45 39 38 36 36 35 33 38 37 35 44 43 41 48 47 45 40 39 37 40 39 37 40 39 37 40 39 37 40 39 37 40 39 37 40 39 37 40 39 37 38 36 37 38 36 37 38 36 37 38 36 37 38 36 37 38 36 37 38 36 37 38 36 37 38 36 37 38 36 37 38 36 37 38 36 37 38 36 37 38 36 37 38 36 37 38 36 37
58 49 70 58 49 70 58 49 70 58 49 70 77 68 89 77 68 89 77 68 89 77 68 89 77 68 89 77 68 89 77 68 89 77 68 87 89 80 99 86 77 94 80 71 88 72 63 80 64 55 72 56 47 64 50 41 58 47 38 55 40 31 48 37 28 45 32 23 40 26 17 34 19 10 27 12 3 20 8 0 16 4 0 13 11 4 20 7 3 18 5 1 16 2 0 13 1 0 12 1 0 12 1 0 12 1 0 12 8 4 19 8 4 19 8 4 19 8 4 19 8 4 19 8 4 19 8 4 19 7 5 19 6 4 17 5 5 17 5 5 17 5 5 17 5 5 17 5 5 17 5 5 17 5 5 17 8 8 20 8 8 20 8 8 20 8 8 20 8 8 20 8 8 20 8 8 20 6 8 20 6 9 18 5 9 18 5 9 18 5 9 18 5 9 18 5 9 18 5 9 18 5 9 18 6 10 19 6 10 19 6 10 19 6 10 19 6 10 19 6 10 19 6 10 19 6 10 19 7 12 18 7 12 18 7 12 18 7 12 18 7 12 18 7 12 18 7 12 18 7 12 18 7 12 18 7 12 18 7 12 18 7 12 18 7 12 18 7 12 18 7 12 18 7 12 16 9 13 16 9 13 14 9 13 14 9 13 14 9 13 14 9 13 14 9 13 14 9 13 14 0 3 4 0 3 4 0 3 4 0 3 4 0 3 4 0 3 4 0 3 4 0 3 4 2 6 7 2 6 7 2 6 7 2 6 7 2 6 7 2 6 7 2 6 7 2 6 7 14 18 19 16 20 21 18 22 23 21 25 26 25 29 30 28 32 33 30 34 35 32 36 35 45 51 47 47 54 47 52 59 52 59 66 59 65 72 65 72 79 72 77 84 77 79 86 79 78 85 78 83 90 83 91 98 91 97 104 97 97 104 97 91 98 91 83 90 83 79 84 78 64 64 62 58 57 55 48 47 45 39 38 36 36 35 33 38 37 35 44 43 41 48 47 45 40 39 37 40 39 37 40 39 37 40 39 37 40 39 37 40 39 37 40 39 37 40 39 37 38 36 37 38 36 37 38 36 37 38 36 37 38 36 37 38 36 37 38 36 37 38 36 37 38 36 37 38 36 37 38 36 37 38 36 37 38 36 37 38 36 37 38 36 37 38 36 37
20 11 32 20 11 32 20 11 32 20 11 32 33 24 45 33 24 45 33 24 45 33 24 45 33 24 45 33 24 45 33 24 45 33 24 43 32 23 42 32 23 40 32 23 40 32 23 40 32 23 40 32 23 40 32 23 40 32 23 40 9 0 17 9 0 17 9 0 17 9 0 17 9 0 17 9 0 17 9 0 17 8 1 17 8 1 17 6 2 17 6 2 17 6 2 17 6 2 17 6 2 17 6 2 17 6 2 17 6 2 17 6 2 17 6 2 17 6 2 17 6 2 17 6 2 17 6 2 17 5 3 17 6 4 17 5 5 17 5 5 17 5 5 17 5 5 17 5 5 17 5 5 17 5 5 17 7 7 19 7 7 19 7 7 19 7 7 19 7 7 19 7 7 19 7 7 19 5 7 19 7 10 19 6 10 19 6 10 19 6 10 19 6 10 19 6 10 19 6 10 19 6 10 19 5 9 18 5 9 18 5 9 18 5 9 18 5 9 18 5 9 18 5 9 18 5 9 18 8 13 19 8 13 19 8 13 19 8 13 19 8 13 19 8 13 19 8 13 19 8 13 19 8 13 19 8 13 19 8 13 19 8 13 19 8 13 19 8 13 19 8 13 19 8 13 17 10 14 17 10 14 15 10 14 15 10 14 15 10 14 15 10 14 15 10 14 15 10 14 15 0 4 5 0 4 5 0 4 5 0 4 5 0 4 5 0 4 5 0 4 5 0 4 5 3 7 8 3 7 8 3 7 8 3 7 8 3 7 8 3 7 8 3 7 8 3 7 8 19 23 24 21 25 26 23 27 28 26 30 31 30 34 35 33 37 38 35 39 40 37 41 40 48 54 50 50 57 50 52 59 52 55 62 55 59 66 59 62 69 62 64 71 64 66 73 66 83 90 83 83 90 83 83 90 83 83 90 83 83 90 83 83 90 83 83 90 83 84 89 83 60 60 58 54 53 51 44 43 41 35 34 32 32 31 29 34 33 31 40 39 37 44 43 41 34 33 31 34 33 31 34 33 31 34 33 31 34 33 31 34 33 31 34 33 31 34 33 31 34 32 33 34 32 33 34 32 33 34 32 33 34 32 33 34 32 33 34 32 33 34 32 33 37 35 36 37 35 36 37 35 36 37 35 36 37 35 36 37 35 36 37 35 36 37 35 36
18 9 30 18 9 30 18 9 30 18 9 30 26 17 38 26 17 38 26 17 38 26 17 38 26 17 38 26 17 38 26 17 38 26 17 36 25 16 35 25 16 33 25 16 33 25 16 33 25 16 33 25 16 33 25 16 33 25 16 33 9 0 17 9 0 17 9 0 17 9 0 17 9 0 17 9 0 17 9 0 17 8 1 17 8 1 17 6 2 17 6 2 17 6 2 17 6 2 17 6 2 17 6 2 17 6 2 17 6 2 17 6 2 17 6 2 17 6 2 17 6 2 17 6 2 17 6 2 17 5 3 17 6 4 17 5 5 17 5 5 17 5 5 17 5 5 17 5 5 17 5 5 17 5 5 17 7 7 19 7 7 19 7 7 19 7 7 19 7 7 19 7 7 19 7 7 19 5 7 19 7 10 19 6 10 19 6 10 19 6 10 19 6 10 19 6 10 19 6 10 19 6 10 19 5 9 18 5 9 18 5 9 18 5 9 18 5 9 18 5 9 18 5 9 18 5 9 18 8 13 19 8 13 19 8 13 19 8 13 19 8 13 19 8 13 19 8 13 19 8 13 19 8 13 19 8 13 19 8 13 19 8 13 19 8 13 19 8 13 19 8 13 19 8 13 17 10 14 17 10 14 15 10 14 15 10 14 15 10 14 15 10 14 15 10 14 15 10 14 15 0 4 5 0 4 5 0 4 5 0 4 5 0 4 5 0 4 5 0 4 5 0 4 5 3 7 8 3 7 8 3 7 8 3 7 8 3 7 8 3 7 8 3 7 8 3 7 8 19 23 24 21 25 26 23 27 28 26 30 31 30 34 35 33 37 38 35 39 40 37 41 40 48 54 50 50 57 50 52 59 52 55 62 55 59 66 59 62 69 62 64 71 64 66 73 66 81 88 81 81 88 81 81 88 81 81 88 81 81 88 81 81 88 81 81 88 81 82 87 81 60 60 58 54 53 51 44 43 41 35 34 32 32 31 29 34 33 31 40 39 37 44 43 41 34 33 31 34 33 31 34 33 31 34 33 31 34 33 31 34 33 31 34 33 31 34 33 31 34 32 33 34 32 33 34 32 33 34 32 33 34 32 33 34 32 33 34 32 33 34 32 33 37 35 36 37 35 36 37 35 36 37 35 36 37 35 36 37 35 36 37 35 36 37 35 36
16 7 28 16 7 28 16 7 28 16 7 28 16 7 28 16 7 28 16 7 28 16 7 28 16 7 28 16 7 28 16 7 28 16 7 26 15 6 25 15 6 23 15 6 23 15 6 23 15 6 23 15 6 23 15 6 23 15 6 23 9 0 17 9 0 17 9 0 17 9 0 17 9 0 17 9 0 17 9 0 17 8 1 17 8 1 17 6 2 17 6 2 17 6 2 17 6 2 17 6 2 17 6 2 17 6 2 17 6 2 17 6 2 17 6 2 17 6 2 17 6 2 17 6 2 17 6 2 17 5 3 17 6 4 17 5 5 17 5 5 17 5 5 17 5 5 17 5 5 17 5 5 17 5 5 17 7 7 19 7 7 19 7 7 19 7 7 19 7 7 19 7 7 19 7 7 19 5 7 19 7 10 19 6 10 19 6 10 19 6 10 19 6 10 19 6 10 19 6 10 19 6 10 19 5 9 18 5 9 18 5 9 18 5 9 18 5 9 18 5 9 18 5 9 18 5 9 18 8 13 19 8 13 19 8 13 19 8 13 19 8 13 19 8 13 19 8 13 19 8 13 19 8 13 19 8 13 19 8 13 19 8 13 19 8 13 19 8 13 19 8 13 19 8 13 17 10 14 17 10 14 15 10 14 15 10 14 15 10 14 15 10 14 15 10 14 15 10 14 15 0 4 5 0 4 5 0 4 5 0 4 5 0 4 5 0 4 5 0 4 5 0 4 5 3 7 8 3 7 8 3 7 8 3 7 8 3 7 8 3 7 8 3 7 8 3 7 8 19 23 24 21 25 26 23 27 28 26 30 31 30 34 35 33 37 38 35 39 40 37 41 40 48 54 50 50 57 50 52 59 52 55 62 55 59 66 59 62 69 62 64 71 64 66 73 66 79 86 79 79 86 79 79 86 79 79 86 79 79 86 79 79 86 79 79 86 79 80 85 79 60 60 58 54 53 51 44 43 41 35 34 32 32 31 29 34 33 31 40 39 37 44 43 41 34 33 31 34 33 31 34 33 31 34 33 31 34 33 31 34 33 31 34 33 31 34 33 31 34 32 33 34 32 33 34 32 33 34 32 33 34 32 33 34 32 33 34 32 33 34 32 33 37 35 36 37 35 36 37 35 36 37 35 36 37 35 36 37 35 36 37 35 36 37 35 36
13 4 25 13 4 25 13 4 25 13 4 25 7 0 19 7 0 19 7 0 19 7 0 19 7 0 19 7 0 19 7 0 19 7 0 17 6 0 16 6 0 14 6 0 14 6 0 14 6 0 14 6 0 14 6 0 14 6 0 14 9 0 17 9 0 17 9 0 17 9 0 17 9 0 17 9 0 17 9 0 17 8 1 17 8 1 17 6 2 17 6 2 17 6 2 17 6 2 17 6 2 17 6 2 17 6 2 17 6 2 17 6 2 17 6 2 17 6 2 17 6 2 17 6 2 17 6 2 17 5 3 17 6 4 17 5 5 17 5 5 17 5 5 17 5 5 17 5 5 17 5 5 17 5 5 17 7 7 19 7 7 19 7 7 19 7 7 19 7 7 19 7 7 19 7 7 19 5 7 19 7 10 19 6 10 19 6 10 19 6 10 19 6 10 19 6 10 19 6 10 19 6 10 19 5 9 18 5 9 18 5 9 18 5 9 18 5 9 18 5 9 18 5 9 18 5 9 18 8 13 19 8 13 19 8 13 19 8 13 19 8 13 19 8 13 19 8 13 19 8 13 19 8 13 19 8 13 19 8 13 19 8 13 19 8 13 19 8 13 19 8 13 19 8 13 17 10 14 17 10 14 15 10 14 15 10 14 15 10 14 15 10 14 15 10 14 15 10 14 15 0 4 5 0 4 5 0 4 5 0 4 5 0 4 5 0 4 5 0 4 5 0 4 5 3 7 8 3 7 8 3 7 8 3 7 8 3 7 8 3 7 8 3 7 8 3 7 8 19 23 24 21 25 26 23 27 28 26 30 31 30 34 35 33 37 38 35 39 40 37 41 40 48 54 50 50 57 50 52 59 52 55 62 55 59 66 59 62 69 62 64 71 64 66 73 66 76 83 76 76 83 76 76 83 76 76 83 76 76 83 76 76 83 76 76 83 76 77 82 76 60 60 58 54 53 51 44 43 41 35 34 32 32 31 29 34 33 31 40 39 37 44 43 41 34 33 31 34 33 31 34 33 31 34 33 31 34 33 31 34 33 31 34 33 31 34 33 31 34 32 33 34 32 33 34 32 33 34 32 33 34 32 33 34 32 33 34 32 33 34 32 33 37 35 36 37 35 36 37 35 36 37 35 36 37 35 36 37 35 36 37 35 36 37 35 36
9 0 21 9 0 21 9 0 21 9 0 21 4 0 16 4 0 16 4 0 16 4 0 16 4 0 16 4 0 16 4 0 16 4 0 14 4 0 14 4 0 12 4 0 12 4 0 12 4 0 12 4 0 12 4 0 12 4 0 12 9 0 17 9 0 17 9 0 17 9 0 17 9 0 17 9 0 17 9 0 17 8 1 17 8 1 17 6 2 17 6 2 17 6 2 17 6 2 17 6 2 17 6 2 17 6 2 17 6 2 17 6 2 17 6 2 17 6 2 17 6 2 17 6 2 17 6 2 17 5 3 17 6 4 17 5 5 17 5 5 17 5 5 17 5 5 17 5 5 17 5 5 17 5 5 17 7 7 19 7 7 19 7 7 19 7 7 19 7 7 19 7 7 19 7 7 19 5 7 19 7 10 19 6 10 19 6 10 19 6 10 19 6 10 19 6 10 19 6 10 19 6 10 19 5 9 18 5 9 18 5 9 18 5 9 18 5 9 18 5 9 18 5 9 18 5 9 18 8 13 19 8 13 19 8 13 19 8 13 19 8 13 19 8 13 19 8 13 19 8 13 19 8 13 19 8 13 19 8 13 19 8 13 19 8 13 19 8 13 19 8 13 19 8 13 17 10 14 17 10 14 15 10 14 15 10 14 15 10 14 15 10 14 15 10 14 15 10 14 15 0 4 5 0 4 5 0 4 5 0 4 5 0 4 5 0 4 5 0 4 5 0 4 5 3 7 8 3 7 8 3 7 8 3 7 8 3 7 8 3 7 8 3 7 8 3 7 8 19 23 24 21 25 26 23 27 28 26 30 31 30 34 35 33 37 38 35 39 40 37 41 40 48 54 50 50 57 50 52 59 52 55 62 55 59 66 59 62 69 62 64 71 64 66 73 66 72 79 72 72 79 72 72 79 72 72 79 72 72 79 72 72 79 72 72 79 72 73 78 72 60 60 58 54 53 51 44 43 41 35 34 32 32 31 29 34 33 31 40 39 37 44 43 41 34 33 31 34 33 31 34 33 31 34 33 31 34 33 31 34 33 31 34 33 31 34 33 31 34 32 33 34 32 33 34 32 33 34 32 33 34 32 33 34 32 33 34 32 33 34 32 33 37 35 36 37 35 36 37 35 36 37 35 36 37 35 36 37 35 36 37 35 36 37 35 36
6 0 18 6 0 18 6 0 18 6 0 18 6 0 18 6 0 18 6 0 18 6 0 18 6 0 18 6 0 18 6 0 18 6 0 16 5 0 15 5 0 13 5 0 13 5 0 13 5 0 13 5 0 13 5 0 13 5 0 13 9 0 17 9 0 17 9 0 17 9 0 17 9 0 17 9 0 17 9 0 17 8 1 17 8 1 17 6 2 17 6 2 17 6 2 17 6 2 17 6 2 17 6 2 17 6 2 17 6 2 17 6 2 17 6 2 17 6 2 17 6 2 17 6 2 17 6 2 17 5 3 17 6 4 17 5 5 17 5 5 17 5 5 17 5 5 17 5 5 17 5 5 17 5 5 17 7 7 19 7 7 19 7 7 19 7 7 19 7 7 19 7 7 19 7 7 19 5 7 19 7 10 19 6 10 19 6 10 19 6 10 19 6 10 19 6 10 19 6 10 19 6 10 19 5 9 18 5 9 18 5 9 18 5 9 18 5 9 18 5 9 18 5 9 18 5 9 18 8 13 19 8 13 19 8 13 19 8 13 19 8 13 19 8 13 19 8 13 19 8 13 19 8 13 19 8 13 19 8 13 19 8 13 19 8 13 19 8 13 19 8 13 19 8 13 17 10 14 17 10 14 15 10 14 15 10 14 15 10 14 15 10 14 15 10 14 15 10 14 15 0 4 5 0 4 5 0 4 5 0 4 5 0 4 5 0 4 5 0 4 5 0 4 5 3 7 8 3 7 8 3 7 8 3 7 8 3 7 8 3 7 8 3 7 8 3 7 8 19 23 24 21 25 26 23 27 28 26 30 31 30 34 35 33 37 38 35 39 40 37 41 40 48 54 50 50 57 50 52 59 52 55 62 55 59 66 59 62 69 62 64 71 64 66 73 66 69 76 69 69 76 69 69 76 69 69 76 69 69 76 69 69 76 69 69 76 69 70 75 69 60 60 58 54 53 51 44 43 41 35 34 32 32 31 29 34 33 31 40 39 37 44 43 41 34 33 31 34 33 31 34 33 31 34 33 31 34 33 31 34 33 31 34 33 31 34 33 31 34 32 33 34 32 33 34 32 33 34 32 33 34 32 33 34 32 33 34 32 33 34 32 33 37 35 36 37 35 36 37 35 36 37 35 36 37 35 36 37 35 36 37 35 36 37 35 36
4 0 16 4 0 16 4 0 16 4 0 16 12 3 24 12 3 24 12 3 24 12 3 24 12 3 24 12 3 24 12 3 24 12 3 22 11 2 21 11 2 19 11 2 19 11 2 19 11 2 19 11 2 19 11 2 19 11 2 19 9 0 17 9 0 17 9 0 17 9 0 17 9 0 17 9 0 17 9 0 17 8 1 17 8 1 17 6 2 17 6 2 17 6 2 17 6 2 17 6 2 17 6 2 17 6 2 17 6 2 17 6 2 17 6 2 17 6 2 17 6 2 17 6 2 17 6 2 17 5 3 17 6 4 17 5 5 17 5 5 17 5 5 17 5 5 17 5 5 17 5 5 17 5 5 17 7 7 19 7 7 19 7 7 19 7 7 19 7 7 19 7 7 19 7 7 19 5 7 19 7 10 19 6 10 19 6 10 19 6 10 19 6 10 19 6 10 19 6 10 19 6 10 19 5 9 18 5 9 18 5 9 18 5 9 18 5 9 18 5 9 18 5 9 18 5 9 18 8 13 19 8 13 19 8 13 19 8 13 19 8 13 19 8 13 19 8 13 19 8 13 19 8 13 19 8 13 19 8 13 19 8 13 19 8 13 19 8 13 19 8 13 19 8 13 17 10 14 17 10 14 15 10 14 15 10 14 15 10 14 15 10 14 15 10 14 15 10 14 15 0 4 5 0 4 5 0 4 5 0 4 5 0 4 5 0 4 5 0 4 5 0 4 5 3 7 8 3 7 8 3 7 8 3 7 8 3 7 8 3 7 8 3 7 8 3 7 8 19 23 24 21 25 26 23 27 28 26 30 31 30 34 35 33 37 38 35 39 40 37 41 40 48 54 50 50 57 50 52 59 52 55 62 55 59 66 59 62 69 62 64 71 64 66 73 66 67 74 67 67 74 67 67 74 67 67 74 67 67 74 67 67 74 67 67 74 67 68 73 67 60 60 58 54 53 51 44 43 41 35 34 32 32 31 29 34 33 31 40 39 37 44 43 41 34 33 31 34 33 31 34 33 31 34 33 31 34 33 31 34 33 31 34 33 31 34 33 31 34 32 33 34 32 33 34 32 33 34 32 33 34 32 33 34 32 33 34 32 33 34 32 33 37 35 36 37 35 36 37 35 36 37 35 36 37 35 36 37 35 36 37 35 36 37 35 36
3 0 14 3 0 14 3 0 14 3 0 14 15 8 26 15 8 26 15 8 26 15 8 26 15 8 26 15 8 26 15 8 26 15 8 26 14 7 23 14 8 22 14 7 23 14 8 22 14 7 23 14 8 22 14 7 23 14 8 22 8 1 17 8 2 16 8 1 17 8 2 16 8 1 17 8 2 16 8 1 17 8 2 16 6 2 16 6 2 16 6 2 16 6 2 16 6 2 16 6 2 16 6 2 16 6 2 16 6 2 16 6 2 16 6 2 16 6 2 16 6 2 16 6 2 16 6 2 16 5 3 16 5 5 17 5 5 17 5 5 17 5 5 17 5 5 17 5 5 17 5 5 17 5 5 17 7 7 19 7 7 19 7 7 19 7 7 19 7 7 19 7 7 19 7 7 19 5 8 17 6 10 19 6 10 19 6 10 19 6 10 19 6 10 19 6 10 19 6 10 19 6 10 19 5 9 18 5 9 18 5 9 18 5 9 18 5 9 18 5 9 18 5 9 18 5 10 16 8 13 19 8 13 19 8 13 19 8 13 19 8 13 19 8 13 19 8 13 19 8 13 19 8 13 19 8 13 19 8 13 19 8 13 19 8 13 19 8 13 19 8 13 19 8 13 17 10 14 17 10 14 15 10 14 17 10 14 15 10 14 17 10 14 15 10 14 17 10 14 15 0 4 7 0 4 5 0 4 7 0 4 5 0 4 7 0 4 5 0 4 7 0 4 5 3 7 8 3 7 8 3 7 8 3 7 8 3 7 8 3 7 8 3 7 8 3 7 8 19 23 24 21 25 26 23 27 28 26 30 31 30 34 35 33 37 38 35 39 40 37 41 40 48 54 50 50 57 50 52 59 52 55 62 55 59 66 59 62 69 62 64 71 64 66 73 66 65 72 65 65 72 65 65 72 65 65 72 65 65 72 65 65 72 65 65 72 65 66 71 65 60 60 58 54 53 51 44 43 41 35 34 32 32 31 29 34 33 31 40 39 37 44 43 41 34 33 31 34 33 31 34 33 31 34 33 31 34 33 31 34 33 31 34 33 31 34 33 31 34 33 31 34 33 31 36 32 33 34 33 31 36 32 33 34 33 31 36 32 33 34 33 31 39 35 36 37 36 34 39 35 36 37 36 34 39 35 36 37 36 34 39 35 36 37 35 36
5 1 16 5 1 16 5 1 16 5 1 16 4 0 15 4 0 15 4 0 15 4 0 15 4 0 15 4 0 15 4 0 15 4 0 14 4 0 14 4 1 12 4 0 14 4 1 12 4 0 14 4 1 12 4 0 14 4 1 12 6 2 16 6 3 14 6 2 16 6 3 14 6 2 16 6 3 14 6 2 16 6 3 14 6 4 15 6 4 15 6 4 15 6 4 15 6 4 15 6 4 15 6 4 15 6 4 15 5 3 14 5 3 14 5 3 14 5 3 14 5 3 14 5 3 14 5 3 14 5 3 14 6 6 16 4 7 16 4 7 16 4 7 16 4 7 16 4 7 16 4 7 16 4 7 16 4 7 16 4 7 16 4 7 16 4 7 16 4 7 16 4 7 16 4 7 16 4 7 16 7 11 20 5 12 18 5 12 18 5 12 18 5 12 18 5 12 18 5 12 18 5 12 18 6 13 19 6 13 19 6 13 19 6 13 19 6 13 19 6 13 19 6 13 19 6 13 19 7 14 20 7 15 18 7 15 18 7 15 18 7 15 18 7 15 18 7 15 18 7 15 18 1 9 12 2 10 13 5 13 16 8 16 19 11 19 22 15 23 26 17 25 28 18 26 29 32 37 41 32 37 40 32 37 41 32 37 40 32 37 41 32 37 40 32 37 41 32 37 40 5 10 14 5 10 13 5 10 14 5 10 13 5 10 14 5 10 13 5 10 14 5 10 13 4 9 12 4 9 12 4 9 12 4 9 12 4 9 12 4 9 12 4 9 12 4 9 12 19 24 27 21 26 29 23 28 31 26 31 34 30 35 38 33 38 41 35 40 43 37 43 43 46 52 50 46 52 48 46 52 48 46 52 48 46 52 48 46 52 48 46 52 48 46 52 48 62 68 64 62 68 64 62 68 64 62 68 64 62 68 64 62 68 64 62 68 64 63 68 64 46 45 41 46 42 39 44 40 37 41 37 34 37 33 30 34 30 27 32 28 25 30 26 23 34 30 27 34 30 27 34 30 27 34 30 27 34 30 27 34 30 27 34 30 27 34 30 27 36 32 29 36 32 29 37 31 31 36 32 29 37 31 31 36 32 29 37 31 31 36 32 29 38 32 32 37 33 30 38 32 32 37 33 30 38 32 32 37 33 30 38 32 32 37 33 32
4 2 15 4 2 15 4 2 15 4 2 15 3 1 14 3 1 14 3 1 14 3 1 14 3 1 14 3 1 14 3 1 14 3 1 14 3 1 12 3 1 12 3 1 12 3 1 12 3 1 12 3 1 12 3 1 12 3 1 12 5 3 14 5 3 14 5 3 14 5 3 14 5 3 14 5 3 14 5 3 14 5 3 14 6 5 13 6 5 13 6 5 13 6 5 13 6 5 13 6 5 13 6 5 13 6 5 13 5 4 12 5 4 12 5 4 12 5 4 12 5 4 12 5 4 12 5 4 12 4 4 12 6 6 16 4 7 16 4 7 16 4 7 16 4 7 16 4 7 16 4 7 16 4 7 16 4 7 16 4 7 16 4 7 16 4 7 16 4 7 16 4 7 16 4 7 16 3 7 16 7 12 18 5 12 18 5 12 18 5 12 18 5 12 18 5 12 18 5 12 18 5 12 18 6 13 19 6 13 19 6 13 19 6 13 19 6 13 19 6 13 19 6 13 19 6 13 19 7 15 18 7 15 18 7 15 18 7 15 18 7 15 18 7 15 18 7 15 18 7 15 18 4 12 15 5 13 16 7 15 18 11 19 22 14 22 25 17 25 28 20 28 31 21 29 32 32 37 41 32 37 41 32 37 41 32 37 41 32 37 41 32 37 41 32 37 41 32 37 41 5 10 14 5 10 14 5 10 14 5 10 14 5 10 14 5 10 14 5 10 14 5 10 14 4 9 12 4 9 12 4 9 12 4 9 12 4 9 12 4 9 12 4 9 12 4 9 12 19 24 27 21 26 29 23 28 31 26 31 34 30 35 38 33 38 41 35 40 43 37 43 43 46 52 50 46 52 48 46 52 48 46 52 48 46 52 48 46 52 48 46 52 48 46 52 48 60 66 62 60 66 62 60 66 62 60 66 62 60 66 62 60 66 62 60 66 62 61 66 62 46 45 41 46 42 39 44 40 37 41 37 34 37 33 30 34 30 27 32 28 25 30 26 23 34 30 27 34 30 27 34 30 27 34 30 27 34 30 27 34 30 27 34 30 27 34 30 27 37 32 29 37 32 29 37 32 29 37 32 29 37 32 29 37 32 29 37 32 29 37 32 29 38 33 30 38 33 30 38 33 30 38 33 30 38 33 30 38 33 30 38 33 30 38 33 30
4 2 15 4 2 15 4 2 15 4 2 15 3 1 14 3 1 14 3 1 14 3 1 14 3 1 14 3 1 14 3 1 14 3 1 14 3 1 12 3 1 12 3 1 12 3 1 12 3 1 12 3 1 12 3 1 12 3 1 12 5 3 14 5 3 14 5 3 14 5 3 14 5 3 14 5 3 14 5 3 14 5 3 14 6 5 13 6 5 13 6 5 13 6 5 13 6 5 13 6 5 13 6 5 13 6 5 13 5 4 12 5 4 12 5 4 12 5 4 12 5 4 12 5 4 12 5 4 12 4 4 12 6 6 16 4 7 16 4 7 16 4 7 16 4 7 16 4 7 16 4 7 16 4 7 16 4 7 16 4 7 16 4 7 16 4 7 16 4 7 16 4 7 16 4 7 16 3 7 16 7 12 18 5 12 18 5 12 18 5 12 18 5 12 18 5 12 18 5 12 18 5 12 18 6 13 19 6 13 19 6 13 19 6 13 19 6 13 19 6 13 19 6 13 19 6 13 19 7 15 18 7 15 18 7 15 18 7 15 18 7 15 18 7 15 18 7 15 18 7 15 18 9 17 20 10 18 21 12 20 23 15 23 26 19 27 30 22 30 33 25 33 36 26 34 37 32 37 41 32 37 41 32 37 41 32 37 41 32 37 41 32 37 41 32 37 41 32 37 41 5 10 14 5 10 14 5 10 14 5 10 14 5 10 14 5 10 14 5 10 14 5 10 14 4 9 12 4 9 12 4 9 12 4 9 12 4 9 12 4 9 12 4 9 12 4 9 12 19 24 27 21 26 29 23 28 31 26 31 34 30 35 38 33 38 41 35 40 43 37 43 43 46 52 50 46 52 48 46 52 48 46 52 48 46 52 48 46 52 48 46 52 48 46 52 48 58 64 60 58 64 60 58 64 60 58 64 60 58 64 60 58 64 60 58 64 60 59 64 60 46 45 41 46 42 39 44 40 37 41 37 34 37 33 30 34 30 27 32 28 25 30 26 23 34 30 27 34 30 27 34 30 27 34 30 27 34 30 27 34 30 27 34 30 27 34 30 27 37 32 29 37 32 29 37 32 29 37 32 29 37 32 29 37 32 29 37 32 29 37 32 29 38 33 30 38 33 30 38 33 30 38 33 30 38 33 30 38 33 30 38 33 30 38 33 30
4 2 15 4 2 15 4 2 15 4 2 15 3 1 14 3 1 14 3 1 14 3 1 14 3 1 14 3 1 14 3 1 14 3 1 14 3 1 12 3 1 12 3 1 12 3 1 12 3 1 12 3 1 12 3 1 12 3 1 12 5 3 14 5 3 14 5 3 14 5 3 14 5 3 14 5 3 14 5 3 14 5 3 14 6 5 13 6 5 13 6 5 13 6 5 13 6 5 13 6 5 13 6 5 13 6 5 13 5 4 12 5 4 12 5 4 12 5 4 12 5 4 12 5 4 12 5 4 12 4 4 12 6 6 16 4 7 16 4 7 16 4 7 16 4 7 16 4 7 16 4 7 16 4 7 16 4 7 16 4 7 16 4 7 16 4 7 16 4 7 16 4 7 16 4 7 16 3 7 16 7 12 18 5 12 18 5 12 18 5 12 18 5 12 18 5 12 18 5 12 18 5 12 18 6 13 19 6 13 19 6 13 19 6 13 19 6 13 19 6 13 19 6 13 19 6 13 19 7 15 18 7 15 18 7 15 18 7 15 18 7 15 18 7 15 18 7 15 18 7 15 18 15 23 26 16 24 27 19 27 30 22 30 33 25 33 36 28 36 39 31 39 42 32 40 43 32 37 41 32 37 41 32 37 41 32 37 41 32 37 41 32 37 41 32 37 41 32 37 41 5 10 14 5 10 14 5 10 14 5 10 14 5 10 14 5 10 14 5 10 14 5 10 14 4 9 12 4 9 12 4 9 12 4 9 12 4 9 12 4 9 12 4 9 12 4 9 12 19 24 27 21 26 29 23 28 31 26 31 34 30 35 38 33 38 41 35 40 43 37 43 43 46 52 50 46 52 48 46 52 48 46 52 48 46 52 48 46 52 48 46 52 48 46 52 48 55 61 57 55 61 57 55 61 57 55 61 57 55 61 57 55 61 57 55 61 57 56 61 57 46 45 41 46 42 39 44 40 37 41 37 34 37 33 30 34 30 27 32 28 25 30 26 23 34 30 27 34 30 27 34 30 27 34 30 27 34 30 27 34 30 27 34 30 27 34 30 27 37 32 29 37 32 29 37 32 29 37 32 29 37 32 29 37 32 29 37 32 29 37 32 29 38 33 30 38 33 30 38 33 30 38 33 30 38 33 30 38 33 30 38 33 30 38 33 30
4 2 15 4 2 15 4 2 15 4 2 15 3 1 14 3 1 14 3 1 14 3 1 14 3 1 14 3 1 14 3 1 14 3 1 14 3 1 12 3 1 12 3 1 12 3 1 12 3 1 12 3 1 12 3 1 12 3 1 12 5 3 14 5 3 14 5 3 14 5 3 14 5 3 14 5 3 14 5 3 14 5 3 14 6 5 13 6 5 13 6 5 13 6 5 13 6 5 13 6 5 13 6 5 13 6 5 13 5 4 12 5 4 12 5 4 12 5 4 12 5 4 12 5 4 12 5 4 12 4 4 12 6 6 16 4 7 16 4 7 16 4 7 16 4 7 16 4 7 16 4 7 16 4 7 16 4 7 16 4 7 16 4 7 16 4 7 16 4 7 16 4 7 16 4 7 16 3 7 16 7 12 18 5 12 18 5 12 18 5 12 18 5 12 18 5 12 18 5 12 18 5 12 18 6 13 19 6 13 19 6 13 19 6 13 19 6 13 19 6 13 19 6 13 19 6 13 19 7 15 18 7 15 18 7 15 18 7 15 18 7 15 18 7 15 18 7 15 18 7 15 18 22 30 33 23 31 34 26 34 37 29 37 40 32 40 43 35 43 46 38 46 49 39 47 50 32 37 41 32 37 41 32 37 41 32 37 41 32 37 41 32 37 41 32 37 41 32 37 41 5 10 14 5 10 14 5 10 14 5 10 14 5 10 14 5 10 14 5 10 14 5 10 14 4 9 12 4 9 12 4 9 12 4 9 12 4 9 12 4 9 12 4 9 12 4 9 12 19 24 27 21 26 29 23 28 31 26 31 34 30 35 38 33 38 41 35 40 43 37 43 43 46 52 50 46 52 48 46 52 48 46 52 48 46 52 48 46 52 48 46 52 48 46 52 48 51 57 53 51 57 53 51 57 53 51 57 53 51 57 53 51 57 53 51 57 53 52 57 53 46 45 41 46 42 39 44 40 37 41 37 34 37 33 30 34 30 27 32 28 25 30 26 23 34 30 27 34 30 27 34 30 27 34 30 27 34 30 27 34 30 27 34 30 27 34 30 27 37 32 29 37 32 29 37 32 29 37 32 29 37 32 29 37 32 29 37 32 29 37 32 29 38 33 30 38 33 30 38 33 30 38 33 30 38 33 30 38 33 30 38 33 30 38 33 30
4 2 15 4 2 15 4 2 15 4 2 15 3 1 14 3 1 14 3 1 14 3 1 14 3 1 14 3 1 14 3 1 14 3 1 14 3 1 12 3 1 12 3 1 12 3 1 12 3 1 12 3 1 12 3 1 12 3 1 12 5 3 14 5 3 14 5 3 14 5 3 14 5 3 14 5 3 14 5 3 14 5 3 14 6 5 13 6 5 13 6 5 13 6 5 13 6 5 13 6 5 13 6 5 13 6 5 13 5 4 12 5 4 12 5 4 12 5 4 12 5 4 12 5 4 12 5 4 12 4 4 12 6 6 16 4 7 16 4 7 16 4 7 16 4 7 16 4 7 16 4 7 16 4 7 16 4 7 16 4 7 16 4 7 16 4 7 16 4 7 16 4 7 16 4 7 16 3 7 16 7 12 18 5 12 18 5 12 18 5 12 18 5 12 18 5 12 18 5 12 18 5 12 18 6 13 19 6 13 19 6 13 19 6 13 19 6 13 19 6 13 19 6 13 19 6 13 19 7 15 18 7 15 18 7 15 18 7 15 18 7 15 18 7 15 18 7 15 18 7 15 18 28 36 39 29 37 40 32 40 43 35 43 46 39 47 50 42 50 53 44 52 55 45 53 56 32 37 41 32 37 41 32 37 41 32 37 41 32 37 41 32 37 41 32 37 41 32 37 41 5 10 14 5 10 14 5 10 14 5 10 14 5 10 14 5 10 14 5 10 14 5 10 14 4 9 12 4 9 12 4 9 12 4 9 12 4 9 12 4 9 12 4 9 12 4 9 12 19 24 27 21 26 29 23 28 31 26 31 34 30 35 38 33 38 41 35 40 43 37 43 43 46 52 50 46 52 48 46 52 48 46 52 48 46 52 48 46 52 48 46 52 48 46 52 48 48 54 50 48 54 50 48 54 50 48 54 50 48 54 50 48 54 50 48 54 50 49 54 50 46 45 41 46 42 39 44 40 37 41 37 34 37 33 30 34 30 27 32 28 25 30 26 23 34 30 27 34 30 27 34 30 27 34 30 27 34 30 27 34 30 27 34 30 27 34 30 27 37 32 29 37 32 29 37 32 29 37 32 29 37 32 29 37 32 29 37 32 29 37 32 29 38 33 30 38 33 30 38 33 30 38 33 30 38 33 30 38 33 30 38 33 30 38 33 30
4 2 15 4 2 15 4 2 15 4 2 15 3 1 14 3 1 14 3 1 14 3 1 14 3 1 14 3 1 14 3 1 14 3 1 14 3 1 12 3 1 12 3 1 12 3 1 12 3 1 12 3 1 12 3 1 12 3 1 12 5 3 14 5 3 14 5 3 14 5 3 14 5 3 14 5 3 14 5 3 14 5 3 14 6 5 13 6 5 13 6 5 13 6 5 13 6 5 13 6 5 13 6 5 13 6 5 13 5 4 12 5 4 12 5 4 12 5 4 12 5 4 12 5 4 12 5 4 12 4 4 12 6 6 16 4 7 16 4 7 16 4 7 16 4 7 16 4 7 16 4 7 16 4 7 16 4 7 16 4 7 16 4 7 16 4 7 16 4 7 16 4 7 16 4 7 16 3 7 16 7 12 18 5 12 18 5 12 18 5 12 18 5 12 18 5 12 18 5 12 18 5 12 18 6 13 19 6 13 19 6 13 19 6 13 19 6 13 19 6 13 19 6 13 19 6 13 19 7 15 18 7 15 18 7 15 18 7 15 18 7 15 18 7 15 18 7 15 18 7 15 18 33 41 44 34 42 45 37 45 48 40 48 51 43 51 54 47 55 58 49 57 60 50 58 61 32 37 41 32 37 41 32 37 41 32 37 41 32 37 41 32 37 41 32 37 41 32 37 41 5 10 14 5 10 14 5 10 14 5 10 14 5 10 14 5 10 14 5 10 14 5 10 14 4 9 12 4 9 12 4 9 12 4 9 12 4 9 12 4 9 12 4 9 12 4 9 12 19 24 27 21 26 29 23 28 31 26 31 34 30 35 38 33 38 41 35 40 43 37 43 43 46 52 50 46 52 48 46 52 48 46 52 48 46 52 48 46 52 48 46 52 48 46 52 48 46 52 48 46 52 48 46 52 48 46 52 48 46 52 48 46 52 48 46 52 48 47 52 48 46 45 41 46 42 39 44 40 37 41 37 34 37 33 30 34 30 27 32 28 25 30 26 23 34 30 27 34 30 27 34 30 27 34 30 27 34 30 27 34 30 27 34 30 27 34 30 27 37 32 29 37 32 29 37 32 29 37 32 29 37 32 29 37 32 29 37 32 29 37 32 29 38 33 30 38 33 30 38 33 30 38 33 30 38 33 30 38 33 30 38 33 30 38 33 30
4 2 15 4 2 15 4 2 15 4 2 15 3 1 14 3 1 14 3 1 14 3 1 14 3 1 14 3 1 14 3 1 14 3 1 14 3 1 12 3 1 12 3 1 12 3 1 12 3 1 12 3 1 12 3 1 12 3 1 12 5 3 14 5 3 14 5 3 14 5 3 14 5 3 14 5 3 14 5 3 14 5 3 14 6 5 13 6 5 13 6 5 13 6 5 13 6 5 13 6 5 13 6 5 13 6 5 13 5 4 12 5 4 12 5 4 12 5 4 12 5 4 12 5 4 12 5 4 12 4 4 12 6 6 16 4 7 16 4 7 16 4 7 16 4 7 16 4 7 16 4 7 16 4 7 16 4 7 16 4 7 16 4 7 16 4 7 16 4 7 16 4 7 16 4 7 16 3 7 16 7 12 18 5 12 18 5 12 18 5 12 18 5 12 18 5 12 18 5 12 18 5 12 18 6 13 19 6 13 19 6 13 19 6 13 19 6 13 19 6 13 19 6 13 19 6 13 19 7 15 18 7 15 18 7 15 18 7 15 18 7 15 18 7 15 18 7 15 18 7 15 18 36 44 47 37 45 48 39 47 50 43 51 54 46 54 57 49 57 60 52 60 63 53 61 64 32 37 41 32 37 41 32 37 41 32 37 41 32 37 41 32 37 41 32 37 41 32 37 41 5 10 14 5 10 14 5 10 14 5 10 14 5 10 14 5 10 14 5 10 14 5 10 14 4 9 12 4 9 12 4 9 12 4 9 12 4 9 12 4 9 12 4 9 12 4 9 12 19 24 27 21 26 29 23 28 31 26 31 34 30 35 38 33 38 41 35 40 43 37 43 43 46 52 50 46 52 48 46 52 48 46 52 48 46 52 48 46 52 48 46 52 48 46 52 48 44 50 46 44 50 46 44 50 46 44 50 46 44 50 46 44 50 46 44 50 46 45 50 46 46 45 41 46 42 39 44 40 37 41 37 34 37 33 30 34 30 27 32 28 25 30 26 23 34 30 27 34 30 27 34 30 27 34 30 27 34 30 27 34 30 27 34 30 27 34 30 27 37 32 29 37 32 29 37 32 29 37 32 29 37 32 29 37 32 29 37 32 29 37 32 29 38 33 30 38 33 30 38 33 30 38 33 30 38 33 30 38 33 30 38 33 30 38 33 30
3 1 14 3 1 14 3 1 14 3 1 14 3 1 14 3 1 14 3 1 14 3 1 14 3 1 14 3 1 14 3 1 14 3 1 14 3 1 12 3 1 12 3 1 12 3 1 12 3 1 12 3 1 12 3 1 12 3 1 12 3 1 12 3 1 12 3 1 12 3 1 12 3 1 12 3 1 12 3 1 12 3 1 12 5 4 12 5 4 12 5 4 12 5 4 12 5 4 12 5 4 12 5 4 12 5 4 12 3 2 10 3 2 10 3 2 10 3 2 10 3 2 10 3 2 10 3 2 10 2 2 10 6 6 16 4 7 16 4 7 16 4 7 16 4 7 16 4 7 16 4 7 16 4 7 16 6 9 18 6 9 18 6 9 18 6 9 18 6 9 18 6 9 18 6 9 18 5 9 18 5 10 16 3 10 16 3 10 16 3 10 16 3 10 16 3 10 16 3 10 16 3 10 16 3 10 16 2 9 15 2 9 15 0 7 13 0 6 12 0 5 11 0 4 10 0 3 9 16 24 27 17 25 28 20 28 31 23 31 34 26 34 37 30 38 41 32 40 43 33 41 44 48 56 59 48 56 59 48 56 59 48 56 59 48 56 59 48 56 59 48 56 59 48 56 59 52 57 61 50 55 59 48 53 57 45 50 54 41 46 50 38 43 47 36 41 45 34 39 43 17 22 26 15 20 24 13 18 22 10 15 19 6 11 15 3 8 12 1 6 10 0 4 8 8 13 16 8 13 16 8 13 16 8 13 16 8 13 16 8 13 16 8 13 16 8 13 16 15 20 23 17 22 25 19 24 27 22 27 30 26 31 34 29 34 37 31 36 39 33 39 39 34 40 38 34 40 36 34 40 36 34 40 36 34 40 36 34 40 36 34 40 36 34 40 36 44 50 46 44 50 46 44 50 46 44 50 46 44 50 46 44 50 46 44 50 46 45 50 46 32 31 27 34 30 27 34 30 27 34 30 27 34 30 27 34 30 27 34 30 27 34 30 27 34 30 27 34 30 27 34 30 27 34 30 27 34 30 27 34 30 27 34 30 27 34 30 27 35 30 27 35 30 27 35 30 27 35 30 27 35 30 27 35 30 27 35 30 27 35 30 27 37 32 29 37 32 29 37 32 29 37 32 29 37 32 29 37 32 29 37 32 29 37 32 29
3 1 14 3 1 14 3 1 14 3 1 14 3 1 14 3 1 14 3 1 14 3 1 14 3 1 14 3 1 14 3 1 14 3 1 14 3 1 12 3 1 12 3 1 12 3 1 12 3 1 12 3 1 12 3 1 12 3 1 12 3 1 12 3 1 12 3 1 12 3 1 12 3 1 12 3 1 12 3 1 12 3 1 12 5 4 12 5 4 12 5 4 12 5 4 12 5 4 12 5 4 12 5 4 12 5 4 12 3 2 10 3 2 10 3 2 10 3 2 10 3 2 10 3 2 10 3 2 10 2 2 10 6 6 16 4 7 16 4 7 16 4 7 16 4 7 16 4 7 16 4 7 16 4 7 16 6 9 18 6 9 18 6 9 18 6 9 18 6 9 18 6 9 18 6 9 18 5 9 18 5 10 16 3 10 16 3 10 16 3 10 16 3 10 16 3 10 16 3 10 16 3 10 16 4 11 17 4 11 17 3 10 16 3 10 16 2 9 15 1 8 14 1 8 14 1 8 14 19 27 30 20 28 31 22 30 33 26 34 37 29 37 40 32 40 43 35 43 46 36 44 47 50 58 61 50 58 61 50 58 61 50 58 61 50 58 61 50 58 61 50 58 61 50 58 61 52 57 61 50 55 59 48 53 57 45 50 54 41 46 50 38 43 47 36 41 45 34 39 43 17 22 26 15 20 24 13 18 22 10 15 19 6 11 15 3 8 12 1 6 10 0 4 8 8 13 16 8 13 16 8 13 16 8 13 16 8 13 16 8 13 16 8 13 16 8 13 16 15 20 23 17 22 25 19 24 27 22 27 30 26 31 34 29 34 37 31 36 39 33 39 39 34 40 38 34 40 36 34 40 36 34 40 36 34 40 36 34 40 36 34 40 36 34 40 36 42 48 44 42 48 44 42 48 44 42 48 44 42 48 44 42 48 44 42 48 44 43 48 44 32 31 27 34 30 27 34 30 27 34 30 27 34 30 27 34 30 27 34 30 27 34 30 27 34 30 27 34 30 27 34 30 27 34 30 27 34 30 27 34 30 27 34 30 27 34 30 27 35 30 27 35 30 27 35 30 27 35 30 27 35 30 27 35 30 27 35 30 27 35 30 27 37 32 29 37 32 29 37 32 29 37 32 29 37 32 29 37 32 29 37 32 29 37 32 29
3 1 14 3 1 14 3 1 14 3 1 14 3 1 14 3 1 14 3 1 14 3 1 14 3 1 14 3 1 14 3 1 14 3 1 14 3 1 12 3 1 12 3 1 12 3 1 12 3 1 12 3 1 12 3 1 12 3 1 12 3 1 12 3 1 12 3 1 12 3 1 12 3 1 12 3 1 12 3 1 12 3 1 12 5 4 12 5 4 12 5 4 12 5 4 12 5 4 12 5 4 12 5 4 12 5 4 12 3 2 10 3 2 10 3 2 10 3 2 10 3 2 10 3 2 10 3 2 10 2 2 10 6 6 16 4 7 16 4 7 16 4 7 16 4 7 16 4 7 16 4 7 16 4 7 16 6 9 18 6 9 18 6 9 18 6 9 18 6 9 18 6 9 18 6 9 18 5 9 18 5 10 16 3 10 16 3 10 16 3 10 16 3 10 16 3 10 16 3 10 16 3 10 16 5 12 18 6 13 19 6 13 19 7 14 20 8 15 21 8 15 21 9 16 22 9 16 22 24 32 35 25 33 36 27 35 38 30 38 41 34 42 45 37 45 48 40 48 51 41 49 52 52 60 63 52 60 63 52 60 63 52 60 63 52 60 63 52 60 63 52 60 63 52 60 63 52 57 61 50 55 59 48 53 57 45 50 54 41 46 50 38 43 47 36 41 45 34 39 43 17 22 26 15 20 24 13 18 22 10 15 19 6 11 15 3 8 12 1 6 10 0 4 8 8 13 16 8 13 16 8 13 16 8 13 16 8 13 16 8 13 16 8 13 16 8 13 16 15 20 23 17 22 25 19 24 27 22 27 30 26 31 34 29 34 37 31 36 39 33 39 39 34 40 38 34 40 36 34 40 36 34 40 36 34 40 36 34 40 36 34 40 36 34 40 36 40 46 42 40 46 42 40 46 42 40 46 42 40 46 42 40 46 42 40 46 42 41 46 42 32 31 27 34 30 27 34 30 27 34 30 27 34 30 27 34 30 27 34 30 27 34 30 27 34 30 27 34 30 27 34 30 27 34 30 27 34 30 27 34 30 27 34 30 27 34 30 27 35 30 27 35 30 27 35 30 27 35 30 27 35 30 27 35 30 27 35 30 27 35 30 27 37 32 29 37 32 29 37 32 29 37 32 29 37 32 29 37 32 29 37 32 29 37 32 29
3 1 14 3 1 14 3 1 14 3 1 14 3 1 14 3 1 14 3 1 14 3 1 14 3 1 14 3 1 14 3 1 14 3 1 14 3 1 12 3 1 12 3 1 12 3 1 12 3 1 12 3 1 12 3 1 12 3 1 12 3 1 12 3 1 12 3 1 12 3 1 12 3 1 12 3 1 12 3 1 12 3 1 12 5 4 12 5 4 12 5 4 12 5 4 12 5 4 12 5 4 12 5 4 12 5 4 12 3 2 10 3 2 10 3 2 10 3 2 10 3 2 10 3 2 10 3 2 10 2 2 10 6 6 16 4 7 16 4 7 16 4 7 16 4 7 16 4 7 16 4 7 16 4 7 16 6 9 18 6 9 18 6 9 18 6 9 18 6 9 18 6 9 18 6 9 18 5 9 18 5 10 16 3 10 16 3 10 16 3 10 16 3 10 16 3 10 16 3 10 16 3 10 16 7 14 20 8 15 21 10 17 23 12 19 25 15 22 28 17 24 30 19 26 32 20 27 33 30 38 41 31 39 42 34 42 45 37 45 48 40 48 51 43 51 54 46 54 57 47 55 58 55 63 66 55 63 66 55 63 66 55 63 66 55 63 66 55 63 66 55 63 66 55 63 66 52 57 61 50 55 59 48 53 57 45 50 54 41 46 50 38 43 47 36 41 45 34 39 43 17 22 26 15 20 24 13 18 22 10 15 19 6 11 15 3 8 12 1 6 10 0 4 8 8 13 16 8 13 16 8 13 16 8 13 16 8 13 16 8 13 16 8 13 16 8 13 16 15 20 23 17 22 25 19 24 27 22 27 30 26 31 34 29 34 37 31 36 39 33 39 39 34 40 38 34 40 36 34 40 36 34 40 36 34 40 36 34 40 36 34 40 36 34 40 36 37 43 39 37 43 39 37 43 39 37 43 39 37 43 39 37 43 39 37 43 39 38 43 39 32 31 27 34 30 27 34 30 27 34 30 27 34 30 27 34 30 27 34 30 27 34 30 27 34 30 27 34 30 27 34 30 27 34 30 27 34 30 27 34 30 27 34 30 27 34 30 27 35 30 27 35 30 27 35 30 27 35 30 27 35 30 27 35 30 27 35 30 27 35 30 27 37 32 29 37 32 29 37 32 29 37 32 29 37 32 29 37 32 29 37 32 29 37 32 29
3 1 14 3 1 14 3 1 14 3 1 14 3 1 14 3 1 14 3 1 14 3 1 14 3 1 14 3 1 14 3 1 14 3 1 14 3 1 12 3 1 12 3 1 12 3 1 12 3 1 12 3 1 12 3 1 12 3 1 12 3 1 12 3 1 12 3 1 12 3 1 12 3 1 12 3 1 12 3 1 12 3 1 12 5 4 12 5 4 12 5 4 12 5 4 12 5 4 12 5 4 12 5 4 12 5 4 12 3 2 10 3 2 10 3 2 10 3 2 10 3 2 10 3 2 10 3 2 10 2 2 10 6 6 16 4 7 16 4 7 16 4 7 16 4 7 16 4 7 16 4 7 16 4 7 16 6 9 18 6 9 18 6 9 18 6 9 18 6 9 18 6 9 18 6 9 18 5 9 18 5 10 16 3 10 16 3 10 16 3 10 16 3 10 16 3 10 16 3 10 16 3 10 16 9 16 22 11 18 24 14 21 27 18 25 31 23 30 36 27 34 40 30 37 43 31 38 44 37 45 48 38 46 49 41 49 52 44 52 55 47 55 58 50 58 61 53 61 64 54 62 65 59 67 70 59 67 70 59 67 70 59 67 70 59 67 70 59 67 70 59 67 70 59 67 70 52 57 61 50 55 59 48 53 57 45 50 54 41 46 50 38 43 47 36 41 45 34 39 43 17 22 26 15 20 24 13 18 22 10 15 19 6 11 15 3 8 12 1 6 10 0 4 8 8 13 16 8 13 16 8 13 16 8 13 16 8 13 16 8 13 16 8 13 16 8 13 16 15 20 23 17 22 25 19 24 27 22 27 30 26 31 34 29 34 37 31 36 39 33 39 39 34 40 38 34 40 36 34 40 36 34 40 36 34 40 36 34 40 36 34 40 36 34 40 36 33 39 35 33 39 35 33 39 35 33 39 35 33 39 35 33 39 35 33 39 35 34 39 35 32 31 27 34 30 27 34 30 27 34 30 27 34 30 27 34 30 27 34 30 27 34 30 27 34 30 27 34 30 27 34 30 27 34 30 27 34 30 27 34 30 27 34 30 27 34 30 27 35 30 27 35 30 27 35 30 27 35 30 27 35 30 27 35 30 27 35 30 27 35 30 27 37 32 29 37 32 29 37 32 29 37 32 29 37 32 29 37 32 29 37 32 29 37 32 29
3 1 14 3 1 14 3 1 14 3 1 14 3 1 14 3 1 14 3 1 14 3 1 14 3 1 14 3 1 14 3 1 14 3 1 14 3 1 12 3 1 12 3 1 12 3 1 12 3 1 12 3 1 12 3 1 12 3 1 12 3 1 12 3 1 12 3 1 12 3 1 12 3 1 12 3 1 12 3 1 12 3 1 12 5 4 12 5 4 12 5 4 12 5 4 12 5 4 12 5 4 12 5 4 12 5 4 12 3 2 10 3 2 10 3 2 10 3 2 10 3 2 10 3 2 10 3 2 10 2 2 10 6 6 16 4 7 16 4 7 16 4 7 16 4 7 16 4 7 16 4 7 16 4 7 16 6 9 18 6 9 18 6 9 18 6 9 18 6 9 18 6 9 18 6 9 18 5 9 18 5 10 16 3 10 16 3 10 16 3 10 16 3 10 16 3 10 16 3 10 16 3 10 16 11 18 24 14 21 27 18 25 31 24 31 37 30 37 43 36 43 49 40 47 53 42 49 55 43 51 54 44 52 55 47 55 58 50 58 61 54 62 65 57 65 68 59 67 70 60 68 71 62 70 73 62 70 73 62 70 73 62 70 73 62 70 73 62 70 73 62 70 73 62 70 73 52 57 61 50 55 59 48 53 57 45 50 54 41 46 50 38 43 47 36 41 45 34 39 43 17 22 26 15 20 24 13 18 22 10 15 19 6 11 15 3 8 12 1 6 10 0 4 8 8 13 16 8 13 16 8 13 16 8 13 16 8 13 16 8 13 16 8 13 16 8 13 16 15 20 23 17 22 25 19 24 27 22 27 30 26 31 34 29 34 37 31 36 39 33 39 39 34 40 38 34 40 36 34 40 36 34 40 36 34 40 36 34 40 36 34 40 36 34 40 36 30 36 32 30 36 32 30 36 32 30 36 32 30 36 32 30 36 32 30 36 32 31 36 32 32 31 27 34 30 27 34 30 27 34 30 27 34 30 27 34 30 27 34 30 27 34 30 27 34 30 27 34 30 27 34 30 27 34 30 27 34 30 27 34 30 27 34 30 27 34 30 27 35 30 27 35 30 27 35 30 27 35 30 27 35 30 27 35 30 27 35 30 27 35 30 27 37 32 29 37 32 29 37 32 29 37 32 29 37 32 29 37 32 29 37 32 29 37 32 29
3 1 14 3 1 14 3 1 14 3 1 14 3 1 14 3 1 14 3 1 14 3 1 14 3 1 14 3 1 14 3 1 14 3 1 14 3 1 12 3 1 12 3 1 12 3 1 12 3 1 12 3 1 12 3 1 12 3 1 12 3 1 12 3 1 12 3 1 12 3 1 12 3 1 12 3 1 12 3 1 12 3 1 12 5 4 12 5 4 12 5 4 12 5 4 12 5 4 12 5 4 12 5 4 12 5 4 12 3 2 10 3 2 10 3 2 10 3 2 10 3 2 10 3 2 10 3 2 10 2 2 10 6 6 16 4 7 16 4 7 16 4 7 16 4 7 16 4 7 16 4 7 16 4 7 16 6 9 18 6 9 18 6 9 18 6 9 18 6 9 18 6 9 18 6 9 18 5 9 18 5 10 16 3 10 16 3 10 16 3 10 16 3 10 16 3 10 16 3 10 16 3 10 16 13 20 26 16 23 29 21 28 34 28 35 41 35 42 48 42 49 55 48 55 61 51 58 64 48 56 59 49 57 60 52 60 63 55 63 66 58 66 69 62 70 73 64 72 75 65 73 76 64 72 75 64 72 75 64 72 75 64 72 75 64 72 75 64 72 75 64 72 75 64 72 75 52 57 61 50 55 59 48 53 57 45 50 54 41 46 50 38 43 47 36 41 45 34 39 43 17 22 26 15 20 24 13 18 22 10 15 19 6 11 15 3 8 12 1 6 10 0 4 8 8 13 16 8 13 16 8 13 16 8 13 16 8 13 16 8 13 16 8 13 16 8 13 16 15 20 23 17 22 25 19 24 27 22 27 30 26 31 34 29 34 37 31 36 39 33 39 39 34 40 38 34 40 36 34 40 36 34 40 36 34 40 36 34 40 36 34 40 36 34 40 36 28 34 30 28 34 30 28 34 30 28 34 30 28 34 30 28 34 30 28 34 30 29 34 30 32 31 27 34 30 27 34 30 27 34 30 27 34 30 27 34 30 27 34 30 27 34 30 27 34 30 27 34 30 27 34 30 27 34 30 27 34 30 27 34 30 27 34 30 27 34 30 27 35 30 27 35 30 27 35 30 27 35 30 27 35 30 27 35 30 27 35 30 27 35 30 27 37 32 29 37 32 29 37 32 29 37 32 29 37 32 29 37 32 29 37 32 29 37 32 29
3 1 14 3 1 12 3 1 14 3 1 12 3 1 14 3 1 12 3 1 14 3 1 12 3 1 14 3 1 12 3 1 14 3 1 12 3 1 12 3 2 10 3 2 10 3 2 10 3 2 10 3 2 10 3 2 10 3 2 10 3 2 10 3 2 10 3 2 10 3 2 10 3 2 10 3 2 10 3 2 10 3 2 10 5 4 12 5 4 12 5 4 12 5 4 12 5 4 12 5 4 12 5 4 12 5 4 12 3 2 10 3 2 10 3 2 10 3 2 10 3 2 10 3 2 10 3 2 10 2 2 10 4 7 16 3 7 16 4 7 16 3 7 16 4 7 16 3 7 16 4 7 16 3 7 16 6 9 18 5 9 18 6 9 18 5 9 18 6 9 18 5 9 18 6 9 18 5 9 18 3 10 16 3 10 16 3 10 16 3 10 16 3 10 16 3 10 16 3 10 16 3 10 16 14 21 27 17 24 30 23 30 36 30 37 43 38 45 51 46 53 59 52 59 65 55 62 68 51 59 62 52 60 63 54 62 65 58 66 69 61 69 72 64 72 75 67 75 78 68 76 79 66 74 77 66 74 77 66 74 77 66 74 77 66 74 77 66 74 77 66 74 77 66 74 77 52 57 61 50 55 59 48 53 57 45 50 54 41 46 50 38 43 47 36 41 45 34 39 43 17 22 26 15 20 24 13 18 22 10 15 19 6 11 15 3 8 12 1 6 10 0 4 8 8 13 17 8 13 16 8 13 17 8 13 16 8 13 17 8 13 16 8 13 17 8 13 16 15 20 24 17 22 25 19 24 28 22 27 30 26 31 35 29 34 37 31 36 40 33 38 41 34 40 38 34 40 38 34 40 38 34 40 38 34 40 38 34 40 38 34 40 38 34 40 38 26 32 30 26 32 30 26 32 30 26 32 30 26 32 30 26 32 30 26 32 30 27 32 28 32 31 27 34 30 27 34 30 27 34 30 27 34 30 27 34 30 27 34 30 27 34 30 27 34 30 27 34 30 27 34 30 27 34 30 27 34 30 27 34 30 27 34 30 27 34 30 27 35 30 27 35 30 27 35 30 27 35 30 27 35 30 27 35 30 27 35 30 27 35 30 27 37 32 29 37 32 29 37 32 29 37 32 29 37 32 29 37 32 29 37 32 29 37 32 29
3 1 12 3 2 10 3 1 12 3 2 10 2 0 11 2 1 9 2 0 11 2 1 9 2 0 11 2 1 9 2 0 11 2 1 9 2 1 7 2 1 7 2 1 7 2 1 7 2 1 7 2 1 7 2 1 7 2 1 7 1 0 6 1 0 6 1 0 6 1 0 6 1 0 6 1 0 6 1 0 6 1 0 6 1 2 7 1 2 7 1 2 7 1 2 7 1 2 7 1 2 7 1 2 7 1 2 7 3 4 9 3 4 9 3 4 9 3 4 9 3 4 9 3 4 9 3 4 9 3 4 9 4 9 15 2 9 15 4 9 15 2 9 15 4 9 15 2 9 15 4 9 15 2 9 15 0 5 11 0 6 12 3 8 14 5 12 18 10 15 21 11 18 24 16 21 27 15 22 28 8 15 21 9 16 22 12 19 25 15 22 28 18 25 31 22 29 35 24 31 37 25 32 38 41 48 54 42 49 55 44 51 57 48 55 61 51 58 64 54 61 67 57 64 70 58 65 71 71 79 82 71 79 82 71 79 82 71 79 82 71 79 82 71 79 82 71 79 82 71 79 82 69 77 80 69 77 80 69 77 80 69 77 80 69 77 80 69 77 80 69 77 80 69 77 80 62 70 72 60 68 70 55 63 65 48 56 58 42 50 52 35 43 45 30 38 40 28 36 38 5 13 15 5 13 15 5 13 15 5 13 15 5 13 15 5 13 15 5 13 15 5 13 16 7 15 18 7 15 18 7 14 20 7 15 18 7 14 20 7 15 18 7 14 20 7 15 18 21 28 34 21 29 32 21 28 34 21 29 32 21 28 34 21 29 32 21 28 34 21 29 32 25 30 33 25 31 31 25 31 31 25 31 31 25 31 31 25 31 31 25 31 31 25 31 31 24 30 30 24 30 30 24 30 30 24 30 30 24 30 30 24 30 30 24 30 30 25 29 28 29 28 26 32 27 24 32 27 24 32 27 24 32 27 24 32 27 24 32 27 24 32 27 24 34 29 26 34 29 26 34 29 26 34 29 26 34 29 26 34 29 26 34 29 26 34 29 26 37 29 27 37 29 27 37 29 27 37 29 27 37 29 27 37 29 27 37 29 27 37 29 27 38 30 28 38 30 28 38 30 28 38 30 28 38 30 28 38 30 28 38 30 28 36 31 28
3 2 10 3 2 10 3 2 10 3 2 10 2 1 9 2 1 9 2 1 9 2 1 9 2 1 9 2 1 9 2 1 9 2 1 7 2 1 7 2 1 6 2 1 6 2 1 6 2 1 6 2 1 6 2 1 6 2 1 6 1 0 5 1 0 5 1 0 5 1 0 5 1 0 5 1 0 5 1 0 5 1 0 5 1 2 7 1 2 7 1 2 7 1 2 7 1 2 7 1 2 7 1 2 7 1 2 7 3 4 9 3 4 9 3 4 9 3 4 9 3 4 9 3 4 9 3 4 9 1 4 9 4 9 15 2 9 15 2 9 15 2 9 15 2 9 15 2 9 15 2 9 15 2 9 15 0 6 12 0 7 13 3 10 16 6 13 19 9 16 22 13 20 26 15 22 28 16 23 29 11 18 24 12 19 25 14 21 27 18 25 31 21 28 34 24 31 37 27 34 40 28 35 41 42 49 55 43 50 56 46 53 59 49 56 62 52 59 65 56 63 69 58 65 71 59 66 72 71 79 82 71 79 82 71 79 82 71 79 82 71 79 82 71 79 82 71 79 82 71 79 82 69 77 80 69 77 80 69 77 80 69 77 80 69 77 80 69 77 80 69 77 80 69 77 80 62 70 72 60 68 70 55 63 65 48 56 58 42 50 52 35 43 45 30 38 40 28 36 38 5 13 15 5 13 15 5 13 15 5 13 15 5 13 15 5 13 15 5 13 15 5 13 15 7 14 20 7 14 20 7 14 20 7 14 20 7 14 20 7 14 20 7 14 20 7 14 20 21 28 34 21 28 34 21 28 34 21 28 34 21 28 34 21 28 34 21 28 34 21 29 32 25 30 34 25 30 33 25 30 33 25 30 33 25 30 33 25 30 33 25 30 33 25 30 33 24 29 32 24 29 32 24 29 32 24 29 32 24 29 32 24 29 32 24 29 32 25 29 30 31 27 26 32 27 24 32 27 24 32 27 24 32 27 24 32 27 24 32 27 24 32 27 24 34 29 26 34 29 26 34 29 26 34 29 26 34 29 26 34 29 26 34 29 26 34 29 26 37 29 27 37 29 27 37 29 27 37 29 27 37 29 27 37 29 27 37 29 27 37 29 27 38 30 28 38 30 28 38 30 28 38 30 28 38 30 28 38 30 28 38 30 28 38 30 28
3 2 10 3 2 10 3 2 10 3 2 10 2 1 9 2 1 9 2 1 9 2 1 9 2 1 9 2 1 9 2 1 9 2 1 7 2 1 7 2 1 6 2 1 6 2 1 6 2 1 6 2 1 6 2 1 6 2 1 6 1 0 5 1 0 5 1 0 5 1 0 5 1 0 5 1 0 5 1 0 5 1 0 5 1 2 7 1 2 7 1 2 7 1 2 7 1 2 7 1 2 7 1 2 7 1 2 7 3 4 9 3 4 9 3 4 9 3 4 9 3 4 9 3 4 9 3 4 9 1 4 9 4 9 15 2 9 15 2 9 15 2 9 15 2 9 15 2 9 15 2 9 15 2 9 15 1 8 14 3 10 16 5 12 18 8 15 21 12 19 25 15 22 28 17 24 30 19 26 32 16 23 29 17 24 30 19 26 32 22 29 35 26 33 39 29 36 42 32 39 45 33 40 46 44 51 57 46 53 59 48 55 61 51 58 64 55 62 68 58 65 71 60 67 73 62 69 75 71 79 82 71 79 82 71 79 82 71 79 82 71 79 82 71 79 82 71 79 82 71 79 82 69 77 80 69 77 80 69 77 80 69 77 80 69 77 80 69 77 80 69 77 80 69 77 80 62 70 72 60 68 70 55 63 65 48 56 58 42 50 52 35 43 45 30 38 40 28 36 38 5 13 15 5 13 15 5 13 15 5 13 15 5 13 15 5 13 15 5 13 15 5 13 15 7 14 20 7 14 20 7 14 20 7 14 20 7 14 20 7 14 20 7 14 20 7 14 20 21 28 34 21 28 34 21 28 34 21 28 34 21 28 34 21 28 34 21 28 34 21 29 32 25 30 34 25 30 33 25 30 33 25 30 33 25 30 33 25 30 33 25 30 33 25 30 33 24 29 32 24 29 32 24 29 32 24 29 32 24 29 32 24 29 32 24 29 32 25 29 30 31 27 26 32 27 24 32 27 24 32 27 24 32 27 24 32 27 24 32 27 24 32 27 24 34 29 26 34 29 26 34 29 26 34 29 26 34 29 26 34 29 26 34 29 26 34 29 26 37 29 27 37 29 27 37 29 27 37 29 27 37 29 27 37 29 27 37 29 27 37 29 27 38 30 28 38 30 28 38 30 28 38 30 28 38 30 28 38 30 28 38 30 28 38 30 28
