P3
172 37
255
6 3 12 6 3 12 7 4 13 7 4 13 4 1 10 4 1 10 4 1 10 4 1 10 4 1 10 4 1 10 4 1 10 4 1 10 2 0 6 2 0 6 2 0 6 2 0 6 2 0 6 2 0 6 2 0 6 2 0 6 3 0 7 3 0 7 3 0 7 3 0 7 3 0 7 3 0 7 3 0 7 2 1 7 2 1 7 1 2 7 1 2 7 1 2 7 1 2 7 1 2 7 1 2 7 1 2 7 2 3 8 2 3 8 2 3 8 2 3 8 2 3 8 2 3 8 2 3 8 2 3 8 5 6 11 5 6 11 5 6 11 5 6 11 5 6 11 5 6 11 5 6 11 5 6 11 7 8 13 7 8 13 7 8 13 7 8 13 7 8 13 7 8 13 7 8 13 7 8 13 4 4 14 4 4 14 4 4 14 4 4 14 4 4 14 4 4 14 4 4 14 4 4 14 8 8 18 8 8 18 8 8 18 8 8 18 8 8 18 8 8 18 8 8 18 8 8 18 8 8 16 8 8 16 8 8 16 8 8 16 8 8 16 8 8 16 8 8 16 8 8 16 10 10 18 10 10 18 10 10 18 10 10 18 10 10 18 10 10 18 10 10 18 10 11 16 7 8 12 7 8 10 7 8 10 7 8 10 7 8 10 7 8 10 7 8 10 7 8 10 0 1 3 0 1 3 0 1 3 0 1 3 0 1 3 0 1 3 0 1 3 0 1 3 1 5 6 3 7 8 5 9 10 8 12 13 12 16 17 15 19 20 17 21 22 19 23 24 28 32 33 30 34 35 35 39 40 42 46 47 48 52 53 55 59 60 60 64 65 62 66 65 63 65 60 66 69 62 71 74 67 77 80 73 84 87 80 90 93 86 95 98 91 98 101 94 101 104 97 105 108 101 111 114 107 113 116 109 110 113 106 101 104 97 90 93 86 84 85 79 43 42 38 45 41 38 45 41 38 45 41 38 45 41 38 45 41 38 45 41 38 45 41 38 43 39 36 43 39 36 43 39 36 43 39 36 43 39 36 43 39 36 43 39 36 43 39 36 38 36 37 38 36 37 38 36 37 38 36 37 38 36 37 38 36 37 38 36 37 38 36 37 41 39 40 41 39 40 41 39 40 41 39 40 41 39 40 41 39 40 41 39 40 41 39 40
1 0 5 1 0 5 1 0 5 1 0 5 4 1 8 4 1 8 4 1 8 4 1 8 4 1 8 4 1 8 4 1 8 4 1 8 2 0 6 2 0 6 2 0 6 2 0 6 2 0 6 2 0 6 2 0 6 2 0 6 3 0 7 3 0 7 3 0 7 3 0 7 3 0 7 3 0 7 3 0 7 2 1 7 1 2 7 1 2 7 1 2 7 1 2 7 1 2 7 1 2 7 1 2 7 1 2 7 2 3 8 2 3 8 2 3 8 2 3 8 2 3 8 2 3 8 2 3 8 2 3 8 5 6 11 3 6 11 5 6 11 3 6 11 5 6 11 3 6 11 5 6 11 3 6 11 7 8 13 5 8 13 7 8 13 5 8 13 7 8 13 5 8 13 7 8 13 5 8 13 4 4 12 2 5 12 4 4 12 2 5 12 4 4 12 2 5 12 4 4 12 2 5 12 8 8 16 6 9 16 8 8 16 6 9 16 8 8 16 6 9 16 8 8 16 6 9 16 6 9 16 6 9 14 6 9 14 6 9 14 6 9 14 6 9 14 6 9 14 6 9 14 8 11 16 8 11 16 8 11 16 8 11 16 8 11 16 8 11 16 8 11 16 8 11 16 5 9 10 5 9 10 7 8 10 5 9 10 7 8 10 5 9 10 7 8 10 5 9 10 0 1 3 0 2 3 0 1 3 0 2 3 0 1 3 0 2 3 0 1 3 0 2 3 1 5 6 3 7 6 5 9 10 8 12 11 12 16 17 15 19 18 17 21 22 19 23 22 28 32 33 30 34 33 35 39 40 42 46 45 48 52 53 55 59 58 60 64 65 62 66 65 62 64 59 65 68 61 70 73 66 76 79 72 83 86 79 89 92 85 94 97 90 97 100 93 99 102 95 104 107 100 109 112 105 112 115 108 108 111 104 99 102 95 89 92 85 82 85 78 43 42 38 45 41 38 45 41 38 45 41 38 45 41 38 45 41 38 45 41 38 45 41 38 43 39 36 43 39 36 43 39 36 43 39 36 43 39 36 43 39 36 43 39 36 43 39 36 38 37 35 38 36 37 38 36 37 38 36 37 38 36 37 38 36 37 38 36 37 38 36 37 41 39 40 41 39 40 41 39 40 41 39 40 41 39 40 41 39 40 41 39 40 41 39 40
0 0 4 0 0 4 0 0 4 0 0 4 0 0 4 0 0 4 0 0 4 0 0 4 0 0 4 0 0 4 0 0 4 0 0 4 0 0 4 0 0 4 0 0 4 0 0 4 0 0 4 0 0 4 0 0 4 0 0 4 0 0 4 0 0 4 0 0 4 0 0 4 0 0 4 0 0 4 0 0 4 0 0 4 2 3 7 2 3 7 2 3 7 2 3 7 2 3 7 2 3 7 2 3 7 2 3 7 5 6 10 5 6 10 5 6 10 5 6 10 5 6 10 5 6 10 5 6 10 5 6 10 6 9 14 5 10 14 6 9 14 5 10 14 6 9 14 5 10 14 6 9 14 5 10 14 5 8 13 4 9 13 5 8 13 4 9 13 5 8 13 4 9 13 5 8 13 4 9 13 6 9 14 5 10 14 6 9 14 5 10 14 6 9 14 5 10 14 6 9 14 5 10 14 7 10 15 6 11 15 7 10 15 6 11 15 7 10 15 6 11 15 7 10 15 6 11 14 6 11 14 6 11 14 6 11 14 6 11 14 6 11 14 6 11 14 6 11 14 6 11 14 9 14 17 9 14 17 9 14 17 9 14 17 9 14 17 9 14 17 9 14 17 9 15 15 11 17 17 10 16 14 7 11 10 2 8 6 0 2 1 0 2 0 0 1 0 0 2 0 0 3 2 0 4 2 0 3 2 0 4 2 0 3 2 0 4 2 0 3 2 0 3 2 0 3 2 1 6 2 3 7 6 6 11 7 10 14 13 13 18 14 15 19 18 17 22 18 32 36 35 34 39 35 36 40 39 39 44 40 43 47 46 46 51 47 48 52 51 50 55 51 71 76 70 72 77 70 75 80 73 78 83 76 81 86 79 85 90 83 87 92 85 88 93 86 86 91 84 92 97 90 100 105 98 105 110 103 105 110 103 100 105 98 92 97 90 88 91 84 52 51 47 50 49 45 48 47 43 45 44 40 41 40 36 38 37 33 36 35 31 34 33 29 40 39 35 40 39 35 40 39 35 40 39 35 40 39 35 40 39 35 40 39 35 40 39 35 38 37 35 38 37 35 38 37 35 38 37 35 38 37 35 38 37 35 38 37 35 38 37 35 36 35 33 36 35 33 36 35 33 36 35 33 36 35 33 36 35 33 36 35 33 36 35 33
0 0 2 0 0 2 0 0 2 0 0 2 0 0 2 0 0 2 0 0 2 0 0 2 0 0 2 0 0 2 0 0 2 0 0 2 0 0 4 0 0 4 0 0 4 0 0 4 0 0 4 0 0 4 0 0 4 0 0 4 0 0 4 0 0 4 0 0 4 0 0 4 0 0 4 0 0 4 0 0 4 0 0 4 2 3 7 2 3 7 2 3 7 2 3 7 2 3 7 2 3 7 2 3 7 2 3 7 5 6 10 5 6 10 5 6 10 5 6 10 5 6 10 5 6 10 5 6 10 3 7 10 6 9 14 5 10 14 5 10 14 5 10 14 5 10 14 5 10 14 5 10 14 5 10 14 4 9 13 4 9 13 4 9 13 4 9 13 4 9 13 4 9 13 4 9 13 4 9 13 5 10 13 5 10 13 5 10 13 5 10 13 5 10 13 5 10 13 5 10 13 5 10 13 6 11 14 6 11 14 6 11 14 6 11 14 6 11 14 6 11 14 6 11 14 6 11 14 4 13 12 4 13 12 4 13 12 4 13 12 4 13 12 4 13 12 4 13 12 4 13 12 7 16 15 7 16 15 7 16 15 7 16 15 7 16 15 7 16 15 7 16 15 7 16 15 11 17 15 9 15 13 6 12 10 3 9 7 0 5 3 0 2 0 0 2 0 0 2 0 0 4 2 0 4 2 0 4 2 0 4 2 0 4 2 0 4 2 0 4 2 0 4 2 0 4 0 1 6 2 3 8 4 6 11 7 10 15 11 13 18 14 15 20 16 17 22 18 32 37 33 34 39 35 36 41 37 39 44 40 43 48 44 46 51 47 48 53 49 50 55 49 70 75 69 71 76 69 73 78 71 77 82 75 80 85 78 83 88 81 86 91 84 87 92 85 85 90 83 90 95 88 98 103 96 104 109 102 104 109 102 98 103 96 90 95 88 87 90 83 51 52 47 50 49 45 48 47 43 45 44 40 41 40 36 38 37 33 36 35 31 34 33 29 40 39 35 40 39 35 40 39 35 40 39 35 40 39 35 40 39 35 40 39 35 40 39 35 38 37 35 38 37 35 38 37 35 38 37 35 38 37 35 38 37 35 38 37 35 38 37 35 36 35 33 36 35 33 36 35 33 36 35 33 36 35 33 36 35 33 36 35 33 36 35 33
0 0 2 0 0 2 0 0 2 0 0 2 0 0 2 0 0 2 0 0 2 0 0 2 0 0 2 0 0 2 0 0 2 0 0 2 0 0 4 0 0 4 0 0 4 0 0 4 0 0 4 0 0 4 0 0 4 0 0 4 0 0 4 0 0 4 0 0 4 0 0 4 0 0 4 0 0 4 0 0 4 0 0 4 2 3 7 2 3 7 2 3 7 2 3 7 2 3 7 2 3 7 2 3 7 2 3 7 5 6 10 5 6 10 5 6 10 5 6 10 5 6 10 5 6 10 5 6 10 3 7 10 6 9 14 5 10 14 5 10 14 5 10 14 5 10 14 5 10 14 5 10 14 5 10 14 4 9 13 4 9 13 4 9 13 4 9 13 4 9 13 4 9 13 4 9 13 4 9 13 5 10 13 5 10 13 5 10 13 5 10 13 5 10 13 5 10 13 5 10 13 5 10 13 6 11 14 6 11 14 6 11 14 6 11 14 6 11 14 6 11 14 6 11 14 6 11 14 4 13 12 4 13 12 4 13 12 4 13 12 4 13 12 4 13 12 4 13 12 4 13 12 7 16 15 7 16 15 7 16 15 7 16 15 7 16 15 7 16 15 7 16 15 7 16 15 10 16 14 9 15 13 7 13 11 4 10 8 2 8 6 0 5 3 0 3 1 0 2 0 0 4 2 0 4 2 0 4 2 0 4 2 0 4 2 0 4 2 0 4 2 0 4 2 0 4 0 1 6 2 3 8 4 6 11 7 10 15 11 13 18 14 15 20 16 17 22 18 32 37 33 34 39 35 36 41 37 39 44 40 43 48 44 46 51 47 48 53 49 50 55 49 67 72 66 69 74 67 71 76 69 74 79 72 78 83 76 81 86 79 83 88 81 85 90 83 82 87 80 88 93 86 96 101 94 102 107 100 102 107 100 96 101 94 88 93 86 84 87 80 51 52 47 50 49 45 48 47 43 45 44 40 41 40 36 38 37 33 36 35 31 34 33 29 40 39 35 40 39 35 40 39 35 40 39 35 40 39 35 40 39 35 40 39 35 40 39 35 38 37 35 38 37 35 38 37 35 38 37 35 38 37 35 38 37 35 38 37 35 38 37 35 36 35 33 36 35 33 36 35 33 36 35 33 36 35 33 36 35 33 36 35 33 36 35 33
0 0 2 0 0 2 0 0 2 0 0 2 0 0 2 0 0 2 0 0 2 0 0 2 0 0 2 0 0 2 0 0 2 0 0 2 0 0 4 0 0 4 0 0 4 0 0 4 0 0 4 0 0 4 0 0 4 0 0 4 0 0 4 0 0 4 0 0 4 0 0 4 0 0 4 0 0 4 0 0 4 0 0 4 2 3 7 2 3 7 2 3 7 2 3 7 2 3 7 2 3 7 2 3 7 2 3 7 5 6 10 5 6 10 5 6 10 5 6 10 5 6 10 5 6 10 5 6 10 3 7 10 6 9 14 5 10 14 5 10 14 5 10 14 5 10 14 5 10 14 5 10 14 5 10 14 4 9 13 4 9 13 4 9 13 4 9 13 4 9 13 4 9 13 4 9 13 4 9 13 5 10 13 5 10 13 5 10 13 5 10 13 5 10 13 5 10 13 5 10 13 5 10 13 6 11 14 6 11 14 6 11 14 6 11 14 6 11 14 6 11 14 6 11 14 6 11 14 4 13 12 4 13 12 4 13 12 4 13 12 4 13 12 4 13 12 4 13 12 4 13 12 7 16 15 7 16 15 7 16 15 7 16 15 7 16 15 7 16 15 7 16 15 7 16 15 9 15 13 8 14 12 8 14 12 7 13 11 6 12 10 5 11 9 4 10 8 4 10 8 0 4 2 0 4 2 0 4 2 0 4 2 0 4 2 0 4 2 0 4 2 0 4 2 0 4 0 1 6 2 3 8 4 6 11 7 10 15 11 13 18 14 15 20 16 17 22 18 32 37 33 34 39 35 36 41 37 39 44 40 43 48 44 46 51 47 48 53 49 50 55 49 64 69 63 65 70 63 68 73 66 71 76 69 74 79 72 78 83 76 80 85 78 81 86 79 79 84 77 85 90 83 93 98 91 98 103 96 98 103 96 93 98 91 85 90 83 81 84 77 51 52 47 50 49 45 48 47 43 45 44 40 41 40 36 38 37 33 36 35 31 34 33 29 40 39 35 40 39 35 40 39 35 40 39 35 40 39 35 40 39 35 40 39 35 40 39 35 38 37 35 38 37 35 38 37 35 38 37 35 38 37 35 38 37 35 38 37 35 38 37 35 36 35 33 36 35 33 36 35 33 36 35 33 36 35 33 36 35 33 36 35 33 36 35 33
0 0 2 0 0 2 0 0 2 0 0 2 0 0 2 0 0 2 0 0 2 0 0 2 0 0 2 0 0 2 0 0 2 0 0 2 0 0 4 0 0 4 0 0 4 0 0 4 0 0 4 0 0 4 0 0 4 0 0 4 0 0 4 0 0 4 0 0 4 0 0 4 0 0 4 0 0 4 0 0 4 0 0 4 2 3 7 2 3 7 2 3 7 2 3 7 2 3 7 2 3 7 2 3 7 2 3 7 5 6 10 5 6 10 5 6 10 5 6 10 5 6 10 5 6 10 5 6 10 3 7 10 6 9 14 5 10 14 5 10 14 5 10 14 5 10 14 5 10 14 5 10 14 5 10 14 4 9 13 4 9 13 4 9 13 4 9 13 4 9 13 4 9 13 4 9 13 4 9 13 5 10 13 5 10 13 5 10 13 5 10 13 5 10 13 5 10 13 5 10 13 5 10 13 6 11 14 6 11 14 6 11 14 6 11 14 6 11 14 6 11 14 6 11 14 6 11 14 4 13 12 4 13 12 4 13 12 4 13 12 4 13 12 4 13 12 4 13 12 4 13 12 7 16 15 7 16 15 7 16 15 7 16 15 7 16 15 7 16 15 7 16 15 7 16 15 7 13 11 8 14 12 8 14 12 9 15 13 10 16 14 11 17 15 12 18 16 12 18 16 0 4 2 0 4 2 0 4 2 0 4 2 0 4 2 0 4 2 0 4 2 0 4 2 0 4 0 1 6 2 3 8 4 6 11 7 10 15 11 13 18 14 15 20 16 17 22 18 32 37 33 34 39 35 36 41 37 39 44 40 43 48 44 46 51 47 48 53 49 50 55 49 61 66 60 62 67 60 64 69 62 68 73 66 71 76 69 74 79 72 77 82 75 78 83 76 76 81 74 81 86 79 89 94 87 95 100 93 95 100 93 89 94 87 81 86 79 78 81 74 51 52 47 50 49 45 48 47 43 45 44 40 41 40 36 38 37 33 36 35 31 34 33 29 40 39 35 40 39 35 40 39 35 40 39 35 40 39 35 40 39 35 40 39 35 40 39 35 38 37 35 38 37 35 38 37 35 38 37 35 38 37 35 38 37 35 38 37 35 38 37 35 36 35 33 36 35 33 36 35 33 36 35 33 36 35 33 36 35 33 36 35 33 36 35 33
0 0 2 0 0 2 0 0 2 0 0 2 0 0 2 0 0 2 0 0 2 0 0 2 0 0 2 0 0 2 0 0 2 0 0 2 0 0 4 0 0 4 0 0 4 0 0 4 0 0 4 0 0 4 0 0 4 0 0 4 0 0 4 0 0 4 0 0 4 0 0 4 0 0 4 0 0 4 0 0 4 0 0 4 2 3 7 2 3 7 2 3 7 2 3 7 2 3 7 2 3 7 2 3 7 2 3 7 5 6 10 5 6 10 5 6 10 5 6 10 5 6 10 5 6 10 5 6 10 3 7 10 6 9 14 5 10 14 5 10 14 5 10 14 5 10 14 5 10 14 5 10 14 5 10 14 4 9 13 4 9 13 4 9 13 4 9 13 4 9 13 4 9 13 4 9 13 4 9 13 5 10 13 5 10 13 5 10 13 5 10 13 5 10 13 5 10 13 5 10 13 5 10 13 6 11 14 6 11 14 6 11 14 6 11 14 6 11 14 6 11 14 6 11 14 6 11 14 4 13 12 4 13 12 4 13 12 4 13 12 4 13 12 4 13 12 4 13 12 4 13 12 7 16 15 7 16 15 7 16 15 7 16 15 7 16 15 7 16 15 7 16 15 7 16 15 6 12 10 7 13 11 9 15 13 12 18 16 14 20 18 17 23 21 19 25 23 20 26 24 0 4 2 0 4 2 0 4 2 0 4 2 0 4 2 0 4 2 0 4 2 0 4 2 0 4 0 1 6 2 3 8 4 6 11 7 10 15 11 13 18 14 15 20 16 17 22 18 32 37 33 34 39 35 36 41 37 39 44 40 43 48 44 46 51 47 48 53 49 50 55 49 57 62 56 59 64 57 61 66 59 64 69 62 68 73 66 71 76 69 73 78 71 75 80 73 72 77 70 78 83 76 86 91 84 92 97 90 92 97 90 86 91 84 78 83 76 74 77 70 51 52 47 50 49 45 48 47 43 45 44 40 41 40 36 38 37 33 36 35 31 34 33 29 40 39 35 40 39 35 40 39 35 40 39 35 40 39 35 40 39 35 40 39 35 40 39 35 38 37 35 38 37 35 38 37 35 38 37 35 38 37 35 38 37 35 38 37 35 38 37 35 36 35 33 36 35 33 36 35 33 36 35 33 36 35 33 36 35 33 36 35 33 36 35 33
0 0 2 0 0 2 0 0 2 0 0 2 0 0 2 0 0 2 0 0 2 0 0 2 0 0 2 0 0 2 0 0 2 0 0 2 0 0 4 0 0 4 0 0 4 0 0 4 0 0 4 0 0 4 0 0 4 0 0 4 0 0 4 0 0 4 0 0 4 0 0 4 0 0 4 0 0 4 0 0 4 0 0 4 2 3 7 2 3 7 2 3 7 2 3 7 2 3 7 2 3 7 2 3 7 2 3 7 5 6 10 5 6 10 5 6 10 5 6 10 5 6 10 5 6 10 5 6 10 3 7 10 6 9 14 5 10 14 5 10 14 5 10 14 5 10 14 5 10 14 5 10 14 5 10 14 4 9 13 4 9 13 4 9 13 4 9 13 4 9 13 4 9 13 4 9 13 4 9 13 5 10 13 5 10 13 5 10 13 5 10 13 5 10 13 5 10 13 5 10 13 5 10 13 6 11 14 6 11 14 6 11 14 6 11 14 6 11 14 6 11 14 6 11 14 6 11 14 4 13 12 4 13 12 4 13 12 4 13 12 4 13 12 4 13 12 4 13 12 4 13 12 7 16 15 7 16 15 7 16 15 7 16 15 7 16 15 7 16 15 7 16 15 7 16 15 5 11 9 7 13 11 10 16 14 13 19 17 17 23 21 21 27 25 24 30 28 26 32 30 0 4 2 0 4 2 0 4 2 0 4 2 0 4 2 0 4 2 0 4 2 0 4 2 0 4 0 1 6 2 3 8 4 6 11 7 10 15 11 13 18 14 15 20 16 17 22 18 32 37 33 34 39 35 36 41 37 39 44 40 43 48 44 46 51 47 48 53 49 50 55 49 55 60 54 56 61 54 59 64 57 62 67 60 65 70 63 69 74 67 71 76 69 72 77 70 70 75 68 76 81 74 84 89 82 89 94 87 89 94 87 84 89 82 76 81 74 72 75 68 51 52 47 50 49 45 48 47 43 45 44 40 41 40 36 38 37 33 36 35 31 34 33 29 40 39 35 40 39 35 40 39 35 40 39 35 40 39 35 40 39 35 40 39 35 40 39 35 38 37 35 38 37 35 38 37 35 38 37 35 38 37 35 38 37 35 38 37 35 38 37 35 36 35 33 36 35 33 36 35 33 36 35 33 36 35 33 36 35 33 36 35 33 36 35 33
0 0 2 0 0 2 0 0 2 0 0 2 0 0 2 0 0 2 0 0 2 0 0 2 0 0 2 0 0 2 0 0 2 0 0 2 0 0 4 0 0 4 0 0 4 0 0 4 0 0 4 0 0 4 0 0 4 0 0 4 0 0 4 0 0 4 0 0 4 0 0 4 0 0 4 0 0 4 0 0 4 0 0 4 2 3 7 2 3 7 2 3 7 2 3 7 2 3 7 2 3 7 2 3 7 2 3 7 5 6 10 5 6 10 5 6 10 5 6 10 5 6 10 5 6 10 5 6 10 3 7 10 6 9 14 5 10 14 5 10 14 5 10 14 5 10 14 5 10 14 5 10 14 5 10 14 4 9 13 4 9 13 4 9 13 4 9 13 4 9 13 4 9 13 4 9 13 4 9 13 5 10 13 5 10 13 5 10 13 5 10 13 5 10 13 5 10 13 5 10 13 5 10 13 6 11 14 6 11 14 6 11 14 6 11 14 6 11 14 6 11 14 6 11 14 6 11 14 4 13 12 4 13 12 4 13 12 4 13 12 4 13 12 4 13 12 4 13 12 4 13 12 7 16 15 7 16 15 7 16 15 7 16 15 7 16 15 7 16 15 7 16 15 7 16 15 5 11 9 6 12 10 10 16 14 14 20 18 19 25 23 23 29 27 27 33 31 29 35 33 0 4 2 0 4 2 0 4 2 0 4 2 0 4 2 0 4 2 0 4 2 0 4 2 0 4 0 1 6 2 3 8 4 6 11 7 10 15 11 13 18 14 15 20 16 17 22 18 32 37 33 34 39 35 36 41 37 39 44 40 43 48 44 46 51 47 48 53 49 50 55 49 54 59 53 55 60 53 57 62 55 61 66 59 64 69 62 67 72 65 70 75 68 71 76 69 69 74 67 74 79 72 82 87 80 88 93 86 88 93 86 82 87 80 74 79 72 71 74 67 51 52 47 50 49 45 48 47 43 45 44 40 41 40 36 38 37 33 36 35 31 34 33 29 40 39 35 40 39 35 40 39 35 40 39 35 40 39 35 40 39 35 40 39 35 40 39 35 38 37 35 38 37 35 38 37 35 38 37 35 38 37 35 38 37 35 38 37 35 38 37 35 36 35 33 36 35 33 36 35 33 36 35 33 36 35 33 36 35 33 36 35 33 36 35 33
1 1 3 1 1 3 1 1 3 1 1 3 0 0 2 0 0 2 0 0 2 0 0 2 0 0 2 0 0 2 0 0 2 0 0 2 2 1 6 2 1 6 2 1 6 2 1 6 2 1 6 2 1 6 2 1 6 2 1 6 2 1 6 2 1 6 2 1 6 2 1 6 2 1 6 2 1 6 2 1 6 2 1 6 4 5 9 4 5 9 4 5 9 4 5 9 4 5 9 4 5 9 4 5 9 4 5 9 4 5 9 4 5 9 4 5 9 4 5 9 4 5 9 4 5 9 4 5 9 2 6 9 3 6 11 2 7 11 2 7 11 2 7 11 2 7 11 2 7 11 2 7 11 2 7 11 3 8 12 3 8 12 3 8 12 3 8 12 3 8 12 3 8 12 3 8 12 3 8 12 3 8 11 3 8 11 3 8 11 3 8 11 3 8 11 3 8 11 3 8 11 3 8 11 5 10 13 5 10 13 5 10 13 5 10 13 5 10 13 5 10 13 5 10 13 5 10 13 7 16 15 7 16 15 7 16 15 7 16 15 7 16 15 7 16 15 7 16 15 7 16 15 9 18 17 9 18 17 9 18 17 9 18 17 9 18 17 9 18 17 9 18 17 9 18 17 0 5 3 1 7 5 5 11 9 9 15 13 14 20 18 18 24 22 22 28 26 23 29 27 0 4 2 0 4 2 0 4 2 0 4 2 0 4 2 0 4 2 0 4 2 0 4 2 0 2 0 0 3 0 0 5 1 3 8 4 7 12 8 10 15 11 12 17 13 14 19 15 25 30 26 27 32 28 29 34 30 32 37 33 36 41 37 39 44 40 41 46 42 43 48 42 55 60 54 56 61 54 59 64 57 62 67 60 65 70 63 69 74 67 71 76 69 72 77 70 74 79 72 74 79 72 74 79 72 74 79 72 74 79 72 74 79 72 74 79 72 76 79 72 47 48 43 46 45 41 44 43 39 41 40 36 37 36 32 34 33 29 32 31 27 30 29 25 33 32 28 33 32 28 33 32 28 33 32 28 33 32 28 33 32 28 33 32 28 33 32 28 34 33 31 34 33 31 34 33 31 34 33 31 34 33 31 34 33 31 34 33 31 34 33 31 37 36 34 37 36 34 37 36 34 37 36 34 37 36 34 37 36 34 37 36 34 37 36 34
1 1 3 1 1 3 1 1 3 1 1 3 0 0 2 0 0 2 0 0 2 0 0 2 0 0 2 0 0 2 0 0 2 0 0 2 2 1 6 2 1 6 2 1 6 2 1 6 2 1 6 2 1 6 2 1 6 2 1 6 2 1 6 2 1 6 2 1 6 2 1 6 2 1 6 2 1 6 2 1 6 2 1 6 4 5 9 4 5 9 4 5 9 4 5 9 4 5 9 4 5 9 4 5 9 4 5 9 4 5 9 4 5 9 4 5 9 4 5 9 4 5 9 4 5 9 4 5 9 2 6 9 3 6 11 2 7 11 2 7 11 2 7 11 2 7 11 2 7 11 2 7 11 2 7 11 3 8 12 3 8 12 3 8 12 3 8 12 3 8 12 3 8 12 3 8 12 3 8 12 3 8 11 3 8 11 3 8 11 3 8 11 3 8 11 3 8 11 3 8 11 3 8 11 5 10 13 5 10 13 5 10 13 5 10 13 5 10 13 5 10 13 5 10 13 5 10 13 7 16 15 7 16 15 7 16 15 7 16 15 7 16 15 7 16 15 7 16 15 7 16 15 9 18 17 9 18 17 9 18 17 9 18 17 9 18 17 9 18 17 9 18 17 9 18 17 2 8 6 4 10 8 7 13 11 11 17 15 15 21 19 18 24 22 21 27 25 23 29 27 0 4 2 0 4 2 0 4 2 0 4 2 0 4 2 0 4 2 0 4 2 0 4 2 0 2 0 0 3 0 0 5 1 3 8 4 7 12 8 10 15 11 12 17 13 14 19 15 25 30 26 27 32 28 29 34 30 32 37 33 36 41 37 39 44 40 41 46 42 43 48 42 54 59 53 55 60 53 57 62 55 61 66 59 64 69 62 67 72 65 70 75 68 71 76 69 72 77 70 72 77 70 72 77 70 72 77 70 72 77 70 72 77 70 72 77 70 74 77 70 47 48 43 46 45 41 44 43 39 41 40 36 37 36 32 34 33 29 32 31 27 30 29 25 33 32 28 33 32 28 33 32 28 33 32 28 33 32 28 33 32 28 33 32 28 33 32 28 34 33 31 34 33 31 34 33 31 34 33 31 34 33 31 34 33 31 34 33 31 34 33 31 37 36 34 37 36 34 37 36 34 37 36 34 37 36 34 37 36 34 37 36 34 37 36 34
1 1 3 1 1 3 1 1 3 1 1 3 0 0 2 0 0 2 0 0 2 0 0 2 0 0 2 0 0 2 0 0 2 0 0 2 2 1 6 2 1 6 2 1 6 2 1 6 2 1 6 2 1 6 2 1 6 2 1 6 2 1 6 2 1 6 2 1 6 2 1 6 2 1 6 2 1 6 2 1 6 2 1 6 4 5 9 4 5 9 4 5 9 4 5 9 4 5 9 4 5 9 4 5 9 4 5 9 4 5 9 4 5 9 4 5 9 4 5 9 4 5 9 4 5 9 4 5 9 2 6 9 3 6 11 2 7 11 2 7 11 2 7 11 2 7 11 2 7 11 2 7 11 2 7 11 3 8 12 3 8 12 3 8 12 3 8 12 3 8 12 3 8 12 3 8 12 3 8 12 3 8 11 3 8 11 3 8 11 3 8 11 3 8 11 3 8 11 3 8 11 3 8 11 5 10 13 5 10 13 5 10 13 5 10 13 5 10 13 5 10 13 5 10 13 5 10 13 7 16 15 7 16 15 7 16 15 7 16 15 7 16 15 7 16 15 7 16 15 7 16 15 9 18 17 9 18 17 9 18 17 9 18 17 9 18 17 9 18 17 9 18 17 9 18 17 8 14 12 9 15 13 11 17 15 14 20 18 16 22 20 19 25 23 21 27 25 22 28 26 0 4 2 0 4 2 0 4 2 0 4 2 0 4 2 0 4 2 0 4 2 0 4 2 0 2 0 0 3 0 0 5 1 3 8 4 7 12 8 10 15 11 12 17 13 14 19 15 25 30 26 27 32 28 29 34 30 32 37 33 36 41 37 39 44 40 41 46 42 43 48 42 51 56 50 53 58 51 55 60 53 58 63 56 62 67 60 65 70 63 67 72 65 69 74 67 70 75 68 70 75 68 70 75 68 70 75 68 70 75 68 70 75 68 70 75 68 72 75 68 47 48 43 46 45 41 44 43 39 41 40 36 37 36 32 34 33 29 32 31 27 30 29 25 33 32 28 33 32 28 33 32 28 33 32 28 33 32 28 33 32 28 33 32 28 33 32 28 34 33 31 34 33 31 34 33 31 34 33 31 34 33 31 34 33 31 34 33 31 34 33 31 37 36 34 37 36 34 37 36 34 37 36 34 37 36 34 37 36 34 37 36 34 37 36 34
1 1 3 1 1 3 1 1 3 1 1 3 0 0 2 0 0 2 0 0 2 0 0 2 0 0 2 0 0 2 0 0 2 0 0 2 2 1 6 2 1 6 2 1 6 2 1 6 2 1 6 2 1 6 2 1 6 2 1 6 2 1 6 2 1 6 2 1 6 2 1 6 2 1 6 2 1 6 2 1 6 2 1 6 4 5 9 4 5 9 4 5 9 4 5 9 4 5 9 4 5 9 4 5 9 4 5 9 4 5 9 4 5 9 4 5 9 4 5 9 4 5 9 4 5 9 4 5 9 2 6 9 3 6 11 2 7 11 2 7 11 2 7 11 2 7 11 2 7 11 2 7 11 2 7 11 3 8 12 3 8 12 3 8 12 3 8 12 3 8 12 3 8 12 3 8 12 3 8 12 3 8 11 3 8 11 3 8 11 3 8 11 3 8 11 3 8 11 3 8 11 3 8 11 5 10 13 5 10 13 5 10 13 5 10 13 5 10 13 5 10 13 5 10 13 5 10 13 7 16 15 7 16 15 7 16 15 7 16 15 7 16 15 7 16 15 7 16 15 7 16 15 9 18 17 9 18 17 9 18 17 9 18 17 9 18 17 9 18 17 9 18 17 9 18 17 16 22 20 16 22 20 17 23 21 18 24 22 19 25 23 20 26 24 20 26 24 21 27 25 0 4 2 0 4 2 0 4 2 0 4 2 0 4 2 0 4 2 0 4 2 0 4 2 0 2 0 0 3 0 0 5 1 3 8 4 7 12 8 10 15 11 12 17 13 14 19 15 25 30 26 27 32 28 29 34 30 32 37 33 36 41 37 39 44 40 41 46 42 43 48 42 48 53 47 49 54 47 52 57 50 55 60 53 58 63 56 62 67 60 64 69 62 65 70 63 67 72 65 67 72 65 67 72 65 67 72 65 67 72 65 67 72 65 67 72 65 69 72 65 47 48 43 46 45 41 44 43 39 41 40 36 37 36 32 34 33 29 32 31 27 30 29 25 33 32 28 33 32 28 33 32 28 33 32 28 33 32 28 33 32 28 33 32 28 33 32 28 34 33 31 34 33 31 34 33 31 34 33 31 34 33 31 34 33 31 34 33 31 34 33 31 37 36 34 37 36 34 37 36 34 37 36 34 37 36 34 37 36 34 37 36 34 37 36 34
1 1 3 1 1 3 1 1 3 1 1 3 0 0 2 0 0 2 0 0 2 0 0 2 0 0 2 0 0 2 0 0 2 0 0 2 2 1 6 2 1 6 2 1 6 2 1 6 2 1 6 2 1 6 2 1 6 2 1 6 2 1 6 2 1 6 2 1 6 2 1 6 2 1 6 2 1 6 2 1 6 2 1 6 4 5 9 4 5 9 4 5 9 4 5 9 4 5 9 4 5 9 4 5 9 4 5 9 4 5 9 4 5 9 4 5 9 4 5 9 4 5 9 4 5 9 4 5 9 2 6 9 3 6 11 2 7 11 2 7 11 2 7 11 2 7 11 2 7 11 2 7 11 2 7 11 3 8 12 3 8 12 3 8 12 3 8 12 3 8 12 3 8 12 3 8 12 3 8 12 3 8 11 3 8 11 3 8 11 3 8 11 3 8 11 3 8 11 3 8 11 3 8 11 5 10 13 5 10 13 5 10 13 5 10 13 5 10 13 5 10 13 5 10 13 5 10 13 7 16 15 7 16 15 7 16 15 7 16 15 7 16 15 7 16 15 7 16 15 7 16 15 9 18 17 9 18 17 9 18 17 9 18 17 9 18 17 9 18 17 9 18 17 9 18 17 24 30 28 24 30 28 23 29 27 22 28 26 21 27 25 20 26 24 20 26 24 19 25 23 0 4 2 0 4 2 0 4 2 0 4 2 0 4 2 0 4 2 0 4 2 0 4 2 0 2 0 0 3 0 0 5 1 3 8 4 7 12 8 10 15 11 12 17 13 14 19 15 25 30 26 27 32 28 29 34 30 32 37 33 36 41 37 39 44 40 41 46 42 43 48 42 45 50 44 46 51 44 48 53 46 52 57 50 55 60 53 58 63 56 61 66 59 62 67 60 63 68 61 63 68 61 63 68 61 63 68 61 63 68 61 63 68 61 63 68 61 65 68 61 47 48 43 46 45 41 44 43 39 41 40 36 37 36 32 34 33 29 32 31 27 30 29 25 33 32 28 33 32 28 33 32 28 33 32 28 33 32 28 33 32 28 33 32 28 33 32 28 34 33 31 34 33 31 34 33 31 34 33 31 34 33 31 34 33 31 34 33 31 34 33 31 37 36 34 37 36 34 37 36 34 37 36 34 37 36 34 37 36 34 37 36 34 37 36 34
1 1 3 1 1 3 1 1 3 1 1 3 0 0 2 0 0 2 0 0 2 0 0 2 0 0 2 0 0 2 0 0 2 0 0 2 2 1 6 2 1 6 2 1 6 2 1 6 2 1 6 2 1 6 2 1 6 2 1 6 2 1 6 2 1 6 2 1 6 2 1 6 2 1 6 2 1 6 2 1 6 2 1 6 4 5 9 4 5 9 4 5 9 4 5 9 4 5 9 4 5 9 4 5 9 4 5 9 4 5 9 4 5 9 4 5 9 4 5 9 4 5 9 4 5 9 4 5 9 2 6 9 3 6 11 2 7 11 2 7 11 2 7 11 2 7 11 2 7 11 2 7 11 2 7 11 3 8 12 3 8 12 3 8 12 3 8 12 3 8 12 3 8 12 3 8 12 3 8 12 3 8 11 3 8 11 3 8 11 3 8 11 3 8 11 3 8 11 3 8 11 3 8 11 5 10 13 5 10 13 5 10 13 5 10 13 5 10 13 5 10 13 5 10 13 5 10 13 7 16 15 7 16 15 7 16 15 7 16 15 7 16 15 7 16 15 7 16 15 7 16 15 9 18 17 9 18 17 9 18 17 9 18 17 9 18 17 9 18 17 9 18 17 9 18 17 32 38 36 31 37 35 29 35 33 26 32 30 24 30 28 21 27 25 19 25 23 18 24 22 0 4 2 0 4 2 0 4 2 0 4 2 0 4 2 0 4 2 0 4 2 0 4 2 0 2 0 0 3 0 0 5 1 3 8 4 7 12 8 10 15 11 12 17 13 14 19 15 25 30 26 27 32 28 29 34 30 32 37 33 36 41 37 39 44 40 41 46 42 43 48 42 41 46 40 43 48 41 45 50 43 48 53 46 52 57 50 55 60 53 57 62 55 59 64 57 60 65 58 60 65 58 60 65 58 60 65 58 60 65 58 60 65 58 60 65 58 62 65 58 47 48 43 46 45 41 44 43 39 41 40 36 37 36 32 34 33 29 32 31 27 30 29 25 33 32 28 33 32 28 33 32 28 33 32 28 33 32 28 33 32 28 33 32 28 33 32 28 34 33 31 34 33 31 34 33 31 34 33 31 34 33 31 34 33 31 34 33 31 34 33 31 37 36 34 37 36 34 37 36 34 37 36 34 37 36 34 37 36 34 37 36 34 37 36 34
1 1 3 1 1 3 1 1 3 1 1 3 0 0 2 0 0 2 0 0 2 0 0 2 0 0 2 0 0 2 0 0 2 0 0 2 2 1 6 2 1 6 2 1 6 2 1 6 2 1 6 2 1 6 2 1 6 2 1 6 2 1 6 2 1 6 2 1 6 2 1 6 2 1 6 2 1 6 2 1 6 2 1 6 4 5 9 4 5 9 4 5 9 4 5 9 4 5 9 4 5 9 4 5 9 4 5 9 4 5 9 4 5 9 4 5 9 4 5 9 4 5 9 4 5 9 4 5 9 2 6 9 3 6 11 2 7 11 2 7 11 2 7 11 2 7 11 2 7 11 2 7 11 2 7 11 3 8 12 3 8 12 3 8 12 3 8 12 3 8 12 3 8 12 3 8 12 3 8 12 3 8 11 3 8 11 3 8 11 3 8 11 3 8 11 3 8 11 3 8 11 3 8 11 5 10 13 5 10 13 5 10 13 5 10 13 5 10 13 5 10 13 5 10 13 5 10 13 7 16 15 7 16 15 7 16 15 7 16 15 7 16 15 7 16 15 7 16 15 7 16 15 9 18 17 9 18 17 9 18 17 9 18 17 9 18 17 9 18 17 9 18 17 9 18 17 38 44 42 36 42 40 33 39 37 29 35 33 25 31 29 22 28 26 19 25 23 17 23 21 0 4 2 0 4 2 0 4 2 0 4 2 0 4 2 0 4 2 0 4 2 0 4 2 0 2 0 0 3 0 0 5 1 3 8 4 7 12 8 10 15 11 12 17 13 14 19 15 25 30 26 27 32 28 29 34 30 32 37 33 36 41 37 39 44 40 41 46 42 43 48 42 39 44 38 40 45 38 43 48 41 46 51 44 49 54 47 53 58 51 55 60 53 56 61 54 58 63 56 58 63 56 58 63 56 58 63 56 58 63 56 58 63 56 58 63 56 60 63 56 47 48 43 46 45 41 44 43 39 41 40 36 37 36 32 34 33 29 32 31 27 30 29 25 33 32 28 33 32 28 33 32 28 33 32 28 33 32 28 33 32 28 33 32 28 33 32 28 34 33 31 34 33 31 34 33 31 34 33 31 34 33 31 34 33 31 34 33 31 34 33 31 37 36 34 37 36 34 37 36 34 37 36 34 37 36 34 37 36 34 37 36 34 37 36 34
1 1 3 1 1 3 1 1 3 1 1 3 0 0 2 0 0 2 0 0 2 0 0 2 0 0 2 0 0 2 0 0 2 0 0 2 2 1 6 2 1 6 2 1 6 2 1 6 2 1 6 2 1 6 2 1 6 2 1 6 2 1 6 2 1 6 2 1 6 2 1 6 2 1 6 2 1 6 2 1 6 2 1 6 4 5 9 4 5 9 4 5 9 4 5 9 4 5 9 4 5 9 4 5 9 4 5 9 4 5 9 4 5 9 4 5 9 4 5 9 4 5 9 4 5 9 4 5 9 4 5 9 3 6 11 3 6 11 3 6 11 3 6 11 3 6 11 3 6 11 3 6 11 3 6 11 4 7 12 4 7 12 4 7 12 4 7 12 4 7 12 4 7 12 4 7 12 4 7 12 3 8 11 3 8 11 3 8 11 3 8 11 3 8 11 3 8 11 3 8 11 3 8 11 5 10 13 5 10 13 5 10 13 5 10 13 5 10 13 5 10 13 5 10 13 5 10 13 7 16 15 7 16 15 7 16 15 7 16 15 7 16 15 7 16 15 7 16 15 7 16 15 9 18 17 9 18 17 9 18 17 9 18 17 9 18 17 9 18 17 9 18 17 9 18 17 41 47 47 39 45 43 35 41 39 31 37 35 26 32 30 22 28 26 18 24 22 17 23 21 0 4 2 0 4 2 0 4 2 0 4 2 0 4 2 0 4 2 0 4 2 0 4 2 0 1 0 0 2 1 0 4 3 3 7 6 7 11 10 10 14 13 12 16 15 14 18 17 25 29 28 27 31 30 29 33 32 32 36 35 36 40 39 39 43 42 41 45 44 43 48 44 38 43 37 39 44 38 41 46 40 45 50 44 48 53 47 51 56 50 54 59 53 55 60 54 56 61 55 56 61 55 56 61 55 56 61 55 56 61 55 56 61 55 56 61 55 58 60 55 48 47 43 46 45 41 46 42 39 41 40 36 39 35 32 34 33 29 34 30 27 30 29 25 35 31 28 33 32 28 35 31 28 33 32 28 35 31 28 33 32 28 35 31 28 33 32 28 36 32 29 34 33 29 36 32 31 34 33 29 36 32 31 34 33 29 36 32 31 34 33 29 39 35 34 37 36 32 39 35 34 37 36 32 39 35 34 37 36 32 39 35 34 37 36 34
1 1 3 1 1 3 1 1 3 1 1 3 1 1 3 1 1 3 1 1 3 1 1 3 1 1 3 1 1 3 1 1 3 1 1 3 1 1 3 1 1 3 1 1 3 1 1 3 1 1 3 1 1 3 1 1 3 1 1 3 2 2 4 2 2 4 2 2 4 2 2 4 2 2 4 2 2 4 2 2 4 2 2 4 3 2 7 3 2 7 3 2 7 3 2 7 3 2 7 3 2 7 3 2 7 3 2 7 3 2 7 3 2 7 3 2 7 3 2 7 3 2 7 3 2 7 3 2 7 3 2 7 3 4 9 3 4 9 3 4 9 3 4 9 3 4 9 3 4 9 3 4 9 3 4 9 2 3 8 2 3 8 2 3 8 2 3 8 2 3 8 2 3 8 2 3 8 2 3 8 2 6 9 1 6 9 1 6 9 1 6 9 1 6 9 1 6 9 1 6 9 1 6 9 5 10 13 5 10 13 5 10 13 5 10 13 5 10 13 5 10 13 5 10 13 5 10 13 10 18 20 10 18 20 10 18 20 10 18 20 10 18 20 10 18 20 10 18 20 10 18 20 5 13 15 8 16 18 14 22 24 21 29 31 29 37 39 37 45 47 43 51 53 46 55 54 42 51 50 40 49 48 38 47 46 35 44 43 31 40 39 28 37 36 26 35 34 24 33 32 1 10 9 1 10 9 1 10 9 1 10 9 1 10 9 1 10 9 1 10 9 1 10 9 0 3 3 0 5 5 1 7 7 4 10 10 8 14 14 11 17 17 13 19 19 15 21 21 17 23 23 19 25 25 21 27 27 24 30 30 28 34 34 31 37 37 33 39 39 35 41 41 48 54 52 48 54 50 48 54 50 48 54 50 48 54 50 48 54 50 48 54 50 48 54 50 50 56 52 50 56 52 50 56 52 50 56 52 50 56 52 50 56 52 50 56 52 53 55 52 33 32 28 35 31 28 36 31 28 35 31 28 36 31 28 35 31 28 36 31 28 35 31 28 34 29 26 33 29 26 34 29 26 33 29 26 34 29 26 33 29 26 34 29 26 33 29 26 36 31 28 35 32 27 36 31 28 35 32 27 36 31 28 35 32 27 36 31 28 35 32 27 38 33 30 37 34 29 38 33 30 37 34 29 38 33 30 37 34 29 38 33 30 37 33 30
1 1 3 1 1 3 1 1 3 1 1 3 1 1 3 1 1 3 1 1 3 1 1 3 1 1 3 1 1 3 1 1 3 1 1 3 1 1 3 1 1 3 1 1 3 1 1 3 1 1 3 1 1 3 1 1 3 1 1 3 2 2 4 2 2 4 2 2 4 2 2 4 2 2 4 2 2 4 2 2 4 2 2 4 3 2 7 3 2 7 3 2 7 3 2 7 3 2 7 3 2 7 3 2 7 3 2 7 3 2 7 3 2 7 3 2 7 3 2 7 3 2 7 3 2 7 3 2 7 3 2 7 4 3 9 4 3 9 4 3 9 4 3 9 4 3 9 4 3 9 4 3 9 4 3 9 3 2 8 3 2 8 3 2 8 3 2 8 3 2 8 3 2 8 3 2 8 2 3 8 2 6 9 1 6 9 1 6 9 1 6 9 1 6 9 1 6 9 1 6 9 1 6 9 5 10 13 5 10 13 5 10 13 5 10 13 5 10 13 5 10 13 5 10 13 5 10 13 10 18 20 10 18 20 10 18 20 10 18 20 10 18 20 10 18 20 10 18 20 10 18 20 8 16 18 11 19 21 16 24 26 23 31 33 30 38 40 37 45 47 43 51 53 46 54 56 42 51 50 40 49 48 38 47 46 35 44 43 31 40 39 28 37 36 26 35 34 24 33 32 1 10 9 1 10 9 1 10 9 1 10 9 1 10 9 1 10 9 1 10 9 1 10 9 0 2 5 0 4 7 1 6 9 4 9 12 8 13 16 11 16 19 13 18 21 15 20 23 17 22 25 19 24 27 21 26 29 24 29 32 28 33 36 31 36 39 33 38 41 35 41 41 46 52 52 46 52 50 46 52 50 46 52 50 46 52 50 46 52 50 46 52 50 46 52 50 48 54 52 48 54 52 48 54 52 48 54 52 48 54 52 48 54 52 48 54 52 49 54 50 35 31 30 36 31 28 36 31 28 36 31 28 36 31 28 36 31 28 36 31 28 36 31 28 34 29 26 34 29 26 34 29 26 34 29 26 34 29 26 34 29 26 34 29 26 34 29 26 36 31 27 36 31 27 36 31 27 36 31 27 36 31 27 36 31 27 36 31 27 36 31 27 38 33 29 38 33 29 38 33 29 38 33 29 38 33 29 38 33 29 38 33 29 38 33 29
1 1 3 1 1 3 1 1 3 1 1 3 1 1 3 1 1 3 1 1 3 1 1 3 1 1 3 1 1 3 1 1 3 1 1 3 1 1 3 1 1 3 1 1 3 1 1 3 1 1 3 1 1 3 1 1 3 1 1 3 2 2 4 2 2 4 2 2 4 2 2 4 2 2 4 2 2 4 2 2 4 2 2 4 3 2 7 3 2 7 3 2 7 3 2 7 3 2 7 3 2 7 3 2 7 3 2 7 3 2 7 3 2 7 3 2 7 3 2 7 3 2 7 3 2 7 3 2 7 3 2 7 4 3 9 4 3 9 4 3 9 4 3 9 4 3 9 4 3 9 4 3 9 4 3 9 3 2 8 3 2 8 3 2 8 3 2 8 3 2 8 3 2 8 3 2 8 2 3 8 2 6 9 1 6 9 1 6 9 1 6 9 1 6 9 1 6 9 1 6 9 1 6 9 5 10 13 5 10 13 5 10 13 5 10 13 5 10 13 5 10 13 5 10 13 5 10 13 10 18 20 10 18 20 10 18 20 10 18 20 10 18 20 10 18 20 10 18 20 10 18 20 14 22 24 16 24 26 20 28 30 26 34 36 32 40 42 38 46 48 42 50 52 45 53 55 42 51 50 40 49 48 38 47 46 35 44 43 31 40 39 28 37 36 26 35 34 24 33 32 1 10 9 1 10 9 1 10 9 1 10 9 1 10 9 1 10 9 1 10 9 1 10 9 0 2 5 0 4 7 1 6 9 4 9 12 8 13 16 11 16 19 13 18 21 15 20 23 17 22 25 19 24 27 21 26 29 24 29 32 28 33 36 31 36 39 33 38 41 35 41 41 44 50 50 44 50 48 44 50 48 44 50 48 44 50 48 44 50 48 44 50 48 44 50 48 46 52 50 46 52 50 46 52 50 46 52 50 46 52 50 46 52 50 46 52 50 47 52 48 35 31 30 36 31 28 36 31 28 36 31 28 36 31 28 36 31 28 36 31 28 36 31 28 34 29 26 34 29 26 34 29 26 34 29 26 34 29 26 34 29 26 34 29 26 34 29 26 36 31 27 36 31 27 36 31 27 36 31 27 36 31 27 36 31 27 36 31 27 36 31 27 38 33 29 38 33 29 38 33 29 38 33 29 38 33 29 38 33 29 38 33 29 38 33 29
1 1 3 1 1 3 1 1 3 1 1 3 1 1 3 1 1 3 1 1 3 1 1 3 1 1 3 1 1 3 1 1 3 1 1 3 1 1 3 1 1 3 1 1 3 1 1 3 1 1 3 1 1 3 1 1 3 1 1 3 2 2 4 2 2 4 2 2 4 2 2 4 2 2 4 2 2 4 2 2 4 2 2 4 3 2 7 3 2 7 3 2 7 3 2 7 3 2 7 3 2 7 3 2 7 3 2 7 3 2 7 3 2 7 3 2 7 3 2 7 3 2 7 3 2 7 3 2 7 3 2 7 4 3 9 4 3 9 4 3 9 4 3 9 4 3 9 4 3 9 4 3 9 4 3 9 3 2 8 3 2 8 3 2 8 3 2 8 3 2 8 3 2 8 3 2 8 2 3 8 2 6 9 1 6 9 1 6 9 1 6 9 1 6 9 1 6 9 1 6 9 1 6 9 5 10 13 5 10 13 5 10 13 5 10 13 5 10 13 5 10 13 5 10 13 5 10 13 10 18 20 10 18 20 10 18 20 10 18 20 10 18 20 10 18 20 10 18 20 10 18 20 21 29 31 23 31 33 26 34 36 30 38 40 34 42 44 39 47 49 42 50 52 43 51 53 42 51 50 40 49 48 38 47 46 35 44 43 31 40 39 28 37 36 26 35 34 24 33 32 1 10 9 1 10 9 1 10 9 1 10 9 1 10 9 1 10 9 1 10 9 1 10 9 0 2 5 0 4 7 1 6 9 4 9 12 8 13 16 11 16 19 13 18 21 15 20 23 17 22 25 19 24 27 21 26 29 24 29 32 28 33 36 31 36 39 33 38 41 35 41 41 41 47 47 41 47 45 41 47 45 41 47 45 41 47 45 41 47 45 41 47 45 41 47 45 43 49 47 43 49 47 43 49 47 43 49 47 43 49 47 43 49 47 43 49 47 44 49 45 35 31 30 36 31 28 36 31 28 36 31 28 36 31 28 36 31 28 36 31 28 36 31 28 34 29 26 34 29 26 34 29 26 34 29 26 34 29 26 34 29 26 34 29 26 34 29 26 36 31 27 36 31 27 36 31 27 36 31 27 36 31 27 36 31 27 36 31 27 36 31 27 38 33 29 38 33 29 38 33 29 38 33 29 38 33 29 38 33 29 38 33 29 38 33 29
1 1 3 1 1 3 1 1 3 1 1 3 1 1 3 1 1 3 1 1 3 1 1 3 1 1 3 1 1 3 1 1 3 1 1 3 1 1 3 1 1 3 1 1 3 1 1 3 1 1 3 1 1 3 1 1 3 1 1 3 2 2 4 2 2 4 2 2 4 2 2 4 2 2 4 2 2 4 2 2 4 2 2 4 3 2 7 3 2 7 3 2 7 3 2 7 3 2 7 3 2 7 3 2 7 3 2 7 3 2 7 3 2 7 3 2 7 3 2 7 3 2 7 3 2 7 3 2 7 3 2 7 4 3 9 4 3 9 4 3 9 4 3 9 4 3 9 4 3 9 4 3 9 4 3 9 3 2 8 3 2 8 3 2 8 3 2 8 3 2 8 3 2 8 3 2 8 2 3 8 2 6 9 1 6 9 1 6 9 1 6 9 1 6 9 1 6 9 1 6 9 1 6 9 5 10 13 5 10 13 5 10 13 5 10 13 5 10 13 5 10 13 5 10 13 5 10 13 10 18 20 10 18 20 10 18 20 10 18 20 10 18 20 10 18 20 10 18 20 10 18 20 29 37 39 30 38 40 32 40 42 34 42 44 37 45 47 39 47 49 41 49 51 42 50 52 42 51 50 40 49 48 38 47 46 35 44 43 31 40 39 28 37 36 26 35 34 24 33 32 1 10 9 1 10 9 1 10 9 1 10 9 1 10 9 1 10 9 1 10 9 1 10 9 0 2 5 0 4 7 1 6 9 4 9 12 8 13 16 11 16 19 13 18 21 15 20 23 17 22 25 19 24 27 21 26 29 24 29 32 28 33 36 31 36 39 33 38 41 35 41 41 37 43 43 37 43 41 37 43 41 37 43 41 37 43 41 37 43 41 37 43 41 37 43 41 39 45 43 39 45 43 39 45 43 39 45 43 39 45 43 39 45 43 39 45 43 40 45 41 35 31 30 36 31 28 36 31 28 36 31 28 36 31 28 36 31 28 36 31 28 36 31 28 34 29 26 34 29 26 34 29 26 34 29 26 34 29 26 34 29 26 34 29 26 34 29 26 36 31 27 36 31 27 36 31 27 36 31 27 36 31 27 36 31 27 36 31 27 36 31 27 38 33 29 38 33 29 38 33 29 38 33 29 38 33 29 38 33 29 38 33 29 38 33 29
1 1 3 1 1 3 1 1 3 1 1 3 1 1 3 1 1 3 1 1 3 1 1 3 1 1 3 1 1 3 1 1 3 1 1 3 1 1 3 1 1 3 1 1 3 1 1 3 1 1 3 1 1 3 1 1 3 1 1 3 2 2 4 2 2 4 2 2 4 2 2 4 2 2 4 2 2 4 2 2 4 2 2 4 3 2 7 3 2 7 3 2 7 3 2 7 3 2 7 3 2 7 3 2 7 3 2 7 3 2 7 3 2 7 3 2 7 3 2 7 3 2 7 3 2 7 3 2 7 3 2 7 4 3 9 4 3 9 4 3 9 4 3 9 4 3 9 4 3 9 4 3 9 4 3 9 3 2 8 3 2 8 3 2 8 3 2 8 3 2 8 3 2 8 3 2 8 2 3 8 2 6 9 1 6 9 1 6 9 1 6 9 1 6 9 1 6 9 1 6 9 1 6 9 5 10 13 5 10 13 5 10 13 5 10 13 5 10 13 5 10 13 5 10 13 5 10 13 10 18 20 10 18 20 10 18 20 10 18 20 10 18 20 10 18 20 10 18 20 10 18 20 37 45 47 37 45 47 38 46 48 39 47 49 39 47 49 40 48 50 40 48 50 41 49 51 42 51 50 40 49 48 38 47 46 35 44 43 31 40 39 28 37 36 26 35 34 24 33 32 1 10 9 1 10 9 1 10 9 1 10 9 1 10 9 1 10 9 1 10 9 1 10 9 0 2 5 0 4 7 1 6 9 4 9 12 8 13 16 11 16 19 13 18 21 15 20 23 17 22 25 19 24 27 21 26 29 24 29 32 28 33 36 31 36 39 33 38 41 35 41 41 34 40 40 34 40 38 34 40 38 34 40 38 34 40 38 34 40 38 34 40 38 34 40 38 36 42 40 36 42 40 36 42 40 36 42 40 36 42 40 36 42 40 36 42 40 37 42 38 35 31 30 36 31 28 36 31 28 36 31 28 36 31 28 36 31 28 36 31 28 36 31 28 34 29 26 34 29 26 34 29 26 34 29 26 34 29 26 34 29 26 34 29 26 34 29 26 36 31 27 36 31 27 36 31 27 36 31 27 36 31 27 36 31 27 36 31 27 36 31 27 38 33 29 38 33 29 38 33 29 38 33 29 38 33 29 38 33 29 38 33 29 38 33 29
1 1 3 1 1 3 1 1 3 1 1 3 1 1 3 1 1 3 1 1 3 1 1 3 1 1 3 1 1 3 1 1 3 1 1 3 1 1 3 1 1 3 1 1 3 1 1 3 1 1 3 1 1 3 1 1 3 1 1 3 2 2 4 2 2 4 2 2 4 2 2 4 2 2 4 2 2 4 2 2 4 2 2 4 3 2 7 3 2 7 3 2 7 3 2 7 3 2 7 3 2 7 3 2 7 3 2 7 3 2 7 3 2 7 3 2 7 3 2 7 3 2 7 3 2 7 3 2 7 3 2 7 4 3 9 4 3 9 4 3 9 4 3 9 4 3 9 4 3 9 4 3 9 4 3 9 3 2 8 3 2 8 3 2 8 3 2 8 3 2 8 3 2 8 3 2 8 2 3 8 2 6 9 1 6 9 1 6 9 1 6 9 1 6 9 1 6 9 1 6 9 1 6 9 5 10 13 5 10 13 5 10 13 5 10 13 5 10 13 5 10 13 5 10 13 5 10 13 10 18 20 10 18 20 10 18 20 10 18 20 10 18 20 10 18 20 10 18 20 10 18 20 43 51 53 43 51 53 42 50 52 42 50 52 41 49 51 40 48 50 40 48 50 40 48 50 42 51 50 40 49 48 38 47 46 35 44 43 31 40 39 28 37 36 26 35 34 24 33 32 1 10 9 1 10 9 1 10 9 1 10 9 1 10 9 1 10 9 1 10 9 1 10 9 0 2 5 0 4 7 1 6 9 4 9 12 8 13 16 11 16 19 13 18 21 15 20 23 17 22 25 19 24 27 21 26 29 24 29 32 28 33 36 31 36 39 33 38 41 35 41 41 32 38 38 32 38 36 32 38 36 32 38 36 32 38 36 32 38 36 32 38 36 32 38 36 34 40 38 34 40 38 34 40 38 34 40 38 34 40 38 34 40 38 34 40 38 35 40 36 35 31 30 36 31 28 36 31 28 36 31 28 36 31 28 36 31 28 36 31 28 36 31 28 34 29 26 34 29 26 34 29 26 34 29 26 34 29 26 34 29 26 34 29 26 34 29 26 36 31 27 36 31 27 36 31 27 36 31 27 36 31 27 36 31 27 36 31 27 36 31 27 38 33 29 38 33 29 38 33 29 38 33 29 38 33 29 38 33 29 38 33 29 38 33 29
1 1 3 1 1 3 1 1 3 1 1 3 1 1 3 1 1 3 1 1 3 1 1 3 1 1 3 1 1 3 1 1 3 1 1 3 1 1 3 1 1 3 1 1 3 1 1 3 1 1 3 1 1 3 1 1 3 1 1 3 2 2 4 2 2 4 2 2 4 2 2 4 2 2 4 2 2 4 2 2 4 2 2 4 3 2 7 3 2 7 3 2 7 3 2 7 3 2 7 3 2 7 3 2 7 3 2 7 3 2 7 3 2 7 3 2 7 3 2 7 3 2 7 3 2 7 3 2 7 3 2 7 4 3 9 4 3 9 4 3 9 4 3 9 4 3 9 4 3 9 4 3 9 4 3 9 3 2 8 3 2 8 3 2 8 3 2 8 3 2 8 3 2 8 3 2 8 2 3 8 2 6 9 1 6 9 1 6 9 1 6 9 1 6 9 1 6 9 1 6 9 1 6 9 5 10 13 5 10 13 5 10 13 5 10 13 5 10 13 5 10 13 5 10 13 5 10 13 10 18 20 10 18 20 10 18 20 10 18 20 10 18 20 10 18 20 10 18 20 10 18 20 46 54 56 45 53 55 45 53 55 43 51 53 42 50 52 41 49 51 40 48 50 39 47 49 42 51 50 40 49 48 38 47 46 35 44 43 31 40 39 28 37 36 26 35 34 24 33 32 1 10 9 1 10 9 1 10 9 1 10 9 1 10 9 1 10 9 1 10 9 1 10 9 0 2 5 0 4 7 1 6 9 4 9 12 8 13 16 11 16 19 13 18 21 15 20 23 17 22 25 19 24 27 21 26 29 24 29 32 28 33 36 31 36 39 33 38 41 35 41 41 30 36 36 30 36 34 30 36 34 30 36 34 30 36 34 30 36 34 30 36 34 30 36 34 32 38 36 32 38 36 32 38 36 32 38 36 32 38 36 32 38 36 32 38 36 33 38 34 35 31 30 36 31 28 36 31 28 36 31 28 36 31 28 36 31 28 36 31 28 36 31 28 34 29 26 34 29 26 34 29 26 34 29 26 34 29 26 34 29 26 34 29 26 34 29 26 36 31 27 36 31 27 36 31 27 36 31 27 36 31 27 36 31 27 36 31 27 36 31 27 38 33 29 38 33 29 38 33 29 38 33 29 38 33 29 38 33 29 38 33 29 38 33 29
0 0 2 0 0 2 0 0 2 0 0 2 0 0 2 0 0 2 0 0 2 0 0 2 0 0 2 0 0 2 0 0 2 0 0 2 0 0 2 0 0 2 0 0 2 0 0 2 0 0 2 0 0 2 0 0 2 0 0 2 1 1 3 1 1 3 1 1 3 1 1 3 1 1 3 1 1 3 1 1 3 1 1 3 2 1 6 2 1 6 2 1 6 2 1 6 2 1 6 2 1 6 2 1 6 2 1 6 1 0 5 1 0 5 1 0 5 1 0 5 1 0 5 1 0 5 1 0 5 1 0 5 2 1 7 2 1 7 2 1 7 2 1 7 2 1 7 2 1 7 2 1 7 2 1 7 5 4 10 5 4 10 5 4 10 5 4 10 5 4 10 5 4 10 5 4 10 4 5 10 8 12 15 7 12 15 7 12 15 7 12 15 7 12 15 7 12 15 7 12 15 7 12 15 16 21 24 15 20 23 14 19 22 13 18 21 12 17 20 10 15 18 9 14 17 9 14 17 15 23 25 18 26 28 23 31 33 29 37 39 36 44 46 42 50 52 47 55 57 50 58 60 61 69 71 61 69 71 61 69 71 61 69 71 61 69 71 61 69 71 61 69 71 61 69 71 63 72 71 61 70 69 56 65 64 49 58 57 43 52 51 36 45 44 31 40 39 29 38 37 6 15 14 6 15 14 6 15 14 6 15 14 6 15 14 6 15 14 6 15 14 6 15 14 10 15 18 10 15 18 10 15 18 10 15 18 10 15 18 10 15 18 10 15 18 10 15 18 24 29 32 24 29 32 24 29 32 24 29 32 24 29 32 24 29 32 24 29 32 24 30 30 27 33 33 27 33 31 27 33 31 27 33 31 27 33 31 27 33 31 27 33 31 27 33 31 26 32 30 26 32 30 26 32 30 26 32 30 26 32 30 26 32 30 26 32 30 27 32 28 31 27 26 32 27 24 32 27 24 32 27 24 32 27 24 32 27 24 32 27 24 32 27 24 34 29 26 34 29 26 34 29 26 34 29 26 34 29 26 34 29 26 34 29 26 34 29 26 35 30 26 35 30 26 35 30 26 35 30 26 35 30 26 35 30 26 35 30 26 35 30 26 36 31 27 36 31 27 36 31 27 36 31 27 36 31 27 36 31 27 36 31 27 36 31 27
0 0 2 0 0 2 0 0 2 0 0 2 0 0 2 0 0 2 0 0 2 0 0 2 0 0 2 0 0 2 0 0 2 0 0 2 0 0 2 0 0 2 0 0 2 0 0 2 0 0 2 0 0 2 0 0 2 0 0 2 1 1 3 1 1 3 1 1 3 1 1 3 1 1 3 1 1 3 1 1 3 1 1 3 2 1 6 2 1 6 2 1 6 2 1 6 2 1 6 2 1 6 2 1 6 2 1 6 1 0 5 1 0 5 1 0 5 1 0 5 1 0 5 1 0 5 1 0 5 1 0 5 2 1 7 2 1 7 2 1 7 2 1 7 2 1 7 2 1 7 2 1 7 2 1 7 5 4 10 5 4 10 5 4 10 5 4 10 5 4 10 5 4 10 5 4 10 4 5 10 8 12 15 7 12 15 7 12 15 7 12 15 7 12 15 7 12 15 7 12 15 7 12 15 11 16 19 11 16 19 10 15 18 10 15 18 9 14 17 8 13 16 8 13 16 8 13 16 18 26 28 21 29 31 25 33 35 32 40 42 39 47 49 45 53 55 50 58 60 53 61 63 63 71 73 63 71 73 63 71 73 63 71 73 63 71 73 63 71 73 63 71 73 63 71 73 63 72 71 61 70 69 56 65 64 49 58 57 43 52 51 36 45 44 31 40 39 29 38 37 6 15 14 6 15 14 6 15 14 6 15 14 6 15 14 6 15 14 6 15 14 6 15 14 10 15 18 10 15 18 10 15 18 10 15 18 10 15 18 10 15 18 10 15 18 10 15 18 24 29 32 24 29 32 24 29 32 24 29 32 24 29 32 24 29 32 24 29 32 24 30 30 27 33 33 27 33 31 27 33 31 27 33 31 27 33 31 27 33 31 27 33 31 27 33 31 26 32 30 26 32 30 26 32 30 26 32 30 26 32 30 26 32 30 26 32 30 27 32 28 31 27 26 32 27 24 32 27 24 32 27 24 32 27 24 32 27 24 32 27 24 32 27 24 34 29 26 34 29 26 34 29 26 34 29 26 34 29 26 34 29 26 34 29 26 34 29 26 35 30 26 35 30 26 35 30 26 35 30 26 35 30 26 35 30 26 35 30 26 35 30 26 36 31 27 36 31 27 36 31 27 36 31 27 36 31 27 36 31 27 36 31 27 36 31 27
0 0 2 0 0 2 0 0 2 0 0 2 0 0 2 0 0 2 0 0 2 0 0 2 0 0 2 0 0 2 0 0 2 0 0 2 0 0 2 0 0 2 0 0 2 0 0 2 0 0 2 0 0 2 0 0 2 0 0 2 1 1 3 1 1 3 1 1 3 1 1 3 1 1 3 1 1 3 1 1 3 1 1 3 2 1 6 2 1 6 2 1 6 2 1 6 2 1 6 2 1 6 2 1 6 2 1 6 1 0 5 1 0 5 1 0 5 1 0 5 1 0 5 1 0 5 1 0 5 1 0 5 2 1 7 2 1 7 2 1 7 2 1 7 2 1 7 2 1 7 2 1 7 2 1 7 5 4 10 5 4 10 5 4 10 5 4 10 5 4 10 5 4 10 5 4 10 4 5 10 8 12 15 7 12 15 7 12 15 7 12 15 7 12 15 7 12 15 7 12 15 7 12 15 4 9 12 5 10 13 5 10 13 6 11 14 7 12 15 7 12 15 8 13 16 8 13 16 23 31 33 25 33 35 30 38 40 37 45 47 44 52 54 50 58 60 55 63 65 58 66 68 65 73 75 65 73 75 65 73 75 65 73 75 65 73 75 65 73 75 65 73 75 65 73 75 63 72 71 61 70 69 56 65 64 49 58 57 43 52 51 36 45 44 31 40 39 29 38 37 6 15 14 6 15 14 6 15 14 6 15 14 6 15 14 6 15 14 6 15 14 6 15 14 10 15 18 10 15 18 10 15 18 10 15 18 10 15 18 10 15 18 10 15 18 10 15 18 24 29 32 24 29 32 24 29 32 24 29 32 24 29 32 24 29 32 24 29 32 24 30 30 27 33 33 27 33 31 27 33 31 27 33 31 27 33 31 27 33 31 27 33 31 27 33 31 26 32 30 26 32 30 26 32 30 26 32 30 26 32 30 26 32 30 26 32 30 27 32 28 31 27 26 32 27 24 32 27 24 32 27 24 32 27 24 32 27 24 32 27 24 32 27 24 34 29 26 34 29 26 34 29 26 34 29 26 34 29 26 34 29 26 34 29 26 34 29 26 35 30 26 35 30 26 35 30 26 35 30 26 35 30 26 35 30 26 35 30 26 35 30 26 36 31 27 36 31 27 36 31 27 36 31 27 36 31 27 36 31 27 36 31 27 36 31 27
0 0 2 0 0 2 0 0 2 0 0 2 0 0 2 0 0 2 0 0 2 0 0 2 0 0 2 0 0 2 0 0 2 0 0 2 0 0 2 0 0 2 0 0 2 0 0 2 0 0 2 0 0 2 0 0 2 0 0 2 1 1 3 1 1 3 1 1 3 1 1 3 1 1 3 1 1 3 1 1 3 1 1 3 2 1 6 2 1 6 2 1 6 2 1 6 2 1 6 2 1 6 2 1 6 2 1 6 1 0 5 1 0 5 1 0 5 1 0 5 1 0 5 1 0 5 1 0 5 1 0 5 2 1 7 2 1 7 2 1 7 2 1 7 2 1 7 2 1 7 2 1 7 2 1 7 5 4 10 5 4 10 5 4 10 5 4 10 5 4 10 5 4 10 5 4 10 4 5 10 8 12 15 7 12 15 7 12 15 7 12 15 7 12 15 7 12 15 7 12 15 7 12 15 1 6 9 2 7 10 3 8 11 6 11 14 8 13 16 10 15 18 12 17 20 13 18 21 29 37 39 32 40 42 37 45 47 43 51 53 50 58 60 56 64 66 61 69 71 64 72 74 68 76 78 68 76 78 68 76 78 68 76 78 68 76 78 68 76 78 68 76 78 68 76 78 63 72 71 61 70 69 56 65 64 49 58 57 43 52 51 36 45 44 31 40 39 29 38 37 6 15 14 6 15 14 6 15 14 6 15 14 6 15 14 6 15 14 6 15 14 6 15 14 10 15 18 10 15 18 10 15 18 10 15 18 10 15 18 10 15 18 10 15 18 10 15 18 24 29 32 24 29 32 24 29 32 24 29 32 24 29 32 24 29 32 24 29 32 24 30 30 27 33 33 27 33 31 27 33 31 27 33 31 27 33 31 27 33 31 27 33 31 27 33 31 26 32 30 26 32 30 26 32 30 26 32 30 26 32 30 26 32 30 26 32 30 27 32 28 31 27 26 32 27 24 32 27 24 32 27 24 32 27 24 32 27 24 32 27 24 32 27 24 34 29 26 34 29 26 34 29 26 34 29 26 34 29 26 34 29 26 34 29 26 34 29 26 35 30 26 35 30 26 35 30 26 35 30 26 35 30 26 35 30 26 35 30 26 35 30 26 36 31 27 36 31 27 36 31 27 36 31 27 36 31 27 36 31 27 36 31 27 36 31 27
0 0 2 0 0 2 0 0 2 0 0 2 0 0 2 0 0 2 0 0 2 0 0 2 0 0 2 0 0 2 0 0 2 0 0 2 0 0 2 0 0 2 0 0 2 0 0 2 0 0 2 0 0 2 0 0 2 0 0 2 1 1 3 1 1 3 1 1 3 1 1 3 1 1 3 1 1 3 1 1 3 1 1 3 2 1 6 2 1 6 2 1 6 2 1 6 2 1 6 2 1 6 2 1 6 2 1 6 1 0 5 1 0 5 1 0 5 1 0 5 1 0 5 1 0 5 1 0 5 1 0 5 2 1 7 2 1 7 2 1 7 2 1 7 2 1 7 2 1 7 2 1 7 2 1 7 5 4 10 5 4 10 5 4 10 5 4 10 5 4 10 5 4 10 5 4 10 4 5 10 8 12 15 7 12 15 7 12 15 7 12 15 7 12 15 7 12 15 7 12 15 7 12 15 3 8 11 4 9 12 8 13 16 12 17 20 16 21 24 20 25 28 23 28 31 25 30 33 36 44 46 39 47 49 44 52 54 50 58 60 57 65 67 63 71 73 68 76 78 71 79 81 72 80 82 72 80 82 72 80 82 72 80 82 72 80 82 72 80 82 72 80 82 72 80 82 63 72 71 61 70 69 56 65 64 49 58 57 43 52 51 36 45 44 31 40 39 29 38 37 6 15 14 6 15 14 6 15 14 6 15 14 6 15 14 6 15 14 6 15 14 6 15 14 10 15 18 10 15 18 10 15 18 10 15 18 10 15 18 10 15 18 10 15 18 10 15 18 24 29 32 24 29 32 24 29 32 24 29 32 24 29 32 24 29 32 24 29 32 24 30 30 27 33 33 27 33 31 27 33 31 27 33 31 27 33 31 27 33 31 27 33 31 27 33 31 26 32 30 26 32 30 26 32 30 26 32 30 26 32 30 26 32 30 26 32 30 27 32 28 31 27 26 32 27 24 32 27 24 32 27 24 32 27 24 32 27 24 32 27 24 32 27 24 34 29 26 34 29 26 34 29 26 34 29 26 34 29 26 34 29 26 34 29 26 34 29 26 35 30 26 35 30 26 35 30 26 35 30 26 35 30 26 35 30 26 35 30 26 35 30 26 36 31 27 36 31 27 36 31 27 36 31 27 36 31 27 36 31 27 36 31 27 36 31 27
0 0 2 0 0 2 0 0 2 0 0 2 0 0 2 0 0 2 0 0 2 0 0 2 0 0 2 0 0 2 0 0 2 0 0 2 0 0 2 0 0 2 0 0 2 0 0 2 0 0 2 0 0 2 0 0 2 0 0 2 1 1 3 1 1 3 1 1 3 1 1 3 1 1 3 1 1 3 1 1 3 1 1 3 2 1 6 2 1 6 2 1 6 2 1 6 2 1 6 2 1 6 2 1 6 2 1 6 1 0 5 1 0 5 1 0 5 1 0 5 1 0 5 1 0 5 1 0 5 1 0 5 2 1 7 2 1 7 2 1 7 2 1 7 2 1 7 2 1 7 2 1 7 2 1 7 5 4 10 5 4 10 5 4 10 5 4 10 5 4 10 5 4 10 5 4 10 4 5 10 8 12 15 7 12 15 7 12 15 7 12 15 7 12 15 7 12 15 7 12 15 7 12 15 10 15 18 13 18 21 17 22 25 23 28 31 29 34 37 35 40 43 39 44 47 41 46 49 42 50 52 45 53 55 50 58 60 56 64 66 63 71 73 70 78 80 75 83 85 77 85 87 75 83 85 75 83 85 75 83 85 75 83 85 75 83 85 75 83 85 75 83 85 75 83 85 63 72 71 61 70 69 56 65 64 49 58 57 43 52 51 36 45 44 31 40 39 29 38 37 6 15 14 6 15 14 6 15 14 6 15 14 6 15 14 6 15 14 6 15 14 6 15 14 10 15 18 10 15 18 10 15 18 10 15 18 10 15 18 10 15 18 10 15 18 10 15 18 24 29 32 24 29 32 24 29 32 24 29 32 24 29 32 24 29 32 24 29 32 24 30 30 27 33 33 27 33 31 27 33 31 27 33 31 27 33 31 27 33 31 27 33 31 27 33 31 26 32 30 26 32 30 26 32 30 26 32 30 26 32 30 26 32 30 26 32 30 27 32 28 31 27 26 32 27 24 32 27 24 32 27 24 32 27 24 32 27 24 32 27 24 32 27 24 34 29 26 34 29 26 34 29 26 34 29 26 34 29 26 34 29 26 34 29 26 34 29 26 35 30 26 35 30 26 35 30 26 35 30 26 35 30 26 35 30 26 35 30 26 35 30 26 36 31 27 36 31 27 36 31 27 36 31 27 36 31 27 36 31 27 36 31 27 36 31 27
0 0 2 0 0 2 0 0 2 0 0 2 0 0 2 0 0 2 0 0 2 0 0 2 0 0 2 0 0 2 0 0 2 0 0 2 0 0 2 0 0 2 0 0 2 0 0 2 0 0 2 0 0 2 0 0 2 0 0 2 1 1 3 1 1 3 1 1 3 1 1 3 1 1 3 1 1 3 1 1 3 1 1 3 2 1 6 2 1 6 2 1 6 2 1 6 2 1 6 2 1 6 2 1 6 2 1 6 1 0 5 1 0 5 1 0 5 1 0 5 1 0 5 1 0 5 1 0 5 1 0 5 2 1 7 2 1 7 2 1 7 2 1 7 2 1 7 2 1 7 2 1 7 2 1 7 5 4 10 5 4 10 5 4 10 5 4 10 5 4 10 5 4 10 5 4 10 4 5 10 8 12 15 7 12 15 7 12 15 7 12 15 7 12 15 7 12 15 7 12 15 7 12 15 20 25 28 23 28 31 28 33 36 35 40 43 42 47 50 49 54 57 55 60 63 58 63 66 47 55 57 50 58 60 55 63 65 61 69 71 68 76 78 75 83 85 79 87 89 82 90 92 77 85 87 77 85 87 77 85 87 77 85 87 77 85 87 77 85 87 77 85 87 77 85 87 63 72 71 61 70 69 56 65 64 49 58 57 43 52 51 36 45 44 31 40 39 29 38 37 6 15 14 6 15 14 6 15 14 6 15 14 6 15 14 6 15 14 6 15 14 6 15 14 10 15 18 10 15 18 10 15 18 10 15 18 10 15 18 10 15 18 10 15 18 10 15 18 24 29 32 24 29 32 24 29 32 24 29 32 24 29 32 24 29 32 24 29 32 24 30 30 27 33 33 27 33 31 27 33 31 27 33 31 27 33 31 27 33 31 27 33 31 27 33 31 26 32 30 26 32 30 26 32 30 26 32 30 26 32 30 26 32 30 26 32 30 27 32 28 31 27 26 32 27 24 32 27 24 32 27 24 32 27 24 32 27 24 32 27 24 32 27 24 34 29 26 34 29 26 34 29 26 34 29 26 34 29 26 34 29 26 34 29 26 34 29 26 35 30 26 35 30 26 35 30 26 35 30 26 35 30 26 35 30 26 35 30 26 35 30 26 36 31 27 36 31 27 36 31 27 36 31 27 36 31 27 36 31 27 36 31 27 36 31 27
0 0 2 0 0 2 0 0 2 0 0 2 0 0 2 0 0 2 0 0 2 0 0 2 0 0 2 0 0 2 0 0 2 0 0 2 0 0 2 0 0 2 0 0 2 0 0 2 0 0 2 0 0 2 0 0 2 0 0 2 1 1 3 1 1 3 1 1 3 1 1 3 1 1 3 1 1 3 1 1 3 1 1 3 2 1 6 2 1 6 2 1 6 2 1 6 2 1 6 2 1 6 2 1 6 2 1 6 1 0 5 1 0 5 1 0 5 1 0 5 1 0 5 1 0 5 1 0 5 1 0 5 1 2 7 1 2 7 1 2 7 1 2 7 1 2 7 1 2 7 1 2 7 1 2 7 4 5 10 4 5 10 4 5 10 4 5 10 4 5 10 4 5 10 4 5 10 4 5 10 7 12 15 7 12 15 7 12 15 7 12 15 7 12 15 7 12 15 7 12 15 7 12 15 26 31 34 29 34 37 35 40 43 43 48 51 51 56 59 59 64 67 64 69 72 68 73 76 50 58 60 53 61 63 58 66 68 64 72 74 71 79 81 77 85 87 82 90 92 85 93 95 79 87 89 79 87 89 79 87 89 79 87 89 79 87 89 79 87 89 79 87 89 79 87 89 63 72 71 61 70 69 56 65 64 49 58 57 43 52 51 36 45 44 31 40 39 29 38 37 6 15 14 6 15 14 6 15 14 6 15 14 6 15 14 6 15 14 6 15 14 6 15 14 8 16 18 8 16 18 10 15 18 8 16 18 10 15 18 8 16 18 10 15 18 8 16 18 24 29 32 22 30 32 24 29 32 22 30 32 24 29 32 22 30 32 24 29 32 24 30 30 27 33 33 27 33 31 27 33 31 27 33 31 27 33 31 27 33 31 27 33 31 27 33 31 26 32 30 26 32 30 26 32 30 26 32 30 26 32 30 26 32 30 26 32 30 27 31 30 31 27 24 32 27 24 32 27 24 32 27 24 32 27 24 32 27 24 32 27 24 32 27 24 34 29 26 34 29 26 34 29 26 34 29 26 34 29 26 34 29 26 34 29 26 34 29 26 35 30 26 35 30 26 37 29 26 35 30 26 37 29 26 35 30 26 37 29 26 35 30 26 38 30 27 36 31 27 38 30 27 36 31 27 38 30 27 36 31 27 38 30 27 36 31 27
0 0 0 0 0 0 0 0 0 0 0 0 0 0 0 0 0 0 0 0 0 0 0 0 0 0 0 0 0 0 0 0 0 0 0 0 0 0 0 0 0 0 0 0 0 0 0 0 0 0 0 0 0 0 0 0 0 0 0 0 0 0 0 0 0 0 0 0 0 0 0 0 0 0 0 0 0 0 0 0 0 0 0 2 2 3 7 2 3 7 2 3 7 2 3 7 2 3 7 2 3 7 2 3 7 2 3 7 3 4 8 3 4 8 3 4 8 3 4 8 3 4 8 3 4 8 3 4 8 3 4 8 3 6 11 3 6 11 3 6 11 3 6 11 3 6 11 3 6 11 3 6 11 3 6 11 17 20 25 17 20 25 16 19 24 15 18 23 13 16 21 12 15 20 11 14 19 10 15 19 2 7 10 2 10 12 4 12 14 7 15 17 11 19 21 14 22 24 16 24 26 18 26 28 49 57 59 50 58 60 52 60 62 56 64 66 59 67 69 62 70 72 65 73 75 66 74 76 85 91 91 85 91 91 85 91 91 85 91 91 85 91 91 85 91 91 85 91 91 85 91 91 79 85 85 79 85 85 79 85 85 79 85 85 79 85 85 79 85 85 79 85 85 79 85 85 71 76 79 69 74 77 64 69 72 57 62 65 51 56 59 44 49 52 39 44 47 37 42 45 9 14 17 9 14 17 9 14 17 9 14 17 9 14 17 9 14 17 9 14 17 7 15 17 12 21 20 11 21 20 12 21 20 11 21 20 12 21 20 11 21 20 12 21 20 11 21 20 21 30 29 20 30 29 21 30 29 20 30 29 21 30 29 20 30 29 21 30 29 21 30 29 23 32 31 23 32 31 23 32 31 23 32 31 23 32 31 23 32 31 23 32 31 23 32 31 16 25 24 16 25 24 16 25 24 16 25 24 16 25 24 16 25 24 16 25 24 19 23 22 31 27 24 34 26 23 34 26 23 34 26 23 34 26 23 34 26 23 34 26 23 34 26 23 35 27 24 35 27 24 35 27 24 35 27 24 35 27 24 35 27 24 35 27 24 35 27 24 37 29 26 37 29 26 38 28 26 37 29 26 38 28 26 37 29 26 38 28 26 37 29 26 38 28 26 37 29 26 38 28 26 37 29 26 38 28 26 37 29 26 38 28 26 37 29 26
0 0 0 0 0 0 0 0 0 0 0 0 0 0 0 0 0 0 0 0 0 0 0 0 0 0 0 0 0 0 0 0 0 0 0 0 0 0 0 0 0 0 0 0 0 0 0 0 0 0 0 0 0 0 0 0 0 0 0 0 0 0 0 0 0 0 0 0 0 0 0 0 0 0 0 0 0 0 0 0 0 0 0 0 2 3 7 2 3 7 2 3 7 2 3 7 2 3 7 2 3 7 2 3 7 2 3 7 3 4 8 3 4 8 3 4 8 3 4 8 3 4 8 3 4 8 3 4 8 1 5 8 3 6 11 2 7 11 2 7 11 2 7 11 2 7 11 2 7 11 2 7 11 2 7 11 10 15 19 10 15 19 10 15 19 9 14 18 8 13 17 8 13 17 7 12 16 7 12 16 4 12 14 6 14 16 8 16 18 11 19 21 15 23 25 18 26 28 20 28 30 22 30 32 50 58 60 51 59 61 54 62 64 57 65 67 60 68 70 64 72 74 66 74 76 67 75 77 85 91 91 85 91 91 85 91 91 85 91 91 85 91 91 85 91 91 85 91 91 85 91 91 81 87 87 81 87 87 81 87 87 81 87 87 81 87 87 81 87 87 81 87 87 81 87 87 71 76 79 69 74 77 64 69 72 57 62 65 51 56 59 44 49 52 39 44 47 37 42 45 9 14 17 9 14 17 9 14 17 9 14 17 9 14 17 9 14 17 9 14 17 7 15 17 12 21 20 11 21 20 11 21 20 11 21 20 11 21 20 11 21 20 11 21 20 11 21 20 18 28 27 18 28 27 18 28 27 18 28 27 18 28 27 18 28 27 18 28 27 18 28 27 21 30 29 21 30 29 21 30 29 21 30 29 21 30 29 21 30 29 21 30 29 21 30 29 16 25 24 16 25 24 16 25 24 16 25 24 16 25 24 16 25 24 16 25 24 19 23 22 31 27 24 34 26 23 34 26 23 34 26 23 34 26 23 34 26 23 34 26 23 34 26 23 35 27 24 35 27 24 35 27 24 35 27 24 35 27 24 35 27 24 35 27 24 35 27 24 38 28 26 38 28 26 38 28 26 38 28 26 38 28 26 38 28 26 38 28 26 38 28 26 38 28 26 38 28 26 38 28 26 38 28 26 38 28 26 38 28 26 38 28 26 37 29 26
0 0 0 0 0 0 0 0 0 0 0 0 0 0 0 0 0 0 0 0 0 0 0 0 0 0 0 0 0 0 0 0 0 0 0 0 0 0 0 0 0 0 0 0 0 0 0 0 0 0 0 0 0 0 0 0 0 0 0 0 0 0 0 0 0 0 0 0 0 0 0 0 0 0 0 0 0 0 0 0 0 0 0 0 2 3 7 2 3 7 2 3 7 2 3 7 2 3 7 2 3 7 2 3 7 2 3 7 3 4 8 3 4 8 3 4 8 3 4 8 3 4 8 3 4 8 3 4 8 1 5 8 3 6 11 2 7 11 2 7 11 2 7 11 2 7 11 2 7 11 2 7 11 2 7 11 1 6 10 2 7 11 2 7 11 3 8 12 3 8 12 4 9 13 5 10 14 5 10 14 12 20 22 13 21 23 15 23 25 19 27 29 22 30 32 25 33 35 28 36 38 29 37 39 52 60 62 54 62 64 56 64 66 59 67 69 63 71 73 66 74 76 68 76 78 70 78 80 85 91 91 85 91 91 85 91 91 85 91 91 85 91 91 85 91 91 85 91 91 85 91 91 83 89 89 83 89 89 83 89 89 83 89 89 83 89 89 83 89 89 83 89 89 83 89 89 71 76 79 69 74 77 64 69 72 57 62 65 51 56 59 44 49 52 39 44 47 37 42 45 9 14 17 9 14 17 9 14 17 9 14 17 9 14 17 9 14 17 9 14 17 7 15 17 12 21 20 11 21 20 11 21 20 11 21 20 11 21 20 11 21 20 11 21 20 11 21 20 16 26 25 16 26 25 16 26 25 16 26 25 16 26 25 16 26 25 16 26 25 16 26 25 19 28 27 19 28 27 19 28 27 19 28 27 19 28 27 19 28 27 19 28 27 19 28 27 16 25 24 16 25 24 16 25 24 16 25 24 16 25 24 16 25 24 16 25 24 19 23 22 31 27 24 34 26 23 34 26 23 34 26 23 34 26 23 34 26 23 34 26 23 34 26 23 35 27 24 35 27 24 35 27 24 35 27 24 35 27 24 35 27 24 35 27 24 35 27 24 38 28 26 38 28 26 38 28 26 38 28 26 38 28 26 38 28 26 38 28 26 38 28 26 38 28 26 38 28 26 38 28 26 38 28 26 38 28 26 38 28 26 38 28 26 37 29 26
