P3
172 37
255
123 110 128 123 110 128 123 110 128 123 110 128 119 106 124 119 106 124 119 106 124 119 106 124 119 106 124 119 106 124 119 106 124 119 106 124 126 112 129 126 112 129 126 112 129 126 112 129 126 112 129 126 112 129 126 112 129 126 112 129 125 111 128 125 111 128 125 111 128 125 111 128 125 111 128 125 111 128 125 111 128 125 111 126 123 109 122 123 110 120 123 110 120 123 110 120 123 110 120 123 110 120 123 110 120 123 110 120 102 89 99 96 83 93 83 70 80 68 55 65 50 37 47 34 21 31 22 9 19 15 3 13 11 5 15 9 6 15 9 6 15 9 6 15 9 6 15 9 6 15 9 6 15 9 6 15 10 7 16 10 7 16 10 7 16 10 7 16 10 7 16 10 7 16 10 7 16 9 8 16 7 5 16 6 6 16 6 6 16 6 6 16 6 6 16 6 6 16 6 6 16 6 6 16 7 7 17 7 7 17 7 7 17 7 7 17 7 7 17 7 7 17 7 7 17 7 7 17 8 11 18 8 11 18 8 11 18 8 11 18 8 11 18 8 11 18 8 11 18 8 11 18 8 11 18 8 11 18 8 11 18 8 11 18 8 11 18 8 11 18 8 11 18 8 11 16 9 10 15 9 10 14 9 10 14 9 10 14 9 10 14 9 10 14 9 10 14 9 10 14 0 1 5 0 1 5 0 1 5 0 1 5 0 1 5 0 1 5 0 1 5 0 2 5 7 11 12 6 12 12 6 12 12 6 12 12 6 12 12 6 12 12 6 12 12 6 12 12 16 22 22 18 24 24 20 26 26 23 29 29 27 33 33 30 36 36 32 38 38 34 40 38 56 58 57 60 62 59 67 69 66 77 79 76 87 89 86 97 99 96 104 106 103 108 110 107 104 106 103 110 112 109 118 120 117 123 125 122 123 125 122 118 120 117 110 112 109 104 106 103 67 65 66 60 58 59 50 48 49 41 39 40 38 36 37 40 38 39 46 44 45 50 48 49 42 40 41 42 40 41 42 40 41 42 40 41 42 40 41 42 40 41 42 40 41 42 40 41 39 37 40 39 37 40 39 37 40 39 37 40 39 37 40 39 37 40 39 37 40 39 37 40 42 40 43 42 40 43 42 40 43 42 40 43 42 40 43 42 40 43 42 40 43 42 40 43
126 111 132 126 111 132 126 111 132 126 111 132 120 105 126 120 105 126 120 105 126 120 105 126 120 105 126 120 105 126 120 105 126 120 105 124 128 111 130 128 111 130 128 111 130 128 111 130 128 111 130 128 111 130 128 111 130 128 111 130 125 108 127 125 108 127 125 108 127 125 108 127 125 108 127 125 108 127 125 108 127 125 108 126 124 106 122 124 106 120 123 107 120 123 107 120 123 107 120 123 107 120 121 107 120 121 107 120 97 85 97 91 79 91 78 68 79 62 52 63 44 34 45 28 18 29 14 6 17 7 1 11 7 4 13 6 5 13 6 5 13 6 5 13 6 5 13 6 5 13 6 5 13 6 5 13 9 8 16 9 8 16 9 8 16 9 8 16 9 8 16 9 8 16 9 8 16 9 8 16 6 6 16 4 7 16 4 7 16 4 7 16 4 7 16 4 7 16 4 7 16 4 7 16 5 8 17 5 8 17 5 8 17 5 8 17 5 8 17 5 8 17 5 8 17 5 8 17 8 11 18 7 12 18 7 12 18 7 12 18 7 12 18 7 12 18 7 12 18 7 12 18 7 12 18 7 12 18 7 12 18 7 12 18 7 12 18 7 12 18 7 12 18 8 11 18 7 10 15 9 10 14 9 10 14 9 10 14 9 10 14 9 10 14 9 10 14 9 10 14 0 1 5 0 1 5 0 1 5 0 1 5 0 1 5 0 1 5 0 1 5 0 2 5 6 12 12 6 12 12 6 12 12 6 12 12 6 12 12 6 12 12 6 12 12 6 12 12 16 22 22 18 24 24 20 26 26 23 29 29 27 33 33 30 36 36 32 38 38 34 40 38 54 58 57 60 62 59 67 69 66 77 79 76 87 89 86 97 99 96 104 106 103 108 110 107 103 105 102 108 110 107 116 118 115 122 124 121 122 124 121 116 118 115 108 110 107 103 105 102 66 66 66 60 58 59 50 48 49 41 39 40 38 36 37 40 38 39 46 44 45 50 48 49 42 40 41 42 40 41 42 40 41 42 40 41 42 40 41 42 40 41 42 40 41 42 40 41 39 37 38 39 37 38 39 37 38 39 37 38 39 37 38 39 37 38 39 37 38 39 37 38 42 40 41 42 40 41 42 40 41 42 40 41 42 40 41 42 40 41 42 40 41 42 40 41
126 108 132 126 108 132 126 108 132 126 108 132 123 105 129 123 105 129 123 105 129 123 105 129 123 105 129 123 105 129 123 105 129 123 105 129 125 105 130 125 106 128 125 106 128 125 106 128 125 106 128 125 106 128 125 106 128 125 106 128 124 105 127 124 105 127 124 105 127 124 105 127 124 105 127 124 105 127 124 105 127 126 104 125 117 92 113 116 91 110 114 91 109 111 90 107 109 88 105 105 87 103 102 85 101 98 86 100 72 61 75 59 53 65 40 37 48 23 21 32 11 9 20 5 5 15 3 6 15 4 7 16 7 7 17 7 7 17 7 7 17 7 7 17 7 7 17 7 7 17 7 7 17 7 7 17 9 9 19 9 9 19 9 9 19 9 9 19 9 9 19 9 9 19 9 9 19 7 10 19 6 10 19 6 10 19 6 10 19 6 10 19 6 10 19 6 10 19 6 10 19 6 10 19 4 8 17 4 8 17 4 8 17 4 8 17 4 8 17 4 8 17 4 8 17 2 9 17 6 13 21 6 13 21 6 13 21 6 13 21 6 13 21 6 13 21 6 13 21 6 13 21 6 13 21 6 13 21 6 13 21 6 13 21 6 13 21 6 13 21 6 13 21 6 13 19 5 8 13 5 9 12 5 9 12 5 9 12 5 9 12 5 9 12 5 9 12 5 9 12 0 4 7 0 4 7 0 4 7 0 4 7 0 4 7 0 4 7 0 4 7 0 4 7 4 10 10 4 10 10 4 10 10 4 10 10 4 10 10 4 10 10 4 10 10 4 10 10 13 19 19 15 21 21 20 26 26 27 33 33 33 39 39 40 46 46 45 51 51 47 53 51 63 67 66 65 70 66 67 72 68 70 75 71 74 79 75 77 82 78 79 84 80 81 86 82 106 111 107 106 111 107 106 111 107 106 111 107 106 111 107 106 111 107 106 111 107 108 110 107 64 64 62 58 57 55 48 47 45 39 38 36 36 35 33 38 37 35 44 43 41 48 47 45 41 40 38 41 40 38 41 40 38 41 40 38 41 40 38 41 40 38 41 40 38 41 40 38 39 38 36 39 38 36 39 38 36 39 38 36 39 38 36 39 38 36 39 38 36 39 38 36 38 37 35 38 37 35 38 37 35 38 37 35 38 37 35 38 37 35 38 37 35 38 37 35
127 107 134 127 107 134 127 107 134 127 107 134 124 104 131 124 104 131 124 104 131 124 104 131 124 104 131 124 104 131 124 104 131 124 104 131 127 104 130 127 104 130 127 104 130 127 104 130 127 104 130 127 104 130 127 104 130 127 104 130 126 103 129 126 103 129 126 103 129 126 103 129 126 103 129 126 103 129 126 103 129 127 103 127 119 91 114 118 90 112 116 88 110 111 88 108 108 85 105 102 83 102 99 82 100 95 82 99 67 59 74 54 50 64 37 35 48 18 20 32 7 9 21 0 7 17 0 7 17 1 8 18 4 8 17 5 8 17 5 8 17 5 8 17 5 8 17 5 8 17 5 8 17 5 8 17 7 10 19 7 10 19 7 10 19 7 10 19 7 10 19 7 10 19 7 10 19 6 10 19 6 10 19 4 11 19 4 11 19 4 11 19 4 11 19 4 11 19 4 11 19 4 11 19 2 9 17 2 9 17 2 9 17 2 9 17 2 9 17 2 9 17 2 9 17 2 9 17 5 14 21 5 14 21 5 14 21 5 14 21 5 14 21 5 14 21 5 14 21 5 14 21 5 14 21 5 14 21 5 14 21 5 14 21 5 14 21 5 14 21 5 14 21 6 13 19 4 9 13 5 9 12 5 9 12 5 9 12 5 9 12 5 9 12 5 9 12 5 9 12 0 4 7 0 4 7 0 4 7 0 4 7 0 4 7 0 4 7 0 4 7 0 4 7 4 10 10 4 10 10 4 10 10 4 10 10 4 10 10 4 10 10 4 10 10 4 10 10 13 19 19 15 21 21 20 26 26 27 33 33 33 39 39 40 46 46 45 51 51 47 53 51 63 67 66 65 70 66 67 72 68 70 75 71 74 79 75 77 82 78 79 84 80 81 86 82 104 109 105 104 109 105 104 109 105 104 109 105 104 109 105 104 109 105 104 109 105 106 108 105 64 64 62 58 57 55 48 47 45 39 38 36 36 35 33 38 37 35 44 43 41 48 47 45 41 40 38 41 40 38 41 40 38 41 40 38 41 40 38 41 40 38 41 40 38 41 40 38 39 38 34 39 38 34 39 38 34 39 38 34 39 38 34 39 38 34 39 38 34 39 38 34 38 37 33 38 37 33 38 37 33 38 37 33 38 37 33 38 37 33 38 37 33 38 37 33
127 107 134 127 107 134 127 107 134 127 107 134 124 104 131 124 104 131 124 104 131 124 104 131 124 104 131 124 104 131 124 104 131 124 104 131 127 104 130 127 104 130 127 104 130 127 104 130 127 104 130 127 104 130 127 104 130 127 104 130 126 103 129 126 103 129 126 103 129 126 103 129 126 103 129 126 103 129 126 103 129 127 103 127 120 92 115 119 91 113 116 88 110 109 86 106 105 82 102 98 79 98 94 77 95 89 76 93 61 53 68 48 44 58 33 31 44 15 17 29 5 7 19 0 6 16 0 7 17 2 9 19 4 8 17 5 8 17 5 8 17 5 8 17 5 8 17 5 8 17 5 8 17 5 8 17 7 10 19 7 10 19 7 10 19 7 10 19 7 10 19 7 10 19 7 10 19 6 10 19 6 10 19 4 11 19 4 11 19 4 11 19 4 11 19 4 11 19 4 11 19 4 11 19 2 9 17 2 9 17 2 9 17 2 9 17 2 9 17 2 9 17 2 9 17 2 9 17 5 14 21 5 14 21 5 14 21 5 14 21 5 14 21 5 14 21 5 14 21 5 14 21 5 14 21 5 14 21 5 14 21 5 14 21 5 14 21 5 14 21 5 14 21 6 13 19 4 9 13 5 9 12 5 9 12 5 9 12 5 9 12 5 9 12 5 9 12 5 9 12 0 4 7 0 4 7 0 4 7 0 4 7 0 4 7 0 4 7 0 4 7 0 4 7 4 10 10 4 10 10 4 10 10 4 10 10 4 10 10 4 10 10 4 10 10 4 10 10 13 19 19 15 21 21 20 26 26 27 33 33 33 39 39 40 46 46 45 51 51 47 53 51 63 67 66 65 70 66 67 72 68 70 75 71 74 79 75 77 82 78 79 84 80 81 86 82 102 107 103 102 107 103 102 107 103 102 107 103 102 107 103 102 107 103 102 107 103 104 106 103 64 64 62 58 57 55 48 47 45 39 38 36 36 35 33 38 37 35 44 43 41 48 47 45 41 40 38 41 40 38 41 40 38 41 40 38 41 40 38 41 40 38 41 40 38 41 40 38 39 38 34 39 38 34 39 38 34 39 38 34 39 38 34 39 38 34 39 38 34 39 38 34 38 37 33 38 37 33 38 37 33 38 37 33 38 37 33 38 37 33 38 37 33 38 37 33
127 107 134 127 107 134 127 107 134 127 107 134 124 104 131 124 104 131 124 104 131 124 104 131 124 104 131 124 104 131 124 104 131 124 104 131 127 104 130 127 104 130 127 104 130 127 104 130 127 104 130 127 104 130 127 104 130 127 104 130 126 103 129 126 103 129 126 103 129 126 103 129 126 103 129 126 103 129 126 103 129 127 103 127 122 94 117 119 91 113 115 87 109 107 84 104 101 78 98 92 73 92 87 70 88 82 69 86 53 45 60 41 37 51 27 25 38 11 13 25 3 5 17 0 6 16 1 8 18 4 11 21 4 8 17 5 8 17 5 8 17 5 8 17 5 8 17 5 8 17 5 8 17 5 8 17 7 10 19 7 10 19 7 10 19 7 10 19 7 10 19 7 10 19 7 10 19 6 10 19 6 10 19 4 11 19 4 11 19 4 11 19 4 11 19 4 11 19 4 11 19 4 11 19 2 9 17 2 9 17 2 9 17 2 9 17 2 9 17 2 9 17 2 9 17 2 9 17 5 14 21 5 14 21 5 14 21 5 14 21 5 14 21 5 14 21 5 14 21 5 14 21 5 14 21 5 14 21 5 14 21 5 14 21 5 14 21 5 14 21 5 14 21 6 13 19 4 9 13 5 9 12 5 9 12 5 9 12 5 9 12 5 9 12 5 9 12 5 9 12 0 4 7 0 4 7 0 4 7 0 4 7 0 4 7 0 4 7 0 4 7 0 4 7 4 10 10 4 10 10 4 10 10 4 10 10 4 10 10 4 10 10 4 10 10 4 10 10 13 19 19 15 21 21 20 26 26 27 33 33 33 39 39 40 46 46 45 51 51 47 53 51 63 67 66 65 70 66 67 72 68 70 75 71 74 79 75 77 82 78 79 84 80 81 86 82 99 104 100 99 104 100 99 104 100 99 104 100 99 104 100 99 104 100 99 104 100 101 103 100 64 64 62 58 57 55 48 47 45 39 38 36 36 35 33 38 37 35 44 43 41 48 47 45 41 40 38 41 40 38 41 40 38 41 40 38 41 40 38 41 40 38 41 40 38 41 40 38 39 38 34 39 38 34 39 38 34 39 38 34 39 38 34 39 38 34 39 38 34 39 38 34 38 37 33 38 37 33 38 37 33 38 37 33 38 37 33 38 37 33 38 37 33 38 37 33
127 107 134 127 107 134 127 107 134 127 107 134 124 104 131 124 104 131 124 104 131 124 104 131 124 104 131 124 104 131 124 104 131 124 104 131 127 104 130 127 104 130 127 104 130 127 104 130 127 104 130 127 104 130 127 104 130 127 104 130 126 103 129 126 103 129 126 103 129 126 103 129 126 103 129 126 103 129 126 103 129 127 103 127 123 95 118 120 92 114 114 86 108 104 81 101 96 73 93 86 67 86 80 63 81 74 61 78 45 37 52 34 30 44 21 19 32 7 9 21 1 3 15 0 5 15 2 9 19 5 12 22 4 8 17 5 8 17 5 8 17 5 8 17 5 8 17 5 8 17 5 8 17 5 8 17 7 10 19 7 10 19 7 10 19 7 10 19 7 10 19 7 10 19 7 10 19 6 10 19 6 10 19 4 11 19 4 11 19 4 11 19 4 11 19 4 11 19 4 11 19 4 11 19 2 9 17 2 9 17 2 9 17 2 9 17 2 9 17 2 9 17 2 9 17 2 9 17 5 14 21 5 14 21 5 14 21 5 14 21 5 14 21 5 14 21 5 14 21 5 14 21 5 14 21 5 14 21 5 14 21 5 14 21 5 14 21 5 14 21 5 14 21 6 13 19 4 9 13 5 9 12 5 9 12 5 9 12 5 9 12 5 9 12 5 9 12 5 9 12 0 4 7 0 4 7 0 4 7 0 4 7 0 4 7 0 4 7 0 4 7 0 4 7 4 10 10 4 10 10 4 10 10 4 10 10 4 10 10 4 10 10 4 10 10 4 10 10 13 19 19 15 21 21 20 26 26 27 33 33 33 39 39 40 46 46 45 51 51 47 53 51 63 67 66 65 70 66 67 72 68 70 75 71 74 79 75 77 82 78 79 84 80 81 86 82 95 100 96 95 100 96 95 100 96 95 100 96 95 100 96 95 100 96 95 100 96 97 99 96 64 64 62 58 57 55 48 47 45 39 38 36 36 35 33 38 37 35 44 43 41 48 47 45 41 40 38 41 40 38 41 40 38 41 40 38 41 40 38 41 40 38 41 40 38 41 40 38 39 38 34 39 38 34 39 38 34 39 38 34 39 38 34 39 38 34 39 38 34 39 38 34 38 37 33 38 37 33 38 37 33 38 37 33 38 37 33 38 37 33 38 37 33 38 37 33
127 107 134 127 107 134 127 107 134 127 107 134 124 104 131 124 104 131 124 104 131 124 104 131 124 104 131 124 104 131 124 104 131 124 104 131 127 104 130 127 104 130 127 104 130 127 104 130 127 104 130 127 104 130 127 104 130 127 104 130 126 103 129 126 103 129 126 103 129 126 103 129 126 103 129 126 103 129 126 103 129 127 103 127 124 96 119 121 93 115 114 86 108 102 79 99 92 69 89 80 61 80 73 56 74 66 53 70 37 29 44 27 23 37 15 13 26 3 5 17 0 0 12 0 4 14 2 9 19 6 13 23 4 8 17 5 8 17 5 8 17 5 8 17 5 8 17 5 8 17 5 8 17 5 8 17 7 10 19 7 10 19 7 10 19 7 10 19 7 10 19 7 10 19 7 10 19 6 10 19 6 10 19 4 11 19 4 11 19 4 11 19 4 11 19 4 11 19 4 11 19 4 11 19 2 9 17 2 9 17 2 9 17 2 9 17 2 9 17 2 9 17 2 9 17 2 9 17 5 14 21 5 14 21 5 14 21 5 14 21 5 14 21 5 14 21 5 14 21 5 14 21 5 14 21 5 14 21 5 14 21 5 14 21 5 14 21 5 14 21 5 14 21 6 13 19 4 9 13 5 9 12 5 9 12 5 9 12 5 9 12 5 9 12 5 9 12 5 9 12 0 4 7 0 4 7 0 4 7 0 4 7 0 4 7 0 4 7 0 4 7 0 4 7 4 10 10 4 10 10 4 10 10 4 10 10 4 10 10 4 10 10 4 10 10 4 10 10 13 19 19 15 21 21 20 26 26 27 33 33 33 39 39 40 46 46 45 51 51 47 53 51 63 67 66 65 70 66 67 72 68 70 75 71 74 79 75 77 82 78 79 84 80 81 86 82 92 97 93 92 97 93 92 97 93 92 97 93 92 97 93 92 97 93 92 97 93 94 96 93 64 64 62 58 57 55 48 47 45 39 38 36 36 35 33 38 37 35 44 43 41 48 47 45 41 40 38 41 40 38 41 40 38 41 40 38 41 40 38 41 40 38 41 40 38 41 40 38 39 38 34 39 38 34 39 38 34 39 38 34 39 38 34 39 38 34 39 38 34 39 38 34 38 37 33 38 37 33 38 37 33 38 37 33 38 37 33 38 37 33 38 37 33 38 37 33
127 107 134 127 107 134 127 107 134 127 107 134 124 104 131 124 104 131 124 104 131 124 104 131 124 104 131 124 104 131 124 104 131 124 104 131 127 104 130 127 104 130 127 104 130 127 104 130 127 104 130 127 104 130 127 104 130 127 104 130 126 103 129 126 103 129 126 103 129 126 103 129 126 103 129 126 103 129 126 103 129 127 103 127 125 97 120 121 93 115 113 85 107 100 77 97 89 66 86 76 57 76 67 50 68 60 47 64 31 23 38 22 18 32 11 9 22 0 1 13 0 0 11 0 4 14 3 10 20 7 14 24 4 8 17 5 8 17 5 8 17 5 8 17 5 8 17 5 8 17 5 8 17 5 8 17 7 10 19 7 10 19 7 10 19 7 10 19 7 10 19 7 10 19 7 10 19 6 10 19 6 10 19 4 11 19 4 11 19 4 11 19 4 11 19 4 11 19 4 11 19 4 11 19 2 9 17 2 9 17 2 9 17 2 9 17 2 9 17 2 9 17 2 9 17 2 9 17 5 14 21 5 14 21 5 14 21 5 14 21 5 14 21 5 14 21 5 14 21 5 14 21 5 14 21 5 14 21 5 14 21 5 14 21 5 14 21 5 14 21 5 14 21 6 13 19 4 9 13 5 9 12 5 9 12 5 9 12 5 9 12 5 9 12 5 9 12 5 9 12 0 4 7 0 4 7 0 4 7 0 4 7 0 4 7 0 4 7 0 4 7 0 4 7 4 10 10 4 10 10 4 10 10 4 10 10 4 10 10 4 10 10 4 10 10 4 10 10 13 19 19 15 21 21 20 26 26 27 33 33 33 39 39 40 46 46 45 51 51 47 53 51 63 67 66 65 70 66 67 72 68 70 75 71 74 79 75 77 82 78 79 84 80 81 86 82 90 95 91 90 95 91 90 95 91 90 95 91 90 95 91 90 95 91 90 95 91 92 94 91 64 64 62 58 57 55 48 47 45 39 38 36 36 35 33 38 37 35 44 43 41 48 47 45 41 40 38 41 40 38 41 40 38 41 40 38 41 40 38 41 40 38 41 40 38 41 40 38 39 38 34 39 38 34 39 38 34 39 38 34 39 38 34 39 38 34 39 38 34 39 38 34 38 37 33 38 37 33 38 37 33 38 37 33 38 37 33 38 37 33 38 37 33 38 37 33
127 107 134 127 107 134 127 107 134 127 107 134 124 104 131 124 104 131 124 104 131 124 104 131 124 104 131 124 104 131 124 104 131 124 104 131 127 104 130 127 104 130 127 104 130 127 104 130 127 104 130 127 104 130 127 104 130 127 104 130 126 103 129 126 103 129 126 103 129 126 103 129 126 103 129 126 103 129 126 103 129 127 103 127 126 98 121 121 93 115 113 85 107 99 76 96 88 65 85 74 55 74 64 47 65 57 44 61 28 20 35 19 15 29 8 6 19 0 0 12 0 0 11 0 3 13 3 10 20 8 15 25 4 8 17 5 8 17 5 8 17 5 8 17 5 8 17 5 8 17 5 8 17 5 8 17 7 10 19 7 10 19 7 10 19 7 10 19 7 10 19 7 10 19 7 10 19 6 10 19 6 10 19 4 11 19 4 11 19 4 11 19 4 11 19 4 11 19 4 11 19 4 11 19 2 9 17 2 9 17 2 9 17 2 9 17 2 9 17 2 9 17 2 9 17 2 9 17 5 14 21 5 14 21 5 14 21 5 14 21 5 14 21 5 14 21 5 14 21 5 14 21 5 14 21 5 14 21 5 14 21 5 14 21 5 14 21 5 14 21 5 14 21 6 13 19 4 9 13 5 9 12 5 9 12 5 9 12 5 9 12 5 9 12 5 9 12 5 9 12 0 4 7 0 4 7 0 4 7 0 4 7 0 4 7 0 4 7 0 4 7 0 4 7 4 10 10 4 10 10 4 10 10 4 10 10 4 10 10 4 10 10 4 10 10 4 10 10 13 19 19 15 21 21 20 26 26 27 33 33 33 39 39 40 46 46 45 51 51 47 53 51 63 67 66 65 70 66 67 72 68 70 75 71 74 79 75 77 82 78 79 84 80 81 86 82 88 93 89 88 93 89 88 93 89 88 93 89 88 93 89 88 93 89 88 93 89 90 92 89 64 64 62 58 57 55 48 47 45 39 38 36 36 35 33 38 37 35 44 43 41 48 47 45 41 40 38 41 40 38 41 40 38 41 40 38 41 40 38 41 40 38 41 40 38 41 40 38 39 38 34 39 38 34 39 38 34 39 38 34 39 38 34 39 38 34 39 38 34 39 38 34 38 37 33 38 37 33 38 37 33 38 37 33 38 37 33 38 37 33 38 37 33 38 37 33
123 103 130 123 103 130 123 103 130 123 103 130 117 97 124 117 97 124 117 97 124 117 97 124 117 97 124 117 97 124 117 97 124 117 97 124 131 108 134 131 108 134 131 108 134 131 108 134 131 108 134 131 108 134 131 108 134 131 108 134 119 96 122 119 96 122 119 96 122 119 96 122 119 96 122 119 96 122 119 96 122 120 96 120 119 91 114 121 93 115 121 93 115 110 87 107 91 68 88 62 43 62 35 18 36 16 3 20 12 4 19 9 5 19 8 6 19 5 7 19 5 7 19 2 9 19 2 9 19 2 9 19 4 8 17 5 8 17 5 8 17 5 8 17 5 8 17 5 8 17 5 8 17 5 8 17 6 9 18 6 9 18 6 9 18 6 9 18 6 9 18 6 9 18 6 9 18 5 9 18 6 10 19 4 11 19 4 11 19 4 11 19 4 11 19 4 11 19 4 11 19 4 11 19 5 12 20 5 12 20 5 12 20 5 12 20 5 12 20 5 12 20 5 12 20 5 12 20 6 15 22 6 15 22 6 15 22 6 15 22 6 15 22 6 15 22 6 15 22 6 15 22 6 15 22 6 15 22 6 15 22 6 15 22 6 15 22 6 15 22 6 15 22 7 14 20 3 8 12 4 8 11 4 8 11 4 8 11 4 8 11 4 8 11 4 8 11 4 8 11 2 6 9 2 6 9 2 6 9 2 6 9 2 6 9 2 6 9 2 6 9 2 6 9 0 2 2 0 2 2 0 3 3 0 6 6 4 10 10 7 13 13 9 15 15 11 17 17 22 28 28 24 30 30 26 32 32 29 35 35 33 39 39 36 42 42 38 44 44 40 46 44 51 55 54 53 58 54 55 60 56 58 63 59 62 67 63 65 70 66 67 72 68 69 74 70 84 89 85 84 89 85 84 89 85 84 89 85 84 89 85 84 89 85 84 89 85 86 88 85 60 60 58 54 53 51 44 43 41 35 34 32 32 31 29 34 33 31 40 39 37 44 43 41 35 34 32 35 34 32 35 34 32 35 34 32 35 34 32 35 34 32 35 34 32 35 34 32 35 34 30 35 34 30 35 34 30 35 34 30 35 34 30 35 34 30 35 34 30 35 34 30 37 36 32 37 36 32 37 36 32 37 36 32 37 36 32 37 36 32 37 36 32 37 36 32
121 101 128 121 101 128 121 101 128 121 101 128 120 100 127 120 100 127 120 100 127 120 100 127 120 100 127 120 100 127 120 100 127 120 100 127 129 106 132 129 106 132 129 106 132 129 106 132 129 106 132 129 106 132 129 106 132 129 106 132 122 99 125 122 99 125 122 99 125 122 99 125 122 99 125 122 99 125 122 99 125 123 99 123 116 88 111 117 89 111 115 87 109 103 80 100 85 62 82 58 39 58 34 17 35 16 3 20 12 4 19 9 5 19 8 6 19 5 7 19 5 7 19 2 9 19 2 9 19 2 9 19 4 8 17 5 8 17 5 8 17 5 8 17 5 8 17 5 8 17 5 8 17 5 8 17 6 9 18 6 9 18 6 9 18 6 9 18 6 9 18 6 9 18 6 9 18 5 9 18 6 10 19 4 11 19 4 11 19 4 11 19 4 11 19 4 11 19 4 11 19 4 11 19 5 12 20 5 12 20 5 12 20 5 12 20 5 12 20 5 12 20 5 12 20 5 12 20 6 15 22 6 15 22 6 15 22 6 15 22 6 15 22 6 15 22 6 15 22 6 15 22 6 15 22 6 15 22 6 15 22 6 15 22 6 15 22 6 15 22 6 15 22 7 14 20 5 10 14 6 10 13 6 10 13 6 10 13 6 10 13 6 10 13 6 10 13 6 10 13 2 6 9 2 6 9 2 6 9 2 6 9 2 6 9 2 6 9 2 6 9 2 6 9 0 2 2 0 2 2 0 3 3 0 6 6 4 10 10 7 13 13 9 15 15 11 17 17 22 28 28 24 30 30 26 32 32 29 35 35 33 39 39 36 42 42 38 44 44 40 46 44 51 55 54 53 58 54 55 60 56 58 63 59 62 67 63 65 70 66 67 72 68 69 74 70 82 87 83 82 87 83 82 87 83 82 87 83 82 87 83 82 87 83 82 87 83 84 86 83 60 60 58 54 53 51 44 43 41 35 34 32 32 31 29 34 33 31 40 39 37 44 43 41 35 34 32 35 34 32 35 34 32 35 34 32 35 34 32 35 34 32 35 34 32 35 34 32 35 34 30 35 34 30 35 34 30 35 34 30 35 34 30 35 34 30 35 34 30 35 34 30 37 36 32 37 36 32 37 36 32 37 36 32 37 36 32 37 36 32 37 36 32 37 36 32
116 96 123 116 96 123 116 96 123 116 96 123 123 103 130 123 103 130 123 103 130 123 103 130 123 103 130 123 103 130 123 103 130 123 103 130 124 101 127 124 101 127 124 101 127 124 101 127 124 101 127 124 101 127 124 101 127 124 101 127 125 102 128 125 102 128 125 102 128 125 102 128 125 102 128 125 102 128 125 102 128 126 102 126 109 81 104 108 80 102 104 76 98 91 68 88 74 51 71 51 32 51 31 14 32 16 3 20 12 4 19 9 5 19 8 6 19 5 7 19 5 7 19 2 9 19 2 9 19 2 9 19 4 8 17 5 8 17 5 8 17 5 8 17 5 8 17 5 8 17 5 8 17 5 8 17 6 9 18 6 9 18 6 9 18 6 9 18 6 9 18 6 9 18 6 9 18 5 9 18 6 10 19 4 11 19 4 11 19 4 11 19 4 11 19 4 11 19 4 11 19 4 11 19 5 12 20 5 12 20 5 12 20 5 12 20 5 12 20 5 12 20 5 12 20 5 12 20 6 15 22 6 15 22 6 15 22 6 15 22 6 15 22 6 15 22 6 15 22 6 15 22 6 15 22 6 15 22 6 15 22 6 15 22 6 15 22 6 15 22 6 15 22 7 14 20 7 12 16 8 12 15 8 12 15 8 12 15 8 12 15 8 12 15 8 12 15 8 12 15 2 6 9 2 6 9 2 6 9 2 6 9 2 6 9 2 6 9 2 6 9 2 6 9 0 2 2 0 2 2 0 3 3 0 6 6 4 10 10 7 13 13 9 15 15 11 17 17 22 28 28 24 30 30 26 32 32 29 35 35 33 39 39 36 42 42 38 44 44 40 46 44 51 55 54 53 58 54 55 60 56 58 63 59 62 67 63 65 70 66 67 72 68 69 74 70 80 85 81 80 85 81 80 85 81 80 85 81 80 85 81 80 85 81 80 85 81 82 84 81 60 60 58 54 53 51 44 43 41 35 34 32 32 31 29 34 33 31 40 39 37 44 43 41 35 34 32 35 34 32 35 34 32 35 34 32 35 34 32 35 34 32 35 34 32 35 34 32 35 34 30 35 34 30 35 34 30 35 34 30 35 34 30 35 34 30 35 34 30 35 34 30 37 36 32 37 36 32 37 36 32 37 36 32 37 36 32 37 36 32 37 36 32 37 36 32
109 89 116 109 89 116 109 89 116 109 89 116 122 102 129 122 102 129 122 102 129 122 102 129 122 102 129 122 102 129 122 102 129 122 102 129 117 94 120 117 94 120 117 94 120 117 94 120 117 94 120 117 94 120 117 94 120 117 94 120 124 101 127 124 101 127 124 101 127 124 101 127 124 101 127 124 101 127 124 101 127 125 101 125 101 73 96 97 69 91 89 61 83 75 52 72 60 37 57 41 22 41 28 11 29 17 4 21 12 4 19 9 5 19 8 6 19 5 7 19 5 7 19 2 9 19 2 9 19 2 9 19 4 8 17 5 8 17 5 8 17 5 8 17 5 8 17 5 8 17 5 8 17 5 8 17 6 9 18 6 9 18 6 9 18 6 9 18 6 9 18 6 9 18 6 9 18 5 9 18 6 10 19 4 11 19 4 11 19 4 11 19 4 11 19 4 11 19 4 11 19 4 11 19 5 12 20 5 12 20 5 12 20 5 12 20 5 12 20 5 12 20 5 12 20 5 12 20 6 15 22 6 15 22 6 15 22 6 15 22 6 15 22 6 15 22 6 15 22 6 15 22 6 15 22 6 15 22 6 15 22 6 15 22 6 15 22 6 15 22 6 15 22 7 14 20 10 15 19 11 15 18 11 15 18 11 15 18 11 15 18 11 15 18 11 15 18 11 15 18 2 6 9 2 6 9 2 6 9 2 6 9 2 6 9 2 6 9 2 6 9 2 6 9 0 2 2 0 2 2 0 3 3 0 6 6 4 10 10 7 13 13 9 15 15 11 17 17 22 28 28 24 30 30 26 32 32 29 35 35 33 39 39 36 42 42 38 44 44 40 46 44 51 55 54 53 58 54 55 60 56 58 63 59 62 67 63 65 70 66 67 72 68 69 74 70 77 82 78 77 82 78 77 82 78 77 82 78 77 82 78 77 82 78 77 82 78 79 81 78 60 60 58 54 53 51 44 43 41 35 34 32 32 31 29 34 33 31 40 39 37 44 43 41 35 34 32 35 34 32 35 34 32 35 34 32 35 34 32 35 34 32 35 34 32 35 34 32 35 34 30 35 34 30 35 34 30 35 34 30 35 34 30 35 34 30 35 34 30 35 34 30 37 36 32 37 36 32 37 36 32 37 36 32 37 36 32 37 36 32 37 36 32 37 36 32
103 83 110 103 83 110 103 83 110 103 83 110 115 95 122 115 95 122 115 95 122 115 95 122 115 95 122 115 95 122 115 95 122 115 95 122 111 88 114 111 88 114 111 88 114 111 88 114 111 88 114 111 88 114 111 88 114 111 88 114 117 94 120 117 94 120 117 94 120 117 94 120 117 94 120 117 94 120 117 94 120 118 94 118 92 64 87 85 57 79 74 46 68 57 34 54 44 21 41 31 12 31 24 7 25 18 5 22 12 4 19 9 5 19 8 6 19 5 7 19 5 7 19 2 9 19 2 9 19 2 9 19 4 8 17 5 8 17 5 8 17 5 8 17 5 8 17 5 8 17 5 8 17 5 8 17 6 9 18 6 9 18 6 9 18 6 9 18 6 9 18 6 9 18 6 9 18 5 9 18 6 10 19 4 11 19 4 11 19 4 11 19 4 11 19 4 11 19 4 11 19 4 11 19 5 12 20 5 12 20 5 12 20 5 12 20 5 12 20 5 12 20 5 12 20 5 12 20 6 15 22 6 15 22 6 15 22 6 15 22 6 15 22 6 15 22 6 15 22 6 15 22 6 15 22 6 15 22 6 15 22 6 15 22 6 15 22 6 15 22 6 15 22 7 14 20 14 19 23 15 19 22 15 19 22 15 19 22 15 19 22 15 19 22 15 19 22 15 19 22 2 6 9 2 6 9 2 6 9 2 6 9 2 6 9 2 6 9 2 6 9 2 6 9 0 2 2 0 2 2 0 3 3 0 6 6 4 10 10 7 13 13 9 15 15 11 17 17 22 28 28 24 30 30 26 32 32 29 35 35 33 39 39 36 42 42 38 44 44 40 46 44 51 55 54 53 58 54 55 60 56 58 63 59 62 67 63 65 70 66 67 72 68 69 74 70 73 78 74 73 78 74 73 78 74 73 78 74 73 78 74 73 78 74 73 78 74 75 77 74 60 60 58 54 53 51 44 43 41 35 34 32 32 31 29 34 33 31 40 39 37 44 43 41 35 34 32 35 34 32 35 34 32 35 34 32 35 34 32 35 34 32 35 34 32 35 34 32 35 34 30 35 34 30 35 34 30 35 34 30 35 34 30 35 34 30 35 34 30 35 34 30 37 36 32 37 36 32 37 36 32 37 36 32 37 36 32 37 36 32 37 36 32 37 36 32
96 76 103 96 76 103 96 76 103 96 76 103 103 83 110 103 83 110 103 83 110 103 83 110 103 83 110 103 83 110 103 83 110 103 83 110 104 81 107 104 81 107 104 81 107 104 81 107 104 81 107 104 81 107 104 81 107 104 81 107 105 82 108 105 82 108 105 82 108 105 82 108 105 82 108 105 82 108 105 82 108 106 82 106 84 56 79 75 47 69 59 31 53 41 18 38 30 7 27 22 3 22 20 3 21 18 5 22 12 4 19 9 5 19 8 6 19 5 7 19 5 7 19 2 9 19 2 9 19 2 9 19 4 8 17 5 8 17 5 8 17 5 8 17 5 8 17 5 8 17 5 8 17 5 8 17 6 9 18 6 9 18 6 9 18 6 9 18 6 9 18 6 9 18 6 9 18 5 9 18 6 10 19 4 11 19 4 11 19 4 11 19 4 11 19 4 11 19 4 11 19 4 11 19 5 12 20 5 12 20 5 12 20 5 12 20 5 12 20 5 12 20 5 12 20 5 12 20 6 15 22 6 15 22 6 15 22 6 15 22 6 15 22 6 15 22 6 15 22 6 15 22 6 15 22 6 15 22 6 15 22 6 15 22 6 15 22 6 15 22 6 15 22 7 14 20 17 22 26 18 22 25 18 22 25 18 22 25 18 22 25 18 22 25 18 22 25 18 22 25 2 6 9 2 6 9 2 6 9 2 6 9 2 6 9 2 6 9 2 6 9 2 6 9 0 2 2 0 2 2 0 3 3 0 6 6 4 10 10 7 13 13 9 15 15 11 17 17 22 28 28 24 30 30 26 32 32 29 35 35 33 39 39 36 42 42 38 44 44 40 46 44 51 55 54 53 58 54 55 60 56 58 63 59 62 67 63 65 70 66 67 72 68 69 74 70 70 75 71 70 75 71 70 75 71 70 75 71 70 75 71 70 75 71 70 75 71 72 74 71 60 60 58 54 53 51 44 43 41 35 34 32 32 31 29 34 33 31 40 39 37 44 43 41 35 34 32 35 34 32 35 34 32 35 34 32 35 34 32 35 34 32 35 34 32 35 34 32 35 34 30 35 34 30 35 34 30 35 34 30 35 34 30 35 34 30 35 34 30 35 34 30 37 36 32 37 36 32 37 36 32 37 36 32 37 36 32 37 36 32 37 36 32 37 36 32
91 71 98 91 71 98 91 71 98 91 71 98 90 70 97 90 70 97 90 70 97 90 70 97 90 70 97 90 70 97 90 70 97 90 70 97 99 76 102 99 76 102 99 76 102 99 76 102 99 76 102 99 76 102 99 76 102 99 76 102 92 69 95 92 69 95 92 69 95 92 69 95 92 69 95 92 69 95 92 69 95 93 69 93 77 49 72 66 38 60 48 20 42 29 6 26 19 0 16 15 0 15 18 1 19 19 6 23 12 4 19 9 5 19 8 6 19 5 7 19 5 7 19 2 9 19 2 9 19 2 9 19 4 8 17 5 8 17 5 8 17 5 8 17 5 8 17 5 8 17 5 8 17 5 8 17 6 9 18 6 9 18 6 9 18 6 9 18 6 9 18 6 9 18 6 9 18 5 9 18 6 10 19 4 11 19 4 11 19 4 11 19 4 11 19 4 11 19 4 11 19 4 11 19 5 12 20 5 12 20 5 12 20 5 12 20 5 12 20 5 12 20 5 12 20 5 12 20 6 15 22 6 15 22 6 15 22 6 15 22 6 15 22 6 15 22 6 15 22 6 15 22 6 15 22 6 15 22 6 15 22 6 15 22 6 15 22 6 15 22 6 15 22 7 14 20 19 24 28 20 24 27 20 24 27 20 24 27 20 24 27 20 24 27 20 24 27 20 24 27 2 6 9 2 6 9 2 6 9 2 6 9 2 6 9 2 6 9 2 6 9 2 6 9 0 2 2 0 2 2 0 3 3 0 6 6 4 10 10 7 13 13 9 15 15 11 17 17 22 28 28 24 30 30 26 32 32 29 35 35 33 39 39 36 42 42 38 44 44 40 46 44 51 55 54 53 58 54 55 60 56 58 63 59 62 67 63 65 70 66 67 72 68 69 74 70 68 73 69 68 73 69 68 73 69 68 73 69 68 73 69 68 73 69 68 73 69 70 72 69 60 60 58 54 53 51 44 43 41 35 34 32 32 31 29 34 33 31 40 39 37 44 43 41 35 34 32 35 34 32 35 34 32 35 34 32 35 34 32 35 34 32 35 34 32 35 34 32 35 34 30 35 34 30 35 34 30 35 34 30 35 34 30 35 34 30 35 34 30 35 34 30 37 36 32 37 36 32 37 36 32 37 36 32 37 36 32 37 36 32 37 36 32 37 36 32
86 71 94 86 71 94 86 71 94 86 71 94 79 64 87 79 64 87 79 64 87 79 64 87 79 64 87 79 64 87 79 64 87 79 64 87 94 76 100 94 76 98 94 76 100 94 76 98 94 76 100 94 76 98 94 76 100 94 76 98 81 63 87 81 63 85 81 63 87 81 63 85 81 63 87 81 63 85 81 63 87 81 63 85 70 48 69 58 37 56 36 17 36 19 0 19 10 0 11 8 0 11 13 0 17 16 8 23 11 5 19 9 5 19 8 6 19 7 7 19 5 7 19 4 8 19 2 9 19 2 9 19 4 8 17 5 8 17 5 8 17 5 8 17 5 8 17 5 8 17 5 8 17 5 8 17 6 9 18 6 9 18 6 9 18 6 9 18 6 9 18 6 9 18 6 9 18 5 9 18 4 11 19 4 11 17 4 11 19 4 11 17 4 11 19 4 11 17 4 11 19 4 11 17 5 12 20 5 12 18 5 12 20 5 12 18 5 12 20 5 12 18 5 12 20 5 12 18 6 15 22 6 15 20 6 15 22 6 15 20 6 15 22 6 15 20 6 15 22 6 15 20 6 15 22 6 15 20 6 15 22 6 15 20 6 15 22 6 15 20 6 15 22 7 14 20 21 26 30 21 26 29 22 26 29 21 26 29 22 26 29 21 26 29 22 26 29 21 26 29 2 6 9 1 6 9 2 6 9 1 6 9 2 6 9 1 6 9 2 6 9 1 6 9 0 1 4 0 2 2 0 3 3 0 6 6 4 10 10 7 13 13 9 15 15 11 17 17 22 28 28 24 30 30 26 32 32 29 35 35 33 39 39 36 42 42 38 44 44 40 46 46 51 55 54 53 58 54 55 60 56 58 63 59 62 67 63 65 70 66 67 72 68 69 74 70 66 71 67 66 71 67 66 71 67 66 71 67 66 71 67 66 71 67 66 71 67 68 70 67 60 60 58 54 53 51 44 43 41 35 34 32 32 31 29 34 33 31 40 39 37 44 43 41 35 34 32 35 34 32 35 34 32 35 34 32 35 34 32 35 34 32 35 34 32 35 34 32 35 34 30 35 34 30 37 33 30 35 34 30 37 33 30 35 34 30 37 33 30 35 34 30 39 35 32 37 36 32 39 35 32 37 36 32 39 35 32 37 36 32 39 35 32 37 36 32
46 37 54 46 37 54 46 37 54 46 37 54 55 46 63 55 46 63 55 46 63 55 46 63 55 46 63 55 46 63 55 46 63 55 46 63 60 53 69 60 53 69 60 53 71 60 53 69 60 53 71 60 53 69 60 53 71 60 53 69 43 36 54 43 36 52 43 36 54 43 36 52 43 36 54 43 36 52 43 36 54 43 36 52 11 5 19 11 5 19 11 5 19 11 5 19 11 5 19 9 5 19 9 5 19 8 6 19 9 7 20 9 7 20 8 8 20 8 8 20 8 8 20 6 8 20 6 8 20 6 8 20 2 6 17 2 6 17 2 6 17 2 6 17 2 6 17 2 6 17 2 6 17 2 6 17 4 8 19 4 8 19 4 8 19 4 8 19 4 8 19 4 8 19 4 8 19 4 8 17 6 13 19 6 14 17 6 13 19 6 14 17 6 13 19 6 14 17 6 13 19 6 14 17 5 12 18 5 13 16 5 12 18 5 13 16 5 12 18 5 13 16 5 12 18 5 13 16 9 16 22 9 17 20 9 16 22 9 17 20 9 16 22 9 17 20 9 16 22 9 17 20 0 1 7 0 2 5 0 7 13 8 16 19 16 23 29 23 31 34 29 36 42 32 40 43 31 39 42 31 39 42 33 38 42 31 39 42 33 38 42 31 39 42 33 38 42 31 39 42 7 12 16 5 13 16 7 12 16 5 13 16 7 12 16 5 13 16 7 12 16 7 12 15 0 1 4 0 2 5 0 4 7 2 7 10 6 11 14 9 14 17 11 16 19 13 18 21 20 25 28 22 27 30 24 29 32 27 32 35 31 36 39 34 39 42 36 41 44 38 44 44 55 61 59 55 61 59 55 61 59 55 61 59 55 61 59 55 61 59 55 61 59 55 61 59 60 66 64 60 66 64 60 66 64 60 66 64 60 66 64 60 66 64 60 66 64 61 66 62 46 45 43 46 42 39 44 40 37 41 37 34 37 33 30 34 30 27 32 28 25 30 26 23 34 30 27 34 30 27 34 30 27 34 30 27 34 30 27 34 30 27 34 30 27 34 30 27 36 32 29 36 32 29 37 32 29 36 32 29 37 32 29 36 32 29 37 32 29 36 32 29 37 32 29 36 32 29 37 32 29 36 32 29 37 32 29 36 32 29 37 32 29 36 32 29
35 31 45 35 31 45 35 31 45 35 31 45 31 27 41 31 27 41 31 27 41 31 27 41 31 27 41 31 27 41 31 27 41 31 27 41 47 45 59 47 45 59 47 45 59 47 45 59 47 45 59 47 45 59 47 45 59 47 45 59 32 30 44 32 30 44 32 30 44 32 30 44 32 30 44 32 30 44 32 30 44 32 30 44 7 7 19 7 7 19 7 7 19 7 7 19 7 7 19 7 7 19 7 7 19 7 7 19 8 8 20 8 8 20 8 8 20 8 8 20 8 8 20 8 8 20 8 8 20 6 8 20 3 5 17 2 6 17 2 6 17 2 6 17 2 6 17 2 6 17 2 6 17 2 6 17 4 8 19 4 8 19 4 8 19 4 8 19 4 8 19 4 8 19 4 8 19 4 8 17 6 13 19 6 14 17 6 14 17 6 14 17 6 14 17 6 14 17 6 14 17 6 14 17 5 13 16 5 13 16 5 13 16 5 13 16 5 13 16 5 13 16 5 13 16 5 13 16 9 17 20 9 17 20 9 17 20 9 17 20 9 17 20 9 17 20 9 17 20 9 17 20 0 3 6 0 6 9 4 12 15 11 19 22 18 26 29 25 33 36 30 38 41 33 41 44 31 39 42 31 39 42 31 39 42 31 39 42 31 39 42 31 39 42 31 39 42 31 39 42 5 13 16 5 13 16 5 13 16 5 13 16 5 13 16 5 13 16 5 13 16 5 13 16 0 1 4 0 2 5 0 4 7 2 7 10 6 11 14 9 14 17 11 16 19 13 18 21 20 25 28 22 27 30 24 29 32 27 32 35 31 36 39 34 39 42 36 41 44 38 44 44 53 59 59 53 59 57 53 59 57 53 59 57 53 59 57 53 59 57 53 59 57 53 59 57 58 64 62 58 64 62 58 64 62 58 64 62 58 64 62 58 64 62 58 64 62 59 64 60 46 45 43 46 42 39 44 40 37 41 37 34 37 33 30 34 30 27 32 28 25 30 26 23 34 30 27 34 30 27 34 30 27 34 30 27 34 30 27 34 30 27 34 30 27 34 30 27 37 32 29 37 32 29 37 32 29 37 32 29 37 32 29 37 32 29 37 32 29 37 32 29 37 32 29 37 32 29 37 32 29 37 32 29 37 32 29 37 32 29 37 32 29 37 32 29
22 18 32 22 18 32 22 18 32 22 18 32 9 5 19 9 5 19 9 5 19 9 5 19 9 5 19 9 5 19 9 5 19 9 5 19 32 30 44 32 30 44 32 30 44 32 30 44 32 30 44 32 30 44 32 30 44 32 30 44 19 17 31 19 17 31 19 17 31 19 17 31 19 17 31 19 17 31 19 17 31 19 17 31 7 7 19 7 7 19 7 7 19 7 7 19 7 7 19 7 7 19 7 7 19 7 7 19 8 8 20 8 8 20 8 8 20 8 8 20 8 8 20 8 8 20 8 8 20 6 8 20 3 5 17 2 6 17 2 6 17 2 6 17 2 6 17 2 6 17 2 6 17 2 6 17 4 8 19 4 8 19 4 8 19 4 8 19 4 8 19 4 8 19 4 8 19 4 8 17 6 13 19 6 14 17 6 14 17 6 14 17 6 14 17 6 14 17 6 14 17 6 14 17 5 13 16 5 13 16 5 13 16 5 13 16 5 13 16 5 13 16 5 13 16 5 13 16 9 17 20 9 17 20 9 17 20 9 17 20 9 17 20 9 17 20 9 17 20 9 17 20 4 12 15 6 14 17 10 18 21 16 24 27 22 30 33 28 36 39 32 40 43 35 43 46 31 39 42 31 39 42 31 39 42 31 39 42 31 39 42 31 39 42 31 39 42 31 39 42 5 13 16 5 13 16 5 13 16 5 13 16 5 13 16 5 13 16 5 13 16 5 13 16 0 1 4 0 2 5 0 4 7 2 7 10 6 11 14 9 14 17 11 16 19 13 18 21 20 25 28 22 27 30 24 29 32 27 32 35 31 36 39 34 39 42 36 41 44 38 44 44 51 57 57 51 57 55 51 57 55 51 57 55 51 57 55 51 57 55 51 57 55 51 57 55 56 62 60 56 62 60 56 62 60 56 62 60 56 62 60 56 62 60 56 62 60 57 62 58 46 45 43 46 42 39 44 40 37 41 37 34 37 33 30 34 30 27 32 28 25 30 26 23 34 30 27 34 30 27 34 30 27 34 30 27 34 30 27 34 30 27 34 30 27 34 30 27 37 32 29 37 32 29 37 32 29 37 32 29 37 32 29 37 32 29 37 32 29 37 32 29 37 32 29 37 32 29 37 32 29 37 32 29 37 32 29 37 32 29 37 32 29 37 32 29
10 6 20 10 6 20 10 6 20 10 6 20 2 0 12 2 0 12 2 0 12 2 0 12 2 0 12 2 0 12 2 0 12 2 0 12 17 15 29 17 15 29 17 15 29 17 15 29 17 15 29 17 15 29 17 15 29 17 15 29 7 5 19 7 5 19 7 5 19 7 5 19 7 5 19 7 5 19 7 5 19 7 5 19 7 7 19 7 7 19 7 7 19 7 7 19 7 7 19 7 7 19 7 7 19 7 7 19 8 8 20 8 8 20 8 8 20 8 8 20 8 8 20 8 8 20 8 8 20 6 8 20 3 5 17 2 6 17 2 6 17 2 6 17 2 6 17 2 6 17 2 6 17 2 6 17 4 8 19 4 8 19 4 8 19 4 8 19 4 8 19 4 8 19 4 8 19 4 8 17 6 13 19 6 14 17 6 14 17 6 14 17 6 14 17 6 14 17 6 14 17 6 14 17 5 13 16 5 13 16 5 13 16 5 13 16 5 13 16 5 13 16 5 13 16 5 13 16 9 17 20 9 17 20 9 17 20 9 17 20 9 17 20 9 17 20 9 17 20 9 17 20 15 23 26 16 24 27 19 27 30 23 31 34 28 36 39 32 40 43 35 43 46 37 45 48 31 39 42 31 39 42 31 39 42 31 39 42 31 39 42 31 39 42 31 39 42 31 39 42 5 13 16 5 13 16 5 13 16 5 13 16 5 13 16 5 13 16 5 13 16 5 13 16 0 1 4 0 2 5 0 4 7 2 7 10 6 11 14 9 14 17 11 16 19 13 18 21 20 25 28 22 27 30 24 29 32 27 32 35 31 36 39 34 39 42 36 41 44 38 44 44 48 54 54 48 54 52 48 54 52 48 54 52 48 54 52 48 54 52 48 54 52 48 54 52 53 59 57 53 59 57 53 59 57 53 59 57 53 59 57 53 59 57 53 59 57 54 59 55 46 45 43 46 42 39 44 40 37 41 37 34 37 33 30 34 30 27 32 28 25 30 26 23 34 30 27 34 30 27 34 30 27 34 30 27 34 30 27 34 30 27 34 30 27 34 30 27 37 32 29 37 32 29 37 32 29 37 32 29 37 32 29 37 32 29 37 32 29 37 32 29 37 32 29 37 32 29 37 32 29 37 32 29 37 32 29 37 32 29 37 32 29 37 32 29
3 0 13 3 0 13 3 0 13 3 0 13 9 5 19 9 5 19 9 5 19 9 5 19 9 5 19 9 5 19 9 5 19 9 5 19 6 4 18 6 4 18 6 4 18 6 4 18 6 4 18 6 4 18 6 4 18 6 4 18 0 0 12 0 0 12 0 0 12 0 0 12 0 0 12 0 0 12 0 0 12 0 0 12 7 7 19 7 7 19 7 7 19 7 7 19 7 7 19 7 7 19 7 7 19 7 7 19 8 8 20 8 8 20 8 8 20 8 8 20 8 8 20 8 8 20 8 8 20 6 8 20 3 5 17 2 6 17 2 6 17 2 6 17 2 6 17 2 6 17 2 6 17 2 6 17 4 8 19 4 8 19 4 8 19 4 8 19 4 8 19 4 8 19 4 8 19 4 8 17 6 13 19 6 14 17 6 14 17 6 14 17 6 14 17 6 14 17 6 14 17 6 14 17 5 13 16 5 13 16 5 13 16 5 13 16 5 13 16 5 13 16 5 13 16 5 13 16 9 17 20 9 17 20 9 17 20 9 17 20 9 17 20 9 17 20 9 17 20 9 17 20 26 34 37 27 35 38 29 37 40 31 39 42 34 42 45 36 44 47 38 46 49 39 47 50 31 39 42 31 39 42 31 39 42 31 39 42 31 39 42 31 39 42 31 39 42 31 39 42 5 13 16 5 13 16 5 13 16 5 13 16 5 13 16 5 13 16 5 13 16 5 13 16 0 1 4 0 2 5 0 4 7 2 7 10 6 11 14 9 14 17 11 16 19 13 18 21 20 25 28 22 27 30 24 29 32 27 32 35 31 36 39 34 39 42 36 41 44 38 44 44 44 50 50 44 50 48 44 50 48 44 50 48 44 50 48 44 50 48 44 50 48 44 50 48 49 55 53 49 55 53 49 55 53 49 55 53 49 55 53 49 55 53 49 55 53 50 55 51 46 45 43 46 42 39 44 40 37 41 37 34 37 33 30 34 30 27 32 28 25 30 26 23 34 30 27 34 30 27 34 30 27 34 30 27 34 30 27 34 30 27 34 30 27 34 30 27 37 32 29 37 32 29 37 32 29 37 32 29 37 32 29 37 32 29 37 32 29 37 32 29 37 32 29 37 32 29 37 32 29 37 32 29 37 32 29 37 32 29 37 32 29 37 32 29
2 0 12 2 0 12 2 0 12 2 0 12 13 9 23 13 9 23 13 9 23 13 9 23 13 9 23 13 9 23 13 9 23 13 9 23 2 0 14 2 0 14 2 0 14 2 0 14 2 0 14 2 0 14 2 0 14 2 0 14 0 0 12 0 0 12 0 0 12 0 0 12 0 0 12 0 0 12 0 0 12 0 0 12 7 7 19 7 7 19 7 7 19 7 7 19 7 7 19 7 7 19 7 7 19 7 7 19 8 8 20 8 8 20 8 8 20 8 8 20 8 8 20 8 8 20 8 8 20 6 8 20 3 5 17 2 6 17 2 6 17 2 6 17 2 6 17 2 6 17 2 6 17 2 6 17 4 8 19 4 8 19 4 8 19 4 8 19 4 8 19 4 8 19 4 8 19 4 8 17 6 13 19 6 14 17 6 14 17 6 14 17 6 14 17 6 14 17 6 14 17 6 14 17 5 13 16 5 13 16 5 13 16 5 13 16 5 13 16 5 13 16 5 13 16 5 13 16 9 17 20 9 17 20 9 17 20 9 17 20 9 17 20 9 17 20 9 17 20 9 17 20 37 45 48 37 45 48 38 46 49 38 46 49 39 47 50 40 48 51 40 48 51 41 49 52 31 39 42 31 39 42 31 39 42 31 39 42 31 39 42 31 39 42 31 39 42 31 39 42 5 13 16 5 13 16 5 13 16 5 13 16 5 13 16 5 13 16 5 13 16 5 13 16 0 1 4 0 2 5 0 4 7 2 7 10 6 11 14 9 14 17 11 16 19 13 18 21 20 25 28 22 27 30 24 29 32 27 32 35 31 36 39 34 39 42 36 41 44 38 44 44 41 47 47 41 47 45 41 47 45 41 47 45 41 47 45 41 47 45 41 47 45 41 47 45 46 52 50 46 52 50 46 52 50 46 52 50 46 52 50 46 52 50 46 52 50 47 52 48 46 45 43 46 42 39 44 40 37 41 37 34 37 33 30 34 30 27 32 28 25 30 26 23 34 30 27 34 30 27 34 30 27 34 30 27 34 30 27 34 30 27 34 30 27 34 30 27 37 32 29 37 32 29 37 32 29 37 32 29 37 32 29 37 32 29 37 32 29 37 32 29 37 32 29 37 32 29 37 32 29 37 32 29 37 32 29 37 32 29 37 32 29 37 32 29
5 1 15 5 1 15 5 1 15 5 1 15 7 3 17 7 3 17 7 3 17 7 3 17 7 3 17 7 3 17 7 3 17 7 3 17 3 1 15 3 1 15 3 1 15 3 1 15 3 1 15 3 1 15 3 1 15 3 1 15 2 0 14 2 0 14 2 0 14 2 0 14 2 0 14 2 0 14 2 0 14 2 0 14 7 7 19 7 7 19 7 7 19 7 7 19 7 7 19 7 7 19 7 7 19 7 7 19 8 8 20 8 8 20 8 8 20 8 8 20 8 8 20 8 8 20 8 8 20 6 8 20 3 5 17 2 6 17 2 6 17 2 6 17 2 6 17 2 6 17 2 6 17 2 6 17 4 8 19 4 8 19 4 8 19 4 8 19 4 8 19 4 8 19 4 8 19 4 8 17 6 13 19 6 14 17 6 14 17 6 14 17 6 14 17 6 14 17 6 14 17 6 14 17 5 13 16 5 13 16 5 13 16 5 13 16 5 13 16 5 13 16 5 13 16 5 13 16 9 17 20 9 17 20 9 17 20 9 17 20 9 17 20 9 17 20 9 17 20 9 17 20 45 53 56 45 53 56 45 53 56 44 52 55 43 51 54 43 51 54 42 50 53 42 50 53 31 39 42 31 39 42 31 39 42 31 39 42 31 39 42 31 39 42 31 39 42 31 39 42 5 13 16 5 13 16 5 13 16 5 13 16 5 13 16 5 13 16 5 13 16 5 13 16 0 1 4 0 2 5 0 4 7 2 7 10 6 11 14 9 14 17 11 16 19 13 18 21 20 25 28 22 27 30 24 29 32 27 32 35 31 36 39 34 39 42 36 41 44 38 44 44 39 45 45 39 45 43 39 45 43 39 45 43 39 45 43 39 45 43 39 45 43 39 45 43 44 50 48 44 50 48 44 50 48 44 50 48 44 50 48 44 50 48 44 50 48 45 50 46 46 45 43 46 42 39 44 40 37 41 37 34 37 33 30 34 30 27 32 28 25 30 26 23 34 30 27 34 30 27 34 30 27 34 30 27 34 30 27 34 30 27 34 30 27 34 30 27 37 32 29 37 32 29 37 32 29 37 32 29 37 32 29 37 32 29 37 32 29 37 32 29 37 32 29 37 32 29 37 32 29 37 32 29 37 32 29 37 32 29 37 32 29 37 32 29
8 4 18 8 4 18 8 4 18 8 4 18 1 0 11 1 0 11 1 0 11 1 0 11 1 0 11 1 0 11 1 0 11 1 0 11 5 3 17 5 3 17 5 3 17 5 3 17 5 3 17 5 3 17 5 3 17 5 3 17 5 3 17 5 3 17 5 3 17 5 3 17 5 3 17 5 3 17 5 3 17 5 3 17 7 7 19 7 7 19 7 7 19 7 7 19 7 7 19 7 7 19 7 7 19 7 7 19 8 8 20 8 8 20 8 8 20 8 8 20 8 8 20 8 8 20 8 8 20 6 8 20 3 5 17 2 6 17 2 6 17 2 6 17 2 6 17 2 6 17 2 6 17 2 6 17 4 8 19 4 8 19 4 8 19 4 8 19 4 8 19 4 8 19 4 8 19 4 8 17 6 13 19 6 14 17 6 14 17 6 14 17 6 14 17 6 14 17 6 14 17 6 14 17 5 13 16 5 13 16 5 13 16 5 13 16 5 13 16 5 13 16 5 13 16 5 13 16 9 17 20 9 17 20 9 17 20 9 17 20 9 17 20 9 17 20 9 17 20 9 17 20 50 58 61 49 57 60 48 56 59 47 55 58 46 54 57 44 52 55 44 52 55 43 51 54 31 39 42 31 39 42 31 39 42 31 39 42 31 39 42 31 39 42 31 39 42 31 39 42 5 13 16 5 13 16 5 13 16 5 13 16 5 13 16 5 13 16 5 13 16 5 13 16 0 1 4 0 2 5 0 4 7 2 7 10 6 11 14 9 14 17 11 16 19 13 18 21 20 25 28 22 27 30 24 29 32 27 32 35 31 36 39 34 39 42 36 41 44 38 44 44 37 43 43 37 43 41 37 43 41 37 43 41 37 43 41 37 43 41 37 43 41 37 43 41 42 48 46 42 48 46 42 48 46 42 48 46 42 48 46 42 48 46 42 48 46 43 48 44 46 45 43 46 42 39 44 40 37 41 37 34 37 33 30 34 30 27 32 28 25 30 26 23 34 30 27 34 30 27 34 30 27 34 30 27 34 30 27 34 30 27 34 30 27 34 30 27 37 32 29 37 32 29 37 32 29 37 32 29 37 32 29 37 32 29 37 32 29 37 32 29 37 32 29 37 32 29 37 32 29 37 32 29 37 32 29 37 32 29 37 32 29 37 32 29
4 0 14 4 0 14 4 0 14 4 0 14 4 0 14 4 0 14 4 0 14 4 0 14 4 0 14 4 0 14 4 0 14 4 0 14 3 1 15 3 1 15 3 1 15 3 1 15 3 1 15 3 1 15 3 1 15 3 1 15 4 2 16 4 2 16 4 2 16 4 2 16 4 2 16 4 2 16 4 2 16 4 2 16 3 3 15 3 3 15 3 3 15 3 3 15 3 3 15 3 3 15 3 3 15 3 3 15 4 4 16 4 4 16 4 4 16 4 4 16 4 4 16 4 4 16 4 4 16 2 4 16 3 5 17 2 6 17 2 6 17 2 6 17 2 6 17 2 6 17 2 6 17 2 6 17 4 8 19 4 8 19 4 8 19 4 8 19 4 8 19 4 8 19 4 8 19 4 8 17 5 12 18 5 13 16 5 13 16 5 13 16 5 13 16 5 13 16 5 13 16 5 13 16 6 14 17 5 13 16 5 13 16 3 11 14 2 10 13 1 9 12 0 8 11 0 7 10 20 28 31 21 29 32 24 32 35 27 35 38 30 38 41 34 42 45 36 44 47 37 45 48 51 59 62 51 59 62 51 59 62 51 59 62 51 59 62 51 59 62 51 59 62 51 59 62 53 61 64 51 59 62 49 57 60 46 54 57 42 50 53 39 47 50 37 45 48 35 43 46 7 15 18 7 15 18 7 15 18 7 15 18 7 15 18 7 15 18 7 15 18 7 15 18 7 12 15 7 12 15 7 12 15 7 12 15 7 12 15 7 12 15 7 12 15 7 12 15 23 28 31 23 28 31 23 28 31 23 28 31 23 28 31 23 28 31 23 28 31 23 29 29 33 39 39 33 39 37 33 39 37 33 39 37 33 39 37 33 39 37 33 39 37 33 39 37 34 40 38 34 40 38 34 40 38 34 40 38 34 40 38 34 40 38 34 40 38 35 40 36 32 31 29 34 30 27 34 30 27 34 30 27 34 30 27 34 30 27 34 30 27 34 30 27 33 29 26 33 29 26 33 29 26 33 29 26 33 29 26 33 29 26 33 29 26 33 29 26 35 30 27 35 30 27 35 30 27 35 30 27 35 30 27 35 30 27 35 30 27 35 30 27 37 32 29 37 32 29 37 32 29 37 32 29 37 32 29 37 32 29 37 32 29 37 32 29
4 0 14 4 0 14 4 0 14 4 0 14 4 0 14 4 0 14 4 0 14 4 0 14 4 0 14 4 0 14 4 0 14 4 0 14 3 1 15 3 1 15 3 1 15 3 1 15 3 1 15 3 1 15 3 1 15 3 1 15 4 2 16 4 2 16 4 2 16 4 2 16 4 2 16 4 2 16 4 2 16 4 2 16 3 3 15 3 3 15 3 3 15 3 3 15 3 3 15 3 3 15 3 3 15 3 3 15 4 4 16 4 4 16 4 4 16 4 4 16 4 4 16 4 4 16 4 4 16 2 4 16 3 5 17 2 6 17 2 6 17 2 6 17 2 6 17 2 6 17 2 6 17 2 6 17 4 8 19 4 8 19 4 8 19 4 8 19 4 8 19 4 8 19 4 8 19 4 8 17 5 12 18 5 13 16 5 13 16 5 13 16 5 13 16 5 13 16 5 13 16 5 13 16 7 15 18 7 15 18 6 14 17 6 14 17 5 13 16 4 12 15 4 12 15 4 12 15 23 31 34 24 32 35 26 34 37 30 38 41 33 41 44 36 44 47 39 47 50 40 48 51 53 61 64 53 61 64 53 61 64 53 61 64 53 61 64 53 61 64 53 61 64 53 61 64 53 61 64 51 59 62 49 57 60 46 54 57 42 50 53 39 47 50 37 45 48 35 43 46 7 15 18 7 15 18 7 15 18 7 15 18 7 15 18 7 15 18 7 15 18 7 15 18 7 12 15 7 12 15 7 12 15 7 12 15 7 12 15 7 12 15 7 12 15 7 12 15 23 28 31 23 28 31 23 28 31 23 28 31 23 28 31 23 28 31 23 28 31 23 29 29 33 39 39 33 39 37 33 39 37 33 39 37 33 39 37 33 39 37 33 39 37 33 39 37 34 40 38 34 40 38 34 40 38 34 40 38 34 40 38 34 40 38 34 40 38 35 40 36 32 31 29 34 30 27 34 30 27 34 30 27 34 30 27 34 30 27 34 30 27 34 30 27 33 29 26 33 29 26 33 29 26 33 29 26 33 29 26 33 29 26 33 29 26 33 29 26 35 30 27 35 30 27 35 30 27 35 30 27 35 30 27 35 30 27 35 30 27 35 30 27 37 32 29 37 32 29 37 32 29 37 32 29 37 32 29 37 32 29 37 32 29 37 32 29
4 0 14 4 0 14 4 0 14 4 0 14 4 0 14 4 0 14 4 0 14 4 0 14 4 0 14 4 0 14 4 0 14 4 0 14 3 1 15 3 1 15 3 1 15 3 1 15 3 1 15 3 1 15 3 1 15 3 1 15 4 2 16 4 2 16 4 2 16 4 2 16 4 2 16 4 2 16 4 2 16 4 2 16 3 3 15 3 3 15 3 3 15 3 3 15 3 3 15 3 3 15 3 3 15 3 3 15 4 4 16 4 4 16 4 4 16 4 4 16 4 4 16 4 4 16 4 4 16 2 4 16 3 5 17 2 6 17 2 6 17 2 6 17 2 6 17 2 6 17 2 6 17 2 6 17 4 8 19 4 8 19 4 8 19 4 8 19 4 8 19 4 8 19 4 8 19 4 8 17 5 12 18 5 13 16 5 13 16 5 13 16 5 13 16 5 13 16 5 13 16 5 13 16 8 16 19 9 17 20 9 17 20 10 18 21 11 19 22 11 19 22 12 20 23 12 20 23 28 36 39 29 37 40 31 39 42 34 42 45 38 46 49 41 49 52 44 52 55 45 53 56 55 63 66 55 63 66 55 63 66 55 63 66 55 63 66 55 63 66 55 63 66 55 63 66 53 61 64 51 59 62 49 57 60 46 54 57 42 50 53 39 47 50 37 45 48 35 43 46 7 15 18 7 15 18 7 15 18 7 15 18 7 15 18 7 15 18 7 15 18 7 15 18 7 12 15 7 12 15 7 12 15 7 12 15 7 12 15 7 12 15 7 12 15 7 12 15 23 28 31 23 28 31 23 28 31 23 28 31 23 28 31 23 28 31 23 28 31 23 29 29 33 39 39 33 39 37 33 39 37 33 39 37 33 39 37 33 39 37 33 39 37 33 39 37 34 40 38 34 40 38 34 40 38 34 40 38 34 40 38 34 40 38 34 40 38 35 40 36 32 31 29 34 30 27 34 30 27 34 30 27 34 30 27 34 30 27 34 30 27 34 30 27 33 29 26 33 29 26 33 29 26 33 29 26 33 29 26 33 29 26 33 29 26 33 29 26 35 30 27 35 30 27 35 30 27 35 30 27 35 30 27 35 30 27 35 30 27 35 30 27 37 32 29 37 32 29 37 32 29 37 32 29 37 32 29 37 32 29 37 32 29 37 32 29
4 0 14 4 0 14 4 0 14 4 0 14 4 0 14 4 0 14 4 0 14 4 0 14 4 0 14 4 0 14 4 0 14 4 0 14 3 1 15 3 1 15 3 1 15 3 1 15 3 1 15 3 1 15 3 1 15 3 1 15 4 2 16 4 2 16 4 2 16 4 2 16 4 2 16 4 2 16 4 2 16 4 2 16 3 3 15 3 3 15 3 3 15 3 3 15 3 3 15 3 3 15 3 3 15 3 3 15 4 4 16 4 4 16 4 4 16 4 4 16 4 4 16 4 4 16 4 4 16 2 4 16 3 5 17 2 6 17 2 6 17 2 6 17 2 6 17 2 6 17 2 6 17 2 6 17 4 8 19 4 8 19 4 8 19 4 8 19 4 8 19 4 8 19 4 8 19 4 8 17 5 12 18 5 13 16 5 13 16 5 13 16 5 13 16 5 13 16 5 13 16 5 13 16 10 18 21 11 19 22 13 21 24 15 23 26 18 26 29 20 28 31 22 30 33 23 31 34 34 42 45 35 43 46 38 46 49 41 49 52 44 52 55 47 55 58 50 58 61 51 59 62 58 66 69 58 66 69 58 66 69 58 66 69 58 66 69 58 66 69 58 66 69 58 66 69 53 61 64 51 59 62 49 57 60 46 54 57 42 50 53 39 47 50 37 45 48 35 43 46 7 15 18 7 15 18 7 15 18 7 15 18 7 15 18 7 15 18 7 15 18 7 15 18 7 12 15 7 12 15 7 12 15 7 12 15 7 12 15 7 12 15 7 12 15 7 12 15 23 28 31 23 28 31 23 28 31 23 28 31 23 28 31 23 28 31 23 28 31 23 29 29 33 39 39 33 39 37 33 39 37 33 39 37 33 39 37 33 39 37 33 39 37 33 39 37 34 40 38 34 40 38 34 40 38 34 40 38 34 40 38 34 40 38 34 40 38 35 40 36 32 31 29 34 30 27 34 30 27 34 30 27 34 30 27 34 30 27 34 30 27 34 30 27 33 29 26 33 29 26 33 29 26 33 29 26 33 29 26 33 29 26 33 29 26 33 29 26 35 30 27 35 30 27 35 30 27 35 30 27 35 30 27 35 30 27 35 30 27 35 30 27 37 32 29 37 32 29 37 32 29 37 32 29 37 32 29 37 32 29 37 32 29 37 32 29
4 0 14 4 0 14 4 0 14 4 0 14 4 0 14 4 0 14 4 0 14 4 0 14 4 0 14 4 0 14 4 0 14 4 0 14 3 1 15 3 1 15 3 1 15 3 1 15 3 1 15 3 1 15 3 1 15 3 1 15 4 2 16 4 2 16 4 2 16 4 2 16 4 2 16 4 2 16 4 2 16 4 2 16 3 3 15 3 3 15 3 3 15 3 3 15 3 3 15 3 3 15 3 3 15 3 3 15 4 4 16 4 4 16 4 4 16 4 4 16 4 4 16 4 4 16 4 4 16 2 4 16 3 5 17 2 6 17 2 6 17 2 6 17 2 6 17 2 6 17 2 6 17 2 6 17 4 8 19 4 8 19 4 8 19 4 8 19 4 8 19 4 8 19 4 8 19 4 8 17 5 12 18 5 13 16 5 13 16 5 13 16 5 13 16 5 13 16 5 13 16 5 13 16 12 20 23 14 22 25 17 25 28 21 29 32 26 34 37 30 38 41 33 41 44 34 42 45 41 49 52 42 50 53 45 53 56 48 56 59 51 59 62 54 62 65 57 65 68 58 66 69 62 70 73 62 70 73 62 70 73 62 70 73 62 70 73 62 70 73 62 70 73 62 70 73 53 61 64 51 59 62 49 57 60 46 54 57 42 50 53 39 47 50 37 45 48 35 43 46 7 15 18 7 15 18 7 15 18 7 15 18 7 15 18 7 15 18 7 15 18 7 15 18 7 12 15 7 12 15 7 12 15 7 12 15 7 12 15 7 12 15 7 12 15 7 12 15 23 28 31 23 28 31 23 28 31 23 28 31 23 28 31 23 28 31 23 28 31 23 29 29 33 39 39 33 39 37 33 39 37 33 39 37 33 39 37 33 39 37 33 39 37 33 39 37 34 40 38 34 40 38 34 40 38 34 40 38 34 40 38 34 40 38 34 40 38 35 40 36 32 31 29 34 30 27 34 30 27 34 30 27 34 30 27 34 30 27 34 30 27 34 30 27 33 29 26 33 29 26 33 29 26 33 29 26 33 29 26 33 29 26 33 29 26 33 29 26 35 30 27 35 30 27 35 30 27 35 30 27 35 30 27 35 30 27 35 30 27 35 30 27 37 32 29 37 32 29 37 32 29 37 32 29 37 32 29 37 32 29 37 32 29 37 32 29
4 0 14 4 0 14 4 0 14 4 0 14 4 0 14 4 0 14 4 0 14 4 0 14 4 0 14 4 0 14 4 0 14 4 0 14 3 1 15 3 1 15 3 1 15 3 1 15 3 1 15 3 1 15 3 1 15 3 1 15 4 2 16 4 2 16 4 2 16 4 2 16 4 2 16 4 2 16 4 2 16 4 2 16 3 3 15 3 3 15 3 3 15 3 3 15 3 3 15 3 3 15 3 3 15 3 3 15 4 4 16 4 4 16 4 4 16 4 4 16 4 4 16 4 4 16 4 4 16 2 4 16 3 5 17 2 6 17 2 6 17 2 6 17 2 6 17 2 6 17 2 6 17 2 6 17 4 8 19 4 8 19 4 8 19 4 8 19 4 8 19 4 8 19 4 8 19 4 8 17 5 12 18 5 13 16 5 13 16 5 13 16 5 13 16 5 13 16 5 13 16 5 13 16 14 22 25 17 25 28 21 29 32 27 35 38 33 41 44 39 47 50 43 51 54 45 53 56 47 55 58 48 56 59 51 59 62 54 62 65 58 66 69 61 69 72 63 71 74 64 72 75 65 73 76 65 73 76 65 73 76 65 73 76 65 73 76 65 73 76 65 73 76 65 73 76 53 61 64 51 59 62 49 57 60 46 54 57 42 50 53 39 47 50 37 45 48 35 43 46 7 15 18 7 15 18 7 15 18 7 15 18 7 15 18 7 15 18 7 15 18 7 15 18 7 12 15 7 12 15 7 12 15 7 12 15 7 12 15 7 12 15 7 12 15 7 12 15 23 28 31 23 28 31 23 28 31 23 28 31 23 28 31 23 28 31 23 28 31 23 29 29 33 39 39 33 39 37 33 39 37 33 39 37 33 39 37 33 39 37 33 39 37 33 39 37 34 40 38 34 40 38 34 40 38 34 40 38 34 40 38 34 40 38 34 40 38 35 40 36 32 31 29 34 30 27 34 30 27 34 30 27 34 30 27 34 30 27 34 30 27 34 30 27 33 29 26 33 29 26 33 29 26 33 29 26 33 29 26 33 29 26 33 29 26 33 29 26 35 30 27 35 30 27 35 30 27 35 30 27 35 30 27 35 30 27 35 30 27 35 30 27 37 32 29 37 32 29 37 32 29 37 32 29 37 32 29 37 32 29 37 32 29 37 32 29
4 0 14 4 0 14 4 0 14 4 0 14 4 0 14 4 0 14 4 0 14 4 0 14 4 0 14 4 0 14 4 0 14 4 0 14 3 1 15 3 1 15 3 1 15 3 1 15 3 1 15 3 1 15 3 1 15 3 1 15 4 2 16 4 2 16 4 2 16 4 2 16 4 2 16 4 2 16 4 2 16 4 2 16 3 3 15 3 3 15 3 3 15 3 3 15 3 3 15 3 3 15 3 3 15 3 3 15 4 4 16 4 4 16 4 4 16 4 4 16 4 4 16 4 4 16 4 4 16 2 4 16 3 5 17 2 6 17 2 6 17 2 6 17 2 6 17 2 6 17 2 6 17 2 6 17 4 8 19 4 8 19 4 8 19 4 8 19 4 8 19 4 8 19 4 8 19 4 8 17 5 12 18 5 13 16 5 13 16 5 13 16 5 13 16 5 13 16 5 13 16 5 13 16 16 24 27 19 27 30 24 32 35 31 39 42 38 46 49 45 53 56 51 59 62 54 62 65 52 60 63 53 61 64 56 64 67 59 67 70 62 70 73 66 74 77 68 76 79 69 77 80 67 75 78 67 75 78 67 75 78 67 75 78 67 75 78 67 75 78 67 75 78 67 75 78 53 61 64 51 59 62 49 57 60 46 54 57 42 50 53 39 47 50 37 45 48 35 43 46 7 15 18 7 15 18 7 15 18 7 15 18 7 15 18 7 15 18 7 15 18 7 15 18 7 12 15 7 12 15 7 12 15 7 12 15 7 12 15 7 12 15 7 12 15 7 12 15 23 28 31 23 28 31 23 28 31 23 28 31 23 28 31 23 28 31 23 28 31 23 29 29 33 39 39 33 39 37 33 39 37 33 39 37 33 39 37 33 39 37 33 39 37 33 39 37 34 40 38 34 40 38 34 40 38 34 40 38 34 40 38 34 40 38 34 40 38 35 40 36 32 31 29 34 30 27 34 30 27 34 30 27 34 30 27 34 30 27 34 30 27 34 30 27 33 29 26 33 29 26 33 29 26 33 29 26 33 29 26 33 29 26 33 29 26 33 29 26 35 30 27 35 30 27 35 30 27 35 30 27 35 30 27 35 30 27 35 30 27 35 30 27 37 32 29 37 32 29 37 32 29 37 32 29 37 32 29 37 32 29 37 32 29 37 32 29
4 0 14 4 1 12 4 0 14 4 1 12 4 0 14 4 1 12 4 0 14 4 1 12 4 0 14 4 1 12 4 0 14 4 0 14 3 1 14 3 1 15 3 1 15 3 1 15 3 1 15 3 1 15 3 1 15 3 1 15 4 2 16 4 2 16 4 2 16 4 2 16 4 2 16 4 2 16 4 2 16 4 2 15 3 3 15 3 3 15 3 3 15 3 3 15 3 3 15 3 3 15 3 3 15 3 3 15 4 4 16 4 4 16 4 4 16 4 4 16 4 4 16 4 4 16 4 4 16 2 4 16 2 6 17 2 6 17 2 6 17 2 6 17 2 6 17 2 6 17 2 6 17 2 6 17 4 8 19 4 8 19 4 8 19 4 8 19 4 8 19 4 8 19 4 8 19 4 8 17 5 12 18 5 13 16 5 12 18 5 13 16 5 12 18 5 13 16 5 12 18 5 13 16 17 24 30 20 28 31 26 33 39 33 41 44 41 48 54 49 57 60 55 62 68 58 66 69 55 63 66 56 64 67 58 66 69 62 70 73 65 73 76 68 76 79 71 79 82 72 80 83 69 77 80 69 77 80 69 77 80 69 77 80 69 77 80 69 77 80 69 77 80 69 77 80 53 61 64 51 59 62 49 57 60 46 54 57 42 50 53 39 47 50 37 45 48 35 43 46 7 15 18 7 15 18 7 15 18 7 15 18 7 15 18 7 15 18 7 15 18 7 15 18 7 12 15 7 12 15 7 12 15 7 12 15 7 12 15 7 12 15 7 12 15 7 12 15 23 28 31 23 28 31 23 28 31 23 28 31 23 28 31 23 28 31 23 28 31 23 28 31 33 39 39 33 39 37 33 39 39 33 39 37 33 39 39 33 39 37 33 39 39 33 39 37 34 40 40 34 40 38 34 40 40 34 40 38 34 40 40 34 40 38 34 40 40 35 39 38 32 31 29 34 30 27 34 30 27 34 30 27 34 30 27 34 30 27 34 30 27 34 30 27 33 29 26 33 29 26 33 29 26 33 29 26 33 29 26 33 29 26 33 29 26 33 29 26 35 30 27 35 30 27 35 30 27 35 30 27 35 30 27 35 30 27 35 30 27 35 30 27 37 32 29 37 32 29 37 32 29 37 32 29 37 32 29 37 32 29 37 32 29 37 32 29
2 0 11 2 1 9 2 0 11 2 1 9 3 1 12 3 2 10 3 1 12 3 2 10 3 1 12 3 2 10 3 1 12 3 1 12 4 0 14 4 0 14 4 0 14 4 0 14 4 0 14 4 0 14 4 0 14 4 0 14 4 0 14 4 0 14 4 0 14 4 0 14 4 0 14 4 0 14 4 0 14 3 1 14 4 4 16 2 5 14 2 5 14 2 5 14 2 5 14 2 5 14 2 5 14 2 5 14 3 6 15 3 6 15 3 6 15 3 6 15 3 6 15 3 6 15 3 6 15 3 6 15 2 6 15 0 7 15 0 7 15 0 7 15 0 7 15 0 7 15 0 7 15 0 7 15 0 1 9 0 1 9 0 1 9 0 2 10 0 5 13 2 9 17 4 11 19 5 12 20 11 18 26 12 19 25 15 22 30 18 25 31 21 28 36 25 32 38 27 34 42 28 35 41 43 50 58 44 51 57 46 53 61 50 57 63 53 60 68 56 63 69 59 66 74 60 67 73 75 80 84 75 80 84 75 80 84 75 80 84 75 80 84 75 80 84 75 80 84 75 80 84 72 77 81 72 77 81 72 77 81 72 77 81 72 77 81 72 77 81 72 77 81 72 77 81 62 70 73 60 68 71 55 63 66 48 56 59 42 50 53 35 43 46 30 38 41 28 36 39 6 14 17 6 14 17 6 14 17 6 14 17 6 14 17 6 14 17 6 14 17 6 14 17 8 16 19 8 16 19 8 16 19 8 16 19 8 16 19 8 16 19 8 16 19 8 16 19 20 28 31 20 28 31 20 28 31 20 28 31 20 28 31 20 28 31 20 28 31 22 27 30 23 28 31 24 28 29 24 28 31 24 28 29 24 28 31 24 28 29 24 28 31 24 28 29 23 27 30 23 27 28 23 27 30 23 27 28 23 27 30 23 27 28 23 27 30 25 26 28 32 28 27 33 28 25 33 28 25 33 28 25 33 28 25 33 28 25 33 28 25 33 28 25 35 30 27 35 30 27 35 30 27 35 30 27 35 30 27 35 30 27 35 30 27 35 30 27 37 29 26 37 29 26 37 29 26 37 29 26 37 29 26 37 29 26 37 29 26 37 29 26 38 30 27 38 30 27 38 30 27 38 30 27 38 30 27 38 30 27 38 30 27 36 31 27
2 1 9 2 1 9 2 1 9 2 1 9 3 2 10 3 2 10 3 2 10 3 2 10 3 2 10 3 2 10 3 2 10 3 2 10 4 0 14 4 0 14 4 0 14 4 0 14 4 0 14 4 0 14 4 0 14 4 0 14 4 0 14 4 0 14 4 0 14 4 0 14 4 0 14 4 0 14 4 0 14 3 1 14 4 4 14 2 5 14 2 5 14 2 5 14 2 5 14 2 5 14 2 5 14 2 5 14 3 6 15 3 6 15 3 6 15 3 6 15 3 6 15 3 6 15 3 6 15 2 6 15 2 6 15 0 7 15 0 7 15 0 7 15 0 7 15 0 7 15 0 7 15 0 7 15 0 1 9 0 1 9 0 1 9 0 5 13 1 8 16 4 11 19 7 14 22 8 15 23 14 21 29 15 22 30 17 24 32 21 28 36 24 31 39 27 34 42 30 37 45 31 38 46 44 51 59 45 52 60 48 55 63 51 58 66 54 61 69 58 65 73 60 67 75 61 68 74 75 80 86 75 80 84 75 80 84 75 80 84 75 80 84 75 80 84 75 80 84 75 80 84 72 77 81 72 77 81 72 77 81 72 77 81 72 77 81 72 77 81 72 77 81 72 77 81 62 70 73 60 68 71 55 63 66 48 56 59 42 50 53 35 43 46 30 38 41 28 36 39 6 14 17 6 14 17 6 14 17 6 14 17 6 14 17 6 14 17 6 14 17 6 14 17 8 16 19 8 16 19 8 16 19 8 16 19 8 16 19 8 16 19 8 16 19 8 16 19 20 28 31 20 28 31 20 28 31 20 28 31 20 28 31 20 28 31 20 28 31 20 28 31 24 28 31 24 28 31 24 28 31 24 28 31 24 28 31 24 28 31 24 28 31 24 28 31 23 27 30 23 27 30 23 27 30 23 27 30 23 27 30 23 27 30 23 27 30 25 26 28 32 28 27 33 28 25 33 28 25 33 28 25 33 28 25 33 28 25 33 28 25 33 28 25 35 30 27 35 30 27 35 30 27 35 30 27 35 30 27 35 30 27 35 30 27 35 30 27 37 29 26 37 29 26 37 29 26 37 29 26 37 29 26 37 29 26 37 29 26 37 29 26 38 30 27 38 30 27 38 30 27 38 30 27 38 30 27 38 30 27 38 30 27 38 30 27
2 1 9 2 1 9 2 1 9 2 1 9 3 2 10 3 2 10 3 2 10 3 2 10 3 2 10 3 2 10 3 2 10 3 2 10 4 0 14 4 0 14 4 0 14 4 0 14 4 0 14 4 0 14 4 0 14 4 0 14 4 0 14 4 0 14 4 0 14 4 0 14 4 0 14 4 0 14 4 0 14 3 1 14 4 4 14 2 5 14 2 5 14 2 5 14 2 5 14 2 5 14 2 5 14 2 5 14 3 6 15 3 6 15 3 6 15 3 6 15 3 6 15 3 6 15 3 6 15 2 6 15 2 6 15 0 7 15 0 7 15 0 7 15 0 7 15 0 7 15 0 7 15 0 7 15 0 3 11 0 4 12 0 6 14 2 9 17 6 13 21 9 16 24 12 19 27 13 20 28 19 26 34 20 27 35 22 29 37 25 32 40 29 36 44 32 39 47 35 42 50 36 43 51 46 53 61 48 55 63 50 57 65 53 60 68 57 64 72 60 67 75 62 69 77 64 71 77 75 80 86 75 80 84 75 80 84 75 80 84 75 80 84 75 80 84 75 80 84 75 80 84 72 77 81 72 77 81 72 77 81 72 77 81 72 77 81 72 77 81 72 77 81 72 77 81 62 70 73 60 68 71 55 63 66 48 56 59 42 50 53 35 43 46 30 38 41 28 36 39 6 14 17 6 14 17 6 14 17 6 14 17 6 14 17 6 14 17 6 14 17 6 14 17 8 16 19 8 16 19 8 16 19 8 16 19 8 16 19 8 16 19 8 16 19 8 16 19 20 28 31 20 28 31 20 28 31 20 28 31 20 28 31 20 28 31 20 28 31 20 28 31 24 28 31 24 28 31 24 28 31 24 28 31 24 28 31 24 28 31 24 28 31 24 28 31 23 27 30 23 27 30 23 27 30 23 27 30 23 27 30 23 27 30 23 27 30 25 26 28 32 28 27 33 28 25 33 28 25 33 28 25 33 28 25 33 28 25 33 28 25 33 28 25 35 30 27 35 30 27 35 30 27 35 30 27 35 30 27 35 30 27 35 30 27 35 30 27 37 29 26 37 29 26 37 29 26 37 29 26 37 29 26 37 29 26 37 29 26 37 29 26 38 30 27 38 30 27 38 30 27 38 30 27 38 30 27 38 30 27 38 30 27 38 30 27
