P3
207 145
255
89 77 79 85 73 75 82 70 72 80 68 70 80 65 68 64 41 51 66 40 51 66 40 51 66 40 51 66 40 51 66 40 51 66 40 51 66 40 51 79 53 64 79 53 64 79 53 64 79 53 64 79 53 64 79 53 64 79 53 64 77 54 64 70 48 60 67 47 58 65 45 56 62 42 53 58 38 49 55 35 46 53 33 44 51 31 42 55 35 46 55 35 46 55 35 46 55 35 46 55 35 46 55 35 46 55 35 46 52 36 46 47 37 48 51 45 55 61 55 65 70 64 74 74 68 78 71 65 75 66 60 70 61 55 65 57 51 61 54 48 58 50 44 54 43 37 47 36 30 40 30 24 34 25 19 29 20 17 26 33 31 42 32 32 42 32 32 42 32 32 42 32 32 42 32 32 42 32 32 42 32 32 42 30 30 40 32 32 42 34 34 44 37 37 47 41 41 51 44 44 54 46 46 56 52 46 56 68 52 62 72 51 60 72 51 60 72 51 60 72 51 60 72 51 60 72 51 60 72 51 60 67 46 55 68 47 56 71 50 59 74 53 62 77 56 65 81 60 69 83 62 71 83 63 74 84 71 81 83 71 83 83 71 83 83 71 83 83 71 83 83 71 83 83 71 83 83 71 83 80 68 80 78 66 78 73 61 73 66 54 66 60 48 60 53 41 53 48 36 48 43 35 46 50 47 58 48 48 58 50 47 58 50 47 58 53 45 58 55 44 58 56 44 58 59 42 58 67 46 63 69 44 63 71 44 63 72 43 63 75 42 63 75 42 63 78 40 63 75 42 61 72 49 65 69 51 63 69 51 63 69 51 63 69 51 63 69 51 63 69 51 63 69 51 63 100 82 94 101 83 95 103 85 97 107 89 101 110 92 104 113 95 107 116 98 110 114 100 113 95 92 103 93 93 105 93 93 105 93 93 105 93 93 105 93 93 105 93 93 105 93 93 105 102 102 114 102 102 114 102 102 114 102 102 114 102 102 114 102 102 114 102 102 114 103 102 110 107 101 105 109 100 101 109 100 101 109 100 101 109 100 101 109 100 101 109 100 101 109 100 101 95 86 87 96 87 88 100 91 92 104 95 96 109 100 101 113 104 105 117 108 109 121 109 111 108 89 93 110 87 93 110 87 93 110 87 93 110 87 93 110 87 93 110 87 93 110 87 93 99 76 82 99 76 82 99 76 82 99 76 82 99 76 82 99 76 82 99 76 82 101 76 82 109 79 87 110 79 87 110 79 87 110 79 87 110 79 87 110 79 87 110 79 87 110 79 87 111 80 88 111 80 88 111 80 88 111 80 88 111 80 88 111 80 88 111 80 88 115 77 90 102 51 70 104 49 72 104 49 72 102 50 72 102 50 72 99 52 72 97 52 72 95 54 72 87 50 67 77 45 60
71 59 61 67 55 57 64 52 54 62 50 52 62 47 50 66 43 53 68 42 53 68 42 53 68 42 53 68 42 53 68 42 53 68 42 53 68 42 53 76 50 61 76 50 61 76 50 61 76 50 61 76 50 61 76 50 61 76 50 61 74 51 61 55 33 45 54 34 45 54 34 45 54 34 45 54 34 45 54 34 45 54 34 45 54 34 45 50 30 41 50 30 41 50 30 41 50 30 41 50 30 41 50 30 41 50 30 41 47 31 41 41 31 42 38 32 42 38 32 42 38 32 42 38 32 42 38 32 42 38 32 42 38 32 42 34 28 38 34 28 38 34 28 38 34 28 38 34 28 38 34 28 38 34 28 38 32 29 38 30 28 39 29 29 39 29 29 39 29 29 39 29 29 39 29 29 39 29 29 39 29 29 39 40 40 50 40 40 50 40 40 50 40 40 50 40 40 50 40 40 50 40 40 50 44 38 48 69 53 63 73 52 61 72 51 60 71 50 59 69 48 57 68 47 56 67 46 55 67 46 55 62 41 50 64 43 52 67 46 55 72 51 60 76 55 64 81 60 69 84 63 72 85 65 76 87 74 84 86 74 86 86 74 86 86 74 86 86 74 86 86 74 86 86 74 86 86 74 86 60 48 60 58 46 58 56 44 56 53 41 53 49 37 49 46 34 46 44 32 44 39 31 42 45 42 53 43 43 53 45 42 53 45 42 53 48 40 53 50 39 53 51 39 53 54 37 53 65 44 61 66 41 60 67 40 59 67 38 58 69 36 57 67 34 55 70 32 55 65 34 52 73 52 67 71 58 68 77 64 74 84 71 81 92 79 89 100 87 97 106 93 103 109 96 106 102 89 99 102 89 99 102 89 99 102 89 99 102 89 99 102 89 99 102 89 99 100 90 101 94 91 102 92 92 104 92 92 104 92 92 104 92 92 104 92 92 104 92 92 104 92 92 104 98 98 110 98 98 110 98 98 110 98 98 110 98 98 110 98 98 110 98 98 110 99 98 106 107 101 105 109 100 101 109 100 101 109 100 101 109 100 101 109 100 101 109 100 101 109 100 101 93 84 85 93 84 85 93 84 85 93 84 85 93 84 85 93 84 85 93 84 85 95 83 85 125 106 110 125 102 108 121 98 104 117 94 100 112 89 95 108 85 91 104 81 87 103 80 86 91 68 74 90 67 73 88 65 71 84 61 67 81 58 64 78 55 61 75 52 58 76 51 57 91 61 69 94 63 71 96 65 73 99 68 76 103 72 80 106 75 83 108 77 85 110 79 87 118 87 95 116 85 93 114 83 91 111 80 88 107 76 84 104 73 81 102 71 79 104 66 79 110 59 78 110 55 78 108 53 76 103 51 73 99 47 69 93 46 66 89 44 64 85 44 62 64 27 44 61 29 44
71 59 61 67 55 57 64 52 54 62 50 52 62 47 50 66 43 53 68 42 53 68 42 53 68 42 53 68 42 53 68 42 53 68 42 53 68 42 53 76 50 61 76 50 61 76 50 61 76 50 61 76 50 61 76 50 61 76 50 61 74 51 61 55 33 45 54 34 45 54 34 45 54 34 45 54 34 45 54 34 45 54 34 45 54 34 45 50 30 41 50 30 41 50 30 41 50 30 41 50 30 41 50 30 41 50 30 41 47 31 41 41 31 42 38 32 42 38 32 42 38 32 42 38 32 42 38 32 42 38 32 42 38 32 42 34 28 38 34 28 38 34 28 38 34 28 38 34 28 38 34 28 38 34 28 38 32 29 38 32 30 41 31 31 41 31 31 41 31 31 41 31 31 41 31 31 41 31 31 41 31 31 41 40 40 50 40 40 50 40 40 50 40 40 50 40 40 50 40 40 50 40 40 50 44 38 48 68 52 62 71 50 59 71 50 59 70 49 58 70 49 58 69 48 57 69 48 57 68 47 56 64 43 52 65 44 53 68 47 56 72 51 60 76 55 64 80 59 68 83 62 71 83 63 74 79 66 76 78 66 78 78 66 78 78 66 78 78 66 78 78 66 78 78 66 78 78 66 78 60 48 60 58 46 58 56 44 56 53 41 53 49 37 49 46 34 46 44 32 44 39 31 42 45 42 53 43 43 53 45 42 53 45 42 53 48 40 53 50 39 53 51 39 53 54 37 53 64 43 60 66 41 60 68 41 60 68 39 59 70 37 58 70 37 58 72 34 57 68 37 55 73 57 70 72 62 71 77 67 76 84 74 83 91 81 90 98 88 97 104 94 103 107 97 106 100 90 99 100 90 99 100 90 99 100 90 99 100 90 99 100 90 99 100 90 99 98 90 101 93 91 102 92 92 104 92 92 104 92 92 104 92 92 104 92 92 104 92 92 104 92 92 104 98 98 110 98 98 110 98 98 110 98 98 110 98 98 110 98 98 110 98 98 110 99 98 106 107 101 105 109 100 101 109 100 101 109 100 101 109 100 101 109 100 101 109 100 101 109 100 101 91 82 83 91 82 83 91 82 83 91 82 83 91 82 83 91 82 83 91 82 83 93 81 83 122 103 107 122 99 105 119 96 102 115 92 98 111 88 94 108 85 91 105 82 88 103 80 86 94 71 77 93 70 76 90 67 73 87 64 70 84 61 67 80 57 63 78 55 61 79 54 60 91 61 69 94 63 71 96 65 73 99 68 76 103 72 80 106 75 83 108 77 85 110 79 87 118 87 95 116 85 93 114 83 91 111 80 88 107 76 84 104 73 81 102 71 79 104 66 79 110 59 78 110 55 78 108 53 76 103 51 73 99 47 69 93 46 66 89 44 64 85 44 62 64 27 44 61 29 44
71 59 61 67 55 57 64 52 54 62 50 52 62 47 50 66 43 53 68 42 53 68 42 53 68 42 53 68 42 53 68 42 53 68 42 53 68 42 53 76 50 61 76 50 61 76 50 61 76 50 61 76 50 61 76 50 61 76 50 61 74 51 61 55 33 45 54 34 45 54 34 45 54 34 45 54 34 45 54 34 45 54 34 45 54 34 45 50 30 41 50 30 41 50 30 41 50 30 41 50 30 41 50 30 41 50 30 41 47 31 41 41 31 42 38 32 42 38 32 42 38 32 42 38 32 42 38 32 42 38 32 42 38 32 42 34 28 38 34 28 38 34 28 38 34 28 38 34 28 38 34 28 38 34 28 38 32 29 38 34 32 43 33 33 43 33 33 43 33 33 43 33 33 43 33 33 43 33 33 43 33 33 43 40 40 50 40 40 50 40 40 50 40 40 50 40 40 50 40 40 50 40 40 50 44 38 48 64 48 58 68 47 56 69 48 57 70 49 58 70 49 58 71 50 59 72 51 60 72 51 60 67 46 55 68 47 56 70 49 58 73 52 61 75 54 63 78 57 66 80 59 68 80 60 71 66 53 63 65 53 65 65 53 65 65 53 65 65 53 65 65 53 65 65 53 65 65 53 65 60 48 60 58 46 58 56 44 56 53 41 53 49 37 49 46 34 46 44 32 44 39 31 42 45 42 53 43 43 53 45 42 53 45 42 53 48 40 53 50 39 53 51 39 53 54 37 53 63 42 59 66 41 60 68 41 60 70 41 61 73 40 61 74 41 62 78 40 63 72 43 61 77 63 76 75 68 76 79 72 80 85 78 86 91 84 92 97 90 98 101 94 102 104 97 105 98 91 99 98 91 99 98 91 99 98 91 99 98 91 99 98 91 99 98 91 99 97 91 101 93 91 102 92 92 104 92 92 104 92 92 104 92 92 104 92 92 104 92 92 104 92 92 104 98 98 110 98 98 110 98 98 110 98 98 110 98 98 110 98 98 110 98 98 110 99 98 106 107 101 105 109 100 101 109 100 101 109 100 101 109 100 101 109 100 101 109 100 101 109 100 101 89 80 81 89 80 81 89 80 81 89 80 81 89 80 81 89 80 81 89 80 81 91 79 81 116 97 101 117 94 100 115 92 98 112 89 95 110 87 93 107 84 90 105 82 88 104 81 87 99 76 82 98 75 81 95 72 78 92 69 75 88 65 71 85 62 68 83 60 66 84 59 65 91 61 69 94 63 71 96 65 73 99 68 76 103 72 80 106 75 83 108 77 85 110 79 87 118 87 95 116 85 93 114 83 91 111 80 88 107 76 84 104 73 81 102 71 79 104 66 79 110 59 78 110 55 78 108 53 76 103 51 73 99 47 69 93 46 66 89 44 64 85 44 62 64 27 44 61 29 44
71 59 61 67 55 57 64 52 54 62 50 52 62 47 50 66 43 53 68 42 53 68 42 53 68 42 53 68 42 53 68 42 53 68 42 53 68 42 53 76 50 61 76 50 61 76 50 61 76 50 61 76 50 61 76 50 61 76 50 61 74 51 61 55 33 45 54 34 45 54 34 45 54 34 45 54 34 45 54 34 45 54 34 45 54 34 45 50 30 41 50 30 41 50 30 41 50 30 41 50 30 41 50 30 41 50 30 41 47 31 41 41 31 42 38 32 42 38 32 42 38 32 42 38 32 42 38 32 42 38 32 42 38 32 42 34 28 38 34 28 38 34 28 38 34 28 38 34 28 38 34 28 38 34 28 38 32 29 38 37 35 46 36 36 46 36 36 46 36 36 46 36 36 46 36 36 46 36 36 46 36 36 46 40 40 50 40 40 50 40 40 50 40 40 50 40 40 50 40 40 50 40 40 50 44 38 48 60 44 54 65 44 53 66 45 54 69 48 57 71 50 59 74 53 62 75 54 63 76 55 64 72 51 60 72 51 60 73 52 61 74 53 62 74 53 62 75 54 63 76 55 64 75 55 66 54 41 51 53 41 53 53 41 53 53 41 53 53 41 53 53 41 53 53 41 53 53 41 53 60 48 60 58 46 58 56 44 56 53 41 53 49 37 49 46 34 46 44 32 44 39 31 42 45 42 53 43 43 53 45 42 53 45 42 53 48 40 53 50 39 53 51 39 53 54 37 53 62 41 58 65 40 59 69 42 61 72 43 63 78 45 66 80 47 68 85 47 70 80 51 69 83 71 83 79 76 83 84 79 86 86 83 90 92 87 94 95 92 99 100 95 102 99 96 103 97 92 99 95 92 99 97 92 99 95 92 99 97 92 99 95 92 99 97 92 99 95 92 101 93 91 102 92 92 104 92 92 104 92 92 104 92 92 104 92 92 104 92 92 104 92 92 104 98 98 110 98 98 110 98 98 110 98 98 110 98 98 110 98 98 110 98 98 110 99 98 106 107 101 105 109 100 101 109 100 101 109 100 101 109 100 101 109 100 101 109 100 101 109 100 101 86 77 78 86 77 78 86 77 78 86 77 78 86 77 78 86 77 78 86 77 78 88 76 78 108 89 93 110 87 93 109 86 92 108 85 91 107 84 90 106 83 89 106 83 89 105 82 88 105 82 88 104 81 87 101 78 84 98 75 81 95 72 78 92 69 75 89 66 72 90 65 71 91 61 69 94 63 71 96 65 73 99 68 76 103 72 80 106 75 83 108 77 85 110 79 87 118 87 95 116 85 93 114 83 91 111 80 88 107 76 84 104 73 81 102 71 79 104 66 79 110 59 78 110 55 78 108 53 76 103 51 73 99 47 69 93 46 66 89 44 64 85 44 62 64 27 44 61 29 44
71 59 61 67 55 57 64 52 54 62 50 52 62 47 50 66 43 53 68 42 53 68 42 53 68 42 53 68 42 53 68 42 53 68 42 53 68 42 53 76 50 61 76 50 61 76 50 61 76 50 61 76 50 61 76 50 61 76 50 61 74 51 61 55 33 45 54 34 45 54 34 45 54 34 45 54 34 45 54 34 45 54 34 45 54 34 45 50 30 41 50 30 41 50 30 41 50 30 41 50 30 41 50 30 41 50 30 41 47 31 41 41 31 42 38 32 42 38 32 42 38 32 42 38 32 42 38 32 42 38 32 42 38 32 42 34 28 38 34 28 38 34 28 38 34 28 38 34 28 38 34 28 38 34 28 38 32 29 38 41 39 50 40 40 50 40 40 50 40 40 50 40 40 50 40 40 50 40 40 50 40 40 50 40 40 50 40 40 50 40 40 50 40 40 50 40 40 50 40 40 50 40 40 50 44 38 48 55 39 49 61 40 49 64 43 52 68 47 56 72 51 60 76 55 64 79 58 67 81 60 69 76 55 64 76 55 64 75 54 63 74 53 62 74 53 62 73 52 61 72 51 60 71 51 62 47 34 44 46 34 46 46 34 46 46 34 46 46 34 46 46 34 46 46 34 46 46 34 46 60 48 60 58 46 58 56 44 56 53 41 53 49 37 49 46 34 46 44 32 44 39 31 42 45 42 53 43 43 53 45 42 53 45 42 53 48 40 53 50 39 53 51 39 53 54 37 53 61 40 57 64 39 58 69 42 61 75 46 66 82 49 70 86 53 74 92 54 77 88 59 77 91 79 91 85 84 90 88 85 92 89 88 94 93 90 97 94 93 99 97 94 101 97 96 102 95 92 99 94 93 99 95 92 99 94 93 99 95 92 99 94 93 99 95 92 99 94 93 101 92 92 102 92 92 104 92 92 104 92 92 104 92 92 104 92 92 104 92 92 104 92 92 104 98 98 110 98 98 110 98 98 110 98 98 110 98 98 110 98 98 110 98 98 110 99 98 106 107 101 105 109 100 101 109 100 101 109 100 101 109 100 101 109 100 101 109 100 101 109 100 101 82 73 74 82 73 74 82 73 74 82 73 74 82 73 74 82 73 74 82 73 74 84 72 74 100 81 85 102 79 85 103 80 86 104 81 87 105 82 88 106 83 89 106 83 89 107 84 90 112 89 95 111 88 94 108 85 91 105 82 88 102 79 85 99 76 82 96 73 79 97 72 78 91 61 69 94 63 71 96 65 73 99 68 76 103 72 80 106 75 83 108 77 85 110 79 87 118 87 95 116 85 93 114 83 91 111 80 88 107 76 84 104 73 81 102 71 79 104 66 79 110 59 78 110 55 78 108 53 76 103 51 73 99 47 69 93 46 66 89 44 64 85 44 62 64 27 44 61 29 44
71 59 61 67 55 57 64 52 54 62 50 52 62 47 50 66 43 53 68 42 53 68 42 53 68 42 53 68 42 53 68 42 53 68 42 53 68 42 53 76 50 61 76 50 61 76 50 61 76 50 61 76 50 61 76 50 61 76 50 61 74 51 61 55 33 45 54 34 45 54 34 45 54 34 45 54 34 45 54 34 45 54 34 45 54 34 45 50 30 41 50 30 41 50 30 41 50 30 41 50 30 41 50 30 41 50 30 41 47 31 41 41 31 42 38 32 42 38 32 42 38 32 42 38 32 42 38 32 42 38 32 42 38 32 42 34 28 38 34 28 38 34 28 38 34 28 38 34 28 38 34 28 38 34 28 38 32 29 38 44 42 53 43 43 53 43 43 53 43 43 53 43 43 53 43 43 53 43 43 53 43 43 53 40 40 50 40 40 50 40 40 50 40 40 50 40 40 50 40 40 50 40 40 50 44 38 48 51 35 45 57 36 45 61 40 49 67 46 55 73 52 61 79 58 67 83 62 71 85 64 73 81 60 69 80 59 68 78 57 66 75 54 63 73 52 61 70 49 58 68 47 56 66 46 57 46 33 43 45 33 45 45 33 45 45 33 45 45 33 45 45 33 45 45 33 45 45 33 45 60 48 60 58 46 58 56 44 56 53 41 53 49 37 49 46 34 46 44 32 44 39 31 42 45 42 53 43 43 53 45 42 53 45 42 53 48 40 53 50 39 53 51 39 53 54 37 53 59 38 55 64 39 58 70 43 62 77 48 68 86 53 74 92 59 80 99 61 84 95 66 84 98 88 99 91 92 97 93 92 98 93 94 99 94 93 99 94 95 100 95 94 100 95 96 101 94 93 99 93 94 99 94 93 99 93 94 99 94 93 99 93 94 99 94 93 99 93 93 101 92 92 102 92 92 104 92 92 104 92 92 104 92 92 104 92 92 104 92 92 104 92 92 104 98 98 110 98 98 110 98 98 110 98 98 110 98 98 110 98 98 110 98 98 110 99 98 106 107 101 105 109 100 101 109 100 101 109 100 101 109 100 101 109 100 101 109 100 101 109 100 101 79 70 71 79 70 71 79 70 71 79 70 71 79 70 71 79 70 71 79 70 71 81 69 71 92 73 77 95 72 78 97 74 80 100 77 83 102 79 85 105 82 88 107 84 90 108 85 91 118 95 101 117 94 100 115 92 98 112 89 95 108 85 91 105 82 88 102 79 85 103 78 84 91 61 69 94 63 71 96 65 73 99 68 76 103 72 80 106 75 83 108 77 85 110 79 87 118 87 95 116 85 93 114 83 91 111 80 88 107 76 84 104 73 81 102 71 79 104 66 79 110 59 78 110 55 78 108 53 76 103 51 73 99 47 69 93 46 66 89 44 64 85 44 62 64 27 44 61 29 44
71 59 61 67 55 57 64 52 54 62 50 52 62 47 50 66 43 53 68 42 53 68 42 53 68 42 53 68 42 53 68 42 53 68 42 53 68 42 53 76 50 61 76 50 61 76 50 61 76 50 61 76 50 61 76 50 61 76 50 61 74 51 61 55 33 45 54 34 45 54 34 45 54 34 45 54 34 45 54 34 45 54 34 45 54 34 45 50 30 41 50 30 41 50 30 41 50 30 41 50 30 41 50 30 41 50 30 41 47 31 41 41 31 42 38 32 42 38 32 42 38 32 42 38 32 42 38 32 42 38 32 42 38 32 42 34 28 38 34 28 38 34 28 38 34 28 38 34 28 38 34 28 38 34 28 38 32 29 38 46 44 55 45 45 55 45 45 55 45 45 55 45 45 55 45 45 55 45 45 55 45 45 55 40 40 50 40 40 50 40 40 50 40 40 50 40 40 50 40 40 50 40 40 50 44 38 48 47 31 41 54 33 42 59 38 47 66 45 54 74 53 62 81 60 69 86 65 74 89 68 77 84 63 72 83 62 71 80 59 68 76 55 64 72 51 60 68 47 56 65 44 53 63 43 54 49 36 46 48 36 48 48 36 48 48 36 48 48 36 48 48 36 48 48 36 48 48 36 48 60 48 60 58 46 58 56 44 56 53 41 53 49 37 49 46 34 46 44 32 44 39 31 42 45 42 53 43 43 53 45 42 53 45 42 53 48 40 53 50 39 53 51 39 53 54 37 53 58 37 54 63 38 57 71 44 63 79 50 70 89 56 77 96 63 84 104 66 89 100 73 90 102 94 105 95 98 103 96 97 102 94 97 102 95 96 101 92 95 100 94 95 100 92 95 100 93 94 99 91 94 99 93 94 99 91 94 99 93 94 99 91 94 99 93 94 99 93 93 101 92 92 102 92 92 104 92 92 104 92 92 104 92 92 104 92 92 104 92 92 104 92 92 104 98 98 110 98 98 110 98 98 110 98 98 110 98 98 110 98 98 110 98 98 110 99 98 106 107 101 105 109 100 101 109 100 101 109 100 101 109 100 101 109 100 101 109 100 101 109 100 101 77 68 69 77 68 69 77 68 69 77 68 69 77 68 69 77 68 69 77 68 69 79 67 69 86 67 71 90 67 73 93 70 76 97 74 80 101 78 84 104 81 87 107 84 90 109 86 92 123 100 106 122 99 105 120 97 103 116 93 99 113 90 96 110 87 93 107 84 90 108 83 89 91 61 69 94 63 71 96 65 73 99 68 76 103 72 80 106 75 83 108 77 85 110 79 87 118 87 95 116 85 93 114 83 91 111 80 88 107 76 84 104 73 81 102 71 79 104 66 79 110 59 78 110 55 78 108 53 76 103 51 73 99 47 69 93 46 66 89 44 64 85 44 62 64 27 44 61 29 44
71 59 61 67 55 57 64 52 54 62 50 52 63 47 50 66 43 51 68 42 53 69 41 53 68 42 53 69 41 53 68 42 53 69 41 53 68 42 53 77 49 61 76 50 61 77 49 61 76 50 61 77 49 61 76 50 61 77 49 61 76 50 61 55 33 45 54 34 45 54 34 45 54 34 45 54 34 45 54 34 45 54 34 45 54 34 45 50 30 41 50 30 41 50 30 41 50 30 41 50 30 41 50 30 41 50 30 41 48 30 42 43 29 42 41 31 42 41 31 42 41 31 42 41 31 42 39 31 42 39 31 42 38 32 42 34 28 38 34 28 38 32 29 38 32 29 38 32 29 38 31 30 38 31 30 38 31 30 38 47 47 55 47 47 55 47 47 57 47 47 55 47 47 57 47 47 55 47 47 57 47 47 55 40 40 50 40 40 48 40 40 50 40 40 48 40 40 50 40 40 48 40 40 50 42 39 46 43 30 39 51 32 38 57 37 46 65 46 52 73 53 62 81 62 68 87 67 76 90 71 77 85 65 74 83 64 70 80 60 69 75 56 62 71 51 60 66 47 53 63 43 52 59 42 50 52 39 49 51 39 51 51 39 51 51 39 51 51 39 51 51 39 51 51 39 51 51 39 51 60 48 60 58 46 58 56 44 56 53 41 53 49 37 49 46 34 46 44 32 44 41 31 42 47 41 51 45 42 51 47 41 51 47 41 51 48 40 51 50 40 51 51 39 51 52 38 51 56 38 52 61 40 55 68 45 61 77 53 69 87 60 77 95 66 84 103 72 90 100 77 93 105 98 106 99 100 105 100 99 105 97 98 103 97 96 102 95 96 101 95 94 100 93 94 99 94 93 99 93 94 99 94 93 99 93 94 99 94 93 99 93 94 99 94 93 99 93 93 101 93 91 102 92 92 102 93 91 102 92 92 102 93 91 102 92 92 102 93 91 102 92 92 102 99 97 108 98 98 108 99 97 108 98 98 108 99 97 108 98 98 108 99 97 108 100 97 106 109 100 105 110 100 101 110 100 101 110 100 101 110 100 101 110 100 101 110 100 101 110 100 101 76 66 67 76 66 67 76 66 67 76 66 67 76 66 67 76 66 67 76 66 67 79 64 67 84 63 68 87 64 70 93 68 74 95 72 78 102 77 83 104 81 87 110 85 91 109 86 92 128 103 109 125 102 108 124 99 105 119 96 102 118 93 99 112 89 95 112 87 93 111 86 92 89 62 69 91 64 71 95 65 75 98 68 76 102 72 82 105 75 83 108 76 87 110 79 87 119 86 97 117 84 93 117 81 93 114 78 88 110 74 86 107 71 81 106 68 81 107 65 79 110 59 78 109 55 78 106 54 76 101 52 73 96 49 69 91 46 66 88 45 64 83 44 62 62 28 44 60 29 44
78 66 68 74 62 64 71 59 61 69 57 59 70 54 57 73 47 56 74 47 56 76 46 56 74 47 56 76 46 56 74 47 56 76 46 56 74 47 56 72 42 52 70 43 52 72 42 52 70 43 52 72 42 52 70 43 52 72 42 52 69 43 54 50 28 40 47 30 40 47 30 40 47 30 40 47 30 40 47 30 40 47 30 40 47 30 40 39 22 32 39 22 32 39 22 32 39 22 32 39 22 32 39 22 32 39 22 32 41 21 33 52 31 46 52 31 48 50 32 48 50 32 48 49 32 48 47 33 48 46 34 48 43 35 48 47 41 53 45 42 53 44 42 53 43 43 53 41 44 53 40 44 53 38 45 53 40 45 51 41 44 51 42 43 48 42 42 50 40 41 46 39 39 47 38 39 44 37 37 45 36 37 42 49 49 57 48 49 54 47 47 55 45 46 51 43 43 51 41 42 47 39 39 47 40 38 43 49 40 45 53 41 43 58 46 50 65 53 55 71 59 63 78 66 68 83 71 75 85 73 75 98 86 90 96 84 86 94 82 86 91 79 81 87 75 79 84 72 74 82 70 74 80 68 72 55 44 52 55 43 53 55 43 53 55 43 53 55 43 53 55 43 53 55 43 53 55 43 53 35 23 33 36 24 34 39 27 37 42 30 40 45 33 43 49 37 47 51 39 49 52 40 50 66 56 64 66 56 64 66 56 64 66 56 64 66 56 64 67 56 64 67 56 64 67 56 64 83 70 79 84 71 80 88 72 82 92 76 86 95 79 89 99 82 92 102 85 95 102 86 96 97 87 96 95 89 99 97 89 100 97 91 101 99 91 102 100 94 104 101 93 104 101 95 105 98 90 101 97 91 101 98 90 101 97 91 101 98 90 101 97 91 101 98 90 101 97 91 101 97 94 103 96 95 103 97 94 103 96 95 103 97 94 103 96 95 103 97 94 103 96 95 103 101 98 107 100 99 107 101 98 107 100 99 107 101 98 107 100 99 107 101 98 107 103 98 105 113 102 106 114 99 102 112 97 100 109 94 97 105 90 93 102 87 90 100 85 88 98 83 86 79 64 67 79 64 67 79 64 67 79 64 67 79 64 67 79 64 67 79 64 67 80 64 67 88 65 73 90 64 73 91 64 73 90 64 73 91 64 73 90 64 73 91 64 73 90 64 73 102 75 84 102 76 85 106 79 88 108 82 91 112 85 94 115 89 98 118 91 100 118 92 101 110 89 96 110 89 96 111 88 98 113 87 96 113 87 98 114 87 96 116 86 98 118 85 96 119 83 97 120 79 93 119 76 93 117 73 88 113 69 86 112 65 81 111 62 81 109 60 79 117 68 89 115 66 87 109 62 82 100 55 75 93 50 69 83 44 62 77 40 57 72 40 55 50 22 36 49 25 38
78 66 68 74 62 64 71 59 61 69 57 59 70 54 57 73 47 56 76 46 56 76 46 56 76 46 56 76 46 56 76 46 56 76 46 56 76 46 56 72 42 52 72 42 52 72 42 52 72 42 52 72 42 52 72 42 52 72 42 52 69 43 52 50 28 40 47 30 40 47 30 40 47 30 40 47 30 40 47 30 40 47 30 40 47 30 40 41 24 34 41 24 34 41 24 34 41 24 34 41 24 34 41 24 34 41 24 34 43 23 35 56 32 48 56 31 50 56 31 50 54 33 50 54 33 50 51 34 50 49 35 50 47 36 50 47 41 53 44 42 53 43 43 53 40 44 53 40 44 53 37 46 53 37 46 53 37 46 51 42 45 52 44 45 50 43 44 49 43 44 49 42 43 48 41 42 47 41 42 47 41 42 47 58 59 64 57 58 63 55 56 61 52 53 58 49 50 55 47 48 53 45 46 51 45 44 49 49 40 43 52 42 43 57 47 48 64 54 55 70 60 61 77 67 68 82 72 73 84 74 75 97 87 88 95 85 86 93 83 84 90 80 81 86 76 77 83 73 74 81 71 72 79 68 72 55 44 52 55 43 53 55 43 53 55 43 53 55 43 53 55 43 53 55 43 53 55 43 53 38 26 36 39 27 37 41 29 39 45 33 43 48 36 46 51 39 49 54 42 52 55 44 52 69 58 66 69 58 64 69 58 64 69 58 64 69 58 64 69 58 64 69 58 64 69 58 64 83 72 78 84 73 79 87 76 82 90 79 85 93 82 88 97 86 92 99 88 94 100 89 97 98 88 97 98 88 99 98 88 99 99 89 100 100 90 101 100 90 101 101 91 102 101 91 102 100 90 101 100 90 101 100 90 101 100 90 101 100 90 101 100 90 101 100 90 101 98 90 101 99 94 101 97 94 101 97 94 101 97 94 101 97 94 101 97 94 101 97 94 101 97 94 101 101 98 105 101 98 105 101 98 105 101 98 105 101 98 105 101 98 105 101 98 105 104 97 104 114 102 106 115 99 102 113 97 100 110 94 97 106 90 93 103 87 90 101 85 88 99 83 86 82 66 69 82 66 69 82 66 69 82 66 69 82 66 69 82 66 69 82 66 69 84 65 69 90 64 73 91 64 73 91 64 73 91 64 73 91 64 73 91 64 73 91 64 73 91 64 73 101 74 83 102 75 84 104 77 86 108 81 90 111 84 93 114 87 96 117 90 99 117 91 100 109 89 98 107 90 98 110 89 98 110 89 98 113 87 98 114 86 98 116 86 98 118 84 98 120 82 97 121 78 95 120 76 93 119 72 90 118 67 86 115 64 83 115 60 81 112 59 79 117 68 89 112 67 87 107 62 82 98 57 75 92 51 69 82 45 62 75 41 57 71 40 55 49 23 36 48 26 38
78 66 68 74 62 64 71 59 61 69 57 59 70 54 57 73 47 56 76 46 56 76 46 56 76 46 56 76 46 56 76 46 56 76 46 56 76 46 56 72 42 52 72 42 52 72 42 52 72 42 52 72 42 52 72 42 52 72 42 52 69 43 52 50 28 40 47 30 40 47 30 40 47 30 40 47 30 40 47 30 40 47 30 40 47 30 40 43 26 36 43 26 36 43 26 36 43 26 36 43 26 36 43 26 36 43 26 36 45 25 37 61 37 53 61 36 55 61 36 55 59 38 55 59 38 55 56 39 55 54 40 55 52 41 55 47 41 53 44 42 53 43 43 53 40 44 53 40 44 53 37 46 53 37 46 53 37 46 51 43 46 53 46 47 52 46 47 52 47 48 53 48 49 54 48 49 54 49 50 55 49 50 55 72 73 78 70 71 76 67 68 73 63 64 69 59 60 65 55 56 61 52 53 58 52 51 56 49 40 43 52 42 43 57 47 48 64 54 55 70 60 61 77 67 68 82 72 73 84 74 75 97 87 88 95 85 86 93 83 84 90 80 81 86 76 77 83 73 74 81 71 72 79 68 72 55 44 52 55 43 53 55 43 53 55 43 53 55 43 53 55 43 53 55 43 53 55 43 53 43 31 41 44 32 42 46 34 44 49 37 47 53 41 51 56 44 54 59 47 57 60 49 57 71 60 68 71 60 66 71 60 66 71 60 66 71 60 66 71 60 66 71 60 66 71 60 66 85 74 80 87 76 82 89 78 84 92 81 87 96 85 91 99 88 94 101 90 96 103 92 100 99 89 98 98 88 99 98 88 99 97 87 98 97 87 98 96 86 97 95 85 96 95 85 96 100 90 101 100 90 101 100 90 101 100 90 101 100 90 101 100 90 101 100 90 101 98 90 101 99 94 101 97 94 101 97 94 101 97 94 101 97 94 101 97 94 101 97 94 101 97 94 101 101 98 105 101 98 105 101 98 105 101 98 105 101 98 105 101 98 105 101 98 105 104 97 104 114 102 106 115 99 102 113 97 100 110 94 97 106 90 93 103 87 90 101 85 88 99 83 86 84 68 71 84 68 71 84 68 71 84 68 71 84 68 71 84 68 71 84 68 71 86 67 71 90 64 73 91 64 73 91 64 73 91 64 73 91 64 73 91 64 73 91 64 73 91 64 73 98 71 80 100 73 82 102 75 84 105 78 87 109 82 91 112 85 94 114 87 96 115 89 98 109 89 98 107 90 98 110 89 98 110 89 98 113 87 98 114 86 98 116 86 98 118 84 98 120 82 97 121 78 95 120 76 93 119 72 90 118 67 86 115 64 83 115 60 81 112 59 79 117 68 89 112 67 87 107 62 82 98 57 75 92 51 69 82 45 62 75 41 57 71 40 55 49 23 36 48 26 38
78 66 68 74 62 64 71 59 61 69 57 59 70 54 57 73 47 56 76 46 56 76 46 56 76 46 56 76 46 56 76 46 56 76 46 56 76 46 56 72 42 52 72 42 52 72 42 52 72 42 52 72 42 52 72 42 52 72 42 52 69 43 52 50 28 40 47 30 40 47 30 40 47 30 40 47 30 40 47 30 40 47 30 40 47 30 40 46 29 39 46 29 39 46 29 39 46 29 39 46 29 39 46 29 39 46 29 39 48 28 40 68 44 60 68 43 62 68 43 62 66 45 62 66 45 62 63 46 62 61 47 62 59 48 62 47 41 53 44 42 53 43 43 53 40 44 53 40 44 53 37 46 53 37 46 53 37 46 51 45 48 55 48 49 54 50 51 56 52 53 58 55 56 61 57 58 63 59 60 65 60 61 66 85 86 91 83 84 89 78 79 84 73 74 79 67 68 73 61 62 67 57 58 63 56 55 60 49 40 43 52 42 43 57 47 48 64 54 55 70 60 61 77 67 68 82 72 73 84 74 75 97 87 88 95 85 86 93 83 84 90 80 81 86 76 77 83 73 74 81 71 72 79 68 72 55 44 52 55 43 53 55 43 53 55 43 53 55 43 53 55 43 53 55 43 53 55 43 53 49 37 47 50 38 48 53 41 51 56 44 54 59 47 57 62 50 60 65 53 63 66 55 63 74 63 71 74 63 69 74 63 69 74 63 69 74 63 69 74 63 69 74 63 69 74 63 69 89 78 84 90 79 85 92 81 87 96 85 91 99 88 94 102 91 97 105 94 100 106 95 103 100 90 99 99 89 100 97 87 98 95 85 96 92 82 93 90 80 91 88 78 89 87 77 88 100 90 101 100 90 101 100 90 101 100 90 101 100 90 101 100 90 101 100 90 101 98 90 101 99 94 101 97 94 101 97 94 101 97 94 101 97 94 101 97 94 101 97 94 101 97 94 101 101 98 105 101 98 105 101 98 105 101 98 105 101 98 105 101 98 105 101 98 105 104 97 104 114 102 106 115 99 102 113 97 100 110 94 97 106 90 93 103 87 90 101 85 88 99 83 86 87 71 74 87 71 74 87 71 74 87 71 74 87 71 74 87 71 74 87 71 74 89 70 74 90 64 73 91 64 73 91 64 73 91 64 73 91 64 73 91 64 73 91 64 73 91 64 73 95 68 77 96 69 78 99 72 81 102 75 84 105 78 87 109 82 91 111 84 93 111 85 94 109 89 98 107 90 98 110 89 98 110 89 98 113 87 98 114 86 98 116 86 98 118 84 98 120 82 97 121 78 95 120 76 93 119 72 90 118 67 86 115 64 83 115 60 81 112 59 79 117 68 89 112 67 87 107 62 82 98 57 75 92 51 69 82 45 62 75 41 57 71 40 55 49 23 36 48 26 38
78 66 68 74 62 64 71 59 61 69 57 59 70 54 57 73 47 56 76 46 56 76 46 56 76 46 56 76 46 56 76 46 56 76 46 56 76 46 56 72 42 52 72 42 52 72 42 52 72 42 52 72 42 52 72 42 52 72 42 52 69 43 52 50 28 40 47 30 40 47 30 40 47 30 40 47 30 40 47 30 40 47 30 40 47 30 40 50 33 43 50 33 43 50 33 43 50 33 43 50 33 43 50 33 43 50 33 43 52 32 44 74 50 66 74 49 68 74 49 68 72 51 68 72 51 68 69 52 68 67 53 68 65 54 68 47 41 53 44 42 53 43 43 53 40 44 53 40 44 53 37 46 53 37 46 53 37 46 51 47 50 57 51 52 57 54 55 60 58 59 64 63 64 69 67 68 73 70 71 76 71 72 77 93 94 99 90 91 96 85 86 91 77 78 83 69 70 75 62 63 68 57 58 63 55 54 59 49 40 43 52 42 43 57 47 48 64 54 55 70 60 61 77 67 68 82 72 73 84 74 75 97 87 88 95 85 86 93 83 84 90 80 81 86 76 77 83 73 74 81 71 72 79 68 72 55 44 52 55 43 53 55 43 53 55 43 53 55 43 53 55 43 53 55 43 53 55 43 53 56 44 54 57 45 55 60 48 58 63 51 61 66 54 64 69 57 67 72 60 70 73 62 70 78 67 75 78 67 73 78 67 73 78 67 73 78 67 73 78 67 73 78 67 73 78 67 73 92 81 87 93 82 88 96 85 91 99 88 94 102 91 97 106 95 101 108 97 103 109 98 106 101 91 100 100 90 101 97 87 98 92 82 93 88 78 89 84 74 85 81 71 82 79 69 80 100 90 101 100 90 101 100 90 101 100 90 101 100 90 101 100 90 101 100 90 101 98 90 101 99 94 101 97 94 101 97 94 101 97 94 101 97 94 101 97 94 101 97 94 101 97 94 101 101 98 105 101 98 105 101 98 105 101 98 105 101 98 105 101 98 105 101 98 105 104 97 104 114 102 106 115 99 102 113 97 100 110 94 97 106 90 93 103 87 90 101 85 88 99 83 86 91 75 78 91 75 78 91 75 78 91 75 78 91 75 78 91 75 78 91 75 78 93 74 78 90 64 73 91 64 73 91 64 73 91 64 73 91 64 73 91 64 73 91 64 73 91 64 73 92 65 74 93 66 75 95 68 77 99 72 81 102 75 84 105 78 87 108 81 90 108 82 91 109 89 98 107 90 98 110 89 98 110 89 98 113 87 98 114 86 98 116 86 98 118 84 98 120 82 97 121 78 95 120 76 93 119 72 90 118 67 86 115 64 83 115 60 81 112 59 79 117 68 89 112 67 87 107 62 82 98 57 75 92 51 69 82 45 62 75 41 57 71 40 55 49 23 36 48 26 38
78 66 68 74 62 64 71 59 61 69 57 59 70 54 57 73 47 56 76 46 56 76 46 56 76 46 56 76 46 56 76 46 56 76 46 56 76 46 56 72 42 52 72 42 52 72 42 52 72 42 52 72 42 52 72 42 52 72 42 52 69 43 52 50 28 40 47 30 40 47 30 40 47 30 40 47 30 40 47 30 40 47 30 40 47 30 40 53 36 46 53 36 46 53 36 46 53 36 46 53 36 46 53 36 46 53 36 46 55 35 47 81 57 73 81 56 75 81 56 75 79 58 75 79 58 75 76 59 75 74 60 75 72 61 75 47 41 53 44 42 53 43 43 53 40 44 53 40 44 53 37 46 53 37 46 53 37 46 51 49 52 59 54 55 60 58 59 64 64 65 70 70 71 76 76 77 82 80 81 86 82 83 88 95 96 101 91 92 97 85 86 91 76 77 82 66 67 72 57 58 63 50 51 56 48 47 52 49 40 43 52 42 43 57 47 48 64 54 55 70 60 61 77 67 68 82 72 73 84 74 75 97 87 88 95 85 86 93 83 84 90 80 81 86 76 77 83 73 74 81 71 72 79 68 72 55 44 52 55 43 53 55 43 53 55 43 53 55 43 53 55 43 53 55 43 53 55 43 53 62 50 60 63 51 61 66 54 64 69 57 67 73 61 71 76 64 74 78 66 76 79 68 76 81 70 78 81 70 76 81 70 76 81 70 76 81 70 76 81 70 76 81 70 76 81 70 76 95 84 90 97 86 92 99 88 94 102 91 97 106 95 101 109 98 104 111 100 106 113 102 110 103 93 102 100 90 101 96 86 97 90 80 91 84 74 85 78 68 79 74 64 75 72 62 73 100 90 101 100 90 101 100 90 101 100 90 101 100 90 101 100 90 101 100 90 101 98 90 101 99 94 101 97 94 101 97 94 101 97 94 101 97 94 101 97 94 101 97 94 101 97 94 101 101 98 105 101 98 105 101 98 105 101 98 105 101 98 105 101 98 105 101 98 105 104 97 104 114 102 106 115 99 102 113 97 100 110 94 97 106 90 93 103 87 90 101 85 88 99 83 86 94 78 81 94 78 81 94 78 81 94 78 81 94 78 81 94 78 81 94 78 81 96 77 81 90 64 73 91 64 73 91 64 73 91 64 73 91 64 73 91 64 73 91 64 73 91 64 73 88 61 70 90 63 72 92 65 74 95 68 77 99 72 81 102 75 84 104 77 86 105 79 88 109 89 98 107 90 98 110 89 98 110 89 98 113 87 98 114 86 98 116 86 98 118 84 98 120 82 97 121 78 95 120 76 93 119 72 90 118 67 86 115 64 83 115 60 81 112 59 79 117 68 89 112 67 87 107 62 82 98 57 75 92 51 69 82 45 62 75 41 57 71 40 55 49 23 36 48 26 38
78 66 68 74 62 64 71 59 61 69 57 59 70 54 57 73 47 56 76 46 56 76 46 56 76 46 56 76 46 56 76 46 56 76 46 56 76 46 56 72 42 52 72 42 52 72 42 52 72 42 52 72 42 52 72 42 52 72 42 52 69 43 52 50 28 40 47 30 40 47 30 40 47 30 40 47 30 40 47 30 40 47 30 40 47 30 40 55 38 48 55 38 48 55 38 48 55 38 48 55 38 48 55 38 48 55 38 48 57 37 49 86 62 78 86 61 80 86 61 80 84 63 80 84 63 80 81 64 80 79 65 80 77 66 80 47 41 53 44 42 53 43 43 53 40 44 53 40 44 53 37 46 53 37 46 53 37 46 51 51 54 61 56 57 62 61 62 67 68 69 74 75 76 81 82 83 88 88 89 94 91 92 97 93 94 99 89 90 95 81 82 87 71 72 77 60 61 66 50 51 56 42 43 48 39 38 43 49 40 43 52 42 43 57 47 48 64 54 55 70 60 61 77 67 68 82 72 73 84 74 75 97 87 88 95 85 86 93 83 84 90 80 81 86 76 77 83 73 74 81 71 72 79 68 72 55 44 52 55 43 53 55 43 53 55 43 53 55 43 53 55 43 53 55 43 53 55 43 53 67 55 65 68 56 66 71 59 69 74 62 72 77 65 75 81 69 79 83 71 81 84 73 81 83 72 80 83 72 78 83 72 78 83 72 78 83 72 78 83 72 78 83 72 78 83 72 78 98 87 93 99 88 94 101 90 96 105 94 100 108 97 103 111 100 106 114 103 109 115 104 112 104 94 103 101 91 102 95 85 96 88 78 89 81 71 82 74 64 75 69 59 70 66 56 67 100 90 101 100 90 101 100 90 101 100 90 101 100 90 101 100 90 101 100 90 101 98 90 101 99 94 101 97 94 101 97 94 101 97 94 101 97 94 101 97 94 101 97 94 101 97 94 101 101 98 105 101 98 105 101 98 105 101 98 105 101 98 105 101 98 105 101 98 105 104 97 104 114 102 106 115 99 102 113 97 100 110 94 97 106 90 93 103 87 90 101 85 88 99 83 86 96 80 83 96 80 83 96 80 83 96 80 83 96 80 83 96 80 83 96 80 83 98 79 83 90 64 73 91 64 73 91 64 73 91 64 73 91 64 73 91 64 73 91 64 73 91 64 73 86 59 68 87 60 69 90 63 72 93 66 75 96 69 78 100 73 82 102 75 84 102 76 85 109 89 98 107 90 98 110 89 98 110 89 98 113 87 98 114 86 98 116 86 98 118 84 98 120 82 97 121 78 95 120 76 93 119 72 90 118 67 86 115 64 83 115 60 81 112 59 79 117 68 89 112 67 87 107 62 82 98 57 75 92 51 69 82 45 62 75 41 57 71 40 55 49 23 36 48 26 38
78 66 68 74 62 64 71 59 61 69 57 59 70 54 57 73 47 56 76 46 56 76 46 56 76 46 56 76 46 56 76 46 56 76 46 56 76 46 56 72 42 52 72 42 52 72 42 52 72 42 52 72 42 52 72 42 52 72 42 52 69 43 52 50 28 40 47 30 40 47 30 40 47 30 40 47 30 40 47 30 40 47 30 40 47 30 40 57 40 50 57 40 50 57 40 50 57 40 50 57 40 50 57 40 50 57 40 50 59 39 51 88 64 80 88 63 82 88 63 82 86 65 82 86 65 82 83 66 82 81 67 82 79 68 82 47 41 53 44 42 53 43 43 53 40 44 53 40 44 53 37 46 53 37 46 53 37 46 51 52 55 62 57 58 63 63 64 69 70 71 76 78 79 84 86 87 92 92 93 98 95 96 101 90 91 96 86 87 92 78 79 84 67 68 73 55 56 61 44 45 50 36 37 42 33 32 37 49 40 43 52 42 43 57 47 48 64 54 55 70 60 61 77 67 68 82 72 73 84 74 75 97 87 88 95 85 86 93 83 84 90 80 81 86 76 77 83 73 74 81 71 72 79 68 72 55 44 52 55 43 53 55 43 53 55 43 53 55 43 53 55 43 53 55 43 53 55 43 53 70 58 68 71 59 69 73 61 71 77 65 75 80 68 78 83 71 81 86 74 84 87 76 84 85 74 82 85 74 80 85 74 80 85 74 80 85 74 80 85 74 80 85 74 80 85 74 80 99 88 94 100 89 95 103 92 98 106 95 101 109 98 104 113 102 108 115 104 110 116 105 113 104 94 103 101 91 102 95 85 96 87 77 88 79 69 80 72 62 73 66 56 67 63 53 64 100 90 101 100 90 101 100 90 101 100 90 101 100 90 101 100 90 101 100 90 101 98 90 101 99 94 101 97 94 101 97 94 101 97 94 101 97 94 101 97 94 101 97 94 101 97 94 101 101 98 105 101 98 105 101 98 105 101 98 105 101 98 105 101 98 105 101 98 105 104 97 104 114 102 106 115 99 102 113 97 100 110 94 97 106 90 93 103 87 90 101 85 88 99 83 86 98 82 85 98 82 85 98 82 85 98 82 85 98 82 85 98 82 85 98 82 85 100 81 85 90 64 73 91 64 73 91 64 73 91 64 73 91 64 73 91 64 73 91 64 73 91 64 73 85 58 67 86 59 68 88 61 70 92 65 74 95 68 77 98 71 80 101 74 83 101 75 84 109 89 98 107 90 98 110 89 98 110 89 98 113 87 98 114 86 98 116 86 98 118 84 98 120 82 97 121 78 95 120 76 93 119 72 90 118 67 86 115 64 83 115 60 81 112 59 79 117 68 89 112 67 87 107 62 82 98 57 75 92 51 69 82 45 62 75 41 57 71 40 55 49 23 36 48 26 38
87 75 77 83 71 73 80 68 70 78 66 68 79 63 66 78 52 61 81 51 61 81 51 61 81 51 61 81 51 61 81 51 61 81 51 61 81 51 61 83 53 63 81 51 61 79 49 59 76 46 56 72 42 52 69 39 49 67 37 47 62 36 45 48 26 38 47 30 40 49 32 42 52 35 45 56 39 49 59 42 52 61 44 54 63 46 56 51 34 44 52 35 45 55 38 48 58 41 51 61 44 54 65 48 58 67 50 60 70 50 62 85 61 77 83 58 77 81 56 75 76 55 72 72 51 68 66 49 65 62 48 63 58 47 61 54 48 60 50 48 59 48 48 58 44 48 57 43 47 56 38 47 54 38 47 54 37 46 51 82 85 92 84 85 90 84 85 90 84 85 90 84 85 90 84 85 90 84 85 90 84 85 90 82 83 88 86 87 92 92 93 98 94 95 100 91 92 97 82 83 88 72 73 78 66 65 70 45 36 39 47 37 38 51 41 42 55 45 46 60 50 51 64 54 55 68 58 59 70 60 61 106 96 97 103 93 94 97 87 88 89 79 80 81 71 72 74 64 65 68 58 59 65 54 58 56 45 53 56 44 54 56 44 54 56 44 54 56 44 54 56 44 54 56 44 54 56 44 54 82 70 80 82 70 80 82 70 80 82 70 80 82 70 80 82 70 80 82 70 80 82 71 79 77 66 74 78 67 73 80 69 75 84 73 79 87 76 82 90 79 85 93 82 88 94 83 89 106 95 101 106 95 101 106 95 101 106 95 101 106 95 101 106 95 101 106 95 101 106 95 103 98 88 97 96 86 97 91 81 92 84 74 85 78 68 79 71 61 72 66 56 67 64 54 65 74 64 75 76 66 77 81 71 82 88 78 89 94 84 95 101 91 102 106 96 107 106 98 109 101 96 103 99 96 103 99 96 103 99 96 103 99 96 103 99 96 103 99 96 103 99 96 103 102 99 106 102 99 106 102 99 106 102 99 106 102 99 106 102 99 106 102 99 106 105 98 105 103 91 95 104 88 91 102 86 89 99 83 86 95 79 82 92 76 79 90 74 77 88 72 75 98 82 85 99 83 86 102 86 89 105 89 92 108 92 95 112 96 99 114 98 101 117 98 102 109 83 92 110 83 92 110 83 92 110 83 92 110 83 92 110 83 92 110 83 92 110 83 92 105 78 87 104 77 86 101 74 83 98 71 80 95 68 77 91 64 73 89 62 71 87 61 70 96 76 85 96 79 87 102 81 90 107 86 95 114 88 99 120 92 104 125 95 107 129 95 109 110 72 87 113 70 87 114 70 87 116 69 87 119 68 87 119 68 87 121 66 87 120 67 87 116 67 88 111 66 86 106 61 81 97 56 74 91 50 68 81 44 61 74 40 56 70 39 54 54 28 41 53 31 43
87 75 77 83 71 73 80 68 70 78 66 68 79 63 66 78 52 61 81 51 61 81 51 61 81 51 61 81 51 61 81 51 61 81 51 61 81 51 61 83 53 63 81 51 61 79 49 59 76 46 56 72 42 52 69 39 49 67 37 47 62 36 45 48 26 38 47 30 40 49 32 42 52 35 45 56 39 49 59 42 52 61 44 54 63 46 56 54 37 47 55 38 48 57 40 50 61 44 54 64 47 57 67 50 60 70 53 63 73 53 65 85 61 77 83 58 77 81 56 75 76 55 72 72 51 68 66 49 65 62 48 63 58 47 61 53 47 59 50 48 59 49 49 59 45 49 58 44 48 57 41 50 57 40 49 56 40 49 54 82 85 92 84 85 90 84 85 90 84 85 90 84 85 90 84 85 90 84 85 90 84 85 90 82 83 88 86 87 92 92 93 98 94 95 100 91 92 97 82 83 88 72 73 78 66 65 70 45 36 39 48 38 39 51 41 42 54 44 45 58 48 49 62 52 53 65 55 56 67 57 58 102 92 93 99 89 90 93 83 84 86 76 77 79 69 70 72 62 63 67 57 58 64 53 57 56 45 53 56 44 54 56 44 54 56 44 54 56 44 54 56 44 54 56 44 54 56 44 54 80 68 78 80 68 78 80 68 78 80 68 78 80 68 78 80 68 78 80 68 78 80 69 77 78 67 75 79 68 74 82 71 77 85 74 80 88 77 83 92 81 87 94 83 89 95 84 90 106 95 101 106 95 101 106 95 101 106 95 101 106 95 101 106 95 101 106 95 101 106 95 103 98 88 97 96 86 97 91 81 92 84 74 85 78 68 79 71 61 72 66 56 67 64 54 65 74 64 75 76 66 77 81 71 82 88 78 89 94 84 95 101 91 102 106 96 107 106 98 109 101 96 103 99 96 103 99 96 103 99 96 103 99 96 103 99 96 103 99 96 103 99 96 103 102 99 106 102 99 106 102 99 106 102 99 106 102 99 106 102 99 106 102 99 106 105 98 105 103 91 95 104 88 91 102 86 89 99 83 86 95 79 82 92 76 79 90 74 77 88 72 75 97 81 84 98 82 85 100 84 87 104 88 91 107 91 94 110 94 97 113 97 100 116 97 101 111 85 94 112 85 94 112 85 94 112 85 94 112 85 94 112 85 94 112 85 94 112 85 94 106 79 88 105 78 87 103 76 85 99 72 81 96 69 78 93 66 75 90 63 72 88 62 71 98 78 87 97 80 88 103 82 91 107 86 95 114 88 99 119 91 103 124 94 106 127 93 107 110 72 87 113 70 87 114 70 87 116 69 87 119 68 87 119 68 87 121 66 87 120 67 87 116 67 88 111 66 86 106 61 81 97 56 74 91 50 68 81 44 61 74 40 56 70 39 54 54 28 41 53 31 43
87 75 77 83 71 73 80 68 70 78 66 68 79 63 66 78 52 61 81 51 61 81 51 61 81 51 61 81 51 61 81 51 61 81 51 61 81 51 61 83 53 63 81 51 61 79 49 59 76 46 56 72 42 52 69 39 49 67 37 47 62 36 45 48 26 38 47 30 40 49 32 42 52 35 45 56 39 49 59 42 52 61 44 54 63 46 56 59 42 52 60 43 53 62 45 55 65 48 58 69 52 62 72 55 65 75 58 68 78 58 70 85 61 77 83 58 77 81 56 75 76 55 72 72 51 68 66 49 65 62 48 63 58 47 61 52 46 58 50 48 59 49 49 59 47 51 60 47 51 60 45 54 61 46 55 62 46 55 60 82 85 92 84 85 90 84 85 90 84 85 90 84 85 90 84 85 90 84 85 90 84 85 90 82 83 88 86 87 92 92 93 98 94 95 100 91 92 97 82 83 88 72 73 78 66 65 70 46 37 40 48 38 39 50 40 41 53 43 44 55 45 46 58 48 49 60 50 51 61 51 52 93 83 84 91 81 82 87 77 78 81 71 72 75 65 66 69 59 60 65 55 56 62 51 55 56 45 53 56 44 54 56 44 54 56 44 54 56 44 54 56 44 54 56 44 54 56 44 54 78 66 76 78 66 76 78 66 76 78 66 76 78 66 76 78 66 76 78 66 76 78 67 75 80 69 77 82 71 77 84 73 79 87 76 82 91 80 86 94 83 89 96 85 91 98 87 93 106 95 101 106 95 101 106 95 101 106 95 101 106 95 101 106 95 101 106 95 101 106 95 103 98 88 97 96 86 97 91 81 92 84 74 85 78 68 79 71 61 72 66 56 67 64 54 65 74 64 75 76 66 77 81 71 82 88 78 89 94 84 95 101 91 102 106 96 107 106 98 109 101 96 103 99 96 103 99 96 103 99 96 103 99 96 103 99 96 103 99 96 103 99 96 103 102 99 106 102 99 106 102 99 106 102 99 106 102 99 106 102 99 106 102 99 106 105 98 105 103 91 95 104 88 91 102 86 89 99 83 86 95 79 82 92 76 79 90 74 77 88 72 75 94 78 81 96 80 83 98 82 85 101 85 88 105 89 92 108 92 95 110 94 97 114 95 99 113 87 96 114 87 96 114 87 96 114 87 96 114 87 96 114 87 96 114 87 96 114 87 96 109 82 91 107 80 89 105 78 87 102 75 84 98 71 80 95 68 77 93 66 75 90 64 73 101 81 90 100 83 91 105 84 93 108 87 96 113 87 98 117 89 101 121 91 103 124 90 104 110 72 87 113 70 87 114 70 87 116 69 87 119 68 87 119 68 87 121 66 87 120 67 87 116 67 88 111 66 86 106 61 81 97 56 74 91 50 68 81 44 61 74 40 56 70 39 54 54 28 41 53 31 43
87 75 77 83 71 73 80 68 70 78 66 68 79 63 66 78 52 61 81 51 61 81 51 61 81 51 61 81 51 61 81 51 61 81 51 61 81 51 61 83 53 63 81 51 61 79 49 59 76 46 56 72 42 52 69 39 49 67 37 47 62 36 45 48 26 38 47 30 40 49 32 42 52 35 45 56 39 49 59 42 52 61 44 54 63 46 56 65 48 58 66 49 59 69 52 62 72 55 65 75 58 68 78 61 71 81 64 74 84 64 76 85 61 77 83 58 77 81 56 75 76 55 72 72 51 68 66 49 65 62 48 63 58 47 61 51 45 57 49 47 58 50 50 60 49 53 62 52 56 65 51 60 67 53 62 69 54 63 68 82 85 92 84 85 90 84 85 90 84 85 90 84 85 90 84 85 90 84 85 90 84 85 90 82 83 88 86 87 92 92 93 98 94 95 100 91 92 97 82 83 88 72 73 78 66 65 70 47 38 41 49 39 40 49 39 40 50 40 41 51 41 42 52 42 43 53 43 44 53 43 44 82 72 73 81 71 72 78 68 69 74 64 65 69 59 60 65 55 56 62 52 53 60 49 53 56 45 53 56 44 54 56 44 54 56 44 54 56 44 54 56 44 54 56 44 54 56 44 54 75 63 73 75 63 73 75 63 73 75 63 73 75 63 73 75 63 73 75 63 73 75 64 72 84 73 81 85 74 80 87 76 82 91 80 86 94 83 89 97 86 92 100 89 95 101 90 96 106 95 101 106 95 101 106 95 101 106 95 101 106 95 101 106 95 101 106 95 101 106 95 103 98 88 97 96 86 97 91 81 92 84 74 85 78 68 79 71 61 72 66 56 67 64 54 65 74 64 75 76 66 77 81 71 82 88 78 89 94 84 95 101 91 102 106 96 107 106 98 109 101 96 103 99 96 103 99 96 103 99 96 103 99 96 103 99 96 103 99 96 103 99 96 103 102 99 106 102 99 106 102 99 106 102 99 106 102 99 106 102 99 106 102 99 106 105 98 105 103 91 95 104 88 91 102 86 89 99 83 86 95 79 82 92 76 79 90 74 77 88 72 75 91 75 78 92 76 79 95 79 82 98 82 85 101 85 88 105 89 92 107 91 94 110 91 95 116 90 99 117 90 99 117 90 99 117 90 99 117 90 99 117 90 99 117 90 99 117 90 99 112 85 94 111 84 93 108 81 90 105 78 87 102 75 84 98 71 80 96 69 78 94 68 77 106 86 95 104 87 95 108 87 96 109 88 97 112 86 97 114 86 98 117 87 99 119 85 99 110 72 87 113 70 87 114 70 87 116 69 87 119 68 87 119 68 87 121 66 87 120 67 87 116 67 88 111 66 86 106 61 81 97 56 74 91 50 68 81 44 61 74 40 56 70 39 54 54 28 41 53 31 43
87 75 77 83 71 73 80 68 70 78 66 68 79 63 66 78 52 61 81 51 61 81 51 61 81 51 61 81 51 61 81 51 61 81 51 61 81 51 61 83 53 63 81 51 61 79 49 59 76 46 56 72 42 52 69 39 49 67 37 47 62 36 45 48 26 38 47 30 40 49 32 42 52 35 45 56 39 49 59 42 52 61 44 54 63 46 56 72 55 65 73 56 66 76 59 69 79 62 72 82 65 75 85 68 78 88 71 81 91 71 83 85 61 77 83 58 77 81 56 75 76 55 72 72 51 68 66 49 65 62 48 63 58 47 61 50 44 56 48 46 57 50 50 60 52 56 65 56 60 69 57 66 73 60 69 76 62 71 76 82 85 92 84 85 90 84 85 90 84 85 90 84 85 90 84 85 90 84 85 90 84 85 90 82 83 88 86 87 92 92 93 98 94 95 100 91 92 97 82 83 88 72 73 78 66 65 70 49 40 43 49 39 40 49 39 40 48 38 39 47 37 38 46 36 37 45 35 36 45 35 36 71 61 62 70 60 61 68 58 59 66 56 57 63 53 54 61 51 52 59 49 50 58 47 51 56 45 53 56 44 54 56 44 54 56 44 54 56 44 54 56 44 54 56 44 54 56 44 54 71 59 69 71 59 69 71 59 69 71 59 69 71 59 69 71 59 69 71 59 69 71 60 68 87 76 84 88 77 83 91 80 86 94 83 89 97 86 92 101 90 96 103 92 98 104 93 99 106 95 101 106 95 101 106 95 101 106 95 101 106 95 101 106 95 101 106 95 101 106 95 103 98 88 97 96 86 97 91 81 92 84 74 85 78 68 79 71 61 72 66 56 67 64 54 65 74 64 75 76 66 77 81 71 82 88 78 89 94 84 95 101 91 102 106 96 107 106 98 109 101 96 103 99 96 103 99 96 103 99 96 103 99 96 103 99 96 103 99 96 103 99 96 103 102 99 106 102 99 106 102 99 106 102 99 106 102 99 106 102 99 106 102 99 106 105 98 105 103 91 95 104 88 91 102 86 89 99 83 86 95 79 82 92 76 79 90 74 77 88 72 75 88 72 75 89 73 76 91 75 78 95 79 82 98 82 85 101 85 88 104 88 91 107 88 92 120 94 103 121 94 103 121 94 103 121 94 103 121 94 103 121 94 103 121 94 103 121 94 103 115 88 97 114 87 96 112 85 94 108 81 90 105 78 87 102 75 84 99 72 81 97 71 80 110 90 99 108 91 99 110 89 98 109 88 97 112 86 97 112 84 96 113 83 95 115 81 95 110 72 87 113 70 87 114 70 87 116 69 87 119 68 87 119 68 87 121 66 87 120 67 87 116 67 88 111 66 86 106 61 81 97 56 74 91 50 68 81 44 61 74 40 56 70 39 54 54 28 41 53 31 43
87 75 77 83 71 73 80 68 70 78 66 68 79 63 66 78 52 61 81 51 61 81 51 61 81 51 61 81 51 61 81 51 61 81 51 61 81 51 61 83 53 63 81 51 61 79 49 59 76 46 56 72 42 52 69 39 49 67 37 47 62 36 45 48 26 38 47 30 40 49 32 42 52 35 45 56 39 49 59 42 52 61 44 54 63 46 56 78 61 71 79 62 72 82 65 75 85 68 78 89 72 82 92 75 85 94 77 87 97 77 89 85 61 77 83 58 77 81 56 75 76 55 72 72 51 68 66 49 65 62 48 63 58 47 61 48 42 54 48 46 57 51 51 61 54 58 67 60 64 73 63 72 79 67 76 83 69 78 83 82 85 92 84 85 90 84 85 90 84 85 90 84 85 90 84 85 90 84 85 90 84 85 90 82 83 88 86 87 92 92 93 98 94 95 100 91 92 97 82 83 88 72 73 78 66 65 70 50 41 44 50 40 41 48 38 39 45 35 36 43 33 34 40 30 31 38 28 29 37 27 28 60 50 51 60 50 51 59 49 50 59 49 50 58 48 49 57 47 48 57 47 48 56 45 49 56 45 53 56 44 54 56 44 54 56 44 54 56 44 54 56 44 54 56 44 54 56 44 54 68 56 66 68 56 66 68 56 66 68 56 66 68 56 66 68 56 66 68 56 66 68 57 65 90 79 87 92 81 87 94 83 89 97 86 92 101 90 96 104 93 99 106 95 101 108 97 103 106 95 101 106 95 101 106 95 101 106 95 101 106 95 101 106 95 101 106 95 101 106 95 103 98 88 97 96 86 97 91 81 92 84 74 85 78 68 79 71 61 72 66 56 67 64 54 65 74 64 75 76 66 77 81 71 82 88 78 89 94 84 95 101 91 102 106 96 107 106 98 109 101 96 103 99 96 103 99 96 103 99 96 103 99 96 103 99 96 103 99 96 103 99 96 103 102 99 106 102 99 106 102 99 106 102 99 106 102 99 106 102 99 106 102 99 106 105 98 105 103 91 95 104 88 91 102 86 89 99 83 86 95 79 82 92 76 79 90 74 77 88 72 75 84 68 71 86 70 73 88 72 75 91 75 78 95 79 82 98 82 85 100 84 87 104 85 89 123 97 106 124 97 106 124 97 106 124 97 106 124 97 106 124 97 106 124 97 106 124 97 106 119 92 101 117 90 99 115 88 97 112 85 94 108 81 90 105 78 87 103 76 85 100 74 83 115 95 104 112 95 103 113 92 101 110 89 98 111 85 96 109 81 93 109 79 91 110 76 90 110 72 87 113 70 87 114 70 87 116 69 87 119 68 87 119 68 87 121 66 87 120 67 87 116 67 88 111 66 86 106 61 81 97 56 74 91 50 68 81 44 61 74 40 56 70 39 54 54 28 41 53 31 43
87 75 77 83 71 73 80 68 70 78 66 68 79 63 66 78 52 61 81 51 61 81 51 61 81 51 61 81 51 61 81 51 61 81 51 61 81 51 61 83 53 63 81 51 61 79 49 59 76 46 56 72 42 52 69 39 49 67 37 47 62 36 45 48 26 38 47 30 40 49 32 42 52 35 45 56 39 49 59 42 52 61 44 54 63 46 56 83 66 76 84 67 77 87 70 80 90 73 83 93 76 86 97 80 90 99 82 92 102 82 94 85 61 77 83 58 77 81 56 75 76 55 72 72 51 68 66 49 65 62 48 63 58 47 61 47 41 53 47 45 56 52 52 62 56 60 69 63 67 76 67 76 83 72 81 88 75 84 89 82 85 92 84 85 90 84 85 90 84 85 90 84 85 90 84 85 90 84 85 90 84 85 90 82 83 88 86 87 92 92 93 98 94 95 100 91 92 97 82 83 88 72 73 78 66 65 70 51 42 45 50 40 41 47 37 38 44 34 35 40 30 31 36 26 27 33 23 24 31 21 22 52 42 43 52 42 43 52 42 43 53 43 44 54 44 45 54 44 45 55 45 46 55 44 48 56 45 53 56 44 54 56 44 54 56 44 54 56 44 54 56 44 54 56 44 54 56 44 54 66 54 64 66 54 64 66 54 64 66 54 64 66 54 64 66 54 64 66 54 64 66 55 63 93 82 90 94 83 89 96 85 91 100 89 95 103 92 98 106 95 101 109 98 104 110 99 105 106 95 101 106 95 101 106 95 101 106 95 101 106 95 101 106 95 101 106 95 101 106 95 103 98 88 97 96 86 97 91 81 92 84 74 85 78 68 79 71 61 72 66 56 67 64 54 65 74 64 75 76 66 77 81 71 82 88 78 89 94 84 95 101 91 102 106 96 107 106 98 109 101 96 103 99 96 103 99 96 103 99 96 103 99 96 103 99 96 103 99 96 103 99 96 103 102 99 106 102 99 106 102 99 106 102 99 106 102 99 106 102 99 106 102 99 106 105 98 105 103 91 95 104 88 91 102 86 89 99 83 86 95 79 82 92 76 79 90 74 77 88 72 75 82 66 69 83 67 70 86 70 73 89 73 76 92 76 79 96 80 83 98 82 85 101 82 86 125 99 108 126 99 108 126 99 108 126 99 108 126 99 108 126 99 108 126 99 108 126 99 108 121 94 103 120 93 102 117 90 99 114 87 96 111 84 93 107 80 89 105 78 87 103 77 86 118 98 107 115 98 106 115 94 103 111 90 99 110 84 95 107 79 91 106 76 88 107 73 87 110 72 87 113 70 87 114 70 87 116 69 87 119 68 87 119 68 87 121 66 87 120 67 87 116 67 88 111 66 86 106 61 81 97 56 74 91 50 68 81 44 61 74 40 56 70 39 54 54 28 41 53 31 43
86 76 77 83 71 73 79 69 70 78 66 68 78 63 66 76 53 61 79 52 61 79 52 61 79 52 61 79 52 61 79 52 61 79 52 61 79 52 61 81 54 63 79 52 61 77 50 59 74 47 56 70 43 52 67 40 49 65 38 47 62 36 45 48 27 36 49 29 38 51 31 40 54 34 43 58 38 47 61 41 50 63 43 52 65 45 54 88 68 77 89 69 78 91 71 80 95 75 84 98 78 87 101 81 90 104 84 93 105 85 96 84 62 75 83 59 75 80 57 73 76 55 70 70 52 66 66 50 63 62 48 61 59 47 59 50 40 51 50 44 54 54 51 60 61 60 68 68 68 76 75 75 83 79 82 89 82 85 92 84 85 90 85 84 90 85 84 90 85 84 90 85 84 90 85 84 90 85 84 90 85 84 90 83 82 88 87 86 92 93 92 98 95 94 100 92 91 97 83 82 88 73 72 78 67 64 71 48 43 49 48 42 46 44 38 42 40 34 38 35 29 33 31 25 29 27 21 25 25 19 23 44 38 42 45 39 43 46 40 44 47 41 45 48 42 46 50 44 48 50 44 48 51 44 51 55 45 54 55 45 56 55 45 56 55 45 56 55 45 56 55 45 56 55 45 56 55 45 56 63 53 64 63 53 64 63 53 64 63 53 64 63 53 64 63 53 64 63 53 64 63 53 62 93 83 91 92 86 90 95 88 95 98 92 96 101 94 101 105 99 103 107 100 107 108 102 106 103 96 103 103 97 101 103 96 103 103 97 101 103 96 103 103 97 101 103 96 103 105 95 103 100 87 97 98 85 95 93 79 92 86 73 83 80 66 79 73 60 70 68 54 67 66 53 63 76 62 75 78 65 75 83 69 82 90 77 87 96 82 95 103 90 100 108 94 107 109 97 107 102 95 102 101 96 100 101 96 102 101 96 100 101 96 102 101 96 100 101 96 102 101 96 100 104 99 105 104 99 103 104 99 105 104 99 103 104 99 105 104 99 103 104 99 105 107 98 103 105 90 93 104 88 89 104 85 89 99 83 84 97 78 82 92 76 77 92 73 77 88 72 73 83 64 68 82 66 67 86 67 71 88 72 73 93 74 78 94 78 79 99 80 84 100 81 85 125 102 110 127 101 110 127 101 110 127 101 110 127 101 110 127 101 110 127 101 110 127 101 110 121 95 104 120 94 103 118 92 101 114 88 97 111 85 94 108 82 91 105 79 88 104 78 87 122 99 109 120 97 107 119 93 104 114 88 99 111 83 95 108 78 90 106 74 87 105 71 85 110 72 87 112 71 87 113 70 87 114 70 87 116 69 87 117 68 87 119 68 87 117 68 87 113 68 88 110 67 86 104 63 81 95 56 74 88 51 68 79 45 61 72 41 56 67 41 54 52 28 41 52 32 43
93 84 85 94 84 85 93 84 85 94 84 85 95 83 85 74 55 61 76 53 63 77 54 64 78 55 65 80 57 67 81 58 68 82 59 69 82 59 69 78 55 65 76 53 63 74 51 61 71 48 58 67 44 54 64 41 51 62 39 49 60 37 45 54 33 38 56 35 40 61 40 45 68 47 52 74 53 58 81 60 65 86 65 70 88 67 72 106 85 90 106 85 90 106 85 90 106 85 90 106 85 90 106 85 90 106 85 90 106 85 92 103 83 92 100 80 91 95 75 86 87 70 80 80 63 73 74 57 67 68 52 62 65 49 59 64 48 58 65 52 61 71 58 67 77 66 74 85 74 82 93 82 90 99 88 96 101 91 99 86 81 88 84 81 90 84 81 90 84 81 90 84 81 90 84 81 90 84 81 90 84 81 90 105 102 111 102 99 108 96 93 102 88 85 94 80 77 86 72 69 78 66 63 72 63 60 69 37 35 46 37 35 46 37 35 46 37 35 46 37 35 46 37 35 46 37 35 46 37 35 46 43 41 52 43 41 52 43 41 52 43 41 52 43 41 52 43 41 52 43 41 52 43 41 52 48 42 54 49 41 54 49 41 54 49 41 54 49 41 54 49 41 54 49 41 54 49 41 54 53 45 58 56 48 61 61 53 66 67 59 72 74 66 79 80 72 85 85 77 90 87 81 93 97 94 101 96 95 100 96 95 101 96 95 100 96 95 101 96 95 100 96 95 101 96 95 100 109 108 114 108 107 112 106 105 111 102 101 106 99 98 104 96 95 100 93 92 98 95 90 96 100 82 94 96 72 85 85 61 75 75 51 64 70 46 60 71 47 60 76 52 66 80 56 69 90 66 80 92 68 81 94 70 84 97 73 86 101 77 91 104 80 93 106 82 96 106 86 95 107 95 99 105 97 95 105 96 97 105 97 95 105 96 97 105 97 95 105 96 97 105 97 95 110 101 102 108 100 98 106 97 98 103 95 93 99 90 91 96 88 86 94 85 86 93 83 82 107 91 92 109 91 91 110 90 92 109 91 91 110 90 92 109 91 91 110 90 92 109 91 91 93 73 75 92 74 74 93 73 75 92 74 74 93 73 75 92 74 74 93 73 75 93 73 75 112 91 96 113 90 98 113 90 98 113 90 98 113 90 98 113 90 98 113 90 98 113 90 98 115 92 100 115 92 100 114 91 99 113 90 98 111 88 96 110 87 95 109 86 94 111 85 94 121 91 103 121 87 103 119 85 101 116 82 98 112 78 94 111 74 91 109 72 89 107 70 87 110 71 89 110 71 89 112 71 89 112 71 89 112 71 89 113 70 89 113 70 89 112 71 89 108 70 85 103 67 81 94 60 74 83 51 64 72 42 54 60 32 44 50 27 37 44 24 33 59 42 50 56 43 50
93 84 85 93 84 85 93 84 85 93 84 85 94 84 85 75 55 64 77 56 65 77 56 65 78 57 66 78 57 66 79 58 67 79 58 67 80 59 68 77 56 65 75 54 63 73 52 61 70 49 58 66 45 54 63 42 51 61 40 49 59 38 45 55 32 38 57 35 38 62 40 43 69 47 50 75 53 56 82 60 63 87 65 68 89 67 70 107 85 88 107 85 88 107 85 88 107 85 88 107 85 88 107 85 88 107 85 88 106 85 90 102 83 89 97 80 88 92 75 83 86 69 77 79 62 70 73 56 64 68 51 59 65 48 56 64 47 55 67 50 58 72 55 63 79 62 70 86 69 77 93 76 84 99 82 90 99 86 95 92 82 91 89 83 93 89 83 93 89 83 93 89 83 93 89 83 93 89 83 93 89 83 93 101 95 105 98 92 102 93 87 97 86 80 90 78 72 82 71 65 75 66 60 70 61 58 69 36 36 48 34 36 49 34 36 49 34 36 49 34 36 49 34 36 49 34 36 49 34 36 49 40 42 55 40 42 55 40 42 55 40 42 55 40 42 55 40 42 55 40 42 55 42 41 55 46 42 56 48 42 56 48 42 56 48 42 56 48 42 56 48 42 56 48 42 56 48 42 56 53 47 61 56 50 64 61 55 69 67 61 75 74 68 82 80 74 88 85 79 93 86 83 94 95 95 103 93 96 101 95 96 101 93 96 101 95 96 101 93 96 101 95 96 101 93 96 101 107 108 113 104 107 112 103 104 109 98 101 106 97 98 103 91 94 99 91 92 97 94 89 96 100 80 91 98 70 84 87 59 73 77 49 63 73 45 59 75 47 61 80 52 66 84 56 70 93 65 79 95 67 81 97 69 83 100 72 86 104 76 90 107 79 93 109 81 95 108 85 95 109 95 95 106 96 94 106 96 94 106 96 94 106 96 94 106 96 94 106 96 94 106 96 94 111 101 99 109 99 97 107 97 95 104 94 92 100 90 88 97 87 85 95 85 83 94 83 81 107 89 89 108 88 89 108 88 89 108 88 89 108 88 89 108 88 89 108 88 89 108 88 89 95 75 76 95 75 76 95 75 76 95 75 76 95 75 76 95 75 76 95 75 76 95 75 77 110 89 94 110 89 96 110 89 96 110 89 96 110 89 96 110 89 96 110 89 96 110 89 96 113 92 99 112 91 98 112 91 98 111 90 97 111 90 97 110 89 96 110 89 96 112 86 95 123 89 105 124 85 103 122 83 101 119 80 98 115 76 94 112 73 91 110 71 89 108 69 87 110 71 89 110 71 89 110 71 89 110 71 89 110 71 89 110 71 89 110 71 89 109 72 89 107 71 85 100 68 81 93 61 74 80 52 64 70 42 54 57 34 44 49 28 37 42 25 33 56 43 50 54 45 50
93 84 85 93 84 85 93 84 85 93 84 85 94 84 85 79 59 68 80 59 68 79 58 67 78 57 66 78 57 66 77 56 65 76 55 64 76 55 64 77 56 65 75 54 63 73 52 61 70 49 58 66 45 54 63 42 51 61 40 49 59 38 45 55 32 38 57 35 38 62 40 43 69 47 50 75 53 56 82 60 63 87 65 68 89 67 70 107 85 88 107 85 88 107 85 88 107 85 88 107 85 88 107 85 88 107 85 88 106 85 90 99 80 86 95 78 86 90 73 81 83 66 74 76 59 67 70 53 61 65 48 56 63 46 54 62 45 53 65 48 56 69 52 60 75 58 66 81 64 72 87 70 78 91 74 82 90 77 86 95 85 94 92 86 96 92 86 96 92 86 96 92 86 96 92 86 96 92 86 96 92 86 96 90 84 94 88 82 92 83 77 87 78 72 82 72 66 76 66 60 70 62 56 66 57 54 65 36 36 48 34 36 49 34 36 49 34 36 49 34 36 49 34 36 49 34 36 49 34 36 49 40 42 55 40 42 55 40 42 55 40 42 55 40 42 55 40 42 55 40 42 55 42 41 55 46 42 56 48 42 56 48 42 56 48 42 56 48 42 56 48 42 56 48 42 56 48 42 56 56 50 64 58 52 66 63 57 71 70 64 78 77 71 85 83 77 91 88 82 96 88 85 96 96 95 103 95 96 101 96 95 101 95 96 101 96 95 101 95 96 101 96 95 101 95 96 101 106 105 111 103 104 109 102 101 107 98 99 104 95 94 100 91 92 97 90 89 95 92 85 93 97 75 87 95 67 81 85 57 71 77 49 63 74 46 60 77 49 63 83 55 69 88 60 74 93 65 79 95 67 81 97 69 83 100 72 86 104 76 90 107 79 93 109 81 95 108 85 95 109 95 95 106 96 94 106 96 94 106 96 94 106 96 94 106 96 94 106 96 94 106 96 94 111 101 99 109 99 97 107 97 95 104 94 92 100 90 88 97 87 85 95 85 83 94 83 81 105 87 87 106 86 87 106 86 87 106 86 87 106 86 87 106 86 87 106 86 87 106 86 87 97 77 78 97 77 78 97 77 78 97 77 78 97 77 78 97 77 78 97 77 78 97 77 79 108 87 92 108 87 94 108 87 94 108 87 94 108 87 94 108 87 94 108 87 94 108 87 94 109 88 95 109 88 95 110 89 96 111 90 97 111 90 97 112 91 98 113 92 99 116 90 99 123 89 105 124 85 103 122 83 101 119 80 98 115 76 94 112 73 91 110 71 89 108 69 87 110 71 89 110 71 89 110 71 89 110 71 89 110 71 89 110 71 89 110 71 89 109 72 89 107 71 85 100 68 81 93 61 74 80 52 64 70 42 54 57 34 44 49 28 37 42 25 33 56 43 50 54 45 50
93 84 85 93 84 85 93 84 85 93 84 85 94 84 85 83 63 72 83 62 71 82 61 70 79 58 67 77 56 65 74 53 62 73 52 61 72 51 60 77 56 65 75 54 63 73 52 61 70 49 58 66 45 54 63 42 51 61 40 49 59 38 45 55 32 38 57 35 38 62 40 43 69 47 50 75 53 56 82 60 63 87 65 68 89 67 70 107 85 88 107 85 88 107 85 88 107 85 88 107 85 88 107 85 88 107 85 88 106 85 90 96 77 83 91 74 82 87 70 78 80 63 71 73 56 64 67 50 58 62 45 53 59 42 50 60 43 51 62 45 53 65 48 56 69 52 60 74 57 65 78 61 69 81 64 72 79 66 75 94 84 93 91 85 95 91 85 95 91 85 95 91 85 95 91 85 95 91 85 95 91 85 95 76 70 80 75 69 79 71 65 75 67 61 71 63 57 67 59 53 63 56 50 60 52 49 60 36 36 48 34 36 49 34 36 49 34 36 49 34 36 49 34 36 49 34 36 49 34 36 49 40 42 55 40 42 55 40 42 55 40 42 55 40 42 55 40 42 55 40 42 55 42 41 55 46 42 56 48 42 56 48 42 56 48 42 56 48 42 56 48 42 56 48 42 56 48 42 56 59 53 67 62 56 70 66 60 74 73 67 81 80 74 88 86 80 94 91 85 99 94 88 100 97 94 103 96 95 101 97 94 101 96 95 101 97 94 101 96 95 101 97 94 101 96 95 101 103 100 107 101 100 106 100 97 104 95 94 100 93 90 97 89 88 94 87 84 91 91 81 90 93 71 83 91 63 77 82 54 68 76 48 62 75 47 61 80 52 66 87 59 73 92 64 78 93 65 79 95 67 81 97 69 83 100 72 86 104 76 90 107 79 93 109 81 95 108 85 95 109 95 95 106 96 94 106 96 94 106 96 94 106 96 94 106 96 94 106 96 94 106 96 94 111 101 99 109 99 97 107 97 95 104 94 92 100 90 88 97 87 85 95 85 83 94 83 81 102 84 84 103 83 84 103 83 84 103 83 84 103 83 84 103 83 84 103 83 84 103 83 84 100 80 81 100 80 81 100 80 81 100 80 81 100 80 81 100 80 81 100 80 81 100 80 82 105 84 89 105 84 91 105 84 91 105 84 91 105 84 91 105 84 91 105 84 91 105 84 91 105 84 91 106 85 92 107 86 93 110 89 96 112 91 98 115 94 101 116 95 102 120 94 103 123 89 105 124 85 103 122 83 101 119 80 98 115 76 94 112 73 91 110 71 89 108 69 87 110 71 89 110 71 89 110 71 89 110 71 89 110 71 89 110 71 89 110 71 89 109 72 89 107 71 85 100 68 81 93 61 74 80 52 64 70 42 54 57 34 44 49 28 37 42 25 33 56 43 50 54 45 50
93 84 85 93 84 85 93 84 85 93 84 85 94 84 85 88 68 77 87 66 75 84 63 72 80 59 68 76 55 64 72 51 60 69 48 57 67 46 55 77 56 65 75 54 63 73 52 61 70 49 58 66 45 54 63 42 51 61 40 49 59 38 45 55 32 38 57 35 38 62 40 43 69 47 50 75 53 56 82 60 63 87 65 68 89 67 70 107 85 88 107 85 88 107 85 88 107 85 88 107 85 88 107 85 88 107 85 88 106 85 90 93 74 80 88 71 79 83 66 74 77 60 68 70 53 61 63 46 54 59 42 50 56 39 47 58 41 49 59 42 50 61 44 52 63 46 54 66 49 57 68 51 59 70 53 61 68 55 64 87 77 86 84 78 88 84 78 88 84 78 88 84 78 88 84 78 88 84 78 88 84 78 88 61 55 65 60 54 64 58 52 62 56 50 60 54 48 58 51 45 55 49 43 53 47 44 55 36 36 48 34 36 49 34 36 49 34 36 49 34 36 49 34 36 49 34 36 49 34 36 49 40 42 55 40 42 55 40 42 55 40 42 55 40 42 55 40 42 55 40 42 55 42 41 55 46 42 56 48 42 56 48 42 56 48 42 56 48 42 56 48 42 56 48 42 56 48 42 56 62 56 70 65 59 73 70 64 78 76 70 84 83 77 91 90 84 98 94 88 102 97 91 103 99 93 103 97 94 101 99 94 101 97 94 101 99 94 101 97 94 101 99 94 101 97 94 101 102 97 104 99 96 103 98 93 100 93 90 97 92 87 94 86 83 90 86 81 88 88 78 87 88 66 78 87 59 73 80 52 66 75 47 61 76 48 62 82 54 68 91 63 77 97 69 83 93 65 79 95 67 81 97 69 83 100 72 86 104 76 90 107 79 93 109 81 95 108 85 95 109 95 95 106 96 94 106 96 94 106 96 94 106 96 94 106 96 94 106 96 94 106 96 94 111 101 99 109 99 97 107 97 95 104 94 92 100 90 88 97 87 85 95 85 83 94 83 81 98 80 80 99 79 80 99 79 80 99 79 80 99 79 80 99 79 80 99 79 80 99 79 80 104 84 85 104 84 85 104 84 85 104 84 85 104 84 85 104 84 85 104 84 85 104 84 86 101 80 85 101 80 87 101 80 87 101 80 87 101 80 87 101 80 87 101 80 87 101 80 87 100 79 86 102 81 88 105 84 91 109 88 95 113 92 99 117 96 103 120 99 106 125 99 108 123 89 105 124 85 103 122 83 101 119 80 98 115 76 94 112 73 91 110 71 89 108 69 87 110 71 89 110 71 89 110 71 89 110 71 89 110 71 89 110 71 89 110 71 89 109 72 89 107 71 85 100 68 81 93 61 74 80 52 64 70 42 54 57 34 44 49 28 37 42 25 33 56 43 50 54 45 50
93 84 85 93 84 85 93 84 85 93 84 85 94 84 85 92 72 81 91 70 79 87 66 75 81 60 69 75 54 63 69 48 57 65 44 53 63 42 51 77 56 65 75 54 63 73 52 61 70 49 58 66 45 54 63 42 51 61 40 49 59 38 45 55 32 38 57 35 38 62 40 43 69 47 50 75 53 56 82 60 63 87 65 68 89 67 70 107 85 88 107 85 88 107 85 88 107 85 88 107 85 88 107 85 88 107 85 88 106 85 90 89 70 76 85 68 76 80 63 71 74 57 65 67 50 58 60 43 51 55 38 46 53 36 44 56 39 47 57 40 48 57 40 48 58 41 49 59 42 50 59 42 50 60 43 51 57 44 53 75 65 74 72 66 76 72 66 76 72 66 76 72 66 76 72 66 76 72 66 76 72 66 76 47 41 51 47 41 51 46 40 50 46 40 50 45 39 49 44 38 48 44 38 48 41 38 49 36 36 48 34 36 49 34 36 49 34 36 49 34 36 49 34 36 49 34 36 49 34 36 49 40 42 55 40 42 55 40 42 55 40 42 55 40 42 55 40 42 55 40 42 55 42 41 55 46 42 56 48 42 56 48 42 56 48 42 56 48 42 56 48 42 56 48 42 56 48 42 56 66 60 74 68 62 76 73 67 81 79 73 87 86 80 94 93 87 101 98 92 106 100 94 106 100 92 103 100 93 101 100 93 101 100 93 101 100 93 101 100 93 101 100 93 101 100 93 101 100 93 101 98 91 99 96 89 97 93 86 94 89 82 90 86 79 87 84 77 85 85 73 83 84 62 74 83 55 69 77 49 63 74 46 60 77 49 63 85 57 71 95 67 81 101 73 87 93 65 79 95 67 81 97 69 83 100 72 86 104 76 90 107 79 93 109 81 95 108 85 95 109 95 95 106 96 94 106 96 94 106 96 94 106 96 94 106 96 94 106 96 94 106 96 94 111 101 99 109 99 97 107 97 95 104 94 92 100 90 88 97 87 85 95 85 83 94 83 81 95 77 77 96 76 77 96 76 77 96 76 77 96 76 77 96 76 77 96 76 77 96 76 77 107 87 88 107 87 88 107 87 88 107 87 88 107 87 88 107 87 88 107 87 88 107 87 89 98 77 82 98 77 84 98 77 84 98 77 84 98 77 84 98 77 84 98 77 84 98 77 84 96 75 82 98 77 84 102 81 88 108 87 94 114 93 100 120 99 106 124 103 110 129 103 112 123 89 105 124 85 103 122 83 101 119 80 98 115 76 94 112 73 91 110 71 89 108 69 87 110 71 89 110 71 89 110 71 89 110 71 89 110 71 89 110 71 89 110 71 89 109 72 89 107 71 85 100 68 81 93 61 74 80 52 64 70 42 54 57 34 44 49 28 37 42 25 33 56 43 50 54 45 50
93 84 85 93 84 85 93 84 85 93 84 85 94 84 85 96 76 85 94 73 82 89 68 77 82 61 70 74 53 62 67 46 55 62 41 50 59 38 47 77 56 65 75 54 63 73 52 61 70 49 58 66 45 54 63 42 51 61 40 49 59 38 45 55 32 38 57 35 38 62 40 43 69 47 50 75 53 56 82 60 63 87 65 68 89 67 70 107 85 88 107 85 88 107 85 88 107 85 88 107 85 88 107 85 88 107 85 88 106 85 90 87 68 74 82 65 73 77 60 68 71 54 62 64 47 55 58 41 49 53 36 44 50 33 41 55 38 46 55 38 46 54 37 45 54 37 45 53 36 44 52 35 43 52 35 43 49 36 45 62 52 61 59 53 63 59 53 63 59 53 63 59 53 63 59 53 63 59 53 63 59 53 63 36 30 40 37 31 41 37 31 41 38 32 42 38 32 42 39 33 43 39 33 43 37 34 45 36 36 48 34 36 49 34 36 49 34 36 49 34 36 49 34 36 49 34 36 49 34 36 49 40 42 55 40 42 55 40 42 55 40 42 55 40 42 55 40 42 55 40 42 55 42 41 55 46 42 56 48 42 56 48 42 56 48 42 56 48 42 56 48 42 56 48 42 56 48 42 56 68 62 76 71 65 79 76 70 84 82 76 90 89 83 97 95 89 103 100 94 108 104 96 109 102 92 103 102 92 101 102 92 101 102 92 101 102 92 101 102 92 101 102 92 101 102 92 101 99 89 98 98 88 97 96 86 95 92 82 91 89 79 88 86 76 85 83 73 82 84 71 81 81 57 70 80 52 66 75 47 61 73 45 59 77 49 63 87 59 73 98 70 84 105 77 91 93 65 79 95 67 81 97 69 83 100 72 86 104 76 90 107 79 93 109 81 95 108 85 95 109 95 95 106 96 94 106 96 94 106 96 94 106 96 94 106 96 94 106 96 94 106 96 94 111 101 99 109 99 97 107 97 95 104 94 92 100 90 88 97 87 85 95 85 83 94 83 81 93 75 75 94 74 75 94 74 75 94 74 75 94 74 75 94 74 75 94 74 75 94 74 75 109 89 90 109 89 90 109 89 90 109 89 90 109 89 90 109 89 90 109 89 90 109 89 91 96 75 80 96 75 82 96 75 82 96 75 82 96 75 82 96 75 82 96 75 82 96 75 82 92 71 78 95 74 81 100 79 86 107 86 93 115 94 101 122 101 108 127 106 113 133 107 116 123 89 105 124 85 103 122 83 101 119 80 98 115 76 94 112 73 91 110 71 89 108 69 87 110 71 89 110 71 89 110 71 89 110 71 89 110 71 89 110 71 89 110 71 89 109 72 89 107 71 85 100 68 81 93 61 74 80 52 64 70 42 54 57 34 44 49 28 37 42 25 33 56 43 50 54 45 50
93 84 85 93 84 85 93 84 85 93 84 85 94 84 85 98 78 87 96 75 84 90 69 78 82 61 70 74 53 62 66 45 54 60 39 48 57 36 45 77 56 65 75 54 63 73 52 61 70 49 58 66 45 54 63 42 51 61 40 49 59 38 45 55 32 38 57 35 38 62 40 43 69 47 50 75 53 56 82 60 63 87 65 68 89 67 70 107 85 88 107 85 88 107 85 88 107 85 88 107 85 88 107 85 88 107 85 88 106 85 90 86 67 73 81 64 72 76 59 67 70 53 61 63 46 54 57 40 48 52 35 43 49 32 40 54 37 45 53 36 44 53 36 44 51 34 42 50 33 41 49 32 40 48 31 39 44 31 40 54 44 53 51 45 55 51 45 55 51 45 55 51 45 55 51 45 55 51 45 55 51 45 55 31 25 35 31 25 35 32 26 36 33 27 37 35 29 39 36 30 40 37 31 41 35 32 43 36 36 48 34 36 49 34 36 49 34 36 49 34 36 49 34 36 49 34 36 49 34 36 49 40 42 55 40 42 55 40 42 55 40 42 55 40 42 55 40 42 55 40 42 55 42 41 55 46 42 56 48 42 56 48 42 56 48 42 56 48 42 56 48 42 56 48 42 56 48 42 56 69 63 77 72 66 80 77 71 85 83 77 91 90 84 98 96 90 104 101 95 109 105 97 110 103 91 103 104 91 101 104 91 101 104 91 101 104 91 101 104 91 101 104 91 101 104 91 101 100 87 97 99 86 96 96 83 93 93 80 90 90 77 87 86 73 83 84 71 81 86 68 80 80 56 69 79 51 65 74 46 60 73 45 59 78 50 64 88 60 74 99 71 85 107 79 93 93 65 79 95 67 81 97 69 83 100 72 86 104 76 90 107 79 93 109 81 95 108 85 95 109 95 95 106 96 94 106 96 94 106 96 94 106 96 94 106 96 94 106 96 94 106 96 94 111 101 99 109 99 97 107 97 95 104 94 92 100 90 88 97 87 85 95 85 83 94 83 81 91 73 73 92 72 73 92 72 73 92 72 73 92 72 73 92 72 73 92 72 73 92 72 73 111 91 92 111 91 92 111 91 92 111 91 92 111 91 92 111 91 92 111 91 92 111 91 93 94 73 78 94 73 80 94 73 80 94 73 80 94 73 80 94 73 80 94 73 80 94 73 80 90 69 76 93 72 79 99 78 85 107 86 93 115 94 101 123 102 109 129 108 115 135 109 118 123 89 105 124 85 103 122 83 101 119 80 98 115 76 94 112 73 91 110 71 89 108 69 87 110 71 89 110 71 89 110 71 89 110 71 89 110 71 89 110 71 89 110 71 89 109 72 89 107 71 85 100 68 81 93 61 74 80 52 64 70 42 54 57 34 44 49 28 37 42 25 33 56 43 50 54 45 50
93 84 85 98 89 90 102 93 94 106 97 98 109 99 100 105 85 94 103 82 91 97 76 85 89 68 77 81 60 69 74 53 62 68 47 56 65 44 53 63 42 51 63 42 51 63 42 51 63 42 51 63 42 51 63 42 51 63 42 51 63 42 49 55 32 38 57 35 38 62 40 43 69 47 50 75 53 56 82 60 63 87 65 68 89 67 70 105 83 86 105 83 86 105 83 86 105 83 86 105 83 86 105 83 86 105 83 86 104 83 88 80 61 67 71 54 62 61 44 52 52 35 43 49 32 40 51 34 42 57 40 48 61 44 52 50 33 41 50 33 41 50 33 41 50 33 41 50 33 41 50 33 41 50 33 41 47 34 43 43 33 42 40 34 44 40 34 44 40 34 44 40 34 44 40 34 44 40 34 44 40 34 44 35 29 39 35 29 39 35 29 39 35 29 39 35 29 39 35 29 39 35 29 39 33 30 41 38 38 50 36 38 51 36 38 51 36 38 51 36 38 51 36 38 51 36 38 51 36 38 51 39 41 54 39 41 54 39 41 54 39 41 54 39 41 54 39 41 54 39 41 54 41 40 54 44 40 54 46 40 54 46 40 54 46 40 54 46 40 54 46 40 54 46 40 54 46 40 54 62 56 70 69 63 77 80 74 88 89 83 97 92 86 100 90 84 98 84 78 92 81 73 86 80 64 77 81 63 75 81 63 75 81 63 75 81 63 75 81 63 75 81 63 75 81 63 75 67 49 61 67 49 61 67 49 61 67 49 61 67 49 61 67 49 61 67 49 61 69 49 61 80 54 67 83 55 69 85 57 71 88 60 74 92 64 78 95 67 81 97 69 83 99 71 85 104 76 90 106 78 92 108 80 94 111 83 97 115 87 101 118 90 104 120 92 106 119 96 106 106 92 92 103 93 91 103 93 91 103 93 91 103 93 91 103 93 91 103 93 91 103 93 91 101 91 89 101 91 89 101 91 89 101 91 89 101 91 89 101 91 89 101 91 89 102 91 89 96 78 78 97 77 78 97 77 78 97 77 78 97 77 78 97 77 78 97 77 78 97 77 78 98 78 79 99 79 80 102 82 83 105 85 86 108 88 89 112 92 93 114 94 95 115 95 97 119 98 103 117 96 103 114 93 100 109 88 95 105 84 91 100 79 86 97 76 83 95 74 81 115 94 101 115 94 101 115 94 101 115 94 101 115 94 101 115 94 101 115 94 101 118 92 101 113 79 95 116 77 95 116 77 95 116 77 95 116 77 95 116 77 95 116 77 95 116 77 95 113 74 92 113 74 92 113 74 92 113 74 92 113 74 92 113 74 92 113 74 92 112 75 92 114 78 92 101 69 82 86 54 67 68 40 52 57 29 41 50 27 37 50 29 38 49 32 40 46 33 40 50 41 46
92 83 84 96 87 88 100 91 92 103 94 95 106 96 97 101 81 90 99 78 87 93 72 81 86 65 74 79 58 67 72 51 60 67 46 55 64 43 52 63 42 51 63 42 51 63 42 51 63 42 51 63 42 51 63 42 51 63 42 51 63 42 49 55 32 38 57 35 38 62 40 43 69 47 50 75 53 56 82 60 63 87 65 68 89 67 70 105 83 86 105 83 86 105 83 86 105 83 86 105 83 86 105 83 86 105 83 86 104 83 88 80 61 67 71 54 62 61 44 52 52 35 43 49 32 40 51 34 42 57 40 48 61 44 52 50 33 41 50 33 41 50 33 41 50 33 41 50 33 41 50 33 41 50 33 41 47 34 43 43 33 42 40 34 44 40 34 44 40 34 44 40 34 44 40 34 44 40 34 44 40 34 44 35 29 39 35 29 39 35 29 39 35 29 39 35 29 39 35 29 39 35 29 39 33 30 41 38 38 50 36 38 51 36 38 51 36 38 51 36 38 51 36 38 51 36 38 51 36 38 51 39 41 54 39 41 54 39 41 54 39 41 54 39 41 54 39 41 54 39 41 54 41 40 54 44 40 54 46 40 54 46 40 54 46 40 54 46 40 54 46 40 54 46 40 54 46 40 54 65 59 73 72 66 80 83 77 91 92 86 100 95 89 103 93 87 101 87 81 95 86 75 89 79 61 75 82 60 73 82 60 73 82 60 73 82 60 73 82 60 73 82 60 73 82 60 73 70 48 61 70 48 61 70 48 61 70 48 61 70 48 61 70 48 61 70 48 61 71 47 61 80 54 67 83 55 69 85 57 71 88 60 74 92 64 78 95 67 81 97 69 83 99 71 85 104 76 90 106 78 92 108 80 94 111 83 97 115 87 101 118 90 104 120 92 106 119 96 106 106 92 92 103 93 91 103 93 91 103 93 91 103 93 91 103 93 91 103 93 91 103 93 91 101 91 89 101 91 89 101 91 89 101 91 89 101 91 89 101 91 89 101 91 89 102 91 89 96 78 78 97 77 78 97 77 78 97 77 78 97 77 78 97 77 78 97 77 78 97 77 78 97 77 78 98 78 79 100 80 81 104 84 85 107 87 88 110 90 91 113 93 94 114 94 96 117 96 101 116 95 102 113 92 99 109 88 95 105 84 91 101 80 87 98 77 84 97 76 83 115 94 101 115 94 101 115 94 101 115 94 101 115 94 101 115 94 101 115 94 101 118 92 101 113 79 95 116 77 95 116 77 95 116 77 95 116 77 95 116 77 95 116 77 95 116 77 95 115 76 94 115 76 94 115 76 94 115 76 94 115 76 94 115 76 94 115 76 94 114 77 94 114 78 92 101 69 82 86 54 67 68 40 52 57 29 41 50 27 37 50 29 38 49 32 40 46 33 40 50 41 46
91 82 83 93 84 85 96 87 88 98 89 90 100 90 91 92 72 81 91 70 79 87 66 75 81 60 69 75 54 63 69 48 57 65 44 53 62 41 50 63 42 51 63 42 51 63 42 51 63 42 51 63 42 51 63 42 51 63 42 51 63 42 49 55 32 38 57 35 38 62 40 43 69 47 50 75 53 56 82 60 63 87 65 68 89 67 70 105 83 86 105 83 86 105 83 86 105 83 86 105 83 86 105 83 86 105 83 86 104 83 88 80 61 67 71 54 62 61 44 52 52 35 43 49 32 40 51 34 42 57 40 48 61 44 52 50 33 41 50 33 41 50 33 41 50 33 41 50 33 41 50 33 41 50 33 41 47 34 43 43 33 42 40 34 44 40 34 44 40 34 44 40 34 44 40 34 44 40 34 44 40 34 44 35 29 39 35 29 39 35 29 39 35 29 39 35 29 39 35 29 39 35 29 39 33 30 41 38 38 50 36 38 51 36 38 51 36 38 51 36 38 51 36 38 51 36 38 51 36 38 51 39 41 54 39 41 54 39 41 54 39 41 54 39 41 54 39 41 54 39 41 54 41 40 54 44 40 54 46 40 54 46 40 54 46 40 54 46 40 54 46 40 54 46 40 54 46 40 54 69 63 77 75 69 83 86 80 94 95 89 103 98 92 106 96 90 104 90 84 98 89 78 92 79 58 73 81 57 71 81 57 71 81 57 71 81 57 71 81 57 71 81 57 71 81 57 71 71 47 61 71 47 61 71 47 61 71 47 61 71 47 61 71 47 61 71 47 61 73 46 61 81 53 67 83 55 69 85 57 71 88 60 74 92 64 78 95 67 81 97 69 83 99 71 85 104 76 90 106 78 92 108 80 94 111 83 97 115 87 101 118 90 104 120 92 106 119 96 106 106 92 92 103 93 91 103 93 91 103 93 91 103 93 91 103 93 91 103 93 91 103 93 91 101 91 89 101 91 89 101 91 89 101 91 89 101 91 89 101 91 89 101 91 89 102 91 89 96 78 78 97 77 78 97 77 78 97 77 78 97 77 78 97 77 78 97 77 78 97 77 78 94 74 75 96 76 77 98 78 79 101 81 82 105 85 86 108 88 89 110 90 91 112 92 94 114 93 98 113 92 99 111 90 97 108 87 94 106 85 92 103 82 89 101 80 87 100 79 86 115 94 101 115 94 101 115 94 101 115 94 101 115 94 101 115 94 101 115 94 101 118 92 101 113 79 95 116 77 95 116 77 95 116 77 95 116 77 95 116 77 95 116 77 95 116 77 95 117 78 96 117 78 96 117 78 96 117 78 96 117 78 96 117 78 96 117 78 96 116 79 96 114 78 92 101 69 82 86 54 67 68 40 52 57 29 41 50 27 37 50 29 38 49 32 40 46 33 40 50 41 46
88 79 80 89 80 81 90 81 82 91 82 83 92 82 83 81 61 70 81 60 69 78 57 66 74 53 62 69 48 57 65 44 53 62 41 50 60 39 48 63 42 51 63 42 51 63 42 51 63 42 51 63 42 51 63 42 51 63 42 51 63 42 49 55 32 38 57 35 38 62 40 43 69 47 50 75 53 56 82 60 63 87 65 68 89 67 70 105 83 86 105 83 86 105 83 86 105 83 86 105 83 86 105 83 86 105 83 86 104 83 88 80 61 67 71 54 62 61 44 52 52 35 43 49 32 40 51 34 42 57 40 48 61 44 52 50 33 41 50 33 41 50 33 41 50 33 41 50 33 41 50 33 41 50 33 41 47 34 43 43 33 42 40 34 44 40 34 44 40 34 44 40 34 44 40 34 44 40 34 44 40 34 44 35 29 39 35 29 39 35 29 39 35 29 39 35 29 39 35 29 39 35 29 39 33 30 41 38 38 50 36 38 51 36 38 51 36 38 51 36 38 51 36 38 51 36 38 51 36 38 51 39 41 54 39 41 54 39 41 54 39 41 54 39 41 54 39 41 54 39 41 54 41 40 54 44 40 54 46 40 54 46 40 54 46 40 54 46 40 54 46 40 54 46 40 54 46 40 54 68 62 76 75 69 83 85 79 93 94 88 102 97 91 105 95 89 103 89 83 97 89 77 91 77 54 70 80 53 68 81 53 68 80 53 68 81 53 68 80 53 68 81 53 68 80 53 68 74 46 61 73 46 61 74 46 61 73 46 61 74 46 61 73 46 61 74 46 61 74 46 61 81 53 67 83 55 69 85 57 71 88 60 74 92 64 78 95 67 81 97 69 83 99 71 85 104 76 90 106 78 92 108 80 94 111 83 97 115 87 101 118 90 104 120 92 106 119 96 106 106 92 92 103 93 91 103 93 91 103 93 91 103 93 91 103 93 91 103 93 91 103 93 91 101 91 89 101 91 89 101 91 89 101 91 89 101 91 89 101 91 89 101 91 89 102 91 89 96 78 78 97 77 78 97 77 78 97 77 78 97 77 78 97 77 78 97 77 78 97 77 78 91 71 72 92 72 73 95 75 76 98 78 79 101 81 82 105 85 86 107 87 88 108 88 90 109 88 93 109 88 95 108 87 94 107 86 93 107 86 93 106 85 92 105 84 91 105 84 91 115 94 101 115 94 101 115 94 101 115 94 101 115 94 101 115 94 101 115 94 101 118 92 101 113 79 95 116 77 95 116 77 95 116 77 95 116 77 95 116 77 95 116 77 95 116 77 95 120 81 99 120 81 99 120 81 99 120 81 99 120 81 99 120 81 99 120 81 99 119 82 99 114 78 92 101 69 82 86 54 67 68 40 52 57 29 41 50 27 37 50 29 38 49 32 40 46 33 40 50 41 46
86 77 78 85 76 77 84 75 76 83 74 75 84 74 75 70 50 59 70 49 58 68 47 56 66 45 54 63 42 51 61 40 49 59 38 47 58 37 46 63 42 51 63 42 51 63 42 51 63 42 51 63 42 51 63 42 51 63 42 51 63 42 49 55 32 38 57 35 38 62 40 43 69 47 50 75 53 56 82 60 63 87 65 68 89 67 70 105 83 86 105 83 86 105 83 86 105 83 86 105 83 86 105 83 86 105 83 86 104 83 88 80 61 67 71 54 62 61 44 52 52 35 43 49 32 40 51 34 42 57 40 48 61 44 52 50 33 41 50 33 41 50 33 41 50 33 41 50 33 41 50 33 41 50 33 41 47 34 43 43 33 42 40 34 44 40 34 44 40 34 44 40 34 44 40 34 44 40 34 44 40 34 44 35 29 39 35 29 39 35 29 39 35 29 39 35 29 39 35 29 39 35 29 39 33 30 41 38 38 50 36 38 51 36 38 51 36 38 51 36 38 51 36 38 51 36 38 51 36 38 51 39 41 54 39 41 54 39 41 54 39 41 54 39 41 54 39 41 54 39 41 54 41 40 54 44 40 54 46 40 54 46 40 54 46 40 54 46 40 54 46 40 54 46 40 54 46 40 54 61 55 69 68 62 76 78 72 86 87 81 95 91 85 99 88 82 96 83 77 91 82 70 84 74 50 66 77 49 64 79 48 64 77 49 64 79 48 64 77 49 64 79 48 64 77 49 64 76 45 61 74 46 61 76 45 61 74 46 61 76 45 61 74 46 61 76 45 61 74 46 61 81 53 67 83 55 69 85 57 71 88 60 74 92 64 78 95 67 81 97 69 83 99 71 85 104 76 90 106 78 92 108 80 94 111 83 97 115 87 101 118 90 104 120 92 106 119 96 106 106 92 92 103 93 91 103 93 91 103 93 91 103 93 91 103 93 91 103 93 91 103 93 91 101 91 89 101 91 89 101 91 89 101 91 89 101 91 89 101 91 89 101 91 89 102 91 89 96 78 78 97 77 78 97 77 78 97 77 78 97 77 78 97 77 78 97 77 78 97 77 78 88 68 69 89 69 70 91 71 72 95 75 76 98 78 79 101 81 82 104 84 85 105 85 87 105 84 89 105 84 91 106 85 92 107 86 93 107 86 93 108 87 94 109 88 95 109 88 95 115 94 101 115 94 101 115 94 101 115 94 101 115 94 101 115 94 101 115 94 101 118 92 101 113 79 95 116 77 95 116 77 95 116 77 95 116 77 95 116 77 95 116 77 95 116 77 95 124 85 103 124 85 103 124 85 103 124 85 103 124 85 103 124 85 103 124 85 103 123 86 103 114 78 92 101 69 82 86 54 67 68 40 52 57 29 41 50 27 37 50 29 38 49 32 40 46 33 40 50 41 46
83 74 75 81 72 73 78 69 70 76 67 68 76 66 67 59 39 48 60 39 48 59 38 47 59 38 47 58 37 46 57 36 45 57 36 45 56 35 44 63 42 51 63 42 51 63 42 51 63 42 51 63 42 51 63 42 51 63 42 51 63 42 49 55 32 38 57 35 38 62 40 43 69 47 50 75 53 56 82 60 63 87 65 68 89 67 70 105 83 86 105 83 86 105 83 86 105 83 86 105 83 86 105 83 86 105 83 86 104 83 88 80 61 67 71 54 62 61 44 52 52 35 43 49 32 40 51 34 42 57 40 48 61 44 52 50 33 41 50 33 41 50 33 41 50 33 41 50 33 41 50 33 41 50 33 41 47 34 43 43 33 42 40 34 44 40 34 44 40 34 44 40 34 44 40 34 44 40 34 44 40 34 44 35 29 39 35 29 39 35 29 39 35 29 39 35 29 39 35 29 39 35 29 39 33 30 41 38 38 50 36 38 51 36 38 51 36 38 51 36 38 51 36 38 51 36 38 51 36 38 51 39 41 54 39 41 54 39 41 54 39 41 54 39 41 54 39 41 54 39 41 54 41 40 54 44 40 54 46 40 54 46 40 54 46 40 54 46 40 54 46 40 54 46 40 54 46 40 54 49 43 57 56 50 64 66 60 74 75 69 83 79 73 87 76 70 84 71 65 79 70 58 72 71 47 63 76 45 61 77 44 61 76 45 61 77 44 61 76 45 61 77 44 61 76 45 61 77 44 61 76 45 61 77 44 61 76 45 61 77 44 61 76 45 61 77 44 61 76 45 61 81 53 67 83 55 69 85 57 71 88 60 74 92 64 78 95 67 81 97 69 83 99 71 85 104 76 90 106 78 92 108 80 94 111 83 97 115 87 101 118 90 104 120 92 106 119 96 106 106 92 92 103 93 91 103 93 91 103 93 91 103 93 91 103 93 91 103 93 91 103 93 91 101 91 89 101 91 89 101 91 89 101 91 89 101 91 89 101 91 89 101 91 89 102 91 89 96 78 78 97 77 78 97 77 78 97 77 78 97 77 78 97 77 78 97 77 78 97 77 78 84 64 65 86 66 67 88 68 69 91 71 72 95 75 76 98 78 79 100 80 81 102 82 84 100 79 84 101 80 87 103 82 89 106 85 92 108 87 94 111 90 97 113 92 99 114 93 100 115 94 101 115 94 101 115 94 101 115 94 101 115 94 101 115 94 101 115 94 101 118 92 101 113 79 95 116 77 95 116 77 95 116 77 95 116 77 95 116 77 95 116 77 95 116 77 95 127 88 106 127 88 106 127 88 106 127 88 106 127 88 106 127 88 106 127 88 106 126 89 106 114 78 92 101 69 82 86 54 67 68 40 52 57 29 41 50 27 37 50 29 38 49 32 40 46 33 40 50 41 46
82 73 74 78 69 70 74 65 66 71 62 63 70 60 61 51 31 40 52 31 40 52 31 40 53 32 41 54 33 42 54 33 42 55 34 43 55 34 43 63 42 51 63 42 51 63 42 51 63 42 51 63 42 51 63 42 51 63 42 51 63 42 49 55 32 38 57 35 38 62 40 43 69 47 50 75 53 56 82 60 63 87 65 68 89 67 70 105 83 86 105 83 86 105 83 86 105 83 86 105 83 86 105 83 86 105 83 86 104 83 88 80 61 67 71 54 62 61 44 52 52 35 43 49 32 40 51 34 42 57 40 48 61 44 52 50 33 41 50 33 41 50 33 41 50 33 41 50 33 41 50 33 41 50 33 41 47 34 43 43 33 42 40 34 44 40 34 44 40 34 44 40 34 44 40 34 44 40 34 44 40 34 44 35 29 39 35 29 39 35 29 39 35 29 39 35 29 39 35 29 39 35 29 39 33 30 41 38 38 50 36 38 51 36 38 51 36 38 51 36 38 51 36 38 51 36 38 51 36 38 51 39 41 54 39 41 54 39 41 54 39 41 54 39 41 54 39 41 54 39 41 54 41 40 54 44 40 54 46 40 54 46 40 54 46 40 54 46 40 54 46 40 54 46 40 54 46 40 54 36 30 44 43 37 51 53 47 61 62 56 70 66 60 74 63 57 71 58 52 66 57 45 59 71 44 61 75 42 59 76 42 59 75 42 59 76 42 59 75 42 59 76 42 59 75 42 59 78 44 61 77 44 61 78 44 61 77 44 61 78 44 61 77 44 61 78 44 61 77 44 61 83 52 67 83 55 69 85 57 71 88 60 74 92 64 78 95 67 81 97 69 83 99 71 85 104 76 90 106 78 92 108 80 94 111 83 97 115 87 101 118 90 104 120 92 106 119 96 106 106 92 92 103 93 91 103 93 91 103 93 91 103 93 91 103 93 91 103 93 91 103 93 91 101 91 89 101 91 89 101 91 89 101 91 89 101 91 89 101 91 89 101 91 89 102 91 89 96 78 78 97 77 78 97 77 78 97 77 78 97 77 78 97 77 78 97 77 78 97 77 78 82 62 63 83 63 64 86 66 67 89 69 70 92 72 73 96 76 77 98 78 79 99 79 81 97 76 81 98 77 84 101 80 87 105 84 91 109 88 95 113 92 99 116 95 102 117 96 103 115 94 101 115 94 101 115 94 101 115 94 101 115 94 101 115 94 101 115 94 101 118 92 101 113 79 95 116 77 95 116 77 95 116 77 95 116 77 95 116 77 95 116 77 95 116 77 95 129 90 108 129 90 108 129 90 108 129 90 108 129 90 108 129 90 108 129 90 108 128 91 108 114 78 92 101 69 82 86 54 67 68 40 52 57 29 41 50 27 37 50 29 38 49 32 40 46 33 40 50 41 46
81 72 73 76 67 70 72 63 64 68 59 62 67 56 60 43 28 35 45 28 38 46 29 39 47 30 40 48 31 41 50 33 43 50 33 43 51 34 44 60 43 53 60 43 53 60 43 53 60 43 53 60 43 53 60 43 53 60 43 53 62 42 51 53 34 40 56 35 40 61 40 45 68 47 52 74 53 58 81 60 65 86 65 70 88 67 72 104 83 88 104 83 88 104 83 88 104 83 88 104 83 88 104 83 88 104 83 88 104 83 88 80 61 67 73 54 60 63 44 50 54 35 41 51 32 38 53 34 40 59 40 46 63 44 50 52 33 39 52 33 39 52 33 39 52 33 39 52 33 39 52 33 39 52 33 39 49 34 41 43 33 44 40 34 46 40 34 46 40 34 46 40 34 46 40 34 46 40 34 46 40 34 46 35 29 41 35 29 41 35 29 41 35 29 41 35 29 41 35 29 41 35 29 41 33 30 41 38 38 50 36 38 51 36 38 51 36 38 51 36 38 51 36 38 51 36 38 51 36 38 51 39 41 54 39 41 54 39 41 54 39 41 54 39 41 54 39 41 54 39 41 54 41 41 53 46 40 54 47 39 52 47 39 54 47 39 52 47 39 54 47 39 52 47 39 54 47 39 52 29 21 36 36 28 41 46 38 53 55 47 60 58 50 65 56 48 61 50 42 57 50 36 51 69 42 57 73 40 57 74 40 57 73 40 57 74 40 57 73 40 57 74 40 57 73 40 57 78 44 61 77 44 61 78 44 61 77 44 61 78 44 61 77 44 61 78 44 61 77 44 61 83 52 68 83 55 69 87 56 72 88 60 74 94 63 79 95 67 81 99 68 84 99 71 85 106 75 91 106 78 92 110 79 95 111 83 97 117 86 102 118 90 104 122 91 107 119 96 106 106 92 92 103 93 91 103 93 91 103 93 91 103 93 91 103 93 91 103 93 91 103 93 91 101 91 89 101 91 89 101 91 89 101 91 89 101 91 89 101 91 89 101 91 89 102 91 89 96 78 78 97 77 78 97 77 78 97 77 78 97 77 78 97 77 78 97 77 78 97 77 78 81 61 62 82 62 63 84 64 65 88 68 69 91 71 72 94 74 75 97 77 78 98 78 80 96 73 79 98 75 83 101 78 86 106 83 91 110 87 95 115 92 100 118 95 103 120 97 105 116 93 101 116 93 101 116 93 101 116 93 101 116 93 101 116 93 101 116 93 101 119 92 101 115 79 93 116 77 95 118 77 95 116 77 95 118 77 95 116 77 95 118 77 95 116 77 95 133 92 110 131 92 110 133 92 110 131 92 110 133 92 110 131 92 110 133 92 110 130 93 110 110 80 92 97 71 82 80 57 67 65 42 52 53 32 41 48 28 37 47 30 38 46 33 40 45 34 40 50 41 46
59 48 52 55 44 50 52 41 45 50 39 45 48 37 43 45 33 43 45 33 43 45 33 43 45 33 43 45 33 43 45 33 43 45 33 43 45 33 43 46 34 44 46 34 44 46 34 44 46 34 44 46 34 44 46 34 44 46 34 44 46 34 44 47 31 41 49 34 41 54 39 46 61 46 53 67 52 59 74 59 66 79 64 71 81 66 73 105 90 97 104 89 96 102 87 94 98 83 90 95 80 87 92 77 84 89 74 81 89 72 78 68 48 50 67 45 47 65 43 45 62 40 42 58 36 38 55 33 35 53 31 33 51 29 31 54 32 34 54 32 34 54 32 34 54 32 34 54 32 34 54 32 34 54 32 34 52 33 37 50 40 51 47 41 55 47 41 55 47 41 55 47 41 55 47 41 55 47 41 55 47 41 55 40 34 48 40 34 48 40 34 48 40 34 48 40 34 48 40 34 48 40 34 48 38 34 48 39 37 50 38 38 50 38 38 50 38 38 50 38 38 50 38 38 50 38 38 50 38 38 50 40 40 52 40 40 52 40 40 52 40 40 52 40 40 52 40 40 52 40 40 52 41 39 52 44 36 49 47 35 47 47 35 49 47 35 47 47 35 49 47 35 47 47 35 49 47 35 47 48 36 50 48 36 48 48 36 50 48 36 48 48 36 50 48 36 48 48 36 50 51 35 48 63 36 51 66 35 50 67 35 50 66 35 50 67 35 50 66 35 50 67 35 50 66 35 50 61 29 44 61 30 45 64 32 47 67 36 51 71 39 54 73 42 57 77 45 60 77 46 62 91 58 75 91 60 76 96 63 82 99 68 84 105 72 91 108 77 93 113 80 99 114 83 99 118 85 104 117 86 102 118 85 104 117 86 102 118 85 104 117 86 102 118 85 104 114 88 101 102 88 88 98 91 85 98 91 85 98 91 85 98 91 85 98 91 85 98 91 85 98 91 85 99 92 86 100 93 87 102 95 89 106 99 93 109 102 96 112 105 99 115 108 102 118 107 105 115 97 97 114 94 96 111 91 93 106 86 88 102 82 84 97 77 79 94 74 76 92 72 74 91 71 73 91 71 73 91 71 73 91 71 73 91 71 73 91 71 73 91 71 73 92 70 73 102 77 83 105 78 85 107 80 87 110 83 90 114 87 94 117 90 97 119 92 99 121 94 101 119 92 99 117 90 97 115 88 95 112 85 92 108 81 88 105 78 85 103 76 83 104 72 83 110 72 87 112 71 89 113 70 89 112 71 89 113 70 89 112 71 89 113 70 89 112 71 89 123 80 99 122 81 99 123 80 99 122 81 99 123 80 99 122 81 99 123 80 99 117 83 99 77 57 68 64 53 61 54 43 51 45 34 42 42 31 39 43 33 41 49 39 47 51 44 51 49 42 49 53 46 53
59 48 54 55 44 50 52 41 47 50 39 45 47 37 45 44 34 43 42 34 45 42 34 45 42 34 45 42 34 45 42 34 45 42 34 45 42 34 45 43 35 46 43 35 46 43 35 46 43 35 46 43 35 46 43 35 46 43 35 46 45 35 44 44 32 42 47 34 43 52 39 48 59 46 55 65 52 61 72 59 68 77 64 73 79 66 75 102 89 98 101 88 97 98 85 94 95 82 91 92 79 88 88 75 84 86 73 82 87 72 79 68 48 50 67 46 45 67 42 45 62 41 40 60 35 38 55 34 33 55 30 33 51 30 29 56 31 34 54 33 32 56 31 34 54 33 32 56 31 34 54 33 32 56 31 34 52 33 37 50 40 51 47 40 56 47 40 56 47 40 56 47 40 56 47 40 56 47 40 56 47 40 56 40 33 49 40 33 49 40 33 49 40 33 49 40 33 49 40 33 49 40 33 49 38 34 49 39 37 50 38 38 50 39 37 50 38 38 50 39 37 50 38 38 50 39 37 50 38 38 50 41 39 52 40 40 52 41 39 52 40 40 52 41 39 52 40 40 52 41 39 52 42 39 50 46 35 49 48 34 47 48 34 47 48 34 47 48 34 47 48 34 47 48 34 47 48 34 47 49 35 48 49 35 48 49 35 48 49 35 48 49 35 48 49 35 48 49 35 48 52 34 46 63 36 51 66 35 50 66 35 50 66 35 50 66 35 50 66 35 50 66 35 50 66 35 50 61 30 45 62 31 46 65 34 49 68 37 52 71 40 55 75 44 59 77 46 61 78 47 62 90 59 77 92 61 79 96 63 82 98 67 85 103 70 89 106 75 93 110 77 96 111 80 98 114 81 100 113 82 100 114 81 100 113 82 100 114 81 100 113 82 100 114 81 100 110 84 97 100 86 86 96 89 83 96 88 85 96 89 83 96 88 85 96 89 83 96 88 85 96 89 83 96 88 85 97 90 84 100 92 89 103 96 90 106 98 95 110 103 97 112 104 101 114 104 102 113 94 96 113 93 95 110 90 92 106 86 88 102 82 84 98 78 80 95 75 77 94 74 76 93 73 75 93 73 75 93 73 75 93 73 75 93 73 75 93 73 75 93 73 75 94 72 75 103 76 83 107 77 85 109 79 87 112 82 90 116 86 94 119 89 97 121 91 99 123 93 101 121 91 99 119 89 97 117 87 95 114 84 92 110 80 88 107 77 85 105 75 83 104 72 83 112 71 87 113 70 89 113 70 89 113 70 89 113 70 89 113 70 89 113 70 89 113 70 89 123 80 99 123 80 99 123 80 99 123 80 99 123 80 99 123 80 99 123 80 99 116 84 99 74 58 68 60 55 61 50 45 51 41 36 42 38 33 39 40 35 41 46 41 47 50 45 51 48 43 49 52 47 53
59 48 54 55 44 50 52 41 47 50 39 45 47 37 45 44 34 43 42 34 45 42 34 45 42 34 45 42 34 45 42 34 45 42 34 45 42 34 45 43 35 46 43 35 46 43 35 46 43 35 46 43 35 46 43 35 46 43 35 46 45 35 44 44 32 42 47 34 43 52 39 48 59 46 55 65 52 61 72 59 68 77 64 73 79 66 75 100 87 96 98 85 94 96 83 92 93 80 89 89 76 85 86 73 82 84 71 80 84 69 76 67 48 52 66 46 47 65 43 46 61 41 42 58 36 39 54 34 35 53 31 34 50 30 31 54 32 35 53 33 34 54 32 35 53 33 34 54 32 35 53 33 34 54 32 35 50 33 39 50 39 53 47 40 56 47 40 56 47 40 56 47 40 56 47 40 56 47 40 56 47 40 56 40 33 49 40 33 49 40 33 49 40 33 49 40 33 49 40 33 49 40 33 49 40 33 49 40 36 50 39 37 50 40 36 50 39 37 50 40 36 50 39 37 50 40 36 50 39 37 50 42 38 52 41 39 52 42 38 52 41 39 52 42 38 52 41 39 52 42 38 52 44 38 50 47 35 49 48 34 47 48 34 47 48 34 47 48 34 47 48 34 47 48 34 47 48 34 47 49 35 48 49 35 48 49 35 48 49 35 48 49 35 48 49 35 48 49 35 48 52 34 46 63 36 51 66 35 50 66 35 50 66 35 50 66 35 50 66 35 50 66 35 50 66 35 50 63 32 47 65 34 49 67 36 51 70 39 54 74 43 58 77 46 61 79 48 63 81 50 65 91 60 78 90 61 79 94 63 81 95 66 84 99 68 86 100 71 89 104 73 91 103 74 92 106 75 93 104 75 93 106 75 93 104 75 93 106 75 93 104 75 93 106 75 93 101 77 90 93 81 83 91 83 80 91 83 81 91 83 80 91 83 81 91 83 80 91 83 81 91 83 80 91 83 81 92 84 81 95 87 85 98 90 87 102 94 92 105 97 94 107 99 97 109 99 98 110 91 93 110 90 92 108 88 90 105 85 87 103 83 85 100 80 82 98 78 80 97 77 79 95 75 77 95 75 77 95 75 77 95 75 77 95 75 77 95 75 77 95 75 77 96 74 77 103 76 83 107 77 85 109 79 87 112 82 90 116 86 94 119 89 97 121 91 99 123 93 101 121 91 99 119 89 97 117 87 95 114 84 92 110 80 88 107 77 85 105 75 83 104 72 83 112 71 87 113 70 89 113 70 89 113 70 89 113 70 89 113 70 89 113 70 89 113 70 89 123 80 99 123 80 99 123 80 99 123 80 99 123 80 99 123 80 99 123 80 99 116 84 99 74 58 68 60 55 61 50 45 51 41 36 42 38 33 39 40 35 41 46 41 47 50 45 51 48 43 49 52 47 53
59 48 54 55 44 50 52 41 47 50 39 45 47 37 45 44 34 43 42 34 45 42 34 45 42 34 45 42 34 45 42 34 45 42 34 45 42 34 45 43 35 46 43 35 46 43 35 46 43 35 46 43 35 46 43 35 46 43 35 46 45 35 44 44 32 42 47 34 43 52 39 48 59 46 55 65 52 61 72 59 68 77 64 73 79 66 75 96 83 92 95 82 91 93 80 89 89 76 85 86 73 82 83 70 79 80 67 76 81 66 73 67 48 52 65 46 48 64 43 48 60 41 43 57 36 41 53 34 36 52 31 36 49 30 32 53 32 37 52 33 35 53 32 37 52 33 35 53 32 37 52 33 35 53 32 37 50 33 41 50 39 53 47 40 56 47 40 56 47 40 56 47 40 56 47 40 56 47 40 56 47 40 56 40 33 49 40 33 49 40 33 49 40 33 49 40 33 49 40 33 49 40 33 49 40 33 49 42 36 50 40 36 50 42 36 50 40 36 50 42 36 50 40 36 50 42 36 50 40 36 50 44 38 52 42 38 52 44 38 52 42 38 52 44 38 52 42 38 52 44 38 52 45 37 50 47 35 49 48 34 47 48 34 47 48 34 47 48 34 47 48 34 47 48 34 47 48 34 47 49 35 48 49 35 48 49 35 48 49 35 48 49 35 48 49 35 48 49 35 48 52 34 46 63 36 51 66 35 50 66 35 50 66 35 50 66 35 50 66 35 50 66 35 50 66 35 50 67 36 51 68 37 52 70 39 54 74 43 58 77 46 61 80 49 64 83 52 67 84 53 68 90 61 79 90 63 80 91 62 80 91 64 81 93 64 82 93 66 83 95 66 84 94 67 84 94 65 83 93 66 83 94 65 83 93 66 83 94 65 83 93 66 83 94 65 83 90 68 81 86 74 78 84 76 74 84 75 76 84 76 74 84 75 76 84 76 74 84 75 76 84 76 74 85 76 77 86 78 76 89 80 81 92 84 82 95 86 87 98 90 88 101 92 93 103 93 92 105 86 88 106 86 88 105 85 87 104 84 86 104 84 86 103 83 85 102 82 84 102 82 84 98 78 80 98 78 80 98 78 80 98 78 80 98 78 80 98 78 80 98 78 80 99 77 80 103 76 83 107 77 85 109 79 87 112 82 90 116 86 94 119 89 97 121 91 99 123 93 101 121 91 99 119 89 97 117 87 95 114 84 92 110 80 88 107 77 85 105 75 83 104 72 83 112 71 87 113 70 89 113 70 89 113 70 89 113 70 89 113 70 89 113 70 89 113 70 89 123 80 99 123 80 99 123 80 99 123 80 99 123 80 99 123 80 99 123 80 99 116 84 99 74 58 68 60 55 61 50 45 51 41 36 42 38 33 39 40 35 41 46 41 47 50 45 51 48 43 49 52 47 53
59 48 54 55 44 50 52 41 47 50 39 45 47 37 45 44 34 43 42 34 45 42 34 45 42 34 45 42 34 45 42 34 45 42 34 45 42 34 45 43 35 46 43 35 46 43 35 46 43 35 46 43 35 46 43 35 46 43 35 46 45 35 44 44 32 42 47 34 43 52 39 48 59 46 55 65 52 61 72 59 68 77 64 73 79 66 75 93 80 89 92 79 88 89 76 85 86 73 82 83 70 79 79 66 75 77 64 73 78 63 70 65 48 54 63 47 50 63 44 50 58 42 45 56 37 43 51 35 38 51 32 38 47 31 34 52 33 39 50 34 37 52 33 39 50 34 37 52 33 39 50 34 37 52 33 39 49 34 41 50 39 53 47 40 56 47 40 56 47 40 56 47 40 56 47 40 56 47 40 56 47 40 56 40 33 49 40 33 49 40 33 49 40 33 49 40 33 49 40 33 49 40 33 49 40 33 49 42 36 50 42 36 50 43 35 50 42 36 50 43 35 50 42 36 50 43 35 50 42 36 50 45 37 52 44 38 52 45 37 52 44 38 52 45 37 52 44 38 52 45 37 52 45 37 50 47 35 49 48 34 47 48 34 47 48 34 47 48 34 47 48 34 47 48 34 47 48 34 47 49 35 48 49 35 48 49 35 48 49 35 48 49 35 48 49 35 48 49 35 48 52 34 46 63 36 51 66 35 50 66 35 50 66 35 50 66 35 50 66 35 50 66 35 50 66 35 50 70 39 54 71 40 55 74 43 58 77 46 61 80 49 64 84 53 68 86 55 70 85 57 71 91 64 81 88 64 80 90 63 80 87 63 79 88 61 78 85 61 77 86 59 76 84 60 76 83 56 73 81 57 73 83 56 73 81 57 73 83 56 73 81 57 73 83 56 73 80 58 71 80 67 74 78 69 70 78 69 72 78 69 70 78 69 72 78 69 70 78 69 72 78 69 70 78 69 72 79 70 71 82 73 76 85 76 77 88 79 82 91 82 83 94 85 88 96 86 87 101 82 84 102 82 84 103 83 85 104 84 86 104 84 86 105 85 87 106 86 88 106 86 88 102 82 84 102 82 84 102 82 84 102 82 84 102 82 84 102 82 84 102 82 84 103 81 84 103 76 83 107 77 85 109 79 87 112 82 90 116 86 94 119 89 97 121 91 99 123 93 101 121 91 99 119 89 97 117 87 95 114 84 92 110 80 88 107 77 85 105 75 83 104 72 83 112 71 87 113 70 89 113 70 89 113 70 89 113 70 89 113 70 89 113 70 89 113 70 89 123 80 99 123 80 99 123 80 99 123 80 99 123 80 99 123 80 99 123 80 99 116 84 99 74 58 68 60 55 61 50 45 51 41 36 42 38 33 39 40 35 41 46 41 47 50 45 51 48 43 49 52 47 53
59 48 54 55 44 50 52 41 47 50 39 45 47 37 45 44 34 43 42 34 45 42 34 45 42 34 45 42 34 45 42 34 45 42 34 45 42 34 45 43 35 46 43 35 46 43 35 46 43 35 46 43 35 46 43 35 46 43 35 46 45 35 44 44 32 42 47 34 43 52 39 48 59 46 55 65 52 61 72 59 68 77 64 73 79 66 75 90 77 86 88 75 84 86 73 82 83 70 79 79 66 75 76 63 72 74 61 70 72 59 68 64 49 56 62 47 54 60 45 52 57 42 49 53 38 45 50 35 42 48 33 40 46 31 38 49 34 41 49 34 41 49 34 41 49 34 41 49 34 41 49 34 41 49 34 41 47 34 43 48 40 53 47 40 56 47 40 56 47 40 56 47 40 56 47 40 56 47 40 56 47 40 56 40 33 49 40 33 49 40 33 49 40 33 49 40 33 49 40 33 49 40 33 49 40 33 49 43 35 50 45 34 50 45 34 50 45 34 50 45 34 50 45 34 50 45 34 50 45 34 50 47 36 52 47 36 52 47 36 52 47 36 52 47 36 52 47 36 52 47 36 52 47 36 50 47 35 49 48 34 47 48 34 47 48 34 47 48 34 47 48 34 47 48 34 47 48 34 47 49 35 48 49 35 48 49 35 48 49 35 48 49 35 48 49 35 48 49 35 48 52 34 46 63 36 51 66 35 50 66 35 50 66 35 50 66 35 50 66 35 50 66 35 50 66 35 50 73 42 57 75 44 59 77 46 61 80 49 64 84 53 68 87 56 71 89 58 73 89 61 75 90 66 82 88 65 81 86 63 79 83 60 76 81 58 74 78 55 71 76 53 69 75 52 68 70 47 63 70 47 63 70 47 63 70 47 63 70 47 63 70 47 63 70 47 63 69 49 61 73 60 69 71 62 67 71 62 67 71 62 67 71 62 67 71 62 67 71 62 67 71 62 67 72 63 68 73 64 69 75 66 71 78 69 74 82 73 78 85 76 81 88 79 84 90 79 83 96 77 81 98 78 80 100 80 82 103 83 85 105 85 87 108 88 90 110 90 92 111 91 93 105 85 87 105 85 87 105 85 87 105 85 87 105 85 87 105 85 87 105 85 87 106 84 87 103 76 83 107 77 85 109 79 87 112 82 90 116 86 94 119 89 97 121 91 99 123 93 101 121 91 99 119 89 97 117 87 95 114 84 92 110 80 88 107 77 85 105 75 83 104 72 83 112 71 87 113 70 89 113 70 89 113 70 89 113 70 89 113 70 89 113 70 89 113 70 89 123 80 99 123 80 99 123 80 99 123 80 99 123 80 99 123 80 99 123 80 99 116 84 99 74 58 68 60 55 61 50 45 51 41 36 42 38 33 39 40 35 41 46 41 47 50 45 51 48 43 49 52 47 53
59 48 54 55 44 50 52 41 47 50 39 45 47 37 45 44 34 43 42 34 45 42 34 45 42 34 45 42 34 45 42 34 45 42 34 45 42 34 45 43 35 46 43 35 46 43 35 46 43 35 46 43 35 46 43 35 46 43 35 46 45 35 44 44 32 42 47 34 43 52 39 48 59 46 55 65 52 61 72 59 68 77 64 73 79 66 75 87 74 83 86 73 82 84 71 80 80 67 76 77 64 73 74 61 70 71 58 67 70 57 66 62 49 58 60 47 56 58 45 54 55 42 51 51 38 47 48 35 44 46 33 42 44 31 40 47 34 43 47 34 43 47 34 43 47 34 43 47 34 43 47 34 43 47 34 43 46 34 44 48 40 55 47 40 56 47 40 56 47 40 56 47 40 56 47 40 56 47 40 56 47 40 56 40 33 49 40 33 49 40 33 49 40 33 49 40 33 49 40 33 49 40 33 49 41 32 49 45 34 50 46 33 50 46 33 50 46 33 50 46 33 50 46 33 50 46 33 50 46 33 50 48 35 52 48 35 52 48 35 52 48 35 52 48 35 52 48 35 52 48 35 52 48 36 50 48 34 49 48 34 47 48 34 47 48 34 47 48 34 47 48 34 47 48 34 47 48 34 47 49 35 48 49 35 48 49 35 48 49 35 48 49 35 48 49 35 48 49 35 48 52 34 46 63 36 51 66 35 50 66 35 50 66 35 50 66 35 50 66 35 50 66 35 50 66 35 50 76 45 60 77 46 61 79 48 63 83 52 67 86 55 70 89 58 73 92 61 76 91 63 77 90 67 83 87 66 81 84 63 78 81 60 75 77 56 71 73 52 67 70 49 64 68 47 62 62 41 56 62 41 56 62 41 56 62 41 56 62 41 56 62 41 56 62 41 56 60 42 56 67 55 65 66 56 64 66 56 64 66 56 64 66 56 64 66 56 64 66 56 64 66 56 64 67 57 65 68 58 66 70 60 68 74 64 72 77 67 75 80 70 78 83 73 81 85 74 80 93 74 78 95 75 77 98 78 80 102 82 84 106 86 88 110 90 92 113 93 95 114 94 96 107 87 89 107 87 89 107 87 89 107 87 89 107 87 89 107 87 89 107 87 89 108 86 89 103 76 83 107 77 85 109 79 87 112 82 90 116 86 94 119 89 97 121 91 99 123 93 101 121 91 99 119 89 97 117 87 95 114 84 92 110 80 88 107 77 85 105 75 83 104 72 83 112 71 87 113 70 89 113 70 89 113 70 89 113 70 89 113 70 89 113 70 89 113 70 89 123 80 99 123 80 99 123 80 99 123 80 99 123 80 99 123 80 99 123 80 99 116 84 99 74 58 68 60 55 61 50 45 51 41 36 42 38 33 39 40 35 41 46 41 47 50 45 51 48 43 49 52 47 53
59 48 54 55 44 50 52 41 47 50 39 45 47 37 45 44 34 43 42 34 45 42 34 45 42 34 45 42 34 45 42 34 45 42 34 45 42 34 45 43 35 46 43 35 46 43 35 46 43 35 46 43 35 46 43 35 46 43 35 46 45 35 44 44 32 42 47 34 43 52 39 48 59 46 55 65 52 61 72 59 68 77 64 73 79 66 75 86 73 82 85 72 81 82 69 78 79 66 75 76 63 72 72 59 68 70 57 66 68 57 65 61 49 61 58 48 59 56 46 57 53 43 54 49 39 50 46 36 47 44 34 45 42 32 43 45 35 46 45 35 46 45 35 46 45 35 46 45 35 46 45 35 46 45 35 46 43 35 48 48 40 55 47 40 56 47 40 56 47 40 56 47 40 56 47 40 56 47 40 56 47 40 56 40 33 49 40 33 49 40 33 49 40 33 49 40 33 49 40 33 49 40 33 49 41 32 49 47 33 50 49 32 50 49 32 50 49 32 50 49 32 50 49 32 50 49 32 50 49 32 50 51 34 52 51 34 52 51 34 52 51 34 52 51 34 52 51 34 52 51 34 52 51 34 50 48 34 49 48 34 47 48 34 47 48 34 47 48 34 47 48 34 47 48 34 47 48 34 47 49 35 48 49 35 48 49 35 48 49 35 48 49 35 48 49 35 48 49 35 48 52 34 46 63 36 51 66 35 50 66 35 50 66 35 50 66 35 50 66 35 50 66 35 50 66 35 50 77 46 61 78 47 62 81 50 65 84 53 68 87 56 71 91 60 75 93 62 77 91 65 78 89 68 83 85 69 82 81 65 78 77 61 74 72 56 69 68 52 65 64 48 61 62 46 59 55 39 52 55 39 52 55 39 52 55 39 52 55 39 52 55 39 52 55 39 52 53 39 52 65 53 65 64 54 65 64 54 65 64 54 65 64 54 65 64 54 65 64 54 65 64 54 65 64 54 65 65 55 66 68 58 69 71 61 72 74 64 75 78 68 79 80 70 81 82 71 79 91 72 78 94 74 76 97 77 79 102 82 84 106 86 88 111 91 93 114 94 96 116 96 98 109 89 91 109 89 91 109 89 91 109 89 91 109 89 91 109 89 91 109 89 91 110 88 91 103 76 83 107 77 85 109 79 87 112 82 90 116 86 94 119 89 97 121 91 99 123 93 101 121 91 99 119 89 97 117 87 95 114 84 92 110 80 88 107 77 85 105 75 83 104 72 83 112 71 87 113 70 89 113 70 89 113 70 89 113 70 89 113 70 89 113 70 89 113 70 89 123 80 99 123 80 99 123 80 99 123 80 99 123 80 99 123 80 99 123 80 99 116 84 99 74 58 68 60 55 61 50 45 51 41 36 42 38 33 39 40 35 41 46 41 47 50 45 51 48 43 49 52 47 53
81 70 76 81 70 76 81 70 76 81 70 76 80 70 78 59 49 58 56 48 59 54 46 57 50 42 53 47 39 50 44 36 47 41 33 44 40 32 43 46 38 49 46 38 49 46 38 49 46 38 49 46 38 49 46 38 49 46 38 49 48 38 47 61 49 59 62 49 58 62 49 58 62 49 58 62 49 58 62 49 58 62 49 58 62 49 58 61 48 57 61 48 57 61 48 57 61 48 57 61 48 57 61 48 57 61 48 57 60 48 58 43 35 48 42 36 50 42 36 50 42 36 50 42 36 50 42 36 50 42 36 50 42 36 50 43 37 51 43 37 51 43 37 51 43 37 51 43 37 51 43 37 51 43 37 51 43 37 51 53 46 62 53 46 62 53 46 62 53 46 62 53 46 62 53 46 62 53 46 62 53 46 62 50 43 59 50 43 59 50 43 59 50 43 59 50 43 59 50 43 59 50 43 59 53 42 59 53 36 54 56 35 54 56 35 54 56 35 54 56 35 54 56 35 54 56 35 54 56 35 54 59 38 57 59 38 57 59 38 57 59 38 57 59 38 57 59 38 57 59 38 57 57 39 55 49 32 48 47 33 46 47 33 46 47 33 46 47 33 46 47 33 46 47 33 46 47 33 46 42 28 41 44 30 43 46 32 45 49 35 48 53 39 52 56 42 55 58 44 57 63 45 57 65 38 53 69 38 53 71 40 55 75 44 59 78 47 62 81 50 65 84 53 68 85 54 69 95 64 79 95 64 79 96 65 80 97 66 81 99 68 83 100 69 84 101 70 85 98 72 85 74 58 71 70 58 70 68 56 68 64 52 64 61 49 61 58 46 58 55 43 55 54 42 54 43 31 43 45 33 45 47 35 47 50 38 50 54 42 54 57 45 57 59 47 59 61 49 61 54 43 59 54 43 59 54 43 59 54 43 59 54 43 59 54 43 59 54 43 59 54 43 59 52 41 57 53 42 58 55 44 60 59 48 64 62 51 67 65 54 70 68 57 73 70 58 70 99 80 86 100 80 82 100 80 82 100 80 82 100 80 82 100 80 82 100 80 82 100 80 82 105 85 87 105 85 87 105 85 87 105 85 87 105 85 87 105 85 87 105 85 87 106 84 87 112 85 92 114 84 92 114 84 92 114 84 92 114 84 92 114 84 92 114 84 92 114 84 92 113 83 91 113 83 91 113 83 91 113 83 91 113 83 91 113 83 91 113 83 91 114 82 93 105 64 80 106 63 82 106 63 82 106 63 82 106 63 82 106 63 82 106 63 82 106 63 82 114 71 90 112 69 88 110 67 86 107 64 83 103 60 79 100 57 76 98 55 74 89 57 72 53 37 47 46 41 47 46 41 47 46 41 47 46 41 47 46 41 47 46 41 47 46 41 47 59 54 60 57 52 58
81 70 76 81 70 76 81 70 76 81 70 76 80 70 78 62 52 61 59 51 62 56 48 59 53 45 56 50 42 53 46 38 49 44 36 47 43 35 46 46 38 49 46 38 49 46 38 49 46 38 49 46 38 49 46 38 49 46 38 49 48 38 47 59 47 57 60 47 56 60 47 56 60 47 56 60 47 56 60 47 56 60 47 56 60 47 56 59 46 55 59 46 55 59 46 55 59 46 55 59 46 55 59 46 55 59 46 55 58 46 56 42 36 50 39 36 53 39 36 53 39 36 53 39 36 53 39 36 53 39 36 53 39 36 53 40 37 54 40 37 54 40 37 54 40 37 54 40 37 54 40 37 54 40 37 54 41 37 54 53 46 62 53 46 62 53 46 62 53 46 62 53 46 62 53 46 62 53 46 62 53 46 62 50 43 59 50 43 59 50 43 59 50 43 59 50 43 59 50 43 59 50 43 59 53 42 59 56 35 54 58 33 54 58 33 54 58 33 54 58 33 54 58 33 54 58 33 54 58 33 54 61 36 57 61 36 57 61 36 57 61 36 57 61 36 57 61 36 57 61 36 57 60 37 55 49 32 48 47 33 46 47 33 46 47 33 46 47 33 46 47 33 46 47 33 46 47 33 46 42 28 41 44 30 43 46 32 45 49 35 48 53 39 52 56 42 55 58 44 57 63 45 57 66 39 54 70 39 54 73 42 57 76 45 60 79 48 63 83 52 67 85 54 69 86 55 70 96 65 80 97 66 81 97 66 81 98 67 82 98 67 82 99 68 83 99 68 83 95 71 84 71 57 70 66 58 69 63 55 66 60 52 63 57 49 60 53 45 56 51 43 54 50 42 53 40 32 43 42 34 45 44 36 47 47 39 50 51 43 54 54 46 57 56 48 59 58 50 63 54 43 60 54 42 62 54 42 62 54 42 62 54 42 62 54 42 62 54 42 62 54 42 62 53 41 61 54 42 62 57 45 65 60 48 68 63 51 71 67 55 75 69 57 77 71 59 73 99 80 86 100 80 82 100 80 82 100 80 82 100 80 82 100 80 82 100 80 82 100 80 82 105 85 87 105 85 87 105 85 87 105 85 87 105 85 87 105 85 87 105 85 87 106 84 87 112 85 92 114 84 92 114 84 92 114 84 92 114 84 92 114 84 92 114 84 92 114 84 92 111 81 89 111 81 89 111 81 89 111 81 89 111 81 89 111 81 89 111 81 89 112 80 91 105 64 80 106 63 82 106 63 82 106 63 82 106 63 82 106 63 82 106 63 82 106 63 82 114 71 90 112 69 88 110 67 86 107 64 83 103 60 79 100 57 76 98 55 74 89 57 72 53 37 47 46 41 47 46 41 47 46 41 47 46 41 47 46 41 47 46 41 47 46 41 47 59 54 60 57 52 58
81 70 76 81 70 76 81 70 76 81 70 76 80 70 78 67 57 66 64 56 67 61 53 64 58 50 61 54 46 57 51 43 54 49 41 52 48 40 51 46 38 49 46 38 49 46 38 49 46 38 49 46 38 49 46 38 49 46 38 49 48 38 47 57 45 55 58 45 54 58 45 54 58 45 54 58 45 54 58 45 54 58 45 54 58 45 54 57 44 53 57 44 53 57 44 53 57 44 53 57 44 53 57 44 53 57 44 53 55 45 56 40 36 51 38 37 55 38 37 55 38 37 55 38 37 55 38 37 55 38 37 55 38 37 55 39 38 56 39 38 56 39 38 56 39 38 56 39 38 56 39 38 56 39 38 56 40 37 56 51 47 64 53 46 62 53 46 62 53 46 62 53 46 62 53 46 62 53 46 62 53 46 62 50 43 59 50 43 59 50 43 59 50 43 59 50 43 59 50 43 59 50 43 59 54 41 59 57 34 54 60 32 54 60 32 54 60 32 54 60 32 54 60 32 54 60 32 54 60 32 54 63 35 57 63 35 57 63 35 57 63 35 57 63 35 57 63 35 57 63 35 57 61 36 55 50 32 48 47 33 46 47 33 46 47 33 46 47 33 46 47 33 46 47 33 46 47 33 46 42 28 41 44 30 43 46 32 45 49 35 48 53 39 52 56 42 55 58 44 57 63 45 57 68 41 56 73 42 57 75 44 59 78 47 62 82 51 66 85 54 69 87 56 71 89 58 73 100 69 84 100 69 84 99 68 83 98 67 82 98 67 82 97 66 81 96 65 80 91 67 80 68 56 68 62 56 66 60 54 64 57 51 61 53 47 57 50 44 54 48 42 52 46 40 50 39 33 43 41 35 45 43 37 47 46 40 50 50 44 54 53 47 57 55 49 59 57 51 63 52 43 62 54 42 64 54 42 64 54 42 64 54 42 64 54 42 64 54 42 64 54 42 64 55 43 65 57 45 67 59 47 69 62 50 72 66 54 76 69 57 79 71 59 81 74 61 78 99 79 88 100 80 82 100 80 82 100 80 82 100 80 82 100 80 82 100 80 82 100 80 82 105 85 87 105 85 87 105 85 87 105 85 87 105 85 87 105 85 87 105 85 87 106 84 87 112 85 92 114 84 92 114 84 92 114 84 92 114 84 92 114 84 92 114 84 92 114 84 92 109 79 87 109 79 87 109 79 87 109 79 87 109 79 87 109 79 87 109 79 87 110 78 89 105 64 80 106 63 82 106 63 82 106 63 82 106 63 82 106 63 82 106 63 82 106 63 82 114 71 90 112 69 88 110 67 86 107 64 83 103 60 79 100 57 76 98 55 74 89 57 72 53 37 47 46 41 47 46 41 47 46 41 47 46 41 47 46 41 47 46 41 47 46 41 47 59 54 60 57 52 58
81 70 76 81 70 76 81 70 76 81 70 76 80 70 78 73 63 72 70 62 73 67 59 70 64 56 67 61 53 64 58 50 61 55 47 58 54 46 57 46 38 49 46 38 49 46 38 49 46 38 49 46 38 49 46 38 49 46 38 49 48 38 47 54 42 52 55 42 51 55 42 51 55 42 51 55 42 51 55 42 51 55 42 51 55 42 51 54 41 50 54 41 50 54 41 50 54 41 50 54 41 50 54 41 50 54 41 50 52 42 53 39 36 53 35 38 57 36 37 58 35 38 57 36 37 58 35 38 57 36 37 58 35 38 57 37 38 59 36 39 58 37 38 59 36 39 58 37 38 59 36 39 58 37 38 59 39 37 58 51 47 64 53 46 62 53 46 62 53 46 62 53 46 62 53 46 62 53 46 62 53 46 62 50 43 59 50 43 59 50 43 59 50 43 59 50 43 59 50 43 59 50 43 59 54 41 59 58 33 54 61 32 54 63 31 54 61 32 54 63 31 54 61 32 54 63 31 54 61 32 54 66 34 57 64 35 57 66 34 57 64 35 57 66 34 57 64 35 57 66 34 57 63 36 55 50 32 48 47 33 46 47 33 46 47 33 46 47 33 46 47 33 46 47 33 46 47 33 46 42 28 41 44 30 43 46 32 45 49 35 48 53 39 52 56 42 55 58 44 57 63 45 57 72 45 60 76 45 60 78 47 62 82 51 66 85 54 69 88 57 72 91 60 75 92 61 76 104 73 88 103 72 87 102 71 86 99 68 83 97 66 81 94 63 78 93 62 77 87 63 76 63 53 64 56 55 63 55 52 61 50 49 57 48 45 54 44 43 51 42 39 48 40 39 47 37 34 43 38 37 45 41 38 47 43 42 50 48 45 54 50 49 57 53 50 59 55 51 65 52 43 64 54 42 66 54 41 67 54 42 66 54 41 67 54 42 66 54 41 67 54 42 66 59 46 72 60 48 72 62 49 75 66 54 78 69 56 82 72 60 84 75 62 88 77 64 82 99 79 88 100 80 82 100 80 82 100 80 82 100 80 82 100 80 82 100 80 82 100 80 82 105 85 87 105 85 87 105 85 87 105 85 87 105 85 87 105 85 87 105 85 87 106 84 87 112 85 92 114 84 92 114 84 92 114 84 92 114 84 92 114 84 92 114 84 92 114 84 92 106 76 84 106 76 84 106 76 84 106 76 84 106 76 84 106 76 84 106 76 84 107 75 86 105 64 80 106 63 82 106 63 82 106 63 82 106 63 82 106 63 82 106 63 82 106 63 82 114 71 90 112 69 88 110 67 86 107 64 83 103 60 79 100 57 76 98 55 74 89 57 72 53 37 47 46 41 47 46 41 47 46 41 47 46 41 47 46 41 47 46 41 47 46 41 47 59 54 60 57 52 58
81 70 76 81 70 76 81 70 76 81 70 76 80 70 78 80 70 79 77 69 80 74 66 77 71 63 74 68 60 71 65 57 68 62 54 65 61 53 64 46 38 49 46 38 49 46 38 49 46 38 49 46 38 49 46 38 49 46 38 49 48 38 47 50 38 48 51 38 47 51 38 47 51 38 47 51 38 47 51 38 47 51 38 47 51 38 47 50 37 46 50 37 46 50 37 46 50 37 46 50 37 46 50 37 46 50 37 46 48 38 49 38 37 55 33 38 58 35 37 60 33 38 58 35 37 60 33 38 58 35 37 60 33 38 58 36 38 61 34 39 59 36 38 61 34 39 59 36 38 61 34 39 59 36 38 61 37 38 58 51 47 64 53 46 62 53 46 62 53 46 62 53 46 62 53 46 62 53 46 62 53 46 62 50 43 59 50 43 59 50 43 59 50 43 59 50 43 59 50 43 59 50 43 59 54 41 59 58 33 54 63 31 54 64 30 54 63 31 54 64 30 54 63 31 54 64 30 54 63 31 54 67 33 57 66 34 57 67 33 57 66 34 57 67 33 57 66 34 57 67 33 57 63 36 55 50 32 48 47 33 46 47 33 46 47 33 46 47 33 46 47 33 46 47 33 46 47 33 46 42 28 41 44 30 43 46 32 45 49 35 48 53 39 52 56 42 55 58 44 57 63 45 57 75 48 63 79 48 63 82 51 66 85 54 69 88 57 72 92 61 76 94 63 78 95 64 79 109 78 93 107 76 91 104 73 88 100 69 84 96 65 80 92 61 76 89 58 73 81 59 71 58 50 61 52 52 60 50 49 57 46 46 54 44 43 51 39 39 47 38 37 45 36 36 44 36 35 43 37 37 45 40 39 47 42 42 50 47 46 54 49 49 57 52 51 59 55 51 65 52 42 66 54 41 67 54 41 69 54 41 67 54 41 69 54 41 67 54 41 69 54 41 67 62 49 77 63 50 76 66 53 81 69 56 82 72 59 87 76 63 89 78 65 93 80 67 87 99 79 88 100 80 82 100 80 82 100 80 82 100 80 82 100 80 82 100 80 82 100 80 82 105 85 87 105 85 87 105 85 87 105 85 87 105 85 87 105 85 87 105 85 87 106 84 87 112 85 92 114 84 92 114 84 92 114 84 92 114 84 92 114 84 92 114 84 92 114 84 92 102 72 80 102 72 80 102 72 80 102 72 80 102 72 80 102 72 80 102 72 80 103 71 82 105 64 80 106 63 82 106 63 82 106 63 82 106 63 82 106 63 82 106 63 82 106 63 82 114 71 90 112 69 88 110 67 86 107 64 83 103 60 79 100 57 76 98 55 74 89 57 72 53 37 47 46 41 47 46 41 47 46 41 47 46 41 47 46 41 47 46 41 47 46 41 47 59 54 60 57 52 58
81 70 76 81 70 76 81 70 76 81 70 76 80 70 78 86 76 85 83 75 86 81 73 84 78 70 81 74 66 77 71 63 74 68 60 71 67 59 70 46 38 49 46 38 49 46 38 49 46 38 49 46 38 49 46 38 49 46 38 49 48 38 47 47 35 45 48 35 44 48 35 44 48 35 44 48 35 44 48 35 44 48 35 44 48 35 44 47 34 43 47 34 43 47 34 43 47 34 43 47 34 43 47 34 43 47 34 43 43 35 48 36 37 57 32 38 60 33 37 62 32 38 60 33 37 62 32 38 60 33 37 62 32 38 60 34 38 63 33 39 61 34 38 63 33 39 61 34 38 63 33 39 61 34 38 63 36 38 59 50 47 64 53 46 62 53 46 62 53 46 62 53 46 62 53 46 62 53 46 62 53 46 62 50 43 59 50 43 59 50 43 59 50 43 59 50 43 59 50 43 59 50 43 59 54 41 59 60 32 54 64 30 54 65 30 54 64 30 54 65 30 54 64 30 54 65 30 54 64 30 54 68 33 57 67 33 57 68 33 57 67 33 57 68 33 57 67 33 57 68 33 57 64 35 55 50 32 48 47 33 46 47 33 46 47 33 46 47 33 46 47 33 46 47 33 46 47 33 46 42 28 41 44 30 43 46 32 45 49 35 48 53 39 52 56 42 55 58 44 57 63 45 57 78 51 66 83 52 67 85 54 69 88 57 72 92 61 76 95 64 79 97 66 81 99 68 83 113 82 97 111 80 95 107 76 91 101 70 85 95 64 79 89 58 73 85 54 69 77 55 67 54 48 58 46 49 56 46 46 54 41 44 51 39 39 47 34 37 44 34 34 42 30 33 40 35 35 43 35 38 45 39 39 47 40 43 50 46 46 54 47 50 57 51 51 59 54 52 65 52 42 66 54 41 69 54 41 71 54 41 69 54 41 71 54 41 69 54 41 71 54 41 69 65 52 82 67 54 82 69 56 86 72 59 87 76 63 93 79 66 94 81 68 98 84 70 93 99 79 90 100 80 82 100 80 82 100 80 82 100 80 82 100 80 82 100 80 82 100 80 82 105 85 87 105 85 87 105 85 87 105 85 87 105 85 87 105 85 87 105 85 87 106 84 87 112 85 92 114 84 92 114 84 92 114 84 92 114 84 92 114 84 92 114 84 92 114 84 92 99 69 77 99 69 77 99 69 77 99 69 77 99 69 77 99 69 77 99 69 77 100 68 79 105 64 80 106 63 82 106 63 82 106 63 82 106 63 82 106 63 82 106 63 82 106 63 82 114 71 90 112 69 88 110 67 86 107 64 83 103 60 79 100 57 76 98 55 74 89 57 72 53 37 47 46 41 47 46 41 47 46 41 47 46 41 47 46 41 47 46 41 47 46 41 47 59 54 60 57 52 58
81 70 76 81 70 76 81 70 76 81 70 76 80 70 78 91 81 90 88 80 91 86 78 89 82 74 85 79 71 82 76 68 79 73 65 76 72 64 75 46 38 49 46 38 49 46 38 49 46 38 49 46 38 49 46 38 49 46 38 49 48 38 47 45 33 43 46 33 42 46 33 42 46 33 42 46 33 42 46 33 42 46 33 42 46 33 42 45 32 41 45 32 41 45 32 41 45 32 41 45 32 41 45 32 41 45 32 41 41 33 46 35 37 58 31 39 62 32 38 64 31 39 62 32 38 64 31 39 62 32 38 64 31 39 62 33 39 65 32 40 63 33 39 65 32 40 63 33 39 65 32 40 63 33 39 65 34 39 61 50 47 66 53 46 62 53 46 62 53 46 62 53 46 62 53 46 62 53 46 62 53 46 62 50 43 59 50 43 59 50 43 59 50 43 59 50 43 59 50 43 59 50 43 59 55 40 59 61 32 54 65 30 54 67 29 54 65 30 54 67 29 54 65 30 54 67 29 54 65 30 54 70 32 57 68 33 57 70 32 57 68 33 57 70 32 57 68 33 57 70 32 57 66 34 55 52 31 48 47 33 46 47 33 46 47 33 46 47 33 46 47 33 46 47 33 46 47 33 46 42 28 41 44 30 43 46 32 45 49 35 48 53 39 52 56 42 55 58 44 57 63 45 57 81 54 69 85 54 69 87 56 71 91 60 75 94 63 78 97 66 81 100 69 84 101 70 85 117 86 101 114 83 98 109 78 93 102 71 86 94 63 78 87 56 71 82 51 66 73 51 63 51 45 55 43 48 54 42 45 52 37 42 48 35 38 45 31 36 42 29 32 39 27 32 38 33 36 43 34 39 45 37 40 47 39 44 50 44 47 54 46 51 57 49 52 59 53 53 65 51 43 67 54 41 71 54 40 73 54 41 71 54 40 73 54 41 71 54 40 73 54 41 71 68 54 87 69 56 86 71 57 90 75 62 92 78 64 97 81 68 98 84 70 103 86 72 97 99 79 90 100 80 82 100 80 82 100 80 82 100 80 82 100 80 82 100 80 82 100 80 82 105 85 87 105 85 87 105 85 87 105 85 87 105 85 87 105 85 87 105 85 87 106 84 87 112 85 92 114 84 92 114 84 92 114 84 92 114 84 92 114 84 92 114 84 92 114 84 92 97 67 75 97 67 75 97 67 75 97 67 75 97 67 75 97 67 75 97 67 75 98 66 77 105 64 80 106 63 82 106 63 82 106 63 82 106 63 82 106 63 82 106 63 82 106 63 82 114 71 90 112 69 88 110 67 86 107 64 83 103 60 79 100 57 76 98 55 74 89 57 72 53 37 47 46 41 47 46 41 47 46 41 47 46 41 47 46 41 47 46 41 47 46 41 47 59 54 60 57 52 58
81 70 76 81 70 76 81 70 76 81 70 76 80 71 76 94 84 93 91 84 92 88 80 91 85 78 86 82 74 85 78 71 79 76 68 79 75 68 76 46 38 49 46 39 47 46 38 49 46 39 47 46 38 49 46 39 47 46 38 49 46 38 49 42 32 43 42 32 43 42 32 43 42 32 43 42 32 43 42 32 43 42 32 43 42 32 43 41 31 42 41 31 42 41 31 42 41 31 42 41 31 42 41 31 42 41 31 42 38 32 46 35 38 57 32 38 60 32 38 62 32 38 60 32 38 62 32 38 60 32 38 62 32 38 60 33 39 63 33 39 61 33 39 63 33 39 61 33 39 63 33 39 61 33 39 63 34 39 59 49 48 64 50 48 61 50 48 61 50 48 61 50 48 61 50 48 61 50 48 61 50 48 61 47 45 58 47 45 58 47 45 58 47 45 58 47 45 58 47 45 58 47 45 58 53 42 58 58 33 54 64 31 52 64 31 52 64 31 52 64 31 52 64 31 52 64 31 52 64 31 52 67 34 55 67 34 55 67 34 55 67 34 55 67 34 55 67 34 55 67 34 55 64 35 55 52 31 48 47 33 48 49 32 48 47 33 48 49 32 48 47 33 48 49 32 48 47 33 48 44 27 43 44 30 45 48 31 47 49 35 50 55 38 54 56 42 57 60 43 59 63 45 59 82 55 70 86 55 70 89 58 73 92 61 76 95 64 79 99 68 83 101 70 85 102 71 86 119 88 103 116 85 100 110 79 94 102 71 86 94 63 78 86 55 70 80 49 64 71 49 62 48 45 56 40 47 55 39 43 54 34 41 49 33 37 48 27 34 42 27 31 42 24 31 39 32 36 47 32 39 47 36 40 51 37 44 52 43 47 58 44 51 59 48 52 63 51 53 66 49 44 66 51 43 67 51 43 67 52 42 67 52 42 67 52 42 67 54 41 67 54 41 67 70 56 82 71 57 83 74 60 86 78 62 89 81 65 92 85 69 96 87 71 98 90 72 94 99 79 90 100 80 82 100 80 82 100 80 82 100 80 82 100 80 82 100 80 82 100 80 82 105 85 87 105 85 87 105 85 87 105 85 87 105 85 87 105 85 87 105 85 87 106 83 89 112 85 92 114 84 94 115 83 94 114 84 94 115 83 94 114 84 94 115 83 94 114 84 94 96 64 75 95 65 75 96 64 75 95 65 75 96 64 75 95 65 75 96 64 75 97 64 75 105 64 80 106 63 82 106 63 82 106 63 82 106 63 82 106 63 82 106 63 82 106 63 82 114 71 90 112 69 88 110 67 86 107 64 83 103 60 79 100 57 76 98 55 74 90 56 72 51 38 47 46 41 47 46 41 47 46 41 47 46 41 47 46 41 47 46 41 47 46 41 47 59 54 60 57 52 58
83 72 76 83 72 76 83 72 76 83 72 76 82 73 78 85 75 83 83 76 83 83 76 84 83 76 83 83 76 84 83 76 83 83 76 84 83 76 83 68 61 69 65 58 65 60 53 61 54 47 54 47 40 48 41 34 41 36 29 37 32 26 36 40 36 50 39 37 51 39 37 51 39 37 51 39 37 51 39 37 51 39 37 51 39 37 51 39 37 51 39 37 51 39 37 51 39 37 51 39 37 51 39 37 51 39 37 51 38 37 53 37 38 56 37 38 56 37 38 58 37 38 56 37 38 58 37 38 56 37 38 58 37 38 56 45 46 66 45 46 64 45 46 66 45 46 64 45 46 66 45 46 64 45 46 66 44 47 62 52 56 67 52 56 65 52 56 65 52 56 65 52 56 65 52 56 65 52 56 65 52 56 65 49 53 62 49 53 62 49 53 62 49 53 62 49 53 62 49 53 62 49 53 62 53 52 60 54 38 51 58 35 51 58 35 51 58 35 51 58 35 51 58 35 51 58 35 51 58 35 51 63 40 56 63 40 56 63 40 56 63 40 56 63 40 56 63 40 56 63 40 56 63 40 58 57 38 58 56 38 60 57 38 60 56 38 60 57 38 60 56 38 60 57 38 60 56 38 60 56 37 59 55 37 59 56 37 59 55 37 59 56 37 59 55 37 59 56 37 59 58 37 56 84 57 74 87 56 72 87 56 72 87 56 72 87 56 72 87 56 72 87 56 72 87 56 72 101 70 86 98 67 83 93 62 78 87 56 72 80 49 65 74 43 59 69 38 54 59 38 53 35 33 47 28 36 49 29 35 51 28 36 49 29 35 51 28 36 49 29 35 51 28 36 49 40 46 62 39 47 60 40 46 62 39 47 60 40 46 62 39 47 60 40 46 62 40 46 60 32 36 47 36 38 50 43 43 55 50 48 61 58 54 68 66 60 74 72 64 79 77 66 82 86 72 89 88 71 89 89 70 89 91 70 89 92 69 89 92 69 89 93 68 89 93 69 85 95 74 83 95 74 79 95 74 79 95 74 79 95 74 79 95 74 79 95 74 79 95 74 79 107 86 91 107 86 91 107 86 91 107 86 91 107 86 91 107 86 91 107 86 91 108 85 91 103 73 85 104 72 85 105 71 85 104 72 85 105 71 85 104 72 85 105 71 85 104 72 85 97 63 77 96 64 77 97 63 77 96 64 77 97 63 77 96 64 77 97 63 77 99 63 77 96 55 71 98 54 71 98 54 71 98 54 71 98 54 71 98 54 71 98 54 71 98 54 71 95 51 68 99 55 72 105 61 78 107 63 80 104 60 77 95 51 68 85 41 58 71 37 51 50 37 46 43 41 46 43 41 46 43 41 46 43 41 46 43 41 46 43 41 46 43 41 46 45 43 48 43 41 46
83 72 76 83 72 76 83 72 76 83 72 76 82 73 76 85 75 83 83 76 83 83 76 83 83 76 83 83 76 83 83 76 83 83 76 83 83 76 83 69 62 69 66 59 66 61 54 61 55 48 55 48 41 48 42 35 42 37 30 37 33 27 37 38 37 51 36 37 55 36 37 55 36 37 55 36 37 55 36 37 55 36 37 55 36 37 55 36 37 55 36 37 55 36 37 55 36 37 55 36 37 55 36 37 55 36 37 55 36 37 55 39 38 54 39 38 54 39 38 54 39 38 54 39 38 54 39 38 54 39 38 54 39 38 54 47 46 62 47 46 62 47 46 62 47 46 62 47 46 62 47 46 62 47 46 62 45 47 60 50 57 65 49 58 63 50 57 63 49 58 63 50 57 63 49 58 63 50 57 63 49 58 63 49 56 62 48 57 62 49 56 62 48 57 62 49 56 62 48 57 62 49 56 62 54 54 62 53 41 51 57 39 51 57 39 51 57 39 51 57 39 51 57 39 51 57 39 51 57 39 51 60 42 54 60 42 54 60 42 54 60 42 54 60 42 54 60 42 54 60 42 54 60 42 56 57 38 60 56 38 62 57 37 62 56 38 62 57 37 62 56 38 62 57 37 62 56 38 62 56 36 61 55 37 61 56 36 61 55 37 61 56 36 61 55 37 61 56 36 61 58 36 57 82 55 74 83 55 70 85 54 70 83 55 70 85 54 70 83 55 70 85 54 70 83 55 70 100 69 85 95 67 82 92 61 77 84 56 71 79 48 64 71 43 58 68 37 53 58 37 54 35 32 49 28 35 53 28 35 53 28 35 53 28 35 53 28 35 53 28 35 53 28 35 53 39 46 64 39 46 64 39 46 64 39 46 64 39 46 64 39 46 64 39 46 64 39 47 60 31 38 46 34 42 45 42 45 50 48 51 56 58 57 63 65 62 69 72 67 74 78 68 77 86 73 83 89 71 83 91 71 83 92 70 83 95 68 83 95 68 83 98 67 83 96 68 82 96 73 81 95 74 79 95 74 79 95 74 79 95 74 79 95 74 79 95 74 79 95 74 79 107 86 91 107 86 91 107 86 91 107 86 91 107 86 91 107 86 91 107 86 91 108 85 93 104 72 85 105 71 87 105 71 87 105 71 87 105 71 87 105 71 87 105 71 87 105 71 87 97 63 79 97 63 79 97 63 79 97 63 79 97 63 79 97 63 79 97 63 79 99 62 79 97 54 71 98 54 71 98 54 71 98 54 71 98 54 71 98 54 71 98 54 71 98 54 71 95 51 68 99 55 72 105 61 78 107 63 80 104 60 77 95 51 68 85 41 58 71 37 51 50 37 46 43 41 46 43 41 46 43 41 46 43 41 46 43 41 46 43 41 46 43 41 46 45 43 48 43 41 46
83 72 76 83 72 76 83 72 76 83 72 76 82 73 76 85 75 83 83 76 83 83 76 83 83 76 83 83 76 83 83 76 83 83 76 83 83 76 83 71 64 71 69 62 69 64 57 64 58 51 58 51 44 51 44 37 44 39 32 39 36 30 40 38 37 51 36 37 55 36 37 55 36 37 55 36 37 55 36 37 55 36 37 55 36 37 55 36 37 55 36 37 55 36 37 55 36 37 55 36 37 55 36 37 55 36 37 55 36 37 55 39 38 54 39 38 54 39 38 54 39 38 54 39 38 54 39 38 54 39 38 54 39 38 54 47 46 62 47 46 62 47 46 62 47 46 62 47 46 62 47 46 62 47 46 62 45 47 60 52 56 65 50 57 63 52 57 63 50 57 63 52 57 63 50 57 63 52 57 63 50 57 63 53 58 64 51 58 64 53 58 64 51 58 64 53 58 64 51 58 64 53 58 64 56 56 64 58 46 56 62 44 56 62 44 56 62 44 56 62 44 56 62 44 56 62 44 56 62 44 56 60 42 54 60 42 54 60 42 54 60 42 54 60 42 54 60 42 54 60 42 54 60 42 56 56 38 60 54 39 62 56 38 62 54 39 62 56 38 62 54 39 62 56 38 62 54 39 62 55 37 61 53 38 61 55 37 61 53 38 61 55 37 61 53 38 61 55 37 61 56 37 57 78 53 72 80 53 68 81 53 68 80 53 68 81 53 68 80 53 68 81 53 68 80 53 68 95 67 82 92 65 80 88 60 75 80 53 68 74 46 61 67 40 55 63 35 50 54 36 52 34 33 49 28 35 53 28 35 53 28 35 53 28 35 53 28 35 53 28 35 53 28 35 53 39 46 64 39 46 64 39 46 64 39 46 64 39 46 64 39 46 64 39 46 64 39 47 60 34 41 49 36 44 47 44 47 52 51 54 59 61 60 66 68 65 72 75 70 77 80 70 79 86 73 83 89 71 83 91 71 83 92 70 83 95 68 83 95 68 83 98 67 83 96 68 82 96 73 81 95 74 79 95 74 79 95 74 79 95 74 79 95 74 79 95 74 79 95 74 79 107 86 91 107 86 91 107 86 91 107 86 91 107 86 91 107 86 91 107 86 91 108 85 93 104 72 85 105 71 87 105 71 87 105 71 87 105 71 87 105 71 87 105 71 87 105 71 87 97 63 79 97 63 79 97 63 79 97 63 79 97 63 79 97 63 79 97 63 79 99 62 79 97 54 71 98 54 71 98 54 71 98 54 71 98 54 71 98 54 71 98 54 71 98 54 71 95 51 68 99 55 72 105 61 78 107 63 80 104 60 77 95 51 68 85 41 58 71 37 51 50 37 46 43 41 46 43 41 46 43 41 46 43 41 46 43 41 46 43 41 46 43 41 46 45 43 48 43 41 46
83 72 76 83 72 76 83 72 76 83 72 76 82 73 76 85 75 83 83 76 83 83 76 83 83 76 83 83 76 83 83 76 83 83 76 83 83 76 83 75 68 75 72 65 72 67 60 67 61 54 61 54 47 54 47 40 47 43 36 43 39 33 43 38 37 51 36 37 55 36 37 55 36 37 55 36 37 55 36 37 55 36 37 55 36 37 55 36 37 55 36 37 55 36 37 55 36 37 55 36 37 55 36 37 55 36 37 55 36 37 55 39 38 54 39 38 54 39 38 54 39 38 54 39 38 54 39 38 54 39 38 54 39 38 54 47 46 62 47 46 62 47 46 62 47 46 62 47 46 62 47 46 62 47 46 62 47 46 60 53 56 65 52 57 63 53 56 63 52 57 63 53 56 63 52 57 63 53 56 63 52 57 63 57 60 67 56 61 67 57 60 67 56 61 67 57 60 67 56 61 67 57 60 67 60 59 67 65 53 63 69 51 63 69 51 63 69 51 63 69 51 63 69 51 63 69 51 63 69 51 63 60 42 54 60 42 54 60 42 54 60 42 54 60 42 54 60 42 54 60 42 54 59 43 56 54 39 60 53 39 62 54 39 62 53 39 62 54 39 62 53 39 62 54 39 62 53 39 62 53 38 61 52 38 61 53 38 61 52 38 61 53 38 61 52 38 61 53 38 61 55 38 57 74 51 69 75 51 65 77 50 65 75 51 65 77 50 65 75 51 65 77 50 65 75 51 65 91 64 79 86 62 76 84 57 72 75 51 65 70 43 58 62 38 52 59 32 47 49 32 48 34 33 49 28 35 53 28 35 53 28 35 53 28 35 53 28 35 53 28 35 53 28 35 53 39 46 64 39 46 64 39 46 64 39 46 64 39 46 64 39 46 64 39 46 64 39 47 60 37 44 52 40 48 51 47 50 55 54 57 62 64 63 69 71 68 75 78 73 80 84 74 83 86 73 83 89 71 83 91 71 83 92 70 83 95 68 83 95 68 83 98 67 83 96 68 82 96 73 81 95 74 79 95 74 79 95 74 79 95 74 79 95 74 79 95 74 79 95 74 79 107 86 91 107 86 91 107 86 91 107 86 91 107 86 91 107 86 91 107 86 91 108 85 93 104 72 85 105 71 87 105 71 87 105 71 87 105 71 87 105 71 87 105 71 87 105 71 87 97 63 79 97 63 79 97 63 79 97 63 79 97 63 79 97 63 79 97 63 79 99 62 79 97 54 71 98 54 71 98 54 71 98 54 71 98 54 71 98 54 71 98 54 71 98 54 71 95 51 68 99 55 72 105 61 78 107 63 80 104 60 77 95 51 68 85 41 58 71 37 51 50 37 46 43 41 46 43 41 46 43 41 46 43 41 46 43 41 46 43 41 46 43 41 46 45 43 48 43 41 46
83 72 76 83 72 76 83 72 76 83 72 76 82 73 76 85 75 83 83 76 83 83 76 83 83 76 83 83 76 83 83 76 83 83 76 83 83 76 83 78 71 78 75 68 75 71 64 71 64 57 64 57 50 57 51 44 51 46 39 46 42 36 46 38 37 51 36 37 55 36 37 55 36 37 55 36 37 55 36 37 55 36 37 55 36 37 55 36 37 55 36 37 55 36 37 55 36 37 55 36 37 55 36 37 55 36 37 55 36 37 55 39 38 54 39 38 54 39 38 54 39 38 54 39 38 54 39 38 54 39 38 54 39 38 54 47 46 62 47 46 62 47 46 62 47 46 62 47 46 62 47 46 62 47 46 62 47 46 60 55 55 65 53 56 63 55 55 63 53 56 63 55 55 63 53 56 63 55 55 63 53 56 63 63 63 71 61 64 71 63 63 71 61 64 71 63 63 71 61 64 71 63 63 71 65 62 71 72 59 69 75 57 69 75 57 69 75 57 69 75 57 69 75 57 69 75 57 69 75 57 69 60 42 54 60 42 54 60 42 54 60 42 54 60 42 54 60 42 54 60 42 54 59 43 56 53 40 60 52 40 62 53 39 62 52 40 62 53 39 62 52 40 62 53 39 62 52 40 62 52 38 61 51 39 61 52 38 61 51 39 61 52 38 61 51 39 61 52 38 61 53 38 57 69 48 65 70 48 61 71 47 61 70 48 61 71 47 61 70 48 61 71 47 61 70 48 61 86 62 76 82 60 73 78 54 68 71 49 62 65 41 55 57 35 48 54 30 44 46 29 45 34 33 49 28 35 53 28 35 53 28 35 53 28 35 53 28 35 53 28 35 53 28 35 53 39 46 64 39 46 64 39 46 64 39 46 64 39 46 64 39 46 64 39 46 64 39 47 60 40 47 55 43 51 54 51 54 59 57 60 65 67 66 72 75 72 79 81 76 83 87 77 86 86 73 83 89 71 83 91 71 83 92 70 83 95 68 83 95 68 83 98 67 83 96 68 82 96 73 81 95 74 79 95 74 79 95 74 79 95 74 79 95 74 79 95 74 79 95 74 79 107 86 91 107 86 91 107 86 91 107 86 91 107 86 91 107 86 91 107 86 91 108 85 93 104 72 85 105 71 87 105 71 87 105 71 87 105 71 87 105 71 87 105 71 87 105 71 87 97 63 79 97 63 79 97 63 79 97 63 79 97 63 79 97 63 79 97 63 79 99 62 79 97 54 71 98 54 71 98 54 71 98 54 71 98 54 71 98 54 71 98 54 71 98 54 71 95 51 68 99 55 72 105 61 78 107 63 80 104 60 77 95 51 68 85 41 58 71 37 51 50 37 46 43 41 46 43 41 46 43 41 46 43 41 46 43 41 46 43 41 46 43 41 46 45 43 48 43 41 46
83 72 76 83 72 76 83 72 76 83 72 76 82 73 76 85 75 83 83 76 83 83 76 83 83 76 83 83 76 83 83 76 83 83 76 83 83 76 83 81 74 81 79 72 79 74 67 74 67 60 67 60 53 60 54 47 54 49 42 49 46 40 50 38 37 51 36 37 55 36 37 55 36 37 55 36 37 55 36 37 55 36 37 55 36 37 55 36 37 55 36 37 55 36 37 55 36 37 55 36 37 55 36 37 55 36 37 55 36 37 55 39 38 54 39 38 54 39 38 54 39 38 54 39 38 54 39 38 54 39 38 54 39 38 54 47 46 62 47 46 62 47 46 62 47 46 62 47 46 62 47 46 62 47 46 62 47 46 60 56 54 65 56 55 63 56 55 63 56 55 63 56 55 63 56 55 63 56 55 63 56 55 63 67 66 74 67 66 74 67 66 74 67 66 74 67 66 74 67 66 74 67 66 74 70 64 74 79 66 76 82 64 76 82 64 76 82 64 76 82 64 76 82 64 76 82 64 76 82 64 76 60 42 54 60 42 54 60 42 54 60 42 54 60 42 54 60 42 54 60 42 54 59 43 56 52 40 60 50 41 62 50 41 62 50 41 62 50 41 62 50 41 62 50 41 62 50 41 62 49 40 61 49 40 61 49 40 61 49 40 61 49 40 61 49 40 61 49 40 61 52 39 57 64 46 62 66 46 58 66 46 58 66 46 58 66 46 58 66 46 58 66 46 58 66 46 58 80 60 72 78 58 70 73 53 65 67 47 59 60 40 52 53 33 45 48 28 40 41 27 42 34 33 49 28 35 53 28 35 53 28 35 53 28 35 53 28 35 53 28 35 53 28 35 53 39 46 64 39 46 64 39 46 64 39 46 64 39 46 64 39 46 64 39 46 64 39 47 60 44 51 59 46 54 57 54 57 62 60 63 68 70 69 75 78 75 82 85 80 87 90 80 89 86 73 83 89 71 83 91 71 83 92 70 83 95 68 83 95 68 83 98 67 83 96 68 82 96 73 81 95 74 79 95 74 79 95 74 79 95 74 79 95 74 79 95 74 79 95 74 79 107 86 91 107 86 91 107 86 91 107 86 91 107 86 91 107 86 91 107 86 91 108 85 93 104 72 85 105 71 87 105 71 87 105 71 87 105 71 87 105 71 87 105 71 87 105 71 87 97 63 79 97 63 79 97 63 79 97 63 79 97 63 79 97 63 79 97 63 79 99 62 79 97 54 71 98 54 71 98 54 71 98 54 71 98 54 71 98 54 71 98 54 71 98 54 71 95 51 68 99 55 72 105 61 78 107 63 80 104 60 77 95 51 68 85 41 58 71 37 51 50 37 46 43 41 46 43 41 46 43 41 46 43 41 46 43 41 46 43 41 46 43 41 46 45 43 48 43 41 46
83 72 76 83 72 76 83 72 76 83 72 76 82 73 76 85 75 83 83 76 83 83 76 83 83 76 83 83 76 83 83 76 83 83 76 83 83 76 83 84 77 84 81 74 81 76 69 76 70 63 70 63 56 63 57 50 57 52 45 52 48 42 52 38 37 51 36 37 55 36 37 55 36 37 55 36 37 55 36 37 55 36 37 55 36 37 55 36 37 55 36 37 55 36 37 55 36 37 55 36 37 55 36 37 55 36 37 55 36 37 55 39 38 54 39 38 54 39 38 54 39 38 54 39 38 54 39 38 54 39 38 54 39 38 54 47 46 62 47 46 62 47 46 62 47 46 62 47 46 62 47 46 62 47 46 62 48 46 60 57 54 65 57 54 63 57 54 63 57 54 63 57 54 63 57 54 63 57 54 63 57 54 63 70 67 76 70 67 76 70 67 76 70 67 76 70 67 76 70 67 76 70 67 76 73 65 76 84 71 81 87 69 81 87 69 81 87 69 81 87 69 81 87 69 81 87 69 81 87 69 81 60 42 54 60 42 54 60 42 54 60 42 54 60 42 54 60 42 54 60 42 54 57 43 56 50 41 60 49 41 62 49 41 62 49 41 62 49 41 62 49 41 62 49 41 62 49 41 62 48 40 61 48 40 61 48 40 61 48 40 61 48 40 61 48 40 61 48 40 61 49 40 57 59 45 60 62 44 56 62 44 56 62 44 56 62 44 56 62 44 56 62 44 56 62 44 56 76 58 70 73 55 67 68 50 62 62 44 56 55 37 49 49 31 43 44 26 38 37 25 39 32 34 49 28 35 53 28 35 53 28 35 53 28 35 53 28 35 53 28 35 53 28 35 53 39 46 64 39 46 64 39 46 64 39 46 64 39 46 64 39 46 64 39 46 64 39 47 60 46 53 61 49 57 60 57 60 65 63 66 71 73 72 78 80 77 84 87 82 89 93 83 92 86 73 83 89 71 83 91 71 83 92 70 83 95 68 83 95 68 83 98 67 83 96 68 82 96 73 81 95 74 79 95 74 79 95 74 79 95 74 79 95 74 79 95 74 79 95 74 79 107 86 91 107 86 91 107 86 91 107 86 91 107 86 91 107 86 91 107 86 91 108 85 93 104 72 85 105 71 87 105 71 87 105 71 87 105 71 87 105 71 87 105 71 87 105 71 87 97 63 79 97 63 79 97 63 79 97 63 79 97 63 79 97 63 79 97 63 79 99 62 79 97 54 71 98 54 71 98 54 71 98 54 71 98 54 71 98 54 71 98 54 71 98 54 71 95 51 68 99 55 72 105 61 78 107 63 80 104 60 77 95 51 68 85 41 58 71 37 51 50 37 46 43 41 46 43 41 46 43 41 46 43 41 46 43 41 46 43 41 46 43 41 46 45 43 48 43 41 46
83 72 76 83 72 76 83 72 76 83 72 76 82 73 76 85 75 83 83 76 83 83 76 83 83 76 83 83 76 83 83 76 83 83 76 83 83 76 83 85 78 85 82 75 82 77 70 77 71 64 71 64 57 64 58 51 58 53 46 53 49 43 53 38 37 51 36 37 55 36 37 55 36 37 55 36 37 55 36 37 55 36 37 55 36 37 55 36 37 55 36 37 55 36 37 55 36 37 55 36 37 55 36 37 55 36 37 55 36 37 55 39 38 54 39 38 54 39 38 54 39 38 54 39 38 54 39 38 54 39 38 54 39 38 54 47 46 62 47 46 62 47 46 62 47 46 62 47 46 62 47 46 62 47 46 62 48 46 60 59 53 65 60 52 63 60 52 63 60 52 63 60 52 63 60 52 63 60 52 63 60 52 63 75 67 78 75 67 78 75 67 78 75 67 78 75 67 78 75 67 78 75 67 78 77 67 78 88 72 83 89 71 83 89 71 83 89 71 83 89 71 83 89 71 83 89 71 83 89 71 83 60 42 54 60 42 54 60 42 54 60 42 54 60 42 54 60 42 54 60 42 54 57 43 56 49 42 60 46 43 62 46 43 62 46 43 62 46 43 62 46 43 62 46 43 62 46 43 62 45 42 61 45 42 61 45 42 61 45 42 61 45 42 61 45 42 61 45 42 61 46 42 57 56 44 58 57 44 54 57 44 54 57 44 54 57 44 54 57 44 54 57 44 54 57 44 54 72 59 69 69 56 66 64 51 61 58 45 55 51 38 48 45 32 42 40 27 37 33 25 38 32 34 49 28 35 53 28 35 53 28 35 53 28 35 53 28 35 53 28 35 53 28 35 53 39 46 64 39 46 64 39 46 64 39 46 64 39 46 64 39 46 64 39 46 64 39 47 60 47 54 62 50 58 61 58 61 66 64 67 72 74 73 79 81 78 85 88 83 90 94 84 93 86 73 83 89 71 83 91 71 83 92 70 83 95 68 83 95 68 83 98 67 83 96 68 82 96 73 81 95 74 79 95 74 79 95 74 79 95 74 79 95 74 79 95 74 79 95 74 79 107 86 91 107 86 91 107 86 91 107 86 91 107 86 91 107 86 91 107 86 91 108 85 93 104 72 85 105 71 87 105 71 87 105 71 87 105 71 87 105 71 87 105 71 87 105 71 87 97 63 79 97 63 79 97 63 79 97 63 79 97 63 79 97 63 79 97 63 79 99 62 79 97 54 71 98 54 71 98 54 71 98 54 71 98 54 71 98 54 71 98 54 71 98 54 71 95 51 68 99 55 72 105 61 78 107 63 80 104 60 77 95 51 68 85 41 58 71 37 51 50 37 46 43 41 46 43 41 46 43 41 46 43 41 46 43 41 46 43 41 46 43 41 46 45 43 48 43 41 46
88 77 81 88 77 81 88 77 81 88 77 81 87 78 81 69 59 67 67 60 67 68 61 68 69 62 69 71 64 71 72 65 72 73 66 73 73 66 73 73 66 73 73 66 73 73 66 73 73 66 73 73 66 73 73 66 73 73 66 73 72 66 76 65 64 78 62 63 81 58 59 77 54 55 73 49 50 68 45 46 64 41 42 60 39 40 58 41 42 60 41 42 60 41 42 60 41 42 60 41 42 60 41 42 60 41 42 60 41 42 60 58 57 73 57 56 72 54 53 69 51 50 66 48 47 63 44 43 59 42 41 57 41 40 56 55 54 70 55 54 70 55 54 70 55 54 70 55 54 70 55 54 70 55 54 70 56 54 68 57 46 60 59 47 59 61 49 61 65 53 65 68 56 68 71 59 71 74 62 74 75 63 75 88 76 88 88 76 88 88 76 88 88 76 88 88 76 88 88 76 88 88 76 88 89 75 88 100 84 95 101 83 95 101 83 95 101 83 95 101 83 95 101 83 95 101 83 95 101 83 95 92 74 86 90 72 84 85 67 79 78 60 72 72 54 66 65 47 59 60 42 54 54 42 54 45 41 58 41 42 60 41 42 60 41 42 60 41 42 60 41 42 60 41 42 60 41 42 60 37 38 56 37 38 56 37 38 56 37 38 56 37 38 56 37 38 56 37 38 56 39 38 52 47 39 52 49 39 48 49 39 48 49 39 48 49 39 48 49 39 48 49 39 48 49 39 48 47 37 46 47 37 46 47 37 46 47 37 46 47 37 46 47 37 46 47 37 46 44 38 50 34 37 52 31 38 56 31 38 56 31 38 56 31 38 56 31 38 56 31 38 56 31 38 56 32 39 57 34 41 59 36 43 61 39 46 64 43 50 68 46 53 71 48 55 73 50 58 71 45 52 60 47 55 58 54 57 62 58 61 66 66 65 71 71 68 75 77 72 79 81 71 80 73 60 70 78 60 72 82 62 74 86 64 77 93 66 81 96 69 84 101 70 86 101 73 87 103 80 88 102 81 86 102 81 86 102 81 86 102 81 86 102 81 86 102 81 86 102 81 86 102 81 86 102 81 86 102 81 86 102 81 86 102 81 86 102 81 86 102 81 86 103 80 88 103 71 84 104 70 86 104 70 86 104 70 86 104 70 86 104 70 86 104 70 86 104 70 86 103 69 85 103 69 85 103 69 85 103 69 85 103 69 85 103 69 85 103 69 85 105 68 85 98 55 72 99 55 72 99 55 72 99 55 72 99 55 72 99 55 72 99 55 72 99 55 72 95 51 68 93 49 66 91 47 64 88 44 61 84 40 57 81 37 54 79 35 52 70 36 50 43 30 39 38 36 41 40 38 43 43 41 46 47 45 50 50 48 53 52 50 55 54 52 57 40 38 43 38 36 41
88 77 81 88 77 81 88 77 81 88 77 81 87 78 81 70 60 68 69 62 69 69 62 69 70 63 70 70 63 70 71 64 71 71 64 71 72 65 72 71 64 71 71 64 71 71 64 71 71 64 71 71 64 71 71 64 71 71 64 71 70 64 74 65 64 78 61 62 80 58 59 77 55 56 74 51 52 70 47 48 66 44 45 63 42 43 61 45 46 64 45 46 64 45 46 64 45 46 64 45 46 64 45 46 64 45 46 64 45 46 64 59 58 74 58 57 73 56 55 71 52 51 67 49 48 64 46 45 61 43 42 58 42 41 57 55 54 70 55 54 70 55 54 70 55 54 70 55 54 70 55 54 70 55 54 70 57 53 68 59 47 61 63 47 60 66 50 63 69 53 66 72 56 69 76 60 73 78 62 75 79 63 76 91 75 88 91 75 88 91 75 88 91 75 88 91 75 88 91 75 88 91 75 88 91 75 88 99 81 93 99 81 93 99 81 93 99 81 93 99 81 93 99 81 93 99 81 93 99 81 93 92 74 86 90 72 84 85 67 79 78 60 72 72 54 66 65 47 59 60 42 54 54 42 54 43 42 58 38 44 60 38 44 60 38 44 60 38 44 60 38 44 60 38 44 60 38 44 60 34 40 56 34 40 56 34 40 56 34 40 56 34 40 56 34 40 56 34 40 56 37 39 52 44 41 52 46 41 48 46 41 48 46 41 48 46 41 48 46 41 48 46 41 48 46 41 48 44 39 46 44 39 46 44 39 46 44 39 46 44 39 46 44 39 46 44 39 46 41 39 50 34 37 52 31 38 56 31 38 56 31 38 56 31 38 56 31 38 56 31 38 56 31 38 56 32 39 57 34 41 59 36 43 61 39 46 64 43 50 68 46 53 71 48 55 73 50 58 71 48 55 63 50 58 61 56 59 64 60 63 68 67 66 72 71 68 75 76 71 78 81 71 80 73 60 70 78 60 72 82 62 74 86 64 77 93 66 81 96 69 84 101 70 86 101 73 87 103 80 88 102 81 86 102 81 86 102 81 86 102 81 86 102 81 86 102 81 86 102 81 86 102 81 86 102 81 86 102 81 86 102 81 86 102 81 86 102 81 86 102 81 86 103 80 88 103 71 84 104 70 86 104 70 86 104 70 86 104 70 86 104 70 86 104 70 86 104 70 86 103 69 85 103 69 85 103 69 85 103 69 85 103 69 85 103 69 85 103 69 85 105 68 85 98 55 72 99 55 72 99 55 72 99 55 72 99 55 72 99 55 72 99 55 72 99 55 72 95 51 68 93 49 66 91 47 64 88 44 61 84 40 57 81 37 54 79 35 52 70 36 50 43 30 39 38 36 41 40 38 43 43 41 46 47 45 50 50 48 53 52 50 55 54 52 57 40 38 43 38 36 41
88 77 81 88 77 81 88 77 81 88 77 81 87 78 81 74 64 72 72 65 72 71 64 71 70 63 70 70 63 70 69 62 69 68 61 68 68 61 68 69 62 69 69 62 69 69 62 69 69 62 69 69 62 69 69 62 69 69 62 69 68 62 72 64 63 77 61 62 80 59 60 78 56 57 75 54 55 73 51 52 70 49 50 68 48 49 67 52 53 71 52 53 71 52 53 71 52 53 71 52 53 71 52 53 71 52 53 71 52 53 71 62 61 77 60 59 75 58 57 73 55 54 70 51 50 66 48 47 63 46 45 61 44 43 59 55 54 70 55 54 70 55 54 70 55 54 70 55 54 70 55 54 70 55 54 70 57 53 68 62 48 63 67 49 63 69 51 65 72 54 68 76 58 72 79 61 75 81 63 77 83 65 79 92 74 88 92 74 88 92 74 88 92 74 88 92 74 88 92 74 88 92 74 88 92 74 88 97 79 91 97 79 91 97 79 91 97 79 91 97 79 91 97 79 91 97 79 91 97 79 91 92 74 86 90 72 84 85 67 79 78 60 72 72 54 66 65 47 59 60 42 54 54 42 54 41 43 58 37 44 60 37 44 60 37 44 60 37 44 60 37 44 60 37 44 60 37 44 60 33 40 56 33 40 56 33 40 56 33 40 56 33 40 56 33 40 56 33 40 56 34 40 52 42 42 52 44 41 48 44 41 48 44 41 48 44 41 48 44 41 48 44 41 48 44 41 48 42 39 46 42 39 46 42 39 46 42 39 46 42 39 46 42 39 46 42 39 46 40 40 50 32 38 52 31 38 56 31 38 56 31 38 56 31 38 56 31 38 56 31 38 56 31 38 56 32 39 57 34 41 59 36 43 61 39 46 64 43 50 68 46 53 71 48 55 73 50 58 71 54 61 69 55 63 66 60 63 68 63 66 71 68 67 73 72 69 76 76 71 78 80 70 79 73 60 70 78 60 72 82 62 74 86 64 77 93 66 81 96 69 84 101 70 86 101 73 87 103 80 88 102 81 86 102 81 86 102 81 86 102 81 86 102 81 86 102 81 86 102 81 86 102 81 86 102 81 86 102 81 86 102 81 86 102 81 86 102 81 86 102 81 86 103 80 88 103 71 84 104 70 86 104 70 86 104 70 86 104 70 86 104 70 86 104 70 86 104 70 86 103 69 85 103 69 85 103 69 85 103 69 85 103 69 85 103 69 85 103 69 85 105 68 85 98 55 72 99 55 72 99 55 72 99 55 72 99 55 72 99 55 72 99 55 72 99 55 72 95 51 68 93 49 66 91 47 64 88 44 61 84 40 57 81 37 54 79 35 52 70 36 50 43 30 39 38 36 41 40 38 43 43 41 46 47 45 50 50 48 53 52 50 55 54 52 57 40 38 43 38 36 41
88 77 81 88 77 81 88 77 81 88 77 81 87 78 81 78 68 76 75 68 75 74 67 74 71 64 71 69 62 69 66 59 66 65 58 65 64 57 64 66 59 66 66 59 66 66 59 66 66 59 66 66 59 66 66 59 66 66 59 66 65 59 69 63 62 76 60 61 79 60 61 79 59 60 78 58 59 77 57 58 76 56 57 75 56 57 75 62 63 81 62 63 81 62 63 81 62 63 81 62 63 81 62 63 81 62 63 81 62 63 81 65 64 80 64 63 79 61 60 76 58 57 73 55 54 70 51 50 66 49 48 64 48 47 63 55 54 70 55 54 70 55 54 70 55 54 70 55 54 70 55 54 70 55 54 70 59 52 68 68 51 67 72 51 66 75 52 68 78 57 72 82 59 75 84 63 78 88 65 81 88 67 82 95 72 88 94 73 88 95 72 88 94 73 88 95 72 88 94 73 88 95 72 88 94 73 88 94 76 88 94 76 88 94 76 88 94 76 88 94 76 88 94 76 88 94 76 88 94 76 88 92 74 86 90 72 84 85 67 79 78 60 72 72 54 66 65 47 59 60 42 54 53 43 54 40 43 58 34 46 60 36 45 60 34 46 60 36 45 60 34 46 60 36 45 60 34 46 60 32 41 56 30 42 56 32 41 56 30 42 56 32 41 56 30 42 56 32 41 56 33 41 52 40 43 52 42 43 48 43 42 48 42 43 48 43 42 48 42 43 48 43 42 48 42 43 48 41 40 46 40 41 46 41 40 46 40 41 46 41 40 46 40 41 46 41 40 46 38 41 50 32 38 52 31 38 56 31 38 56 31 38 56 31 38 56 31 38 56 31 38 56 31 38 56 32 39 57 34 41 59 36 43 61 39 46 64 43 50 68 46 53 71 48 55 73 50 58 71 62 69 77 62 70 73 66 69 74 67 70 75 71 70 76 73 70 77 75 70 77 79 69 78 73 60 70 78 60 72 82 62 74 86 64 77 93 66 81 96 69 84 101 70 86 101 73 87 103 80 88 102 81 86 102 81 86 102 81 86 102 81 86 102 81 86 102 81 86 102 81 86 102 81 86 102 81 86 102 81 86 102 81 86 102 81 86 102 81 86 102 81 86 103 80 88 103 71 84 104 70 86 104 70 86 104 70 86 104 70 86 104 70 86 104 70 86 104 70 86 103 69 85 103 69 85 103 69 85 103 69 85 103 69 85 103 69 85 103 69 85 105 68 85 98 55 72 99 55 72 99 55 72 99 55 72 99 55 72 99 55 72 99 55 72 99 55 72 95 51 68 93 49 66 91 47 64 88 44 61 84 40 57 81 37 54 79 35 52 70 36 50 43 30 39 38 36 41 40 38 43 43 41 46 47 45 50 50 48 53 52 50 55 54 52 57 40 38 43 38 36 41
88 77 81 88 77 81 88 77 81 88 77 81 87 78 81 83 73 81 79 72 79 76 69 76 72 65 72 68 61 68 64 57 64 61 54 61 59 52 59 62 55 62 62 55 62 62 55 62 62 55 62 62 55 62 62 55 62 62 55 62 61 55 65 61 60 74 60 61 79 60 61 79 61 62 80 62 63 81 63 64 82 64 65 83 64 65 83 72 73 91 72 73 91 72 73 91 72 73 91 72 73 91 72 73 91 72 73 91 72 73 91 68 67 83 67 66 82 65 64 80 61 60 76 58 57 73 55 54 70 52 51 67 51 50 66 55 54 70 55 54 70 55 54 70 55 54 70 55 54 70 55 54 70 55 54 70 59 52 68 72 54 70 76 53 69 80 56 72 82 59 75 86 62 78 89 66 82 92 68 84 92 69 85 96 72 88 95 72 88 96 72 88 95 72 88 96 72 88 95 72 88 96 72 88 95 72 88 92 72 84 90 72 84 90 72 84 90 72 84 90 72 84 90 72 84 90 72 84 90 72 84 92 74 86 90 72 84 85 67 79 78 60 72 72 54 66 65 47 59 60 42 54 53 43 54 38 44 58 33 47 60 34 46 60 33 47 60 34 46 60 33 47 60 34 46 60 33 47 60 30 42 56 29 43 56 30 42 56 29 43 56 30 42 56 29 43 56 30 42 56 32 42 52 39 43 52 40 43 48 42 43 48 40 43 48 42 43 48 40 43 48 42 43 48 40 43 48 40 41 46 38 41 46 40 41 46 38 41 46 40 41 46 38 41 46 40 41 46 38 41 50 32 38 52 31 38 56 31 38 56 31 38 56 31 38 56 31 38 56 31 38 56 31 38 56 32 39 57 34 41 59 36 43 61 39 46 64 43 50 68 46 53 71 48 55 73 50 58 71 70 77 85 70 78 81 72 75 80 71 74 79 73 72 78 73 70 77 75 70 77 77 67 76 73 60 70 78 60 72 82 62 74 86 64 77 93 66 81 96 69 84 101 70 86 101 73 87 103 80 88 102 81 86 102 81 86 102 81 86 102 81 86 102 81 86 102 81 86 102 81 86 102 81 86 102 81 86 102 81 86 102 81 86 102 81 86 102 81 86 102 81 86 103 80 88 103 71 84 104 70 86 104 70 86 104 70 86 104 70 86 104 70 86 104 70 86 104 70 86 103 69 85 103 69 85 103 69 85 103 69 85 103 69 85 103 69 85 103 69 85 105 68 85 98 55 72 99 55 72 99 55 72 99 55 72 99 55 72 99 55 72 99 55 72 99 55 72 95 51 68 93 49 66 91 47 64 88 44 61 84 40 57 81 37 54 79 35 52 70 36 50 43 30 39 38 36 41 40 38 43 43 41 46 47 45 50 50 48 53 52 50 55 54 52 57 40 38 43 38 36 41
88 77 81 88 77 81 88 77 81 88 77 81 87 78 81 87 77 85 83 76 83 79 72 79 73 66 73 67 60 67 61 54 61 57 50 57 55 48 55 59 52 59 59 52 59 59 52 59 59 52 59 59 52 59 59 52 59 59 52 59 58 52 62 60 59 73 59 60 78 61 62 80 64 65 83 66 67 85 69 70 88 71 72 90 72 73 91 82 83 101 82 83 101 82 83 101 82 83 101 82 83 101 82 83 101 82 83 101 82 83 101 72 71 87 70 69 85 68 67 83 65 64 80 61 60 76 58 57 73 56 55 71 54 53 69 55 54 70 55 54 70 55 54 70 55 54 70 55 54 70 55 54 70 55 54 70 59 52 68 75 57 73 81 57 73 85 58 75 86 62 78 92 65 82 93 69 85 97 70 87 97 73 89 98 71 88 96 72 88 98 71 88 96 72 88 98 71 88 96 72 88 98 71 88 96 72 88 89 69 81 87 69 81 87 69 81 87 69 81 87 69 81 87 69 81 87 69 81 87 69 81 92 74 86 90 72 84 85 67 79 78 60 72 72 54 66 65 47 59 60 42 54 53 43 54 38 44 58 31 47 60 33 47 60 31 47 60 33 47 60 31 47 60 33 47 60 31 47 60 29 43 56 27 43 56 29 43 56 27 43 56 29 43 56 27 43 56 29 43 56 30 43 52 37 44 52 39 44 48 40 43 48 39 44 48 40 43 48 39 44 48 40 43 48 39 44 48 38 41 46 37 42 46 38 41 46 37 42 46 38 41 46 37 42 46 38 41 46 37 41 50 32 38 52 31 38 56 31 38 56 31 38 56 31 38 56 31 38 56 31 38 56 31 38 56 32 39 57 34 41 59 36 43 61 39 46 64 43 50 68 46 53 71 48 55 73 50 58 71 78 85 93 77 85 88 78 81 86 75 78 83 76 75 81 74 71 78 74 69 76 76 66 75 73 60 70 78 60 72 82 62 74 86 64 77 93 66 81 96 69 84 101 70 86 101 73 87 103 80 88 102 81 86 102 81 86 102 81 86 102 81 86 102 81 86 102 81 86 102 81 86 102 81 86 102 81 86 102 81 86 102 81 86 102 81 86 102 81 86 102 81 86 103 80 88 103 71 84 104 70 86 104 70 86 104 70 86 104 70 86 104 70 86 104 70 86 104 70 86 103 69 85 103 69 85 103 69 85 103 69 85 103 69 85 103 69 85 103 69 85 105 68 85 98 55 72 99 55 72 99 55 72 99 55 72 99 55 72 99 55 72 99 55 72 99 55 72 95 51 68 93 49 66 91 47 64 88 44 61 84 40 57 81 37 54 79 35 52 70 36 50 43 30 39 38 36 41 40 38 43 43 41 46 47 45 50 50 48 53 52 50 55 54 52 57 40 38 43 38 36 41
88 77 81 88 77 81 88 77 81 88 77 81 87 78 81 91 81 89 86 79 86 81 74 81 74 67 74 66 59 66 59 52 59 54 47 54 51 44 51 57 50 57 57 50 57 57 50 57 57 50 57 57 50 57 57 50 57 57 50 57 56 50 60 59 58 72 59 60 78 62 63 81 65 66 84 69 70 88 73 74 92 76 77 95 78 79 97 89 90 108 89 90 108 89 90 108 89 90 108 89 90 108 89 90 108 89 90 108 89 90 108 74 73 89 73 72 88 70 69 85 67 66 82 64 63 79 60 59 75 58 57 73 57 56 72 55 54 70 55 54 70 55 54 70 55 54 70 55 54 70 55 54 70 55 54 70 59 52 68 80 59 76 85 58 75 88 59 77 91 64 81 95 66 84 97 70 87 101 72 90 101 74 91 99 70 88 98 71 88 99 70 88 98 71 88 99 70 88 98 71 88 99 70 88 96 72 88 87 67 79 85 67 79 85 67 79 85 67 79 85 67 79 85 67 79 85 67 79 85 67 79 92 74 86 90 72 84 85 67 79 78 60 72 72 54 66 65 47 59 60 42 54 53 43 54 37 45 58 30 48 60 31 47 60 30 48 60 31 47 60 30 48 60 31 47 60 30 48 60 27 43 56 26 44 56 27 43 56 26 44 56 27 43 56 26 44 56 27 43 56 29 43 52 36 45 52 37 45 48 39 44 48 37 45 48 39 44 48 37 45 48 39 44 48 37 45 48 37 42 46 35 43 46 37 42 46 35 43 46 37 42 46 35 43 46 37 42 46 35 42 50 31 39 52 31 38 56 31 38 56 31 38 56 31 38 56 31 38 56 31 38 56 31 38 56 32 39 57 34 41 59 36 43 61 39 46 64 43 50 68 46 53 71 48 55 73 50 58 71 84 91 99 82 90 93 82 85 90 78 81 86 77 76 82 75 72 79 74 69 76 75 65 74 73 60 70 78 60 72 82 62 74 86 64 77 93 66 81 96 69 84 101 70 86 101 73 87 103 80 88 102 81 86 102 81 86 102 81 86 102 81 86 102 81 86 102 81 86 102 81 86 102 81 86 102 81 86 102 81 86 102 81 86 102 81 86 102 81 86 102 81 86 103 80 88 103 71 84 104 70 86 104 70 86 104 70 86 104 70 86 104 70 86 104 70 86 104 70 86 103 69 85 103 69 85 103 69 85 103 69 85 103 69 85 103 69 85 103 69 85 105 68 85 98 55 72 99 55 72 99 55 72 99 55 72 99 55 72 99 55 72 99 55 72 99 55 72 95 51 68 93 49 66 91 47 64 88 44 61 84 40 57 81 37 54 79 35 52 70 36 50 43 30 39 38 36 41 40 38 43 43 41 46 47 45 50 50 48 53 52 50 55 54 52 57 40 38 43 38 36 41
88 77 81 88 77 81 88 77 81 88 77 81 87 78 83 91 85 89 88 81 88 82 75 82 74 67 74 66 59 66 58 51 58 52 45 52 49 42 49 55 48 55 55 48 55 55 48 55 55 48 55 55 48 55 55 48 55 55 48 55 54 49 56 61 57 71 61 59 73 65 63 77 69 67 81 74 72 86 78 76 90 82 80 94 84 82 96 96 94 108 96 94 108 96 94 108 96 94 108 96 94 108 96 94 108 96 94 108 96 94 108 77 73 88 76 72 86 74 70 84 70 66 80 67 63 77 64 60 74 61 57 71 60 56 70 57 53 67 57 53 67 57 53 67 57 53 67 57 53 67 57 53 67 57 53 67 62 51 65 81 60 75 86 59 74 89 62 77 92 65 80 95 68 83 99 72 87 101 74 89 102 75 90 98 71 86 98 71 86 98 71 86 98 71 86 98 71 86 98 71 86 98 71 86 96 72 86 85 65 77 83 66 76 83 65 77 83 66 76 83 65 77 83 66 76 83 65 77 83 66 76 92 74 86 90 73 83 85 67 79 78 61 71 72 54 66 65 48 58 60 42 54 53 43 54 38 44 56 33 47 58 34 46 58 33 47 58 34 46 58 33 47 58 34 46 58 33 47 58 30 42 54 29 43 54 30 42 54 29 43 54 30 42 54 29 43 54 30 42 54 32 42 52 37 44 52 39 44 50 39 44 50 39 44 50 39 44 50 39 44 50 39 44 50 39 44 50 37 42 48 37 42 48 37 42 48 37 42 48 37 42 48 37 42 48 37 42 48 37 41 50 32 38 52 32 37 56 32 37 56 32 37 56 32 37 56 32 37 56 32 37 56 32 37 56 33 38 57 35 40 59 37 42 61 40 45 64 44 49 68 47 52 71 49 54 73 53 56 71 90 93 100 90 91 95 87 86 91 84 82 87 81 76 82 78 71 78 76 66 74 76 65 73 75 59 69 78 61 71 82 62 73 86 64 76 91 67 80 94 70 83 98 72 85 100 74 85 105 79 88 103 80 86 103 80 88 103 80 86 103 80 88 103 80 86 103 80 88 103 80 86 103 80 88 103 80 86 103 80 88 103 80 86 103 80 88 103 80 86 103 80 88 105 79 88 103 71 84 104 70 86 104 70 86 104 70 86 104 70 86 104 70 86 104 70 86 104 70 86 103 69 85 103 69 85 103 69 85 103 69 85 103 69 85 103 69 85 103 69 85 106 67 85 99 55 72 102 53 72 101 54 72 101 54 72 101 54 72 101 54 72 99 55 72 99 55 72 94 51 68 92 49 66 89 48 64 86 45 61 82 41 57 79 38 54 75 37 52 68 38 50 42 31 39 37 36 41 40 38 43 42 41 46 47 45 50 49 48 53 52 50 55 53 52 57 40 38 43 37 36 41
91 82 87 91 82 87 91 82 87 91 82 87 91 82 87 86 80 84 84 78 82 82 76 80 79 73 77 75 69 73 72 66 70 70 64 68 68 62 66 58 52 56 58 52 56 58 52 56 58 52 56 58 52 56 58 52 56 58 52 56 58 51 58 55 48 56 57 49 60 59 51 62 62 54 65 66 58 69 69 61 72 71 63 74 73 65 76 97 89 100 96 88 99 94 86 97 90 82 93 87 79 90 84 76 87 81 73 84 80 73 81 64 54 63 64 54 63 64 54 63 64 54 63 64 54 63 64 54 63 64 54 63 64 54 63 66 56 65 68 58 67 70 60 69 73 63 72 77 67 76 80 70 79 82 72 81 86 73 82 96 76 87 97 75 87 97 75 87 97 75 87 97 75 87 97 75 87 97 75 87 97 75 87 98 76 88 98 76 88 97 75 87 96 74 86 94 72 84 93 71 83 92 70 82 91 71 82 90 73 83 87 72 79 85 69 79 82 67 74 78 62 72 75 60 67 73 57 67 71 56 63 79 63 73 79 64 71 79 63 73 79 64 71 79 63 73 79 64 71 79 63 73 76 64 74 43 41 52 39 43 55 40 42 55 39 43 55 40 42 55 39 43 55 40 42 55 39 43 55 39 41 54 38 42 54 39 41 54 38 42 54 39 41 54 38 42 54 39 41 54 39 41 54 46 48 60 46 48 60 46 48 60 46 48 60 46 48 60 46 48 60 46 48 60 46 48 60 35 37 49 35 37 49 35 37 49 35 37 49 35 37 49 35 37 49 35 37 49 35 37 50 43 42 58 43 42 60 43 42 60 43 42 60 43 42 60 43 42 60 43 42 60 43 42 60 52 51 69 54 53 71 56 55 73 59 58 76 63 62 80 66 65 83 68 67 85 71 69 83 96 89 96 97 87 88 94 84 85 90 78 80 86 74 76 81 69 71 80 65 68 78 63 66 97 81 84 97 81 84 97 81 84 99 80 84 99 80 84 99 80 84 99 80 84 101 78 86 102 75 84 104 74 84 104 74 86 104 74 84 104 74 86 104 74 84 104 74 86 104 74 84 99 69 81 99 69 79 99 69 81 99 69 79 99 69 81 99 69 79 99 69 81 99 69 81 99 65 81 101 64 81 101 64 81 101 64 81 101 64 81 101 64 81 101 64 81 101 64 81 103 66 83 103 66 83 103 66 83 103 66 83 103 66 83 103 66 83 103 66 83 106 65 83 105 54 73 107 52 73 106 53 73 105 54 73 105 54 73 103 54 73 102 55 73 99 56 73 96 55 71 91 55 69 84 50 64 76 44 57 70 38 51 62 32 44 55 27 39 48 28 37 38 31 38 35 36 41 38 37 43 40 41 46 45 44 50 47 48 53 50 49 55 51 52 57 36 35 41 33 34 39
91 82 87 91 82 87 91 82 87 91 82 87 91 82 87 86 80 84 84 78 82 82 76 80 79 73 77 75 69 73 72 66 70 70 64 68 68 62 66 58 52 56 58 52 56 58 52 56 58 52 56 58 52 56 58 52 56 58 52 56 58 52 56 58 47 55 60 49 57 62 51 59 65 54 62 69 58 66 72 61 69 74 63 71 76 65 73 99 88 96 98 87 95 95 84 92 92 81 89 89 78 86 85 74 82 83 72 80 82 71 79 66 53 60 66 53 60 66 53 60 66 53 60 66 53 60 66 53 60 66 53 60 66 53 60 68 55 62 70 57 64 72 59 66 75 62 69 79 66 73 82 69 76 84 71 78 88 73 80 92 75 83 94 74 83 94 74 83 94 74 83 94 74 83 94 74 83 94 74 83 94 74 83 96 76 85 95 75 84 95 75 84 94 74 83 94 74 83 93 73 82 93 73 82 90 73 81 90 73 81 87 72 79 85 70 77 82 67 74 78 63 70 75 60 67 73 58 65 71 56 63 79 64 71 79 64 71 79 64 71 79 64 71 79 64 71 79 64 71 79 64 71 76 65 73 46 40 52 43 41 54 43 41 54 43 41 54 43 41 54 43 41 54 43 41 54 43 41 54 42 40 53 42 40 53 42 40 53 42 40 53 42 40 53 42 40 53 42 40 53 42 40 53 48 47 61 48 47 61 48 47 61 48 47 61 48 47 61 48 47 61 48 47 61 48 47 61 37 36 50 37 36 50 37 36 50 37 36 50 37 36 50 37 36 50 37 36 50 37 36 50 44 41 60 44 41 60 44 41 60 44 41 60 44 41 60 44 41 60 44 41 60 44 41 60 53 50 69 55 52 71 57 54 73 60 57 76 64 61 80 67 64 83 69 66 85 74 68 82 98 85 92 100 84 85 97 81 82 93 77 78 89 73 74 85 69 70 82 66 67 81 65 66 97 81 82 97 81 82 97 81 82 97 81 82 97 81 82 97 81 82 97 81 82 100 79 84 102 75 84 105 73 86 105 73 86 105 73 86 105 73 86 105 73 86 105 73 86 105 73 86 100 68 81 100 68 81 100 68 81 100 68 81 100 68 81 100 68 81 100 68 81 100 68 81 101 64 81 101 64 81 101 64 81 101 64 81 101 64 81 101 64 81 101 64 81 101 64 81 103 66 83 103 66 83 103 66 83 103 66 83 103 66 83 103 66 83 103 66 83 107 64 83 106 53 73 109 51 73 109 51 73 106 53 73 106 53 73 103 54 73 102 55 73 99 56 73 94 56 71 89 55 69 83 51 64 73 45 57 67 39 51 57 34 44 52 29 39 45 30 37 37 32 39 35 36 41 37 38 43 40 41 46 44 45 50 47 48 53 49 50 55 51 52 57 35 36 41 33 34 39
91 82 87 91 82 87 91 82 87 91 82 87 91 82 87 86 80 84 84 78 82 82 76 80 79 73 77 75 69 73 72 66 70 70 64 68 68 62 66 58 52 56 58 52 56 58 52 56 58 52 56 58 52 56 58 52 56 58 52 56 58 52 56 58 47 55 60 49 57 62 51 59 65 54 62 69 58 66 72 61 69 74 63 71 76 65 73 97 86 94 95 84 92 93 82 90 90 79 87 86 75 83 83 72 80 81 70 78 79 68 76 66 53 60 66 53 60 66 53 60 66 53 60 66 53 60 66 53 60 66 53 60 66 53 60 68 55 62 70 57 64 72 59 66 75 62 69 79 66 73 82 69 76 84 71 78 88 73 80 90 73 81 92 72 81 92 72 81 92 72 81 92 72 81 92 72 81 92 72 81 92 72 81 92 72 81 92 72 81 93 73 82 94 74 83 94 74 83 95 75 84 96 76 85 94 77 85 90 73 81 87 72 79 85 70 77 82 67 74 78 63 70 75 60 67 73 58 65 71 56 63 79 64 71 79 64 71 79 64 71 79 64 71 79 64 71 79 64 71 79 64 71 76 65 73 46 40 52 43 41 54 43 41 54 43 41 54 43 41 54 43 41 54 43 41 54 43 41 54 42 40 53 42 40 53 42 40 53 42 40 53 42 40 53 42 40 53 42 40 53 42 40 53 48 47 61 48 47 61 48 47 61 48 47 61 48 47 61 48 47 61 48 47 61 48 47 61 37 36 50 37 36 50 37 36 50 37 36 50 37 36 50 37 36 50 37 36 50 37 36 50 44 41 60 44 41 60 44 41 60 44 41 60 44 41 60 44 41 60 44 41 60 44 41 60 53 50 69 55 52 71 57 54 73 60 57 76 64 61 80 67 64 83 69 66 85 74 68 82 95 82 89 97 81 82 95 79 80 92 76 77 90 74 75 87 71 72 85 69 70 84 68 69 97 81 82 97 81 82 97 81 82 97 81 82 97 81 82 97 81 82 97 81 82 100 79 84 102 75 84 105 73 86 105 73 86 105 73 86 105 73 86 105 73 86 105 73 86 105 73 86 100 68 81 100 68 81 100 68 81 100 68 81 100 68 81 100 68 81 100 68 81 100 68 81 101 64 81 101 64 81 101 64 81 101 64 81 101 64 81 101 64 81 101 64 81 101 64 81 103 66 83 103 66 83 103 66 83 103 66 83 103 66 83 103 66 83 103 66 83 107 64 83 106 53 73 109 51 73 109 51 73 106 53 73 106 53 73 103 54 73 102 55 73 99 56 73 94 56 71 89 55 69 83 51 64 73 45 57 67 39 51 57 34 44 52 29 39 45 30 37 37 32 39 35 36 41 37 38 43 40 41 46 44 45 50 47 48 53 49 50 55 51 52 57 35 36 41 33 34 39
91 82 87 91 82 87 91 82 87 91 82 87 91 82 87 86 80 84 84 78 82 82 76 80 79 73 77 75 69 73 72 66 70 70 64 68 68 62 66 58 52 56 58 52 56 58 52 56 58 52 56 58 52 56 58 52 56 58 52 56 58 52 56 58 47 55 60 49 57 62 51 59 65 54 62 69 58 66 72 61 69 74 63 71 76 65 73 93 82 90 92 81 89 90 79 87 86 75 83 83 72 80 80 69 77 77 66 74 76 65 73 66 53 60 66 53 60 66 53 60 66 53 60 66 53 60 66 53 60 66 53 60 66 53 60 68 55 62 70 57 64 72 59 66 75 62 69 79 66 73 82 69 76 84 71 78 88 73 80 87 70 78 89 69 78 89 69 78 89 69 78 89 69 78 89 69 78 89 69 78 89 69 78 88 68 77 89 69 78 90 70 79 93 73 82 95 75 84 98 78 87 99 79 88 98 81 89 90 73 81 87 72 79 85 70 77 82 67 74 78 63 70 75 60 67 73 58 65 71 56 63 79 64 71 79 64 71 79 64 71 79 64 71 79 64 71 79 64 71 79 64 71 76 65 73 46 40 52 43 41 54 43 41 54 43 41 54 43 41 54 43 41 54 43 41 54 43 41 54 42 40 53 42 40 53 42 40 53 42 40 53 42 40 53 42 40 53 42 40 53 42 40 53 48 47 61 48 47 61 48 47 61 48 47 61 48 47 61 48 47 61 48 47 61 48 47 61 37 36 50 37 36 50 37 36 50 37 36 50 37 36 50 37 36 50 37 36 50 37 36 50 44 41 60 44 41 60 44 41 60 44 41 60 44 41 60 44 41 60 44 41 60 44 41 60 53 50 69 55 52 71 57 54 73 60 57 76 64 61 80 67 64 83 69 66 85 74 68 82 90 77 84 93 77 78 92 76 77 91 75 76 91 75 76 90 74 75 89 73 74 89 73 74 97 81 82 97 81 82 97 81 82 97 81 82 97 81 82 97 81 82 97 81 82 100 79 84 102 75 84 105 73 86 105 73 86 105 73 86 105 73 86 105 73 86 105 73 86 105 73 86 100 68 81 100 68 81 100 68 81 100 68 81 100 68 81 100 68 81 100 68 81 100 68 81 101 64 81 101 64 81 101 64 81 101 64 81 101 64 81 101 64 81 101 64 81 101 64 81 103 66 83 103 66 83 103 66 83 103 66 83 103 66 83 103 66 83 103 66 83 107 64 83 106 53 73 109 51 73 109 51 73 106 53 73 106 53 73 103 54 73 102 55 73 99 56 73 94 56 71 89 55 69 83 51 64 73 45 57 67 39 51 57 34 44 52 29 39 45 30 37 37 32 39 35 36 41 37 38 43 40 41 46 44 45 50 47 48 53 49 50 55 51 52 57 35 36 41 33 34 39
91 82 87 91 82 87 91 82 87 91 82 87 91 82 87 86 80 84 84 78 82 82 76 80 79 73 77 75 69 73 72 66 70 70 64 68 68 62 66 58 52 56 58 52 56 58 52 56 58 52 56 58 52 56 58 52 56 58 52 56 58 52 56 58 47 55 60 49 57 62 51 59 65 54 62 69 58 66 72 61 69 74 63 71 76 65 73 90 79 87 89 78 86 86 75 83 83 72 80 80 69 77 76 65 73 74 63 71 73 62 70 66 53 60 66 53 60 66 53 60 66 53 60 66 53 60 66 53 60 66 53 60 66 53 60 68 55 62 70 57 64 72 59 66 75 62 69 79 66 73 82 69 76 84 71 78 88 73 80 83 66 74 85 65 74 85 65 74 85 65 74 85 65 74 85 65 74 85 65 74 85 65 74 83 63 72 85 65 74 88 68 77 92 72 81 96 76 85 100 80 89 103 83 92 103 86 94 90 73 81 87 72 79 85 70 77 82 67 74 78 63 70 75 60 67 73 58 65 71 56 63 79 64 71 79 64 71 79 64 71 79 64 71 79 64 71 79 64 71 79 64 71 76 65 73 46 40 52 43 41 54 43 41 54 43 41 54 43 41 54 43 41 54 43 41 54 43 41 54 42 40 53 42 40 53 42 40 53 42 40 53 42 40 53 42 40 53 42 40 53 42 40 53 48 47 61 48 47 61 48 47 61 48 47 61 48 47 61 48 47 61 48 47 61 48 47 61 37 36 50 37 36 50 37 36 50 37 36 50 37 36 50 37 36 50 37 36 50 37 36 50 44 41 60 44 41 60 44 41 60 44 41 60 44 41 60 44 41 60 44 41 60 44 41 60 53 50 69 55 52 71 57 54 73 60 57 76 64 61 80 67 64 83 69 66 85 74 68 82 86 73 80 89 73 74 90 74 75 91 75 76 91 75 76 92 76 77 93 77 78 93 77 78 97 81 82 97 81 82 97 81 82 97 81 82 97 81 82 97 81 82 97 81 82 100 79 84 102 75 84 105 73 86 105 73 86 105 73 86 105 73 86 105 73 86 105 73 86 105 73 86 100 68 81 100 68 81 100 68 81 100 68 81 100 68 81 100 68 81 100 68 81 100 68 81 101 64 81 101 64 81 101 64 81 101 64 81 101 64 81 101 64 81 101 64 81 101 64 81 103 66 83 103 66 83 103 66 83 103 66 83 103 66 83 103 66 83 103 66 83 107 64 83 106 53 73 109 51 73 109 51 73 106 53 73 106 53 73 103 54 73 102 55 73 99 56 73 94 56 71 89 55 69 83 51 64 73 45 57 67 39 51 57 34 44 52 29 39 45 30 37 37 32 39 35 36 41 37 38 43 40 41 46 44 45 50 47 48 53 49 50 55 51 52 57 35 36 41 33 34 39
91 82 87 91 82 87 91 82 87 91 82 87 91 82 87 86 80 84 84 78 82 82 76 80 79 73 77 75 69 73 72 66 70 70 64 68 68 62 66 58 52 56 58 52 56 58 52 56 58 52 56 58 52 56 58 52 56 58 52 56 58 52 56 58 47 55 60 49 57 62 51 59 65 54 62 69 58 66 72 61 69 74 63 71 76 65 73 87 76 84 85 74 82 83 72 80 80 69 77 76 65 73 73 62 70 71 60 68 69 58 66 66 53 60 66 53 60 66 53 60 66 53 60 66 53 60 66 53 60 66 53 60 66 53 60 68 55 62 70 57 64 72 59 66 75 62 69 79 66 73 82 69 76 84 71 78 88 73 80 80 63 71 82 62 71 82 62 71 82 62 71 82 62 71 82 62 71 82 62 71 82 62 71 79 59 68 81 61 70 85 65 74 91 71 80 97 77 86 103 83 92 107 87 96 107 90 98 90 73 81 87 72 79 85 70 77 82 67 74 78 63 70 75 60 67 73 58 65 71 56 63 79 64 71 79 64 71 79 64 71 79 64 71 79 64 71 79 64 71 79 64 71 76 65 73 46 40 52 43 41 54 43 41 54 43 41 54 43 41 54 43 41 54 43 41 54 43 41 54 42 40 53 42 40 53 42 40 53 42 40 53 42 40 53 42 40 53 42 40 53 42 40 53 48 47 61 48 47 61 48 47 61 48 47 61 48 47 61 48 47 61 48 47 61 48 47 61 37 36 50 37 36 50 37 36 50 37 36 50 37 36 50 37 36 50 37 36 50 37 36 50 44 41 60 44 41 60 44 41 60 44 41 60 44 41 60 44 41 60 44 41 60 44 41 60 53 50 69 55 52 71 57 54 73 60 57 76 64 61 80 67 64 83 69 66 85 74 68 82 81 68 75 85 69 70 87 71 72 90 74 75 92 76 77 95 79 80 97 81 82 98 82 83 97 81 82 97 81 82 97 81 82 97 81 82 97 81 82 97 81 82 97 81 82 100 79 84 102 75 84 105 73 86 105 73 86 105 73 86 105 73 86 105 73 86 105 73 86 105 73 86 100 68 81 100 68 81 100 68 81 100 68 81 100 68 81 100 68 81 100 68 81 100 68 81 101 64 81 101 64 81 101 64 81 101 64 81 101 64 81 101 64 81 101 64 81 101 64 81 103 66 83 103 66 83 103 66 83 103 66 83 103 66 83 103 66 83 103 66 83 107 64 83 106 53 73 109 51 73 109 51 73 106 53 73 106 53 73 103 54 73 102 55 73 99 56 73 94 56 71 89 55 69 83 51 64 73 45 57 67 39 51 57 34 44 52 29 39 45 30 37 37 32 39 35 36 41 37 38 43 40 41 46 44 45 50 47 48 53 49 50 55 51 52 57 35 36 41 33 34 39
91 82 87 91 82 87 91 82 87 91 82 87 91 82 87 86 80 84 84 78 82 82 76 80 79 73 77 75 69 73 72 66 70 70 64 68 68 62 66 58 52 56 58 52 56 58 52 56 58 52 56 58 52 56 58 52 56 58 52 56 58 52 56 58 47 55 60 49 57 62 51 59 65 54 62 69 58 66 72 61 69 74 63 71 76 65 73 84 73 81 83 72 80 81 70 78 77 66 74 74 63 71 71 60 68 68 57 65 67 56 64 66 53 60 66 53 60 66 53 60 66 53 60 66 53 60 66 53 60 66 53 60 66 53 60 68 55 62 70 57 64 72 59 66 75 62 69 79 66 73 82 69 76 84 71 78 88 73 80 78 61 69 80 60 69 80 60 69 80 60 69 80 60 69 80 60 69 80 60 69 80 60 69 75 55 64 78 58 67 83 63 72 90 70 79 98 78 87 105 85 94 110 90 99 111 94 102 90 73 81 87 72 79 85 70 77 82 67 74 78 63 70 75 60 67 73 58 65 71 56 63 79 64 71 79 64 71 79 64 71 79 64 71 79 64 71 79 64 71 79 64 71 76 65 73 46 40 52 43 41 54 43 41 54 43 41 54 43 41 54 43 41 54 43 41 54 43 41 54 42 40 53 42 40 53 42 40 53 42 40 53 42 40 53 42 40 53 42 40 53 42 40 53 48 47 61 48 47 61 48 47 61 48 47 61 48 47 61 48 47 61 48 47 61 48 47 61 37 36 50 37 36 50 37 36 50 37 36 50 37 36 50 37 36 50 37 36 50 37 36 50 44 41 60 44 41 60 44 41 60 44 41 60 44 41 60 44 41 60 44 41 60 44 41 60 53 50 69 55 52 71 57 54 73 60 57 76 64 61 80 67 64 83 69 66 85 74 68 82 78 65 72 82 66 67 85 69 70 89 73 74 93 77 78 97 81 82 100 84 85 101 85 86 97 81 82 97 81 82 97 81 82 97 81 82 97 81 82 97 81 82 97 81 82 100 79 84 102 75 84 105 73 86 105 73 86 105 73 86 105 73 86 105 73 86 105 73 86 105 73 86 100 68 81 100 68 81 100 68 81 100 68 81 100 68 81 100 68 81 100 68 81 100 68 81 101 64 81 101 64 81 101 64 81 101 64 81 101 64 81 101 64 81 101 64 81 101 64 81 103 66 83 103 66 83 103 66 83 103 66 83 103 66 83 103 66 83 103 66 83 107 64 83 106 53 73 109 51 73 109 51 73 106 53 73 106 53 73 103 54 73 102 55 73 99 56 73 94 56 71 89 55 69 83 51 64 73 45 57 67 39 51 57 34 44 52 29 39 45 30 37 37 32 39 35 36 41 37 38 43 40 41 46 44 45 50 47 48 53 49 50 55 51 52 57 35 36 41 33 34 39
91 82 87 91 82 87 91 82 87 91 82 87 91 82 87 86 80 84 84 78 82 82 76 80 79 73 77 75 69 73 72 66 70 70 64 68 68 62 66 58 52 56 58 52 56 58 52 56 58 52 56 58 52 56 58 52 56 58 52 56 58 52 56 58 47 55 60 49 57 62 51 59 65 54 62 69 58 66 72 61 69 74 63 71 76 65 73 83 72 80 82 71 79 79 68 76 76 65 73 73 62 70 69 58 66 67 56 64 66 55 63 66 53 60 66 53 60 66 53 60 66 53 60 66 53 60 66 53 60 66 53 60 66 53 60 68 55 62 70 57 64 72 59 66 75 62 69 79 66 73 82 69 76 84 71 78 88 73 80 76 59 67 78 58 67 78 58 67 78 58 67 78 58 67 78 58 67 78 58 67 78 58 67 73 53 62 76 56 65 82 62 71 90 70 79 98 78 87 106 86 95 112 92 101 113 96 104 90 73 81 87 72 79 85 70 77 82 67 74 78 63 70 75 60 67 73 58 65 71 56 63 79 64 71 79 64 71 79 64 71 79 64 71 79 64 71 79 64 71 79 64 71 76 65 73 46 40 52 43 41 54 43 41 54 43 41 54 43 41 54 43 41 54 43 41 54 43 41 54 42 40 53 42 40 53 42 40 53 42 40 53 42 40 53 42 40 53 42 40 53 42 40 53 48 47 61 48 47 61 48 47 61 48 47 61 48 47 61 48 47 61 48 47 61 48 47 61 37 36 50 37 36 50 37 36 50 37 36 50 37 36 50 37 36 50 37 36 50 37 36 50 44 41 60 44 41 60 44 41 60 44 41 60 44 41 60 44 41 60 44 41 60 44 41 60 53 50 69 55 52 71 57 54 73 60 57 76 64 61 80 67 64 83 69 66 85 74 68 82 76 63 70 81 65 66 84 68 69 89 73 74 93 77 78 98 82 83 101 85 86 103 87 88 97 81 82 97 81 82 97 81 82 97 81 82 97 81 82 97 81 82 97 81 82 100 79 84 102 75 84 105 73 86 105 73 86 105 73 86 105 73 86 105 73 86 105 73 86 105 73 86 100 68 81 100 68 81 100 68 81 100 68 81 100 68 81 100 68 81 100 68 81 100 68 81 101 64 81 101 64 81 101 64 81 101 64 81 101 64 81 101 64 81 101 64 81 101 64 81 103 66 83 103 66 83 103 66 83 103 66 83 103 66 83 103 66 83 103 66 83 107 64 83 106 53 73 109 51 73 109 51 73 106 53 73 106 53 73 103 54 73 102 55 73 99 56 73 94 56 71 89 55 69 83 51 64 73 45 57 67 39 51 57 34 44 52 29 39 45 30 37 37 32 39 35 36 41 37 38 43 40 41 46 44 45 50 47 48 53 49 50 55 51 52 57 35 36 41 33 34 39
70 61 66 70 61 66 70 61 66 70 61 66 70 61 66 66 60 64 66 60 64 66 60 64 66 60 64 66 60 64 66 60 64 66 60 64 66 60 64 60 54 58 60 54 58 60 54 58 60 54 58 60 54 58 60 54 58 60 54 58 60 54 58 61 50 58 61 50 58 61 50 58 61 50 58 61 50 58 61 50 58 61 50 58 61 50 58 61 50 58 61 50 58 61 50 58 61 50 58 61 50 58 61 50 58 61 50 58 61 50 58 56 43 50 58 45 52 61 48 55 66 53 60 70 57 64 75 62 69 78 65 72 80 67 74 67 54 61 69 56 63 71 58 65 74 61 68 78 65 72 81 68 75 83 70 77 87 72 79 82 65 73 82 62 71 80 60 69 77 57 66 73 53 62 70 50 59 68 48 57 66 46 55 78 58 67 80 60 69 82 62 71 85 65 74 89 69 78 92 72 81 94 74 83 94 77 85 91 74 82 88 73 80 86 71 78 83 68 75 79 64 71 76 61 68 74 59 66 72 57 64 73 58 65 73 58 65 73 58 65 73 58 65 73 58 65 73 58 65 73 58 65 70 59 67 55 49 61 51 49 62 50 48 61 49 47 60 48 46 59 46 44 57 46 44 57 45 43 56 73 71 84 71 69 82 69 67 80 66 64 77 62 60 73 59 57 70 57 55 68 55 53 66 60 59 73 58 57 71 56 55 69 53 52 66 49 48 62 46 45 59 44 43 57 42 41 55 42 41 55 42 41 55 42 41 55 42 41 55 42 41 55 42 41 55 42 41 55 42 41 55 50 47 66 50 47 66 50 47 66 50 47 66 50 47 66 50 47 66 50 47 66 50 47 66 60 57 76 61 58 77 63 60 79 67 64 83 70 67 86 73 70 89 76 73 92 80 74 88 98 85 92 101 85 86 101 85 86 101 85 86 101 85 86 101 85 86 101 85 86 101 85 86 96 80 81 96 80 81 96 80 81 96 80 81 96 80 81 96 80 81 96 80 81 99 78 83 99 72 81 102 70 83 102 70 83 102 70 83 102 70 83 102 70 83 102 70 83 102 70 83 98 66 79 98 66 79 98 66 79 98 66 79 98 66 79 98 66 79 98 66 79 98 66 79 98 61 78 98 61 78 98 61 78 98 61 78 98 61 78 98 61 78 98 61 78 98 61 78 101 64 81 101 64 81 101 64 81 101 64 81 101 64 81 101 64 81 101 64 81 105 62 81 106 53 73 109 51 73 109 51 73 106 53 73 106 53 73 103 54 73 102 55 73 99 56 73 92 54 69 87 53 67 81 49 62 71 43 55 65 37 49 55 32 42 50 27 37 43 28 35 45 40 47 41 42 47 41 42 47 41 42 47 41 42 47 41 42 47 41 42 47 41 42 47 24 25 30 24 25 30
70 61 66 70 61 66 70 61 66 70 61 66 70 61 66 66 60 64 66 60 64 66 60 64 66 60 64 66 60 64 66 60 64 66 60 64 66 60 64 60 54 58 60 54 58 60 54 58 60 54 58 60 54 58 60 54 58 60 54 58 60 54 58 61 50 58 61 50 58 61 50 58 61 50 58 61 50 58 61 50 58 61 50 58 61 50 58 61 50 58 61 50 58 61 50 58 61 50 58 61 50 58 61 50 58 61 50 58 61 50 58 58 45 52 59 46 53 62 49 56 66 53 60 70 57 64 74 61 68 77 64 71 78 65 72 67 54 61 69 56 63 71 58 65 74 61 68 78 65 72 81 68 75 83 70 77 87 72 79 82 65 73 82 62 71 80 60 69 77 57 66 73 53 62 70 50 59 68 48 57 66 46 55 78 58 67 80 60 69 82 62 71 85 65 74 89 69 78 92 72 81 94 74 83 94 77 85 91 74 82 88 73 80 86 71 78 83 68 75 79 64 71 76 61 68 74 59 66 72 57 64 73 58 65 73 58 65 73 58 65 73 58 65 73 58 65 73 58 65 73 58 65 70 59 67 54 48 60 51 49 62 51 49 62 50 48 61 49 47 60 49 47 60 48 46 59 48 46 59 73 71 84 71 69 82 69 67 80 66 64 77 62 60 73 59 57 70 57 55 68 55 53 66 60 59 73 58 57 71 56 55 69 53 52 66 49 48 62 46 45 59 44 43 57 42 41 55 42 41 55 42 41 55 42 41 55 42 41 55 42 41 55 42 41 55 42 41 55 42 41 55 50 47 66 50 47 66 50 47 66 50 47 66 50 47 66 50 47 66 50 47 66 50 47 66 61 58 77 62 59 78 65 62 81 68 65 84 71 68 87 75 72 91 77 74 93 81 75 89 98 85 92 101 85 86 101 85 86 101 85 86 101 85 86 101 85 86 101 85 86 101 85 86 96 80 81 96 80 81 96 80 81 96 80 81 96 80 81 96 80 81 96 80 81 99 78 83 99 72 81 102 70 83 102 70 83 102 70 83 102 70 83 102 70 83 102 70 83 102 70 83 98 66 79 98 66 79 98 66 79 98 66 79 98 66 79 98 66 79 98 66 79 98 66 79 98 61 78 98 61 78 98 61 78 98 61 78 98 61 78 98 61 78 98 61 78 98 61 78 101 64 81 101 64 81 101 64 81 101 64 81 101 64 81 101 64 81 101 64 81 105 62 81 106 53 73 109 51 73 109 51 73 106 53 73 106 53 73 103 54 73 102 55 73 99 56 73 92 54 69 87 53 67 81 49 62 71 43 55 65 37 49 55 32 42 50 27 37 43 28 35 45 40 47 41 42 47 41 42 47 41 42 47 41 42 47 41 42 47 41 42 47 41 42 47 24 25 30 24 25 30
70 61 66 70 61 66 70 61 66 70 61 66 70 61 66 66 60 64 66 60 64 66 60 64 66 60 64 66 60 64 66 60 64 66 60 64 66 60 64 60 54 58 60 54 58 60 54 58 60 54 58 60 54 58 60 54 58 60 54 58 60 54 58 61 50 58 61 50 58 61 50 58 61 50 58 61 50 58 61 50 58 61 50 58 61 50 58 61 50 58 61 50 58 61 50 58 61 50 58 61 50 58 61 50 58 61 50 58 61 50 58 61 48 55 62 49 56 64 51 58 67 54 61 69 56 63 72 59 66 74 61 68 75 62 69 67 54 61 69 56 63 71 58 65 74 61 68 78 65 72 81 68 75 83 70 77 87 72 79 82 65 73 82 62 71 80 60 69 77 57 66 73 53 62 70 50 59 68 48 57 66 46 55 78 58 67 80 60 69 82 62 71 85 65 74 89 69 78 92 72 81 94 74 83 94 77 85 91 74 82 88 73 80 86 71 78 83 68 75 79 64 71 76 61 68 74 59 66 72 57 64 73 58 65 73 58 65 73 58 65 73 58 65 73 58 65 73 58 65 73 58 65 70 59 67 53 47 59 51 49 62 51 49 62 52 50 63 52 50 63 53 51 64 54 52 65 54 52 65 73 71 84 71 69 82 69 67 80 66 64 77 62 60 73 59 57 70 57 55 68 55 53 66 60 59 73 58 57 71 56 55 69 53 52 66 49 48 62 46 45 59 44 43 57 42 41 55 42 41 55 42 41 55 42 41 55 42 41 55 42 41 55 42 41 55 42 41 55 42 41 55 50 47 66 50 47 66 50 47 66 50 47 66 50 47 66 50 47 66 50 47 66 50 47 66 63 60 79 65 62 81 67 64 83 70 67 86 74 71 90 77 74 93 79 76 95 84 78 92 98 85 92 101 85 86 101 85 86 101 85 86 101 85 86 101 85 86 101 85 86 101 85 86 96 80 81 96 80 81 96 80 81 96 80 81 96 80 81 96 80 81 96 80 81 99 78 83 99 72 81 102 70 83 102 70 83 102 70 83 102 70 83 102 70 83 102 70 83 102 70 83 98 66 79 98 66 79 98 66 79 98 66 79 98 66 79 98 66 79 98 66 79 98 66 79 98 61 78 98 61 78 98 61 78 98 61 78 98 61 78 98 61 78 98 61 78 98 61 78 101 64 81 101 64 81 101 64 81 101 64 81 101 64 81 101 64 81 101 64 81 105 62 81 106 53 73 109 51 73 109 51 73 106 53 73 106 53 73 103 54 73 102 55 73 99 56 73 92 54 69 87 53 67 81 49 62 71 43 55 65 37 49 55 32 42 50 27 37 43 28 35 45 40 47 41 42 47 41 42 47 41 42 47 41 42 47 41 42 47 41 42 47 41 42 47 24 25 30 24 25 30
70 61 66 70 61 66 70 61 66 70 61 66 70 61 66 66 60 64 66 60 64 66 60 64 66 60 64 66 60 64 66 60 64 66 60 64 66 60 64 60 54 58 60 54 58 60 54 58 60 54 58 60 54 58 60 54 58 60 54 58 60 54 58 61 50 58 61 50 58 61 50 58 61 50 58 61 50 58 61 50 58 61 50 58 61 50 58 61 50 58 61 50 58 61 50 58 61 50 58 61 50 58 61 50 58 61 50 58 61 50 58 66 53 60 66 53 60 67 54 61 68 55 62 68 55 62 69 56 63 70 57 64 70 57 64 67 54 61 69 56 63 71 58 65 74 61 68 78 65 72 81 68 75 83 70 77 87 72 79 82 65 73 82 62 71 80 60 69 77 57 66 73 53 62 70 50 59 68 48 57 66 46 55 78 58 67 80 60 69 82 62 71 85 65 74 89 69 78 92 72 81 94 74 83 94 77 85 91 74 82 88 73 80 86 71 78 83 68 75 79 64 71 76 61 68 74 59 66 72 57 64 73 58 65 73 58 65 73 58 65 73 58 65 73 58 65 73 58 65 73 58 65 70 59 67 52 46 58 50 48 61 52 50 63 54 52 65 57 55 68 59 57 70 61 59 72 62 60 73 73 71 84 71 69 82 69 67 80 66 64 77 62 60 73 59 57 70 57 55 68 55 53 66 60 59 73 58 57 71 56 55 69 53 52 66 49 48 62 46 45 59 44 43 57 42 41 55 42 41 55 42 41 55 42 41 55 42 41 55 42 41 55 42 41 55 42 41 55 42 41 55 50 47 66 50 47 66 50 47 66 50 47 66 50 47 66 50 47 66 50 47 66 50 47 66 67 64 83 68 65 84 70 67 86 74 71 90 77 74 93 80 77 96 83 80 99 87 81 95 98 85 92 101 85 86 101 85 86 101 85 86 101 85 86 101 85 86 101 85 86 101 85 86 96 80 81 96 80 81 96 80 81 96 80 81 96 80 81 96 80 81 96 80 81 99 78 83 99 72 81 102 70 83 102 70 83 102 70 83 102 70 83 102 70 83 102 70 83 102 70 83 98 66 79 98 66 79 98 66 79 98 66 79 98 66 79 98 66 79 98 66 79 98 66 79 98 61 78 98 61 78 98 61 78 98 61 78 98 61 78 98 61 78 98 61 78 98 61 78 101 64 81 101 64 81 101 64 81 101 64 81 101 64 81 101 64 81 101 64 81 105 62 81 106 53 73 109 51 73 109 51 73 106 53 73 106 53 73 103 54 73 102 55 73 99 56 73 92 54 69 87 53 67 81 49 62 71 43 55 65 37 49 55 32 42 50 27 37 43 28 35 45 40 47 41 42 47 41 42 47 41 42 47 41 42 47 41 42 47 41 42 47 41 42 47 24 25 30 24 25 30
70 61 66 70 61 66 70 61 66 70 61 66 70 61 66 66 60 64 66 60 64 66 60 64 66 60 64 66 60 64 66 60 64 66 60 64 66 60 64 60 54 58 60 54 58 60 54 58 60 54 58 60 54 58 60 54 58 60 54 58 60 54 58 61 50 58 61 50 58 61 50 58 61 50 58 61 50 58 61 50 58 61 50 58 61 50 58 61 50 58 61 50 58 61 50 58 61 50 58 61 50 58 61 50 58 61 50 58 61 50 58 70 57 64 70 57 64 69 56 63 68 55 62 68 55 62 67 54 61 66 53 60 66 53 60 67 54 61 69 56 63 71 58 65 74 61 68 78 65 72 81 68 75 83 70 77 87 72 79 82 65 73 82 62 71 80 60 69 77 57 66 73 53 62 70 50 59 68 48 57 66 46 55 78 58 67 80 60 69 82 62 71 85 65 74 89 69 78 92 72 81 94 74 83 94 77 85 91 74 82 88 73 80 86 71 78 83 68 75 79 64 71 76 61 68 74 59 66 72 57 64 73 58 65 73 58 65 73 58 65 73 58 65 73 58 65 73 58 65 73 58 65 70 59 67 51 45 57 49 47 60 52 50 63 57 55 68 61 59 72 65 63 76 68 66 79 70 68 81 73 71 84 71 69 82 69 67 80 66 64 77 62 60 73 59 57 70 57 55 68 55 53 66 60 59 73 58 57 71 56 55 69 53 52 66 49 48 62 46 45 59 44 43 57 42 41 55 42 41 55 42 41 55 42 41 55 42 41 55 42 41 55 42 41 55 42 41 55 42 41 55 50 47 66 50 47 66 50 47 66 50 47 66 50 47 66 50 47 66 50 47 66 50 47 66 70 67 86 71 68 87 74 71 90 77 74 93 80 77 96 84 81 100 86 83 102 90 84 98 98 85 92 101 85 86 101 85 86 101 85 86 101 85 86 101 85 86 101 85 86 101 85 86 96 80 81 96 80 81 96 80 81 96 80 81 96 80 81 96 80 81 96 80 81 99 78 83 99 72 81 102 70 83 102 70 83 102 70 83 102 70 83 102 70 83 102 70 83 102 70 83 98 66 79 98 66 79 98 66 79 98 66 79 98 66 79 98 66 79 98 66 79 98 66 79 98 61 78 98 61 78 98 61 78 98 61 78 98 61 78 98 61 78 98 61 78 98 61 78 101 64 81 101 64 81 101 64 81 101 64 81 101 64 81 101 64 81 101 64 81 105 62 81 106 53 73 109 51 73 109 51 73 106 53 73 106 53 73 103 54 73 102 55 73 99 56 73 92 54 69 87 53 67 81 49 62 71 43 55 65 37 49 55 32 42 50 27 37 43 28 35 45 40 47 41 42 47 41 42 47 41 42 47 41 42 47 41 42 47 41 42 47 41 42 47 24 25 30 24 25 30
70 61 66 70 61 66 70 61 66 70 61 66 70 61 66 66 60 64 66 60 64 66 60 64 66 60 64 66 60 64 66 60 64 66 60 64 66 60 64 60 54 58 60 54 58 60 54 58 60 54 58 60 54 58 60 54 58 60 54 58 60 54 58 61 50 58 61 50 58 61 50 58 61 50 58 61 50 58 61 50 58 61 50 58 61 50 58 61 50 58 61 50 58 61 50 58 61 50 58 61 50 58 61 50 58 61 50 58 61 50 58 75 62 69 74 61 68 72 59 66 69 56 63 67 54 61 64 51 58 62 49 56 61 48 55 67 54 61 69 56 63 71 58 65 74 61 68 78 65 72 81 68 75 83 70 77 87 72 79 82 65 73 82 62 71 80 60 69 77 57 66 73 53 62 70 50 59 68 48 57 66 46 55 78 58 67 80 60 69 82 62 71 85 65 74 89 69 78 92 72 81 94 74 83 94 77 85 91 74 82 88 73 80 86 71 78 83 68 75 79 64 71 76 61 68 74 59 66 72 57 64 73 58 65 73 58 65 73 58 65 73 58 65 73 58 65 73 58 65 73 58 65 70 59 67 49 43 55 49 47 60 53 51 64 59 57 70 65 63 76 71 69 82 75 73 86 77 75 88 73 71 84 71 69 82 69 67 80 66 64 77 62 60 73 59 57 70 57 55 68 55 53 66 60 59 73 58 57 71 56 55 69 53 52 66 49 48 62 46 45 59 44 43 57 42 41 55 42 41 55 42 41 55 42 41 55 42 41 55 42 41 55 42 41 55 42 41 55 42 41 55 50 47 66 50 47 66 50 47 66 50 47 66 50 47 66 50 47 66 50 47 66 50 47 66 73 70 89 75 72 91 77 74 93 80 77 96 84 81 100 87 84 103 89 86 105 94 88 102 98 85 92 101 85 86 101 85 86 101 85 86 101 85 86 101 85 86 101 85 86 101 85 86 96 80 81 96 80 81 96 80 81 96 80 81 96 80 81 96 80 81 96 80 81 99 78 83 99 72 81 102 70 83 102 70 83 102 70 83 102 70 83 102 70 83 102 70 83 102 70 83 98 66 79 98 66 79 98 66 79 98 66 79 98 66 79 98 66 79 98 66 79 98 66 79 98 61 78 98 61 78 98 61 78 98 61 78 98 61 78 98 61 78 98 61 78 98 61 78 101 64 81 101 64 81 101 64 81 101 64 81 101 64 81 101 64 81 101 64 81 105 62 81 106 53 73 109 51 73 109 51 73 106 53 73 106 53 73 103 54 73 102 55 73 99 56 73 92 54 69 87 53 67 81 49 62 71 43 55 65 37 49 55 32 42 50 27 37 43 28 35 45 40 47 41 42 47 41 42 47 41 42 47 41 42 47 41 42 47 41 42 47 41 42 47 24 25 30 24 25 30
70 61 66 70 61 66 70 61 66 70 61 66 70 61 66 66 60 64 66 60 64 66 60 64 66 60 64 66 60 64 66 60 64 66 60 64 66 60 64 60 54 58 60 54 58 60 54 58 60 54 58 60 54 58 60 54 58 60 54 58 60 54 58 61 50 58 61 50 58 61 50 58 61 50 58 61 50 58 61 50 58 61 50 58 61 50 58 61 50 58 61 50 58 61 50 58 61 50 58 61 50 58 61 50 58 61 50 58 61 50 58 78 65 72 77 64 71 74 61 68 70 57 64 66 53 60 62 49 56 59 46 53 58 45 52 67 54 61 69 56 63 71 58 65 74 61 68 78 65 72 81 68 75 83 70 77 87 72 79 82 65 73 82 62 71 80 60 69 77 57 66 73 53 62 70 50 59 68 48 57 66 46 55 78 58 67 80 60 69 82 62 71 85 65 74 89 69 78 92 72 81 94 74 83 94 77 85 91 74 82 88 73 80 86 71 78 83 68 75 79 64 71 76 61 68 74 59 66 72 57 64 73 58 65 73 58 65 73 58 65 73 58 65 73 58 65 73 58 65 73 58 65 70 59 67 48 42 54 48 46 59 54 52 65 61 59 72 68 66 79 75 73 86 80 78 91 83 81 94 73 71 84 71 69 82 69 67 80 66 64 77 62 60 73 59 57 70 57 55 68 55 53 66 60 59 73 58 57 71 56 55 69 53 52 66 49 48 62 46 45 59 44 43 57 42 41 55 42 41 55 42 41 55 42 41 55 42 41 55 42 41 55 42 41 55 42 41 55 42 41 55 50 47 66 50 47 66 50 47 66 50 47 66 50 47 66 50 47 66 50 47 66 50 47 66 76 73 92 77 74 93 79 76 95 83 80 99 86 83 102 89 86 105 92 89 108 96 90 104 98 85 92 101 85 86 101 85 86 101 85 86 101 85 86 101 85 86 101 85 86 101 85 86 96 80 81 96 80 81 96 80 81 96 80 81 96 80 81 96 80 81 96 80 81 99 78 83 99 72 81 102 70 83 102 70 83 102 70 83 102 70 83 102 70 83 102 70 83 102 70 83 98 66 79 98 66 79 98 66 79 98 66 79 98 66 79 98 66 79 98 66 79 98 66 79 98 61 78 98 61 78 98 61 78 98 61 78 98 61 78 98 61 78 98 61 78 98 61 78 101 64 81 101 64 81 101 64 81 101 64 81 101 64 81 101 64 81 101 64 81 105 62 81 106 53 73 109 51 73 109 51 73 106 53 73 106 53 73 103 54 73 102 55 73 99 56 73 92 54 69 87 53 67 81 49 62 71 43 55 65 37 49 55 32 42 50 27 37 43 28 35 45 40 47 41 42 47 41 42 47 41 42 47 41 42 47 41 42 47 41 42 47 41 42 47 24 25 30 24 25 30
68 62 66 70 61 66 68 62 66 70 61 66 68 62 66 66 60 64 66 60 64 66 59 66 66 60 64 66 59 66 66 60 64 66 59 66 66 60 64 60 53 60 60 54 58 60 53 60 60 54 58 60 53 60 60 54 58 60 53 60 60 53 60 60 50 58 60 50 58 60 50 58 60 50 58 60 50 58 60 50 58 60 50 58 60 50 58 60 50 58 60 50 58 60 50 58 60 50 58 60 50 58 60 50 58 60 50 58 61 50 58 79 68 76 78 65 72 75 62 69 70 57 64 66 53 60 61 48 55 58 45 52 56 43 50 67 54 61 69 56 63 71 58 65 74 61 68 78 65 72 81 68 75 83 70 77 85 72 79 81 66 73 79 64 71 78 61 71 74 59 66 71 54 64 67 52 59 66 49 59 63 48 55 76 59 69 77 62 69 80 63 73 82 67 74 87 70 80 89 74 81 92 75 85 93 78 85 90 74 84 86 73 80 84 71 80 81 68 75 77 64 73 74 61 68 72 59 68 70 57 64 71 58 67 71 58 65 71 58 67 71 58 65 71 58 67 71 58 65 71 58 67 70 59 67 48 42 52 49 46 57 55 52 63 63 60 71 71 68 79 78 75 86 84 81 92 87 84 95 74 71 82 72 69 80 70 67 78 67 64 75 63 60 71 60 57 68 58 55 66 56 53 64 62 58 72 60 56 70 58 54 68 55 51 65 51 47 61 48 44 58 46 42 56 44 40 54 44 40 54 44 40 54 44 40 54 44 40 54 44 40 54 44 40 54 44 40 54 44 40 54 51 47 64 51 47 64 51 47 64 51 47 64 51 47 64 51 47 64 51 47 64 51 47 64 78 74 91 79 75 92 82 78 95 85 81 98 88 84 101 92 88 105 94 90 107 98 90 105 98 85 92 101 85 88 101 85 88 101 85 88 101 85 88 101 85 88 101 85 88 101 85 88 96 80 83 96 80 83 96 80 83 96 80 83 96 80 83 96 80 83 96 80 83 99 78 83 99 72 81 101 71 81 101 71 83 101 71 81 101 71 83 101 71 81 101 71 83 101 71 81 97 67 79 97 67 77 97 67 79 97 67 77 97 67 79 97 67 77 97 67 79 98 66 79 96 62 76 96 62 78 96 62 78 96 62 78 96 62 78 96 62 78 96 62 78 96 62 78 99 65 81 99 65 81 99 65 81 99 65 81 99 65 81 99 65 81 99 65 81 104 63 81 105 53 75 107 52 73 106 52 75 105 54 73 103 54 75 102 55 73 99 56 75 96 58 73 91 54 71 86 54 67 78 50 64 70 44 55 62 38 51 54 33 42 48 28 39 41 28 37 43 40 47 41 41 49 41 41 49 41 41 49 41 41 49 41 41 49 41 41 49 41 41 49 24 24 32 24 24 32
64 59 65 65 58 65 64 59 65 65 58 65 64 59 65 74 69 75 74 69 75 74 69 76 74 69 75 74 69 76 74 69 75 74 69 76 74 69 75 65 60 67 65 60 66 65 60 67 65 60 66 65 60 67 65 60 66 65 60 67 65 60 67 60 53 61 60 53 61 60 53 61 60 53 61 60 53 61 60 53 61 60 53 61 60 53 61 56 49 57 58 51 59 60 53 61 63 56 64 67 60 68 70 63 71 72 65 73 74 67 74 70 59 67 70 59 67 70 59 67 70 59 67 70 59 67 70 59 67 70 59 67 70 59 67 61 50 58 63 52 60 66 55 63 71 60 68 75 64 72 80 69 77 83 72 80 85 74 82 73 62 70 72 62 70 73 61 71 72 62 70 73 61 71 72 62 70 73 61 71 72 62 70 72 60 70 72 62 70 76 64 74 78 68 76 82 70 80 85 75 83 88 76 86 89 78 86 83 71 81 81 70 78 79 67 77 76 65 73 72 60 70 69 58 66 67 55 65 65 54 62 69 57 67 69 58 66 69 57 67 69 58 66 69 57 67 69 58 66 69 57 67 68 58 67 69 62 70 70 63 71 73 66 74 76 69 77 79 72 80 83 76 84 85 78 86 86 79 87 66 59 67 66 59 67 66 59 67 66 59 67 66 59 67 66 59 67 66 59 67 66 59 67 69 59 70 69 59 70 69 59 70 69 59 70 69 59 70 69 59 70 69 59 70 69 59 70 55 45 56 55 45 56 55 45 56 55 45 56 55 45 56 55 45 56 55 45 56 55 45 56 44 36 51 47 39 54 53 45 60 61 53 68 69 61 76 77 69 84 83 75 90 86 78 93 93 85 100 94 86 101 96 88 103 100 92 107 103 95 110 106 98 113 109 101 116 112 101 115 104 88 98 106 87 93 104 85 91 100 81 87 97 78 84 94 75 81 91 72 78 90 71 77 100 81 87 100 81 87 100 81 87 100 81 87 100 81 87 100 81 87 100 81 87 101 80 87 94 68 77 95 68 75 95 68 77 95 68 75 95 68 77 95 68 75 95 68 77 95 68 75 80 53 62 80 53 60 80 53 62 80 53 60 80 53 62 80 53 60 80 53 62 80 53 62 81 51 63 81 51 63 81 51 63 81 51 63 81 51 63 81 51 63 81 51 63 81 51 63 86 56 68 88 58 70 90 60 72 93 63 75 97 67 79 100 70 82 102 72 84 106 72 88 104 59 79 107 58 79 106 58 80 104 59 79 103 60 80 102 61 79 99 62 80 96 64 79 78 47 63 73 47 60 68 46 59 64 44 55 58 40 52 54 38 48 50 37 47 46 36 45 31 29 40 34 37 46 42 45 54 48 51 60 48 51 60 42 45 54 34 37 46 28 31 40 22 25 34 22 25 34
64 59 65 64 59 65 64 59 65 64 59 65 64 59 65 74 69 76 74 69 76 74 69 76 74 69 76 74 69 76 74 69 76 74 69 76 74 69 76 65 60 67 65 60 67 65 60 67 65 60 67 65 60 67 65 60 67 65 60 67 65 60 67 59 54 61 59 54 61 59 54 61 59 54 61 59 54 61 59 54 61 59 54 61 59 54 61 55 50 57 57 52 59 59 54 61 62 57 64 66 61 68 69 64 71 71 66 73 74 67 75 69 59 67 70 59 67 70 59 67 70 59 67 70 59 67 70 59 67 70 59 67 70 59 67 63 52 60 64 53 61 67 56 64 71 60 68 75 64 72 79 68 76 82 71 79 82 72 80 70 60 69 68 61 69 68 61 69 68 61 69 68 61 69 68 61 69 68 61 69 68 61 69 68 61 69 69 62 70 71 64 72 75 68 76 78 71 79 81 74 82 84 77 85 85 78 86 82 72 81 80 70 79 78 68 77 75 65 74 71 61 70 68 58 67 66 56 65 64 54 63 68 58 67 68 58 67 68 58 67 68 58 67 68 58 67 68 58 67 68 58 67 68 58 67 70 60 68 71 61 69 73 63 71 77 67 75 80 70 78 83 73 81 86 76 84 87 77 85 68 58 66 68 58 66 68 58 66 68 58 66 68 58 66 68 58 66 68 58 66 68 58 66 71 58 68 71 58 68 71 58 68 71 58 68 71 58 68 71 58 68 71 58 68 71 58 68 59 46 56 59 46 56 59 46 56 59 46 56 59 46 56 59 46 56 59 46 56 58 46 56 49 37 51 51 40 54 56 45 59 63 52 66 71 60 74 78 67 81 83 72 86 86 75 89 92 81 95 93 82 96 96 85 99 99 88 102 102 91 105 106 95 109 108 97 111 110 98 110 104 87 97 105 85 94 102 82 91 99 79 88 96 76 85 92 72 81 90 70 79 89 69 78 98 78 87 98 78 87 98 78 87 98 78 87 98 78 87 98 78 87 98 78 87 99 78 85 90 67 75 92 67 73 92 67 73 92 67 73 92 67 73 92 67 73 92 67 73 92 67 73 79 54 60 79 54 60 79 54 60 79 54 60 79 54 60 79 54 60 79 54 60 79 54 60 79 51 63 79 51 63 79 51 63 79 51 63 79 51 63 79 51 63 79 51 63 79 51 63 84 56 68 86 58 70 88 60 72 91 63 75 95 67 79 98 70 82 100 72 84 105 73 86 103 60 80 104 59 80 104 59 80 102 60 80 102 60 80 99 62 80 97 63 80 95 64 80 75 48 63 70 48 61 67 47 59 61 45 56 57 41 52 51 39 49 49 37 47 43 37 47 31 29 40 34 36 48 42 44 56 48 50 62 48 50 62 42 44 56 34 36 48 28 30 42 22 24 36 22 24 36
64 59 65 64 59 65 64 59 65 64 59 65 64 59 65 74 69 76 74 69 76 74 69 76 74 69 76 74 69 76 74 69 76 74 69 76 74 69 76 65 60 67 65 60 67 65 60 67 65 60 67 65 60 67 65 60 67 65 60 67 65 60 67 59 54 61 59 54 61 59 54 61 59 54 61 59 54 61 59 54 61 59 54 61 59 54 61 55 50 57 57 52 59 59 54 61 62 57 64 66 61 68 69 64 71 71 66 73 74 67 75 69 59 67 70 59 67 70 59 67 70 59 67 70 59 67 70 59 67 70 59 67 70 59 67 66 55 63 67 56 64 69 58 66 72 61 69 74 63 71 77 66 74 79 68 76 79 69 77 68 58 67 66 59 67 66 59 67 66 59 67 66 59 67 66 59 67 66 59 67 66 59 67 65 58 66 67 60 68 69 62 70 72 65 73 76 69 77 79 72 80 81 74 82 83 76 84 82 72 81 80 70 79 78 68 77 75 65 74 71 61 70 68 58 67 66 56 65 64 54 63 68 58 67 68 58 67 68 58 67 68 58 67 68 58 67 68 58 67 68 58 67 68 58 67 67 57 65 69 59 67 71 61 69 74 64 72 78 68 76 81 71 79 83 73 81 85 75 83 68 58 66 68 58 66 68 58 66 68 58 66 68 58 66 68 58 66 68 58 66 68 58 66 71 58 68 71 58 68 71 58 68 71 58 68 71 58 68 71 58 68 71 58 68 71 58 68 61 48 58 61 48 58 61 48 58 61 48 58 61 48 58 61 48 58 61 48 58 60 48 58 53 41 55 54 43 57 58 47 61 64 53 67 70 59 73 76 65 79 80 69 83 82 71 85 87 76 90 88 77 91 91 80 94 94 83 97 98 87 101 101 90 104 103 92 106 105 93 105 102 85 95 102 82 91 100 80 89 97 77 86 93 73 82 90 70 79 88 68 77 86 66 75 96 76 85 96 76 85 96 76 85 96 76 85 96 76 85 96 76 85 96 76 85 97 76 83 88 65 73 90 65 71 90 65 71 90 65 71 90 65 71 90 65 71 90 65 71 90 65 71 79 54 60 79 54 60 79 54 60 79 54 60 79 54 60 79 54 60 79 54 60 79 54 60 79 51 63 79 51 63 79 51 63 79 51 63 79 51 63 79 51 63 79 51 63 79 51 63 84 56 68 86 58 70 88 60 72 91 63 75 95 67 79 98 70 82 100 72 84 105 73 86 103 60 80 104 59 80 104 59 80 102 60 80 102 60 80 99 62 80 97 63 80 95 64 80 75 48 63 70 48 61 67 47 59 61 45 56 57 41 52 51 39 49 49 37 47 43 37 47 31 29 40 34 36 48 42 44 56 48 50 62 48 50 62 42 44 56 34 36 48 28 30 42 22 24 36 22 24 36
64 59 65 64 59 65 64 59 65 64 59 65 64 59 65 74 69 76 74 69 76 74 69 76 74 69 76 74 69 76 74 69 76 74 69 76 74 69 76 65 60 67 65 60 67 65 60 67 65 60 67 65 60 67 65 60 67 65 60 67 65 60 67 59 54 61 59 54 61 59 54 61 59 54 61 59 54 61 59 54 61 59 54 61 59 54 61 55 50 57 57 52 59 59 54 61 62 57 64 66 61 68 69 64 71 71 66 73 74 67 75 69 59 67 70 59 67 70 59 67 70 59 67 70 59 67 70 59 67 70 59 67 70 59 67 71 60 68 71 60 68 72 61 69 73 62 70 73 62 70 74 63 71 75 64 72 74 64 72 65 55 64 63 56 64 63 56 64 63 56 64 63 56 64 63 56 64 63 56 64 63 56 64 62 55 63 63 56 64 66 59 67 69 62 70 72 65 73 76 69 77 78 71 79 79 72 80 82 72 81 80 70 79 78 68 77 75 65 74 71 61 70 68 58 67 66 56 65 64 54 63 68 58 67 68 58 67 68 58 67 68 58 67 68 58 67 68 58 67 68 58 67 68 58 67 64 54 62 65 55 63 68 58 66 71 61 69 74 64 72 78 68 76 80 70 78 81 71 79 68 58 66 68 58 66 68 58 66 68 58 66 68 58 66 68 58 66 68 58 66 68 58 66 71 58 68 71 58 68 71 58 68 71 58 68 71 58 68 71 58 68 71 58 68 71 58 68 64 51 61 64 51 61 64 51 61 64 51 61 64 51 61 64 51 61 64 51 61 63 51 61 57 45 59 58 47 61 61 50 64 65 54 68 69 58 72 73 62 76 76 65 79 78 67 81 81 70 84 82 71 85 85 74 88 88 77 91 91 80 94 94 83 97 97 86 100 99 87 99 98 81 91 99 79 88 97 77 86 93 73 82 90 70 79 87 67 76 84 64 73 83 63 72 93 73 82 93 73 82 93 73 82 93 73 82 93 73 82 93 73 82 93 73 82 94 73 80 85 62 70 87 62 68 87 62 68 87 62 68 87 62 68 87 62 68 87 62 68 87 62 68 79 54 60 79 54 60 79 54 60 79 54 60 79 54 60 79 54 60 79 54 60 79 54 60 79 51 63 79 51 63 79 51 63 79 51 63 79 51 63 79 51 63 79 51 63 79 51 63 84 56 68 86 58 70 88 60 72 91 63 75 95 67 79 98 70 82 100 72 84 105 73 86 103 60 80 104 59 80 104 59 80 102 60 80 102 60 80 99 62 80 97 63 80 95 64 80 75 48 63 70 48 61 67 47 59 61 45 56 57 41 52 51 39 49 49 37 47 43 37 47 31 29 40 34 36 48 42 44 56 48 50 62 48 50 62 42 44 56 34 36 48 28 30 42 22 24 36 22 24 36
64 59 65 64 59 65 64 59 65 64 59 65 64 59 65 74 69 76 74 69 76 74 69 76 74 69 76 74 69 76 74 69 76 74 69 76 74 69 76 65 60 67 65 60 67 65 60 67 65 60 67 65 60 67 65 60 67 65 60 67 65 60 67 59 54 61 59 54 61 59 54 61 59 54 61 59 54 61 59 54 61 59 54 61 59 54 61 55 50 57 57 52 59 59 54 61 62 57 64 66 61 68 69 64 71 71 66 73 74 67 75 69 59 67 70 59 67 70 59 67 70 59 67 70 59 67 70 59 67 70 59 67 70 59 67 75 64 72 75 64 72 74 63 71 73 62 70 73 62 70 72 61 69 71 60 68 70 60 68 61 51 60 59 52 60 59 52 60 59 52 60 59 52 60 59 52 60 59 52 60 59 52 60 59 52 60 60 53 61 62 55 63 66 59 67 69 62 70 72 65 73 75 68 76 76 69 77 82 72 81 80 70 79 78 68 77 75 65 74 71 61 70 68 58 67 66 56 65 64 54 63 68 58 67 68 58 67 68 58 67 68 58 67 68 58 67 68 58 67 68 58 67 68 58 67 61 51 59 62 52 60 64 54 62 68 58 66 71 61 69 74 64 72 77 67 75 78 68 76 68 58 66 68 58 66 68 58 66 68 58 66 68 58 66 68 58 66 68 58 66 68 58 66 71 58 68 71 58 68 71 58 68 71 58 68 71 58 68 71 58 68 71 58 68 71 58 68 68 55 65 68 55 65 68 55 65 68 55 65 68 55 65 68 55 65 68 55 65 67 55 65 62 50 64 62 51 65 63 52 66 66 55 69 68 57 71 71 60 74 72 61 75 73 62 76 74 63 77 75 64 78 78 67 81 81 70 84 84 73 87 87 76 90 90 79 93 92 80 92 95 78 88 96 76 85 93 73 82 90 70 79 87 67 76 83 63 72 81 61 70 80 60 69 89 69 78 89 69 78 89 69 78 89 69 78 89 69 78 89 69 78 89 69 78 90 69 76 81 58 66 83 58 64 83 58 64 83 58 64 83 58 64 83 58 64 83 58 64 83 58 64 79 54 60 79 54 60 79 54 60 79 54 60 79 54 60 79 54 60 79 54 60 79 54 60 79 51 63 79 51 63 79 51 63 79 51 63 79 51 63 79 51 63 79 51 63 79 51 63 84 56 68 86 58 70 88 60 72 91 63 75 95 67 79 98 70 82 100 72 84 105 73 86 103 60 80 104 59 80 104 59 80 102 60 80 102 60 80 99 62 80 97 63 80 95 64 80 75 48 63 70 48 61 67 47 59 61 45 56 57 41 52 51 39 49 49 37 47 43 37 47 31 29 40 34 36 48 42 44 56 48 50 62 48 50 62 42 44 56 34 36 48 28 30 42 22 24 36 22 24 36
64 59 65 64 59 65 64 59 65 64 59 65 64 59 65 74 69 76 74 69 76 74 69 76 74 69 76 74 69 76 74 69 76 74 69 76 74 69 76 65 60 67 65 60 67 65 60 67 65 60 67 65 60 67 65 60 67 65 60 67 65 60 67 59 54 61 59 54 61 59 54 61 59 54 61 59 54 61 59 54 61 59 54 61 59 54 61 55 50 57 57 52 59 59 54 61 62 57 64 66 61 68 69 64 71 71 66 73 74 67 75 69 59 67 70 59 67 70 59 67 70 59 67 70 59 67 70 59 67 70 59 67 70 59 67 80 69 77 79 68 76 77 66 74 74 63 71 72 61 69 69 58 66 67 56 64 65 55 63 58 48 57 56 49 57 56 49 57 56 49 57 56 49 57 56 49 57 56 49 57 56 49 57 55 48 56 57 50 58 59 52 60 62 55 63 66 59 67 69 62 70 71 64 72 73 66 74 82 72 81 80 70 79 78 68 77 75 65 74 71 61 70 68 58 67 66 56 65 64 54 63 68 58 67 68 58 67 68 58 67 68 58 67 68 58 67 68 58 67 68 58 67 68 58 67 57 47 55 59 49 57 61 51 59 64 54 62 68 58 66 71 61 69 73 63 71 75 65 73 68 58 66 68 58 66 68 58 66 68 58 66 68 58 66 68 58 66 68 58 66 68 58 66 71 58 68 71 58 68 71 58 68 71 58 68 71 58 68 71 58 68 71 58 68 71 58 68 71 58 68 71 58 68 71 58 68 71 58 68 71 58 68 71 58 68 71 58 68 70 58 68 66 54 68 65 54 68 66 55 69 67 56 70 67 56 70 68 57 71 69 58 72 69 58 72 68 57 71 69 58 72 71 60 74 74 63 77 78 67 81 81 70 84 84 73 87 86 74 86 92 75 85 92 72 81 90 70 79 87 67 76 83 63 72 80 60 69 78 58 67 76 56 65 86 66 75 86 66 75 86 66 75 86 66 75 86 66 75 86 66 75 86 66 75 87 66 73 78 55 63 80 55 61 80 55 61 80 55 61 80 55 61 80 55 61 80 55 61 80 55 61 79 54 60 79 54 60 79 54 60 79 54 60 79 54 60 79 54 60 79 54 60 79 54 60 79 51 63 79 51 63 79 51 63 79 51 63 79 51 63 79 51 63 79 51 63 79 51 63 84 56 68 86 58 70 88 60 72 91 63 75 95 67 79 98 70 82 100 72 84 105 73 86 103 60 80 104 59 80 104 59 80 102 60 80 102 60 80 99 62 80 97 63 80 95 64 80 75 48 63 70 48 61 67 47 59 61 45 56 57 41 52 51 39 49 49 37 47 43 37 47 31 29 40 34 36 48 42 44 56 48 50 62 48 50 62 42 44 56 34 36 48 28 30 42 22 24 36 22 24 36
64 59 65 64 59 65 64 59 65 64 59 65 64 59 65 74 69 76 74 69 76 74 69 76 74 69 76 74 69 76 74 69 76 74 69 76 74 69 76 65 60 67 65 60 67 65 60 67 65 60 67 65 60 67 65 60 67 65 60 67 65 60 67 59 54 61 59 54 61 59 54 61 59 54 61 59 54 61 59 54 61 59 54 61 59 54 61 55 50 57 57 52 59 59 54 61 62 57 64 66 61 68 69 64 71 71 66 73 74 67 75 69 59 67 70 59 67 70 59 67 70 59 67 70 59 67 70 59 67 70 59 67 70 59 67 83 72 80 82 71 79 79 68 76 75 64 72 71 60 68 67 56 64 64 53 61 62 52 60 56 46 55 54 47 55 54 47 55 54 47 55 54 47 55 54 47 55 54 47 55 54 47 55 53 46 54 54 47 55 57 50 58 60 53 61 63 56 64 67 60 68 69 62 70 70 63 71 82 72 81 80 70 79 78 68 77 75 65 74 71 61 70 68 58 67 66 56 65 64 54 63 68 58 67 68 58 67 68 58 67 68 58 67 68 58 67 68 58 67 68 58 67 68 58 67 55 45 53 56 46 54 59 49 57 62 52 60 65 55 63 69 59 67 71 61 69 72 62 70 68 58 66 68 58 66 68 58 66 68 58 66 68 58 66 68 58 66 68 58 66 68 58 66 71 58 68 71 58 68 71 58 68 71 58 68 71 58 68 71 58 68 71 58 68 71 58 68 73 60 70 73 60 70 73 60 70 73 60 70 73 60 70 73 60 70 73 60 70 72 60 70 70 58 72 68 57 71 68 57 71 67 56 70 67 56 70 66 55 69 66 55 69 65 54 68 63 52 66 64 53 67 66 55 69 70 59 73 73 62 76 76 65 79 79 68 82 81 69 81 89 72 82 90 70 79 88 68 77 84 64 73 81 61 70 78 58 67 75 55 64 74 54 63 84 64 73 84 64 73 84 64 73 84 64 73 84 64 73 84 64 73 84 64 73 85 64 71 76 53 61 78 53 59 78 53 59 78 53 59 78 53 59 78 53 59 78 53 59 78 53 59 79 54 60 79 54 60 79 54 60 79 54 60 79 54 60 79 54 60 79 54 60 79 54 60 79 51 63 79 51 63 79 51 63 79 51 63 79 51 63 79 51 63 79 51 63 79 51 63 84 56 68 86 58 70 88 60 72 91 63 75 95 67 79 98 70 82 100 72 84 105 73 86 103 60 80 104 59 80 104 59 80 102 60 80 102 60 80 99 62 80 97 63 80 95 64 80 75 48 63 70 48 61 67 47 59 61 45 56 57 41 52 51 39 49 49 37 47 43 37 47 31 29 40 34 36 48 42 44 56 48 50 62 48 50 62 42 44 56 34 36 48 28 30 42 22 24 36 22 24 36
64 59 65 64 59 65 64 59 65 64 59 65 64 59 65 74 69 76 74 69 76 74 69 76 74 69 76 74 69 76 74 69 76 74 69 76 74 69 76 65 60 67 65 60 67 65 60 67 65 60 67 65 60 67 65 60 67 65 60 67 65 60 67 59 54 61 59 54 61 59 54 61 59 54 61 59 54 61 59 54 61 59 54 61 59 54 61 55 50 57 57 52 59 59 54 61 62 57 64 66 61 68 69 64 71 71 66 73 74 67 75 69 59 67 70 59 67 70 59 67 70 59 67 70 59 67 70 59 67 70 59 67 70 59 67 85 74 82 83 72 80 80 69 77 75 64 72 71 60 68 66 55 63 63 52 60 60 50 58 54 44 53 52 45 53 52 45 53 52 45 53 52 45 53 52 45 53 52 45 53 52 45 53 52 45 53 53 46 54 55 48 56 59 52 60 62 55 63 65 58 66 68 61 69 69 62 70 82 72 81 80 70 79 78 68 77 75 65 74 71 61 70 68 58 67 66 56 65 64 54 63 68 58 67 68 58 67 68 58 67 68 58 67 68 58 67 68 58 67 68 58 67 68 58 67 54 44 52 55 45 53 57 47 55 61 51 59 64 54 62 67 57 65 70 60 68 71 61 69 68 58 66 68 58 66 68 58 66 68 58 66 68 58 66 68 58 66 68 58 66 68 58 66 71 58 68 71 58 68 71 58 68 71 58 68 71 58 68 71 58 68 71 58 68 71 58 68 75 62 72 75 62 72 75 62 72 75 62 72 75 62 72 75 62 72 75 62 72 74 62 72 71 59 73 70 59 73 69 58 72 68 57 71 66 55 69 65 54 68 64 53 67 64 53 67 60 49 63 61 50 64 64 53 67 67 56 70 70 59 73 74 63 77 76 65 79 78 66 78 88 71 81 89 69 78 86 66 75 83 63 72 80 60 69 76 56 65 74 54 63 73 53 62 82 62 71 82 62 71 82 62 71 82 62 71 82 62 71 82 62 71 82 62 71 83 62 69 74 51 59 76 51 57 76 51 57 76 51 57 76 51 57 76 51 57 76 51 57 76 51 57 79 54 60 79 54 60 79 54 60 79 54 60 79 54 60 79 54 60 79 54 60 79 54 60 79 51 63 79 51 63 79 51 63 79 51 63 79 51 63 79 51 63 79 51 63 79 51 63 84 56 68 86 58 70 88 60 72 91 63 75 95 67 79 98 70 82 100 72 84 105 73 86 103 60 80 104 59 80 104 59 80 102 60 80 102 60 80 99 62 80 97 63 80 95 64 80 75 48 63 70 48 61 67 47 59 61 45 56 57 41 52 51 39 49 49 37 47 43 37 47 31 29 40 34 36 48 42 44 56 48 50 62 48 50 62 42 44 56 34 36 48 28 30 42 22 24 36 22 24 36
78 73 79 75 70 76 71 66 72 69 64 70 68 63 69 76 71 78 76 71 78 76 71 78 76 71 78 76 71 78 76 71 78 76 71 78 76 71 78 76 71 78 76 71 78 76 71 78 76 71 78 76 71 78 76 71 78 76 71 78 76 71 78 61 56 63 61 56 63 61 56 63 61 56 63 61 56 63 61 56 63 61 56 63 61 56 63 70 65 72 70 65 72 70 65 72 70 65 72 70 65 72 70 65 72 70 65 72 71 64 72 68 58 66 71 60 68 73 62 70 76 65 73 80 69 77 83 72 80 85 74 82 87 76 84 77 66 74 77 66 74 77 66 74 77 66 74 77 66 74 77 66 74 77 66 74 76 66 74 52 42 51 51 44 52 51 44 52 53 46 54 54 47 55 55 48 56 56 49 57 57 50 58 51 44 52 51 44 52 51 44 52 51 44 52 51 44 52 51 44 52 51 44 52 51 44 52 52 42 51 54 44 53 56 46 55 59 49 58 63 53 62 66 56 65 68 58 67 70 60 69 78 68 77 76 66 75 74 64 73 71 61 70 67 57 66 64 54 63 62 52 61 60 50 59 57 47 55 57 47 55 57 47 55 57 47 55 57 47 55 57 47 55 57 47 55 57 47 55 62 52 60 64 54 62 66 56 64 69 59 67 73 63 71 76 66 74 78 68 76 80 70 78 78 65 75 78 65 75 78 65 75 78 65 75 78 65 75 78 65 75 78 65 75 78 65 75 83 70 80 81 68 78 79 66 76 76 63 73 72 59 69 69 56 66 67 54 64 64 52 62 57 45 59 56 45 59 56 45 59 56 45 59 56 45 59 56 45 59 56 45 59 56 45 59 51 40 54 51 40 54 51 40 54 51 40 54 51 40 54 51 40 54 51 40 54 52 40 52 68 51 61 70 50 59 70 50 59 70 50 59 70 50 59 70 50 59 70 50 59 70 50 59 72 52 61 72 52 61 72 52 61 72 52 61 72 52 61 72 52 61 72 52 61 73 52 59 65 42 50 67 42 48 67 42 48 67 42 48 67 42 48 67 42 48 67 42 48 67 42 48 69 44 50 69 44 50 69 44 50 69 44 50 69 44 50 69 44 50 69 44 50 69 44 50 84 56 68 84 56 68 84 56 68 84 56 68 84 56 68 84 56 68 84 56 68 84 56 68 79 51 63 81 53 65 83 55 67 86 58 70 90 62 74 93 65 77 95 67 79 100 68 81 105 62 82 106 61 82 106 61 82 104 62 82 104 62 82 101 64 82 99 65 82 97 66 82 83 56 71 73 51 64 62 42 54 50 34 45 47 31 42 46 34 44 52 40 50 52 46 56 51 49 60 46 48 60 44 46 58 41 43 55 37 39 51 34 36 48 32 34 46 30 32 44 24 26 38 24 26 38
79 74 80 76 71 77 73 68 74 70 65 71 69 64 70 76 71 78 76 71 78 76 71 78 76 71 78 76 71 78 76 71 78 76 71 78 76 71 78 76 71 78 76 71 78 76 71 78 76 71 78 76 71 78 76 71 78 76 71 78 76 71 78 61 56 63 61 56 63 61 56 63 61 56 63 61 56 63 61 56 63 61 56 63 61 56 63 70 65 72 70 65 72 70 65 72 70 65 72 70 65 72 70 65 72 70 65 72 71 64 72 68 58 66 71 60 68 73 62 70 76 65 73 80 69 77 83 72 80 85 74 82 87 76 84 79 68 76 79 68 76 79 68 76 79 68 76 79 68 76 79 68 76 79 68 76 78 68 76 55 45 54 53 46 54 54 47 55 54 47 55 55 48 56 56 49 57 56 49 57 56 49 57 51 44 52 51 44 52 51 44 52 51 44 52 51 44 52 51 44 52 51 44 52 51 44 52 52 42 51 54 44 53 56 46 55 59 49 58 63 53 62 66 56 65 68 58 67 70 60 69 78 68 77 76 66 75 74 64 73 71 61 70 67 57 66 64 54 63 62 52 61 60 50 59 57 47 55 57 47 55 57 47 55 57 47 55 57 47 55 57 47 55 57 47 55 57 47 55 62 52 60 64 54 62 66 56 64 69 59 67 73 63 71 76 66 74 78 68 76 80 70 78 78 65 75 78 65 75 78 65 75 78 65 75 78 65 75 78 65 75 78 65 75 78 65 75 83 70 80 81 68 78 79 66 76 76 63 73 72 59 69 69 56 66 67 54 64 64 52 62 57 45 59 56 45 59 56 45 59 56 45 59 56 45 59 56 45 59 56 45 59 56 45 59 51 40 54 51 40 54 51 40 54 51 40 54 51 40 54 51 40 54 51 40 54 52 40 52 68 51 61 70 50 59 70 50 59 70 50 59 70 50 59 70 50 59 70 50 59 70 50 59 72 52 61 72 52 61 72 52 61 72 52 61 72 52 61 72 52 61 72 52 61 73 52 59 67 44 52 69 44 50 69 44 50 69 44 50 69 44 50 69 44 50 69 44 50 69 44 50 71 46 52 71 46 52 71 46 52 71 46 52 71 46 52 71 46 52 71 46 52 71 46 52 84 56 68 84 56 68 84 56 68 84 56 68 84 56 68 84 56 68 84 56 68 84 56 68 79 51 63 81 53 65 83 55 67 86 58 70 90 62 74 93 65 77 95 67 79 100 68 81 105 62 82 106 61 82 106 61 82 104 62 82 104 62 82 101 64 82 99 65 82 97 66 82 83 56 71 73 51 64 62 42 54 50 34 45 47 31 42 46 34 44 52 40 50 52 46 56 51 49 60 46 48 60 44 46 58 41 43 55 37 39 51 34 36 48 32 34 46 30 32 44 24 26 38 24 26 38
82 77 83 78 73 79 75 70 76 73 68 74 71 66 72 76 71 78 76 71 78 76 71 78 76 71 78 76 71 78 76 71 78 76 71 78 76 71 78 76 71 78 76 71 78 76 71 78 76 71 78 76 71 78 76 71 78 76 71 78 76 71 78 61 56 63 61 56 63 61 56 63 61 56 63 61 56 63 61 56 63 61 56 63 61 56 63 70 65 72 70 65 72 70 65 72 70 65 72 70 65 72 70 65 72 70 65 72 71 64 72 68 58 66 71 60 68 73 62 70 76 65 73 80 69 77 83 72 80 85 74 82 87 76 84 81 70 78 81 70 78 81 70 78 81 70 78 81 70 78 81 70 78 81 70 78 80 70 78 61 51 60 59 52 60 58 51 59 57 50 58 57 50 58 56 49 57 56 49 57 55 48 56 51 44 52 51 44 52 51 44 52 51 44 52 51 44 52 51 44 52 51 44 52 51 44 52 52 42 51 54 44 53 56 46 55 59 49 58 63 53 62 66 56 65 68 58 67 70 60 69 78 68 77 76 66 75 74 64 73 71 61 70 67 57 66 64 54 63 62 52 61 60 50 59 57 47 55 57 47 55 57 47 55 57 47 55 57 47 55 57 47 55 57 47 55 57 47 55 62 52 60 64 54 62 66 56 64 69 59 67 73 63 71 76 66 74 78 68 76 80 70 78 78 65 75 78 65 75 78 65 75 78 65 75 78 65 75 78 65 75 78 65 75 78 65 75 83 70 80 81 68 78 79 66 76 76 63 73 72 59 69 69 56 66 67 54 64 64 52 62 57 45 59 56 45 59 56 45 59 56 45 59 56 45 59 56 45 59 56 45 59 56 45 59 51 40 54 51 40 54 51 40 54 51 40 54 51 40 54 51 40 54 51 40 54 52 40 52 68 51 61 70 50 59 70 50 59 70 50 59 70 50 59 70 50 59 70 50 59 70 50 59 72 52 61 72 52 61 72 52 61 72 52 61 72 52 61 72 52 61 72 52 61 73 52 59 69 46 54 71 46 52 71 46 52 71 46 52 71 46 52 71 46 52 71 46 52 71 46 52 73 48 54 73 48 54 73 48 54 73 48 54 73 48 54 73 48 54 73 48 54 73 48 54 84 56 68 84 56 68 84 56 68 84 56 68 84 56 68 84 56 68 84 56 68 84 56 68 79 51 63 81 53 65 83 55 67 86 58 70 90 62 74 93 65 77 95 67 79 100 68 81 105 62 82 106 61 82 106 61 82 104 62 82 104 62 82 101 64 82 99 65 82 97 66 82 83 56 71 73 51 64 62 42 54 50 34 45 47 31 42 46 34 44 52 40 50 52 46 56 51 49 60 46 48 60 44 46 58 41 43 55 37 39 51 34 36 48 32 34 46 30 32 44 24 26 38 24 26 38
85 80 86 82 77 83 78 73 79 76 71 77 75 70 76 76 71 78 76 71 78 76 71 78 76 71 78 76 71 78 76 71 78 76 71 78 76 71 78 76 71 78 76 71 78 76 71 78 76 71 78 76 71 78 76 71 78 76 71 78 76 71 78 61 56 63 61 56 63 61 56 63 61 56 63 61 56 63 61 56 63 61 56 63 61 56 63 70 65 72 70 65 72 70 65 72 70 65 72 70 65 72 70 65 72 70 65 72 71 64 72 68 58 66 71 60 68 73 62 70 76 65 73 80 69 77 83 72 80 85 74 82 87 76 84 84 73 81 84 73 81 84 73 81 84 73 81 84 73 81 84 73 81 84 73 81 83 73 81 69 59 68 66 59 67 64 57 65 62 55 63 59 52 60 57 50 58 55 48 56 54 47 55 51 44 52 51 44 52 51 44 52 51 44 52 51 44 52 51 44 52 51 44 52 51 44 52 52 42 51 54 44 53 56 46 55 59 49 58 63 53 62 66 56 65 68 58 67 70 60 69 78 68 77 76 66 75 74 64 73 71 61 70 67 57 66 64 54 63 62 52 61 60 50 59 57 47 55 57 47 55 57 47 55 57 47 55 57 47 55 57 47 55 57 47 55 57 47 55 62 52 60 64 54 62 66 56 64 69 59 67 73 63 71 76 66 74 78 68 76 80 70 78 78 65 75 78 65 75 78 65 75 78 65 75 78 65 75 78 65 75 78 65 75 78 65 75 83 70 80 81 68 78 79 66 76 76 63 73 72 59 69 69 56 66 67 54 64 64 52 62 57 45 59 56 45 59 56 45 59 56 45 59 56 45 59 56 45 59 56 45 59 56 45 59 51 40 54 51 40 54 51 40 54 51 40 54 51 40 54 51 40 54 51 40 54 52 40 52 68 51 61 70 50 59 70 50 59 70 50 59 70 50 59 70 50 59 70 50 59 70 50 59 72 52 61 72 52 61 72 52 61 72 52 61 72 52 61 72 52 61 72 52 61 73 52 59 72 49 57 74 49 55 74 49 55 74 49 55 74 49 55 74 49 55 74 49 55 74 49 55 76 51 57 76 51 57 76 51 57 76 51 57 76 51 57 76 51 57 76 51 57 76 51 57 84 56 68 84 56 68 84 56 68 84 56 68 84 56 68 84 56 68 84 56 68 84 56 68 79 51 63 81 53 65 83 55 67 86 58 70 90 62 74 93 65 77 95 67 79 100 68 81 105 62 82 106 61 82 106 61 82 104 62 82 104 62 82 101 64 82 99 65 82 97 66 82 83 56 71 73 51 64 62 42 54 50 34 45 47 31 42 46 34 44 52 40 50 52 46 56 51 49 60 46 48 60 44 46 58 41 43 55 37 39 51 34 36 48 32 34 46 30 32 44 24 26 38 24 26 38
88 83 89 85 80 86 82 77 83 79 74 80 78 73 79 76 71 78 76 71 78 76 71 78 76 71 78 76 71 78 76 71 78 76 71 78 76 71 78 76 71 78 76 71 78 76 71 78 76 71 78 76 71 78 76 71 78 76 71 78 76 71 78 61 56 63 61 56 63 61 56 63 61 56 63 61 56 63 61 56 63 61 56 63 61 56 63 70 65 72 70 65 72 70 65 72 70 65 72 70 65 72 70 65 72 70 65 72 71 64 72 68 58 66 71 60 68 73 62 70 76 65 73 80 69 77 83 72 80 85 74 82 87 76 84 88 77 85 88 77 85 88 77 85 88 77 85 88 77 85 88 77 85 88 77 85 87 77 85 77 67 76 73 66 74 70 63 71 66 59 67 62 55 63 57 50 58 54 47 55 53 46 54 51 44 52 51 44 52 51 44 52 51 44 52 51 44 52 51 44 52 51 44 52 51 44 52 52 42 51 54 44 53 56 46 55 59 49 58 63 53 62 66 56 65 68 58 67 70 60 69 78 68 77 76 66 75 74 64 73 71 61 70 67 57 66 64 54 63 62 52 61 60 50 59 57 47 55 57 47 55 57 47 55 57 47 55 57 47 55 57 47 55 57 47 55 57 47 55 62 52 60 64 54 62 66 56 64 69 59 67 73 63 71 76 66 74 78 68 76 80 70 78 78 65 75 78 65 75 78 65 75 78 65 75 78 65 75 78 65 75 78 65 75 78 65 75 83 70 80 81 68 78 79 66 76 76 63 73 72 59 69 69 56 66 67 54 64 64 52 62 57 45 59 56 45 59 56 45 59 56 45 59 56 45 59 56 45 59 56 45 59 56 45 59 51 40 54 51 40 54 51 40 54 51 40 54 51 40 54 51 40 54 51 40 54 52 40 52 68 51 61 70 50 59 70 50 59 70 50 59 70 50 59 70 50 59 70 50 59 70 50 59 72 52 61 72 52 61 72 52 61 72 52 61 72 52 61 72 52 61 72 52 61 73 52 59 76 53 61 78 53 59 78 53 59 78 53 59 78 53 59 78 53 59 78 53 59 78 53 59 80 55 61 80 55 61 80 55 61 80 55 61 80 55 61 80 55 61 80 55 61 80 55 61 84 56 68 84 56 68 84 56 68 84 56 68 84 56 68 84 56 68 84 56 68 84 56 68 79 51 63 81 53 65 83 55 67 86 58 70 90 62 74 93 65 77 95 67 79 100 68 81 105 62 82 106 61 82 106 61 82 104 62 82 104 62 82 101 64 82 99 65 82 97 66 82 83 56 71 73 51 64 62 42 54 50 34 45 47 31 42 46 34 44 52 40 50 52 46 56 51 49 60 46 48 60 44 46 58 41 43 55 37 39 51 34 36 48 32 34 46 30 32 44 24 26 38 24 26 38
92 87 93 88 83 89 85 80 86 83 78 84 81 76 82 76 71 78 76 71 78 76 71 78 76 71 78 76 71 78 76 71 78 76 71 78 76 71 78 76 71 78 76 71 78 76 71 78 76 71 78 76 71 78 76 71 78 76 71 78 76 71 78 61 56 63 61 56 63 61 56 63 61 56 63 61 56 63 61 56 63 61 56 63 61 56 63 70 65 72 70 65 72 70 65 72 70 65 72 70 65 72 70 65 72 70 65 72 71 64 72 68 58 66 71 60 68 73 62 70 76 65 73 80 69 77 83 72 80 85 74 82 87 76 84 91 80 88 91 80 88 91 80 88 91 80 88 91 80 88 91 80 88 91 80 88 90 80 88 84 74 83 80 73 81 76 69 77 70 63 71 64 57 65 58 51 59 54 47 55 51 44 52 51 44 52 51 44 52 51 44 52 51 44 52 51 44 52 51 44 52 51 44 52 51 44 52 52 42 51 54 44 53 56 46 55 59 49 58 63 53 62 66 56 65 68 58 67 70 60 69 78 68 77 76 66 75 74 64 73 71 61 70 67 57 66 64 54 63 62 52 61 60 50 59 57 47 55 57 47 55 57 47 55 57 47 55 57 47 55 57 47 55 57 47 55 57 47 55 62 52 60 64 54 62 66 56 64 69 59 67 73 63 71 76 66 74 78 68 76 80 70 78 78 65 75 78 65 75 78 65 75 78 65 75 78 65 75 78 65 75 78 65 75 78 65 75 83 70 80 81 68 78 79 66 76 76 63 73 72 59 69 69 56 66 67 54 64 64 52 62 57 45 59 56 45 59 56 45 59 56 45 59 56 45 59 56 45 59 56 45 59 56 45 59 51 40 54 51 40 54 51 40 54 51 40 54 51 40 54 51 40 54 51 40 54 52 40 52 68 51 61 70 50 59 70 50 59 70 50 59 70 50 59 70 50 59 70 50 59 70 50 59 72 52 61 72 52 61 72 52 61 72 52 61 72 52 61 72 52 61 72 52 61 73 52 59 79 56 64 81 56 62 81 56 62 81 56 62 81 56 62 81 56 62 81 56 62 81 56 62 83 58 64 83 58 64 83 58 64 83 58 64 83 58 64 83 58 64 83 58 64 83 58 64 84 56 68 84 56 68 84 56 68 84 56 68 84 56 68 84 56 68 84 56 68 84 56 68 79 51 63 81 53 65 83 55 67 86 58 70 90 62 74 93 65 77 95 67 79 100 68 81 105 62 82 106 61 82 106 61 82 104 62 82 104 62 82 101 64 82 99 65 82 97 66 82 83 56 71 73 51 64 62 42 54 50 34 45 47 31 42 46 34 44 52 40 50 52 46 56 51 49 60 46 48 60 44 46 58 41 43 55 37 39 51 34 36 48 32 34 46 30 32 44 24 26 38 24 26 38
94 89 95 91 86 92 87 82 88 85 80 86 84 79 85 76 71 78 76 71 78 76 71 78 76 71 78 76 71 78 76 71 78 76 71 78 76 71 78 76 71 78 76 71 78 76 71 78 76 71 78 76 71 78 76 71 78 76 71 78 76 71 78 61 56 63 61 56 63 61 56 63 61 56 63 61 56 63 61 56 63 61 56 63 61 56 63 70 65 72 70 65 72 70 65 72 70 65 72 70 65 72 70 65 72 70 65 72 71 64 72 68 58 66 71 60 68 73 62 70 76 65 73 80 69 77 83 72 80 85 74 82 87 76 84 93 82 90 93 82 90 93 82 90 93 82 90 93 82 90 93 82 90 93 82 90 92 82 90 90 80 89 85 78 86 80 73 81 73 66 74 66 59 67 59 52 60 53 46 54 50 43 51 51 44 52 51 44 52 51 44 52 51 44 52 51 44 52 51 44 52 51 44 52 51 44 52 52 42 51 54 44 53 56 46 55 59 49 58 63 53 62 66 56 65 68 58 67 70 60 69 78 68 77 76 66 75 74 64 73 71 61 70 67 57 66 64 54 63 62 52 61 60 50 59 57 47 55 57 47 55 57 47 55 57 47 55 57 47 55 57 47 55 57 47 55 57 47 55 62 52 60 64 54 62 66 56 64 69 59 67 73 63 71 76 66 74 78 68 76 80 70 78 78 65 75 78 65 75 78 65 75 78 65 75 78 65 75 78 65 75 78 65 75 78 65 75 83 70 80 81 68 78 79 66 76 76 63 73 72 59 69 69 56 66 67 54 64 64 52 62 57 45 59 56 45 59 56 45 59 56 45 59 56 45 59 56 45 59 56 45 59 56 45 59 51 40 54 51 40 54 51 40 54 51 40 54 51 40 54 51 40 54 51 40 54 52 40 52 68 51 61 70 50 59 70 50 59 70 50 59 70 50 59 70 50 59 70 50 59 70 50 59 72 52 61 72 52 61 72 52 61 72 52 61 72 52 61 72 52 61 72 52 61 73 52 59 81 58 66 83 58 64 83 58 64 83 58 64 83 58 64 83 58 64 83 58 64 83 58 64 85 60 66 85 60 66 85 60 66 85 60 66 85 60 66 85 60 66 85 60 66 85 60 66 84 56 68 84 56 68 84 56 68 84 56 68 84 56 68 84 56 68 84 56 68 84 56 68 79 51 63 81 53 65 83 55 67 86 58 70 90 62 74 93 65 77 95 67 79 100 68 81 105 62 82 106 61 82 106 61 82 104 62 82 104 62 82 101 64 82 99 65 82 97 66 82 83 56 71 73 51 64 62 42 54 50 34 45 47 31 42 46 34 44 52 40 50 52 46 56 51 49 60 46 48 60 44 46 58 41 43 55 37 39 51 34 36 48 32 34 46 30 32 44 24 26 38 24 26 38
93 90 97 90 87 96 87 84 91 84 81 90 83 80 89 74 71 80 74 71 80 76 70 80 74 71 80 76 70 80 74 71 80 76 70 80 74 71 80 76 70 80 74 71 80 76 70 80 74 71 80 76 70 80 74 71 80 76 70 80 76 70 80 61 55 65 61 55 65 61 55 65 61 55 65 61 55 65 61 55 65 61 55 65 61 55 65 70 64 74 70 64 74 70 64 74 70 64 74 70 64 74 70 64 74 70 64 74 71 63 74 68 58 67 70 60 69 73 61 71 75 65 74 80 68 78 82 72 81 85 73 83 86 76 85 95 83 93 94 84 93 95 83 93 94 84 93 95 83 93 94 84 93 95 83 93 94 84 93 91 84 92 88 81 89 82 74 85 75 68 76 67 59 70 59 52 60 53 45 56 50 43 51 51 43 54 51 44 52 51 43 54 51 44 52 51 43 54 51 44 52 51 43 54 51 44 52 52 42 51 54 44 53 56 46 55 59 49 58 63 53 62 66 56 65 68 58 67 70 60 69 78 68 77 76 66 75 74 64 73 71 61 70 67 57 66 64 54 63 62 52 61 60 50 59 57 47 55 57 47 55 57 47 55 57 47 55 57 47 55 57 47 55 57 47 55 57 47 55 62 52 60 64 54 62 66 56 64 69 59 67 73 63 71 76 66 74 78 68 76 80 70 78 77 65 75 77 65 75 77 65 75 77 65 75 77 65 75 77 65 75 77 65 75 77 65 75 82 70 80 80 68 78 78 66 76 75 63 73 71 59 69 68 56 66 66 54 64 64 52 64 56 45 59 54 46 59 54 46 59 54 46 59 54 46 59 54 46 59 54 46 59 54 46 59 49 41 54 49 41 54 49 41 54 49 41 54 49 41 54 49 41 54 49 41 54 51 41 52 67 51 61 68 51 59 68 51 59 68 51 59 68 51 59 68 51 59 68 51 59 68 51 59 70 53 61 70 53 61 70 53 61 70 53 61 70 53 61 70 53 61 70 53 61 72 52 61 82 61 68 83 60 66 83 60 66 83 60 66 83 60 66 83 60 66 83 60 66 83 60 66 85 62 68 85 62 68 85 62 68 85 62 68 85 62 68 85 62 68 85 62 68 85 62 70 83 57 66 83 57 68 83 57 68 83 57 68 83 57 68 83 57 68 83 57 68 83 57 68 78 52 63 80 54 65 82 56 67 85 59 70 89 63 74 92 66 77 94 68 79 99 69 81 104 62 82 105 62 82 104 62 84 102 63 82 101 63 84 99 65 82 98 65 84 95 67 82 81 57 73 72 52 64 60 42 56 48 35 45 44 32 44 45 35 44 49 41 52 50 47 56 50 50 62 46 48 60 44 46 58 41 43 55 37 39 51 34 36 48 32 34 46 30 32 44 24 26 38 24 26 38
99 97 110 99 97 111 99 97 110 99 97 111 99 97 111 84 82 96 84 82 96 85 81 96 84 82 96 85 81 96 84 82 96 85 81 96 84 82 96 77 73 88 76 74 88 77 73 88 76 74 88 77 73 88 76 74 88 77 73 88 77 73 88 67 61 75 68 60 75 68 60 75 68 60 75 68 60 75 68 60 75 68 60 75 68 60 75 71 63 78 71 63 78 71 63 78 71 63 78 71 63 78 71 63 78 71 63 78 71 63 78 72 64 77 74 66 77 78 68 79 79 71 82 85 75 86 86 78 89 90 80 91 90 82 93 97 87 98 95 87 98 97 87 98 95 87 98 97 87 98 95 87 98 97 87 98 95 87 98 105 97 108 101 95 105 95 89 101 87 81 91 79 73 85 71 65 75 65 59 71 62 56 66 54 48 60 54 48 58 54 48 60 54 48 58 54 48 60 54 48 58 54 48 60 55 47 58 71 61 70 71 61 70 71 61 70 71 61 70 71 61 70 71 61 70 71 61 70 71 61 70 75 65 74 73 63 72 71 61 70 68 58 67 64 54 63 61 51 60 59 49 58 57 47 56 62 55 63 62 55 63 62 55 63 62 55 63 62 55 63 62 55 63 62 55 63 62 55 63 76 69 77 76 69 77 76 69 77 76 69 77 76 69 77 76 69 77 76 69 77 76 69 77 85 75 86 85 75 86 85 75 86 85 75 86 85 75 86 85 75 86 85 75 86 85 75 86 81 71 82 81 71 82 81 71 82 81 71 82 81 71 82 81 71 82 81 71 82 79 71 82 54 48 60 54 48 62 54 48 62 54 48 62 54 48 62 54 48 62 54 48 62 54 48 62 48 42 56 48 42 56 48 42 56 48 42 56 48 42 56 48 42 56 48 42 56 49 41 54 74 61 71 76 60 70 76 60 70 76 60 70 76 60 70 76 60 70 76 60 70 76 60 70 65 49 59 65 49 59 65 49 59 65 49 59 65 49 59 65 49 59 65 49 59 65 50 57 79 62 68 79 62 68 79 62 68 79 62 68 79 62 68 79 62 68 79 62 68 79 62 68 85 68 74 85 68 74 85 68 74 85 68 74 85 68 74 85 68 74 85 68 74 87 68 74 86 65 72 86 65 72 86 65 72 86 65 72 86 65 72 86 65 72 86 65 72 86 65 72 86 65 72 86 65 72 86 65 72 86 65 72 86 65 72 86 65 72 86 65 72 89 63 74 93 59 76 96 57 78 95 57 80 93 58 78 92 59 80 89 60 78 88 61 80 85 62 78 65 47 63 60 46 59 57 45 59 53 43 54 47 39 52 43 37 47 39 36 47 35 35 45 47 49 61 44 48 60 42 46 58 39 43 55 35 39 51 32 36 48 30 34 46 28 32 44 24 28 40 24 28 40
96 95 111 96 95 111 96 95 111 96 95 111 96 95 111 82 79 96 82 79 96 82 79 96 82 79 96 82 79 96 82 79 96 82 79 96 82 79 96 76 73 90 76 73 90 76 73 90 76 73 90 76 73 90 76 73 90 76 73 90 77 73 90 67 60 76 68 59 76 68 59 76 68 59 76 68 59 76 68 59 76 68 59 76 68 59 76 71 62 79 71 62 79 71 62 79 71 62 79 71 62 79 71 62 79 71 62 79 71 63 78 72 64 79 74 66 79 76 68 81 79 71 84 83 75 88 86 78 91 88 80 93 90 82 95 95 87 100 95 87 100 95 87 100 95 87 100 95 87 100 95 87 100 95 87 100 95 87 100 102 96 108 99 93 105 94 88 100 87 81 93 79 73 85 72 66 78 67 61 73 64 58 70 54 48 60 54 48 60 54 48 60 54 48 60 54 48 60 54 48 60 54 48 60 54 48 58 71 61 72 71 61 70 71 61 70 71 61 70 71 61 70 71 61 70 71 61 70 71 61 70 75 65 74 73 63 72 71 61 70 68 58 67 64 54 63 61 51 60 59 49 58 57 47 56 62 55 63 62 55 63 62 55 63 62 55 63 62 55 63 62 55 63 62 55 63 62 55 63 76 69 77 76 69 77 76 69 77 76 69 77 76 69 77 76 69 77 76 69 77 76 69 77 83 75 86 83 75 86 83 75 86 83 75 86 83 75 86 83 75 86 83 75 86 83 75 86 79 71 82 79 71 82 79 71 82 79 71 82 79 71 82 79 71 82 79 71 82 78 72 82 56 50 64 54 50 64 54 50 64 54 50 64 54 50 64 54 50 64 54 50 64 54 50 64 48 44 58 48 44 58 48 44 58 48 44 58 48 44 58 48 44 58 48 44 58 50 44 56 73 61 71 74 61 70 74 61 70 74 61 70 74 61 70 74 61 70 74 61 70 74 61 70 63 50 59 63 50 59 63 50 59 63 50 59 63 50 59 63 50 59 63 50 59 63 50 57 78 63 70 78 63 68 78 63 68 78 63 68 78 63 68 78 63 68 78 63 68 78 63 68 84 69 74 84 69 74 84 69 74 84 69 74 84 69 74 84 69 74 84 69 74 84 69 74 85 66 72 85 66 72 85 66 72 85 66 72 85 66 72 85 66 72 85 66 72 85 66 72 85 66 72 85 66 72 85 66 72 85 66 72 85 66 72 85 66 72 85 66 72 87 64 74 92 59 78 93 58 80 93 58 80 91 59 80 91 59 80 88 61 80 86 61 80 84 63 80 64 47 63 59 47 61 56 45 59 50 44 56 46 40 52 40 38 49 38 36 47 33 36 45 47 49 62 44 48 60 42 46 58 39 43 55 35 39 51 32 36 48 30 34 46 28 32 44 24 28 40 24 28 40
94 93 109 94 93 109 94 93 109 94 93 109 94 93 109 80 77 94 80 77 94 80 77 94 80 77 94 80 77 94 80 77 94 80 77 94 80 77 94 76 73 90 76 73 90 76 73 90 76 73 90 76 73 90 76 73 90 76 73 90 77 73 90 67 60 76 68 59 76 68 59 76 68 59 76 68 59 76 68 59 76 68 59 76 68 59 76 71 62 79 71 62 79 71 62 79 71 62 79 71 62 79 71 62 79 71 62 79 71 63 78 72 64 79 74 66 79 76 68 81 79 71 84 83 75 88 86 78 91 88 80 93 90 82 95 95 87 100 95 87 100 95 87 100 95 87 100 95 87 100 95 87 100 95 87 100 95 87 100 98 92 104 96 90 102 92 86 98 86 80 92 80 74 86 74 68 80 70 64 76 68 62 74 54 48 60 54 48 60 54 48 60 54 48 60 54 48 60 54 48 60 54 48 60 54 48 58 71 61 72 71 61 70 71 61 70 71 61 70 71 61 70 71 61 70 71 61 70 71 61 70 75 65 74 73 63 72 71 61 70 68 58 67 64 54 63 61 51 60 59 49 58 57 47 56 62 55 63 62 55 63 62 55 63 62 55 63 62 55 63 62 55 63 62 55 63 62 55 63 76 69 77 76 69 77 76 69 77 76 69 77 76 69 77 76 69 77 76 69 77 76 69 77 83 75 86 83 75 86 83 75 86 83 75 86 83 75 86 83 75 86 83 75 86 83 75 86 79 71 82 79 71 82 79 71 82 79 71 82 79 71 82 79 71 82 79 71 82 78 72 82 58 52 66 56 52 66 56 52 66 56 52 66 56 52 66 56 52 66 56 52 66 56 52 66 50 46 60 50 46 60 50 46 60 50 46 60 50 46 60 50 46 60 50 46 60 52 46 58 73 61 71 74 61 70 74 61 70 74 61 70 74 61 70 74 61 70 74 61 70 74 61 70 63 50 59 63 50 59 63 50 59 63 50 59 63 50 59 63 50 59 63 50 59 63 50 57 78 63 70 78 63 68 78 63 68 78 63 68 78 63 68 78 63 68 78 63 68 78 63 68 84 69 74 84 69 74 84 69 74 84 69 74 84 69 74 84 69 74 84 69 74 84 69 74 85 66 72 85 66 72 85 66 72 85 66 72 85 66 72 85 66 72 85 66 72 85 66 72 85 66 72 85 66 72 85 66 72 85 66 72 85 66 72 85 66 72 85 66 72 87 64 74 92 59 78 93 58 80 93 58 80 91 59 80 91 59 80 88 61 80 86 61 80 84 63 80 64 47 63 59 47 61 56 45 59 50 44 56 46 40 52 40 38 49 38 36 47 33 36 45 47 49 62 44 48 60 42 46 58 39 43 55 35 39 51 32 36 48 30 34 46 28 32 44 24 28 40 24 28 40
91 90 106 91 90 106 91 90 106 91 90 106 91 90 106 77 74 91 77 74 91 77 74 91 77 74 91 77 74 91 77 74 91 77 74 91 77 74 91 76 73 90 76 73 90 76 73 90 76 73 90 76 73 90 76 73 90 76 73 90 77 73 90 67 60 76 68 59 76 68 59 76 68 59 76 68 59 76 68 59 76 68 59 76 68 59 76 71 62 79 71 62 79 71 62 79 71 62 79 71 62 79 71 62 79 71 62 79 71 63 78 72 64 79 74 66 79 76 68 81 79 71 84 83 75 88 86 78 91 88 80 93 90 82 95 95 87 100 95 87 100 95 87 100 95 87 100 95 87 100 95 87 100 95 87 100 95 87 100 94 88 100 92 86 98 89 83 95 85 79 91 81 75 87 77 71 83 74 68 80 72 66 78 54 48 60 54 48 60 54 48 60 54 48 60 54 48 60 54 48 60 54 48 60 54 48 58 71 61 72 71 61 70 71 61 70 71 61 70 71 61 70 71 61 70 71 61 70 71 61 70 75 65 74 73 63 72 71 61 70 68 58 67 64 54 63 61 51 60 59 49 58 57 47 56 62 55 63 62 55 63 62 55 63 62 55 63 62 55 63 62 55 63 62 55 63 62 55 63 76 69 77 76 69 77 76 69 77 76 69 77 76 69 77 76 69 77 76 69 77 76 69 77 83 75 86 83 75 86 83 75 86 83 75 86 83 75 86 83 75 86 83 75 86 83 75 86 79 71 82 79 71 82 79 71 82 79 71 82 79 71 82 79 71 82 79 71 82 78 72 82 61 55 69 59 55 69 59 55 69 59 55 69 59 55 69 59 55 69 59 55 69 59 55 69 53 49 63 53 49 63 53 49 63 53 49 63 53 49 63 53 49 63 53 49 63 55 49 61 73 61 71 74 61 70 74 61 70 74 61 70 74 61 70 74 61 70 74 61 70 74 61 70 63 50 59 63 50 59 63 50 59 63 50 59 63 50 59 63 50 59 63 50 59 63 50 57 78 63 70 78 63 68 78 63 68 78 63 68 78 63 68 78 63 68 78 63 68 78 63 68 84 69 74 84 69 74 84 69 74 84 69 74 84 69 74 84 69 74 84 69 74 84 69 74 85 66 72 85 66 72 85 66 72 85 66 72 85 66 72 85 66 72 85 66 72 85 66 72 85 66 72 85 66 72 85 66 72 85 66 72 85 66 72 85 66 72 85 66 72 87 64 74 92 59 78 93 58 80 93 58 80 91 59 80 91 59 80 88 61 80 86 61 80 84 63 80 64 47 63 59 47 61 56 45 59 50 44 56 46 40 52 40 38 49 38 36 47 33 36 45 47 49 62 44 48 60 42 46 58 39 43 55 35 39 51 32 36 48 30 34 46 28 32 44 24 28 40 24 28 40
87 86 102 87 86 102 87 86 102 87 86 102 87 86 102 73 70 87 73 70 87 73 70 87 73 70 87 73 70 87 73 70 87 73 70 87 73 70 87 76 73 90 76 73 90 76 73 90 76 73 90 76 73 90 76 73 90 76 73 90 77 73 90 67 60 76 68 59 76 68 59 76 68 59 76 68 59 76 68 59 76 68 59 76 68 59 76 71 62 79 71 62 79 71 62 79 71 62 79 71 62 79 71 62 79 71 62 79 71 63 78 72 64 79 74 66 79 76 68 81 79 71 84 83 75 88 86 78 91 88 80 93 90 82 95 95 87 100 95 87 100 95 87 100 95 87 100 95 87 100 95 87 100 95 87 100 95 87 100 89 83 95 88 82 94 87 81 93 84 78 90 82 76 88 79 73 85 78 72 84 77 71 83 54 48 60 54 48 60 54 48 60 54 48 60 54 48 60 54 48 60 54 48 60 54 48 58 71 61 72 71 61 70 71 61 70 71 61 70 71 61 70 71 61 70 71 61 70 71 61 70 75 65 74 73 63 72 71 61 70 68 58 67 64 54 63 61 51 60 59 49 58 57 47 56 62 55 63 62 55 63 62 55 63 62 55 63 62 55 63 62 55 63 62 55 63 62 55 63 76 69 77 76 69 77 76 69 77 76 69 77 76 69 77 76 69 77 76 69 77 76 69 77 83 75 86 83 75 86 83 75 86 83 75 86 83 75 86 83 75 86 83 75 86 83 75 86 79 71 82 79 71 82 79 71 82 79 71 82 79 71 82 79 71 82 79 71 82 78 72 82 65 59 73 63 59 73 63 59 73 63 59 73 63 59 73 63 59 73 63 59 73 63 59 73 57 53 67 57 53 67 57 53 67 57 53 67 57 53 67 57 53 67 57 53 67 59 53 65 73 61 71 74 61 70 74 61 70 74 61 70 74 61 70 74 61 70 74 61 70 74 61 70 63 50 59 63 50 59 63 50 59 63 50 59 63 50 59 63 50 59 63 50 59 63 50 57 78 63 70 78 63 68 78 63 68 78 63 68 78 63 68 78 63 68 78 63 68 78 63 68 84 69 74 84 69 74 84 69 74 84 69 74 84 69 74 84 69 74 84 69 74 84 69 74 85 66 72 85 66 72 85 66 72 85 66 72 85 66 72 85 66 72 85 66 72 85 66 72 85 66 72 85 66 72 85 66 72 85 66 72 85 66 72 85 66 72 85 66 72 87 64 74 92 59 78 93 58 80 93 58 80 91 59 80 91 59 80 88 61 80 86 61 80 84 63 80 64 47 63 59 47 61 56 45 59 50 44 56 46 40 52 40 38 49 38 36 47 33 36 45 47 49 62 44 48 60 42 46 58 39 43 55 35 39 51 32 36 48 30 34 46 28 32 44 24 28 40 24 28 40
84 83 99 84 83 99 84 83 99 84 83 99 84 83 99 70 67 84 70 67 84 70 67 84 70 67 84 70 67 84 70 67 84 70 67 84 70 67 84 76 73 90 76 73 90 76 73 90 76 73 90 76 73 90 76 73 90 76 73 90 77 73 90 67 60 76 68 59 76 68 59 76 68 59 76 68 59 76 68 59 76 68 59 76 68 59 76 71 62 79 71 62 79 71 62 79 71 62 79 71 62 79 71 62 79 71 62 79 71 63 78 72 64 79 74 66 79 76 68 81 79 71 84 83 75 88 86 78 91 88 80 93 90 82 95 95 87 100 95 87 100 95 87 100 95 87 100 95 87 100 95 87 100 95 87 100 95 87 100 85 79 91 85 79 91 84 78 90 83 77 89 83 77 89 82 76 88 81 75 87 81 75 87 54 48 60 54 48 60 54 48 60 54 48 60 54 48 60 54 48 60 54 48 60 54 48 58 71 61 72 71 61 70 71 61 70 71 61 70 71 61 70 71 61 70 71 61 70 71 61 70 75 65 74 73 63 72 71 61 70 68 58 67 64 54 63 61 51 60 59 49 58 57 47 56 62 55 63 62 55 63 62 55 63 62 55 63 62 55 63 62 55 63 62 55 63 62 55 63 76 69 77 76 69 77 76 69 77 76 69 77 76 69 77 76 69 77 76 69 77 76 69 77 83 75 86 83 75 86 83 75 86 83 75 86 83 75 86 83 75 86 83 75 86 83 75 86 79 71 82 79 71 82 79 71 82 79 71 82 79 71 82 79 71 82 79 71 82 78 72 82 68 62 76 66 62 76 66 62 76 66 62 76 66 62 76 66 62 76 66 62 76 66 62 76 60 56 70 60 56 70 60 56 70 60 56 70 60 56 70 60 56 70 60 56 70 62 56 68 73 61 71 74 61 70 74 61 70 74 61 70 74 61 70 74 61 70 74 61 70 74 61 70 63 50 59 63 50 59 63 50 59 63 50 59 63 50 59 63 50 59 63 50 59 63 50 57 78 63 70 78 63 68 78 63 68 78 63 68 78 63 68 78 63 68 78 63 68 78 63 68 84 69 74 84 69 74 84 69 74 84 69 74 84 69 74 84 69 74 84 69 74 84 69 74 85 66 72 85 66 72 85 66 72 85 66 72 85 66 72 85 66 72 85 66 72 85 66 72 85 66 72 85 66 72 85 66 72 85 66 72 85 66 72 85 66 72 85 66 72 87 64 74 92 59 78 93 58 80 93 58 80 91 59 80 91 59 80 88 61 80 86 61 80 84 63 80 64 47 63 59 47 61 56 45 59 50 44 56 46 40 52 40 38 49 38 36 47 33 36 45 47 49 62 44 48 60 42 46 58 39 43 55 35 39 51 32 36 48 30 34 46 28 32 44 24 28 40 24 28 40
82 81 97 82 81 97 82 81 97 82 81 97 82 81 97 68 65 82 68 65 82 68 65 82 68 65 82 68 65 82 68 65 82 68 65 82 68 65 82 76 73 90 76 73 90 76 73 90 76 73 90 76 73 90 76 73 90 76 73 90 77 73 90 67 60 76 68 59 76 68 59 76 68 59 76 68 59 76 68 59 76 68 59 76 68 59 76 71 62 79 71 62 79 71 62 79 71 62 79 71 62 79 71 62 79 71 62 79 71 63 78 72 64 79 74 66 79 76 68 81 79 71 84 83 75 88 86 78 91 88 80 93 90 82 95 95 87 100 95 87 100 95 87 100 95 87 100 95 87 100 95 87 100 95 87 100 95 87 100 81 75 87 82 76 88 82 76 88 83 77 89 83 77 89 84 78 90 84 78 90 85 79 91 54 48 60 54 48 60 54 48 60 54 48 60 54 48 60 54 48 60 54 48 60 54 48 58 71 61 72 71 61 70 71 61 70 71 61 70 71 61 70 71 61 70 71 61 70 71 61 70 75 65 74 73 63 72 71 61 70 68 58 67 64 54 63 61 51 60 59 49 58 57 47 56 62 55 63 62 55 63 62 55 63 62 55 63 62 55 63 62 55 63 62 55 63 62 55 63 76 69 77 76 69 77 76 69 77 76 69 77 76 69 77 76 69 77 76 69 77 76 69 77 83 75 86 83 75 86 83 75 86 83 75 86 83 75 86 83 75 86 83 75 86 83 75 86 79 71 82 79 71 82 79 71 82 79 71 82 79 71 82 79 71 82 79 71 82 78 72 82 70 64 78 68 64 78 68 64 78 68 64 78 68 64 78 68 64 78 68 64 78 68 64 78 62 58 72 62 58 72 62 58 72 62 58 72 62 58 72 62 58 72 62 58 72 64 58 70 73 61 71 74 61 70 74 61 70 74 61 70 74 61 70 74 61 70 74 61 70 74 61 70 63 50 59 63 50 59 63 50 59 63 50 59 63 50 59 63 50 59 63 50 59 63 50 57 78 63 70 78 63 68 78 63 68 78 63 68 78 63 68 78 63 68 78 63 68 78 63 68 84 69 74 84 69 74 84 69 74 84 69 74 84 69 74 84 69 74 84 69 74 84 69 74 85 66 72 85 66 72 85 66 72 85 66 72 85 66 72 85 66 72 85 66 72 85 66 72 85 66 72 85 66 72 85 66 72 85 66 72 85 66 72 85 66 72 85 66 72 87 64 74 92 59 78 93 58 80 93 58 80 91 59 80 91 59 80 88 61 80 86 61 80 84 63 80 64 47 63 59 47 61 56 45 59 50 44 56 46 40 52 40 38 49 38 36 47 33 36 45 47 49 62 44 48 60 42 46 58 39 43 55 35 39 51 32 36 48 30 34 46 28 32 44 24 28 40 24 28 40
80 79 95 80 79 95 80 79 95 80 79 95 80 79 95 66 63 80 66 63 80 66 63 80 66 63 80 66 63 80 66 63 80 66 63 80 66 63 80 76 73 90 76 73 90 76 73 90 76 73 90 76 73 90 76 73 90 76 73 90 77 73 90 67 60 76 68 59 76 68 59 76 68 59 76 68 59 76 68 59 76 68 59 76 68 59 76 71 62 79 71 62 79 71 62 79 71 62 79 71 62 79 71 62 79 71 62 79 71 63 78 72 64 79 74 66 79 76 68 81 79 71 84 83 75 88 86 78 91 88 80 93 90 82 95 95 87 100 95 87 100 95 87 100 95 87 100 95 87 100 95 87 100 95 87 100 95 87 100 80 74 86 80 74 86 81 75 87 82 76 88 84 78 90 85 79 91 86 80 92 86 80 92 54 48 60 54 48 60 54 48 60 54 48 60 54 48 60 54 48 60 54 48 60 54 48 58 71 61 72 71 61 70 71 61 70 71 61 70 71 61 70 71 61 70 71 61 70 71 61 70 75 65 74 73 63 72 71 61 70 68 58 67 64 54 63 61 51 60 59 49 58 57 47 56 62 55 63 62 55 63 62 55 63 62 55 63 62 55 63 62 55 63 62 55 63 62 55 63 76 69 77 76 69 77 76 69 77 76 69 77 76 69 77 76 69 77 76 69 77 76 69 77 83 75 86 83 75 86 83 75 86 83 75 86 83 75 86 83 75 86 83 75 86 83 75 86 79 71 82 79 71 82 79 71 82 79 71 82 79 71 82 79 71 82 79 71 82 78 72 82 72 66 80 70 66 80 70 66 80 70 66 80 70 66 80 70 66 80 70 66 80 70 66 80 64 60 74 64 60 74 64 60 74 64 60 74 64 60 74 64 60 74 64 60 74 66 60 72 73 61 71 74 61 70 74 61 70 74 61 70 74 61 70 74 61 70 74 61 70 74 61 70 63 50 59 63 50 59 63 50 59 63 50 59 63 50 59 63 50 59 63 50 59 63 50 57 78 63 70 78 63 68 78 63 68 78 63 68 78 63 68 78 63 68 78 63 68 78 63 68 84 69 74 84 69 74 84 69 74 84 69 74 84 69 74 84 69 74 84 69 74 84 69 74 85 66 72 85 66 72 85 66 72 85 66 72 85 66 72 85 66 72 85 66 72 85 66 72 85 66 72 85 66 72 85 66 72 85 66 72 85 66 72 85 66 72 85 66 72 87 64 74 92 59 78 93 58 80 93 58 80 91 59 80 91 59 80 88 61 80 86 61 80 84 63 80 64 47 63 59 47 61 56 45 59 50 44 56 46 40 52 40 38 49 38 36 47 33 36 45 47 49 62 44 48 60 42 46 58 39 43 55 35 39 51 32 36 48 30 34 46 28 32 44 24 28 40 24 28 40
63 62 78 63 62 78 63 62 78 63 62 78 63 62 78 62 59 76 62 59 76 62 59 76 62 59 76 62 59 76 62 59 76 62 59 76 62 59 76 70 67 84 70 67 84 70 67 84 70 67 84 70 67 84 70 67 84 70 67 84 71 67 84 72 65 81 73 64 81 73 64 81 73 64 81 73 64 81 73 64 81 73 64 81 73 64 81 70 61 78 70 61 78 70 61 78 70 61 78 70 61 78 70 61 78 70 61 78 70 62 77 74 66 81 74 66 79 74 66 79 74 66 79 74 66 79 74 66 79 74 66 79 74 66 79 80 72 85 80 72 85 80 72 85 80 72 85 80 72 85 80 72 85 80 72 85 80 72 85 83 77 89 83 77 89 83 77 89 83 77 89 83 77 89 83 77 89 83 77 89 83 77 89 57 51 63 57 51 63 57 51 63 57 51 63 57 51 63 57 51 63 57 51 63 57 51 61 82 72 83 80 70 79 78 68 77 75 65 74 71 61 70 68 58 67 66 56 65 64 54 63 49 39 48 49 39 48 49 39 48 49 39 48 49 39 48 49 39 48 49 39 48 49 39 48 57 50 58 57 50 58 57 50 58 57 50 58 57 50 58 57 50 58 57 50 58 57 50 58 63 56 64 64 57 65 68 61 69 72 65 73 77 70 78 81 74 82 85 78 86 87 80 88 87 79 90 87 79 90 87 79 90 87 79 90 87 79 90 87 79 90 87 79 90 87 79 90 88 80 91 88 80 91 88 80 91 88 80 91 88 80 91 88 80 91 88 80 91 87 81 91 81 75 89 79 75 89 79 75 89 79 75 89 79 75 89 79 75 89 79 75 89 79 75 89 84 80 94 84 80 94 84 80 94 84 80 94 84 80 94 84 80 94 84 80 94 86 80 92 83 71 81 84 71 80 84 71 80 84 71 80 84 71 80 84 71 80 84 71 80 84 71 80 75 62 71 75 62 71 75 62 71 75 62 71 75 62 71 75 62 71 75 62 71 75 62 69 85 70 77 85 70 75 85 70 75 85 70 75 85 70 75 85 70 75 85 70 75 85 70 75 82 67 72 82 67 72 82 67 72 82 67 72 82 67 72 82 67 72 82 67 72 82 67 72 96 77 83 96 77 83 96 77 83 96 77 83 96 77 83 96 77 83 96 77 83 96 77 83 86 67 73 86 67 73 86 67 73 86 67 73 86 67 73 86 67 73 86 67 73 88 65 75 96 63 82 95 60 82 93 58 80 88 56 77 84 52 73 78 51 70 74 49 68 70 49 66 55 38 54 52 40 54 51 40 54 48 42 54 48 42 54 45 43 54 45 43 54 42 45 54 46 48 61 43 47 59 41 45 57 38 42 54 34 38 50 31 35 47 29 33 45 27 31 43 24 28 40 24 28 40
63 62 78 63 62 78 63 62 78 63 62 78 63 62 78 62 59 76 62 59 76 62 59 76 62 59 76 62 59 76 62 59 76 62 59 76 62 59 76 70 67 84 70 67 84 70 67 84 70 67 84 70 67 84 70 67 84 70 67 84 71 67 84 72 65 81 73 64 81 73 64 81 73 64 81 73 64 81 73 64 81 73 64 81 73 64 81 70 61 78 70 61 78 70 61 78 70 61 78 70 61 78 70 61 78 70 61 78 70 62 77 74 66 81 74 66 79 74 66 79 74 66 79 74 66 79 74 66 79 74 66 79 74 66 79 80 72 85 80 72 85 80 72 85 80 72 85 80 72 85 80 72 85 80 72 85 80 72 85 81 75 87 81 75 87 81 75 87 81 75 87 81 75 87 81 75 87 81 75 87 81 75 87 59 53 65 59 53 65 59 53 65 59 53 65 59 53 65 59 53 65 59 53 65 59 53 63 82 72 83 80 70 79 78 68 77 75 65 74 71 61 70 68 58 67 66 56 65 64 54 63 51 41 50 51 41 50 51 41 50 51 41 50 51 41 50 51 41 50 51 41 50 51 41 50 54 47 55 54 47 55 54 47 55 54 47 55 54 47 55 54 47 55 54 47 55 54 47 55 59 52 60 60 53 61 63 56 64 67 60 68 71 64 72 75 68 76 78 71 79 79 72 80 85 77 88 85 77 88 85 77 88 85 77 88 85 77 88 85 77 88 85 77 88 85 77 88 86 78 89 86 78 89 86 78 89 86 78 89 86 78 89 86 78 89 86 78 89 85 79 89 79 73 87 77 73 87 77 73 87 77 73 87 77 73 87 77 73 87 77 73 87 77 73 87 82 78 92 82 78 92 82 78 92 82 78 92 82 78 92 82 78 92 82 78 92 84 78 90 83 71 81 84 71 80 84 71 80 84 71 80 84 71 80 84 71 80 84 71 80 84 71 80 75 62 71 75 62 71 75 62 71 75 62 71 75 62 71 75 62 71 75 62 71 75 62 69 85 70 77 85 70 75 85 70 75 85 70 75 85 70 75 85 70 75 85 70 75 85 70 75 84 69 74 84 69 74 84 69 74 84 69 74 84 69 74 84 69 74 84 69 74 84 69 74 96 77 83 96 77 83 96 77 83 96 77 83 96 77 83 96 77 83 96 77 83 96 77 83 86 67 73 86 67 73 86 67 73 86 67 73 86 67 73 86 67 73 86 67 73 88 65 75 96 63 82 95 60 82 93 58 80 88 56 77 84 52 73 78 51 70 74 49 68 70 49 66 55 38 54 52 40 54 51 40 54 48 42 54 48 42 54 45 43 54 45 43 54 42 45 54 46 48 61 43 47 59 41 45 57 38 42 54 34 38 50 31 35 47 29 33 45 27 31 43 24 28 40 24 28 40
63 62 78 63 62 78 63 62 78 63 62 78 63 62 78 62 59 76 62 59 76 62 59 76 62 59 76 62 59 76 62 59 76 62 59 76 62 59 76 70 67 84 70 67 84 70 67 84 70 67 84 70 67 84 70 67 84 70 67 84 71 67 84 72 65 81 73 64 81 73 64 81 73 64 81 73 64 81 73 64 81 73 64 81 73 64 81 70 61 78 70 61 78 70 61 78 70 61 78 70 61 78 70 61 78 70 61 78 70 62 77 74 66 81 74 66 79 74 66 79 74 66 79 74 66 79 74 66 79 74 66 79 74 66 79 80 72 85 80 72 85 80 72 85 80 72 85 80 72 85 80 72 85 80 72 85 80 72 85 79 73 85 79 73 85 79 73 85 79 73 85 79 73 85 79 73 85 79 73 85 79 73 85 61 55 67 61 55 67 61 55 67 61 55 67 61 55 67 61 55 67 61 55 67 61 55 65 82 72 83 80 70 79 78 68 77 75 65 74 71 61 70 68 58 67 66 56 65 64 54 63 56 46 55 56 46 55 56 46 55 56 46 55 56 46 55 56 46 55 56 46 55 56 46 55 51 44 52 51 44 52 51 44 52 51 44 52 51 44 52 51 44 52 51 44 52 51 44 52 54 47 55 55 48 56 57 50 58 60 53 61 62 55 63 65 58 66 67 60 68 68 61 69 80 72 83 80 72 83 80 72 83 80 72 83 80 72 83 80 72 83 80 72 83 80 72 83 81 73 84 81 73 84 81 73 84 81 73 84 81 73 84 81 73 84 81 73 84 80 74 84 77 71 85 75 71 85 75 71 85 75 71 85 75 71 85 75 71 85 75 71 85 75 71 85 80 76 90 80 76 90 80 76 90 80 76 90 80 76 90 80 76 90 80 76 90 82 76 88 83 71 81 84 71 80 84 71 80 84 71 80 84 71 80 84 71 80 84 71 80 84 71 80 75 62 71 75 62 71 75 62 71 75 62 71 75 62 71 75 62 71 75 62 71 75 62 69 85 70 77 85 70 75 85 70 75 85 70 75 85 70 75 85 70 75 85 70 75 85 70 75 86 71 76 86 71 76 86 71 76 86 71 76 86 71 76 86 71 76 86 71 76 86 71 76 96 77 83 96 77 83 96 77 83 96 77 83 96 77 83 96 77 83 96 77 83 96 77 83 86 67 73 86 67 73 86 67 73 86 67 73 86 67 73 86 67 73 86 67 73 88 65 75 96 63 82 95 60 82 93 58 80 88 56 77 84 52 73 78 51 70 74 49 68 70 49 66 55 38 54 52 40 54 51 40 54 48 42 54 48 42 54 45 43 54 45 43 54 42 45 54 46 48 61 43 47 59 41 45 57 38 42 54 34 38 50 31 35 47 29 33 45 27 31 43 24 28 40 24 28 40
63 62 78 63 62 78 63 62 78 63 62 78 63 62 78 62 59 76 62 59 76 62 59 76 62 59 76 62 59 76 62 59 76 62 59 76 62 59 76 70 67 84 70 67 84 70 67 84 70 67 84 70 67 84 70 67 84 70 67 84 71 67 84 72 65 81 73 64 81 73 64 81 73 64 81 73 64 81 73 64 81 73 64 81 73 64 81 70 61 78 70 61 78 70 61 78 70 61 78 70 61 78 70 61 78 70 61 78 70 62 77 74 66 81 74 66 79 74 66 79 74 66 79 74 66 79 74 66 79 74 66 79 74 66 79 80 72 85 80 72 85 80 72 85 80 72 85 80 72 85 80 72 85 80 72 85 80 72 85 76 70 82 76 70 82 76 70 82 76 70 82 76 70 82 76 70 82 76 70 82 76 70 82 64 58 70 64 58 70 64 58 70 64 58 70 64 58 70 64 58 70 64 58 70 64 58 68 82 72 83 80 70 79 78 68 77 75 65 74 71 61 70 68 58 67 66 56 65 64 54 63 63 53 62 63 53 62 63 53 62 63 53 62 63 53 62 63 53 62 63 53 62 63 53 62 52 45 53 52 45 53 52 45 53 52 45 53 52 45 53 52 45 53 52 45 53 52 45 53 53 46 54 53 46 54 54 47 55 55 48 56 56 49 57 57 50 58 57 50 58 58 51 59 73 65 76 73 65 76 73 65 76 73 65 76 73 65 76 73 65 76 73 65 76 73 65 76 74 66 77 74 66 77 74 66 77 74 66 77 74 66 77 74 66 77 74 66 77 73 67 77 74 68 82 72 68 82 72 68 82 72 68 82 72 68 82 72 68 82 72 68 82 72 68 82 77 73 87 77 73 87 77 73 87 77 73 87 77 73 87 77 73 87 77 73 87 79 73 85 83 71 81 84 71 80 84 71 80 84 71 80 84 71 80 84 71 80 84 71 80 84 71 80 75 62 71 75 62 71 75 62 71 75 62 71 75 62 71 75 62 71 75 62 71 75 62 69 85 70 77 85 70 75 85 70 75 85 70 75 85 70 75 85 70 75 85 70 75 85 70 75 89 74 79 89 74 79 89 74 79 89 74 79 89 74 79 89 74 79 89 74 79 89 74 79 96 77 83 96 77 83 96 77 83 96 77 83 96 77 83 96 77 83 96 77 83 96 77 83 86 67 73 86 67 73 86 67 73 86 67 73 86 67 73 86 67 73 86 67 73 88 65 75 96 63 82 95 60 82 93 58 80 88 56 77 84 52 73 78 51 70 74 49 68 70 49 66 55 38 54 52 40 54 51 40 54 48 42 54 48 42 54 45 43 54 45 43 54 42 45 54 46 48 61 43 47 59 41 45 57 38 42 54 34 38 50 31 35 47 29 33 45 27 31 43 24 28 40 24 28 40
63 62 78 63 62 78 63 62 78 63 62 78 63 62 78 62 59 76 62 59 76 62 59 76 62 59 76 62 59 76 62 59 76 62 59 76 62 59 76 70 67 84 70 67 84 70 67 84 70 67 84 70 67 84 70 67 84 70 67 84 71 67 84 72 65 81 73 64 81 73 64 81 73 64 81 73 64 81 73 64 81 73 64 81 73 64 81 70 61 78 70 61 78 70 61 78 70 61 78 70 61 78 70 61 78 70 61 78 70 62 77 74 66 81 74 66 79 74 66 79 74 66 79 74 66 79 74 66 79 74 66 79 74 66 79 80 72 85 80 72 85 80 72 85 80 72 85 80 72 85 80 72 85 80 72 85 80 72 85 72 66 78 72 66 78 72 66 78 72 66 78 72 66 78 72 66 78 72 66 78 72 66 78 68 62 74 68 62 74 68 62 74 68 62 74 68 62 74 68 62 74 68 62 74 68 62 72 82 72 83 80 70 79 78 68 77 75 65 74 71 61 70 68 58 67 66 56 65 64 54 63 69 59 68 69 59 68 69 59 68 69 59 68 69 59 68 69 59 68 69 59 68 69 59 68 59 52 60 59 52 60 59 52 60 59 52 60 59 52 60 59 52 60 59 52 60 59 52 60 58 51 59 57 50 58 57 50 58 56 49 57 55 48 56 54 47 55 53 46 54 53 46 54 67 59 70 67 59 70 67 59 70 67 59 70 67 59 70 67 59 70 67 59 70 67 59 70 68 60 71 68 60 71 68 60 71 68 60 71 68 60 71 68 60 71 68 60 71 67 61 71 70 64 78 68 64 78 68 64 78 68 64 78 68 64 78 68 64 78 68 64 78 68 64 78 73 69 83 73 69 83 73 69 83 73 69 83 73 69 83 73 69 83 73 69 83 75 69 81 83 71 81 84 71 80 84 71 80 84 71 80 84 71 80 84 71 80 84 71 80 84 71 80 75 62 71 75 62 71 75 62 71 75 62 71 75 62 71 75 62 71 75 62 71 75 62 69 85 70 77 85 70 75 85 70 75 85 70 75 85 70 75 85 70 75 85 70 75 85 70 75 93 78 83 93 78 83 93 78 83 93 78 83 93 78 83 93 78 83 93 78 83 93 78 83 96 77 83 96 77 83 96 77 83 96 77 83 96 77 83 96 77 83 96 77 83 96 77 83 86 67 73 86 67 73 86 67 73 86 67 73 86 67 73 86 67 73 86 67 73 88 65 75 96 63 82 95 60 82 93 58 80 88 56 77 84 52 73 78 51 70 74 49 68 70 49 66 55 38 54 52 40 54 51 40 54 48 42 54 48 42 54 45 43 54 45 43 54 42 45 54 46 48 61 43 47 59 41 45 57 38 42 54 34 38 50 31 35 47 29 33 45 27 31 43 24 28 40 24 28 40
63 62 78 63 62 78 63 62 78 63 62 78 63 62 78 62 59 76 62 59 76 62 59 76 62 59 76 62 59 76 62 59 76 62 59 76 62 59 76 70 67 84 70 67 84 70 67 84 70 67 84 70 67 84 70 67 84 70 67 84 71 67 84 72 65 81 73 64 81 73 64 81 73 64 81 73 64 81 73 64 81 73 64 81 73 64 81 70 61 78 70 61 78 70 61 78 70 61 78 70 61 78 70 61 78 70 61 78 70 62 77 74 66 81 74 66 79 74 66 79 74 66 79 74 66 79 74 66 79 74 66 79 74 66 79 80 72 85 80 72 85 80 72 85 80 72 85 80 72 85 80 72 85 80 72 85 80 72 85 69 63 75 69 63 75 69 63 75 69 63 75 69 63 75 69 63 75 69 63 75 69 63 75 71 65 77 71 65 77 71 65 77 71 65 77 71 65 77 71 65 77 71 65 77 71 65 75 82 72 83 80 70 79 78 68 77 75 65 74 71 61 70 68 58 67 66 56 65 64 54 63 76 66 75 76 66 75 76 66 75 76 66 75 76 66 75 76 66 75 76 66 75 76 66 75 71 64 72 71 64 72 71 64 72 71 64 72 71 64 72 71 64 72 71 64 72 71 64 72 68 61 69 67 60 68 65 58 66 62 55 63 60 53 61 57 50 58 55 48 56 54 47 55 60 52 63 60 52 63 60 52 63 60 52 63 60 52 63 60 52 63 60 52 63 60 52 63 61 53 64 61 53 64 61 53 64 61 53 64 61 53 64 61 53 64 61 53 64 60 54 64 67 61 75 65 61 75 65 61 75 65 61 75 65 61 75 65 61 75 65 61 75 65 61 75 70 66 80 70 66 80 70 66 80 70 66 80 70 66 80 70 66 80 70 66 80 72 66 78 83 71 81 84 71 80 84 71 80 84 71 80 84 71 80 84 71 80 84 71 80 84 71 80 75 62 71 75 62 71 75 62 71 75 62 71 75 62 71 75 62 71 75 62 71 75 62 69 85 70 77 85 70 75 85 70 75 85 70 75 85 70 75 85 70 75 85 70 75 85 70 75 96 81 86 96 81 86 96 81 86 96 81 86 96 81 86 96 81 86 96 81 86 96 81 86 96 77 83 96 77 83 96 77 83 96 77 83 96 77 83 96 77 83 96 77 83 96 77 83 86 67 73 86 67 73 86 67 73 86 67 73 86 67 73 86 67 73 86 67 73 88 65 75 96 63 82 95 60 82 93 58 80 88 56 77 84 52 73 78 51 70 74 49 68 70 49 66 55 38 54 52 40 54 51 40 54 48 42 54 48 42 54 45 43 54 45 43 54 42 45 54 46 48 61 43 47 59 41 45 57 38 42 54 34 38 50 31 35 47 29 33 45 27 31 43 24 28 40 24 28 40
63 62 78 63 62 78 63 62 78 63 62 78 63 62 78 62 59 76 62 59 76 62 59 76 62 59 76 62 59 76 62 59 76 62 59 76 62 59 76 70 67 84 70 67 84 70 67 84 70 67 84 70 67 84 70 67 84 70 67 84 71 67 84 72 65 81 73 64 81 73 64 81 73 64 81 73 64 81 73 64 81 73 64 81 73 64 81 70 61 78 70 61 78 70 61 78 70 61 78 70 61 78 70 61 78 70 61 78 70 62 77 74 66 81 74 66 79 74 66 79 74 66 79 74 66 79 74 66 79 74 66 79 74 66 79 80 72 85 80 72 85 80 72 85 80 72 85 80 72 85 80 72 85 80 72 85 80 72 85 67 61 73 67 61 73 67 61 73 67 61 73 67 61 73 67 61 73 67 61 73 67 61 73 73 67 79 73 67 79 73 67 79 73 67 79 73 67 79 73 67 79 73 67 79 73 67 77 82 72 83 80 70 79 78 68 77 75 65 74 71 61 70 68 58 67 66 56 65 64 54 63 81 71 80 81 71 80 81 71 80 81 71 80 81 71 80 81 71 80 81 71 80 81 71 80 84 77 85 84 77 85 84 77 85 84 77 85 84 77 85 84 77 85 84 77 85 84 77 85 79 72 80 78 71 79 75 68 76 71 64 72 67 60 68 63 56 64 60 53 61 59 52 60 55 47 58 55 47 58 55 47 58 55 47 58 55 47 58 55 47 58 55 47 58 55 47 58 56 48 59 56 48 59 56 48 59 56 48 59 56 48 59 56 48 59 56 48 59 55 49 59 65 59 73 63 59 73 63 59 73 63 59 73 63 59 73 63 59 73 63 59 73 63 59 73 68 64 78 68 64 78 68 64 78 68 64 78 68 64 78 68 64 78 68 64 78 70 64 76 83 71 81 84 71 80 84 71 80 84 71 80 84 71 80 84 71 80 84 71 80 84 71 80 75 62 71 75 62 71 75 62 71 75 62 71 75 62 71 75 62 71 75 62 71 75 62 69 85 70 77 85 70 75 85 70 75 85 70 75 85 70 75 85 70 75 85 70 75 85 70 75 98 83 88 98 83 88 98 83 88 98 83 88 98 83 88 98 83 88 98 83 88 98 83 88 96 77 83 96 77 83 96 77 83 96 77 83 96 77 83 96 77 83 96 77 83 96 77 83 86 67 73 86 67 73 86 67 73 86 67 73 86 67 73 86 67 73 86 67 73 88 65 75 96 63 82 95 60 82 93 58 80 88 56 77 84 52 73 78 51 70 74 49 68 70 49 66 55 38 54 52 40 54 51 40 54 48 42 54 48 42 54 45 43 54 45 43 54 42 45 54 46 48 61 43 47 59 41 45 57 38 42 54 34 38 50 31 35 47 29 33 45 27 31 43 24 28 40 24 28 40
60 63 82 60 62 83 60 63 82 60 62 83 60 63 82 59 60 80 59 60 80 59 60 80 59 60 80 59 60 80 59 60 80 59 60 80 59 60 80 67 68 88 67 68 88 67 68 88 67 68 88 67 68 88 67 68 88 67 68 88 69 68 86 69 66 83 70 66 81 70 66 81 70 66 81 70 66 81 70 66 81 70 66 81 70 66 81 67 63 78 67 63 78 67 63 78 67 63 78 67 63 78 67 63 78 67 63 78 67 63 77 71 68 79 71 68 77 73 67 79 71 68 77 73 67 79 71 68 77 73 67 79 71 68 77 79 73 85 77 74 83 79 73 85 77 74 83 79 73 85 77 74 83 79 73 85 77 74 85 63 59 73 63 59 73 63 59 73 63 59 73 63 59 73 63 59 73 63 59 73 63 59 73 73 69 83 73 69 83 73 69 83 73 69 83 73 69 83 73 69 83 73 69 83 75 69 81 79 73 83 78 71 79 76 68 79 73 66 74 71 61 72 68 58 67 66 56 67 65 53 63 84 72 84 85 72 82 85 71 84 85 72 82 87 71 84 87 71 82 87 71 84 87 71 84 95 83 95 95 83 95 95 83 95 95 83 95 95 83 95 95 83 95 95 83 95 95 83 95 90 78 90 88 76 88 84 72 84 80 68 80 75 63 75 71 59 71 67 55 67 66 54 66 56 44 56 56 44 56 56 44 56 56 44 56 56 44 56 56 44 56 56 44 56 56 44 56 57 45 57 57 45 57 57 45 57 57 45 57 57 45 57 57 45 57 57 45 57 57 45 59 66 55 69 64 56 69 64 56 71 64 56 69 64 56 71 64 56 69 64 56 71 64 56 69 69 61 76 69 61 74 69 61 76 69 61 74 69 61 76 69 61 74 69 61 76 71 60 74 82 72 81 83 72 80 83 71 81 83 72 80 83 71 81 83 72 80 83 71 81 83 72 80 74 62 72 74 63 71 74 62 72 74 63 71 74 62 72 74 63 71 74 62 72 74 63 71 82 71 77 82 71 77 82 71 77 82 71 77 82 71 77 82 71 77 82 71 77 82 71 77 97 86 92 97 86 92 97 86 92 97 86 92 97 86 92 97 86 92 97 86 92 98 85 92 91 78 85 91 78 85 93 78 85 91 78 85 93 78 85 91 78 85 93 78 85 91 78 85 83 68 75 81 68 75 83 68 75 81 68 75 83 68 75 81 68 75 83 68 75 84 67 77 92 65 82 93 61 82 89 60 80 85 58 77 81 54 73 76 51 70 73 50 68 68 50 66 55 38 54 52 40 54 51 40 54 49 41 54 49 41 54 48 42 54 46 43 54 45 43 54 46 48 60 43 47 59 41 45 57 38 42 54 34 38 50 31 35 47 29 33 45 27 31 43 24 28 40 24 28 40
52 64 90 52 63 91 52 64 90 52 63 91 53 63 90 55 62 90 55 62 90 55 62 90 55 62 90 55 62 90 55 62 90 55 62 90 55 62 90 57 64 92 57 64 92 57 64 92 57 64 92 57 64 92 57 64 92 57 64 92 58 64 88 58 64 78 60 64 75 60 64 75 60 64 75 60 64 75 60 64 75 60 64 75 60 64 75 62 66 77 62 66 77 62 66 77 62 66 77 62 66 77 62 66 77 62 66 77 62 66 77 70 73 80 70 73 78 72 72 80 70 73 78 72 72 80 70 73 78 72 72 80 70 73 78 77 77 85 75 78 83 77 77 85 75 78 83 77 77 85 75 78 83 77 77 85 77 77 87 64 63 77 65 62 79 65 62 79 65 62 79 65 62 79 65 62 79 65 62 79 65 62 79 70 67 84 72 69 86 74 71 88 77 74 91 81 78 95 84 81 98 86 83 100 88 86 100 81 79 90 76 73 82 68 65 76 64 58 68 65 57 70 73 63 74 82 70 84 89 75 88 93 75 91 93 72 87 92 69 87 90 66 82 88 61 80 86 57 75 84 55 75 81 54 73 86 63 81 83 65 81 83 65 81 83 65 81 83 65 81 83 65 81 83 65 81 83 65 81 94 76 92 94 76 92 94 76 92 94 76 92 94 76 92 94 76 92 94 76 92 94 76 92 101 80 97 101 80 97 101 80 97 101 80 97 101 80 97 101 80 97 101 80 97 101 80 97 73 52 69 73 52 69 73 52 69 73 52 69 73 52 69 73 52 69 73 52 69 73 52 69 62 44 60 62 44 58 62 44 60 62 44 58 62 44 60 62 44 58 62 44 60 62 44 58 71 53 69 71 53 67 71 53 69 71 53 67 71 53 69 71 53 67 71 53 69 68 54 67 62 52 63 59 54 61 59 53 63 59 54 61 59 53 63 59 54 61 59 53 63 59 54 61 64 58 68 64 59 66 64 58 68 64 59 66 64 58 68 64 59 66 64 58 68 64 59 66 69 64 71 71 66 72 75 70 76 79 74 80 84 79 85 88 83 89 91 86 92 93 88 94 85 80 86 85 80 86 85 80 86 85 80 86 85 80 86 85 80 86 85 80 86 85 80 86 88 83 89 86 84 89 88 83 89 86 84 89 88 83 89 86 84 89 88 83 89 86 84 89 80 75 81 78 76 81 80 75 81 78 76 81 80 75 81 78 76 81 80 75 81 81 74 82 82 66 79 83 62 77 79 61 75 76 58 72 72 54 68 69 51 65 66 50 63 64 48 61 55 41 54 55 41 54 54 42 54 54 42 54 54 42 54 54 42 54 53 43 54 50 44 56 47 47 59 42 46 58 40 44 56 37 41 53 33 37 49 30 34 46 28 32 44 26 30 42 26 30 42 26 30 42
49 64 95 49 64 95 49 64 95 49 64 95 49 64 95 52 63 93 52 63 93 52 63 93 52 63 93 52 63 93 52 63 93 52 63 93 52 63 93 54 65 95 54 65 95 54 65 95 54 65 95 54 65 95 54 65 95 54 65 95 55 65 90 56 65 80 57 66 75 57 65 76 57 66 75 57 65 76 57 66 75 57 65 76 57 66 75 59 67 78 59 68 77 59 67 78 59 68 77 59 67 78 59 68 77 59 67 78 59 68 77 69 74 80 69 74 78 69 74 80 69 74 78 69 74 80 69 74 78 69 74 80 69 74 78 74 79 85 74 79 83 74 79 85 74 79 83 74 79 85 74 79 83 74 79 85 74 78 87 64 63 79 64 63 81 64 63 81 64 63 81 64 63 81 64 63 81 64 63 81 64 63 81 69 68 86 71 70 88 73 72 90 76 75 93 80 79 97 83 82 100 85 84 102 87 86 102 80 80 92 74 74 84 68 65 76 62 59 70 65 57 70 73 62 76 82 70 84 91 74 90 95 74 91 95 70 89 95 68 87 93 64 84 92 59 80 89 56 77 90 52 75 85 52 73 87 59 81 84 61 81 84 61 81 84 61 81 84 61 81 84 61 81 84 61 81 84 61 81 95 72 92 95 72 92 95 72 92 95 72 92 95 72 92 95 72 92 95 72 92 95 72 92 101 76 95 101 76 95 101 76 95 101 76 95 101 76 95 101 76 95 101 76 95 101 76 95 81 56 75 81 56 75 81 56 75 81 56 75 81 56 75 81 56 75 81 56 75 81 56 75 72 49 65 72 49 65 72 49 65 72 49 65 72 49 65 72 49 65 72 49 65 72 49 65 64 41 57 64 41 57 64 41 57 64 41 57 64 41 57 64 41 57 64 41 57 61 43 57 59 49 60 54 51 60 56 50 60 54 51 60 56 50 60 54 51 60 56 50 60 54 51 60 60 54 64 58 55 64 60 54 64 58 55 64 60 54 64 58 55 64 60 54 64 58 55 64 62 59 66 63 62 68 67 64 71 69 68 74 74 71 78 77 76 82 81 78 85 82 81 87 81 78 85 80 79 85 81 78 85 80 79 85 81 78 85 80 79 85 81 78 85 80 79 85 83 82 88 82 83 88 83 82 88 82 83 88 83 82 88 82 83 88 83 82 88 82 83 88 75 74 80 74 75 80 75 74 80 74 75 80 75 74 80 74 75 80 75 74 80 76 73 80 78 68 79 78 64 77 76 62 75 73 59 72 69 55 68 66 52 65 64 50 63 62 48 61 55 41 54 55 41 54 55 41 54 55 41 54 55 41 54 55 41 54 55 41 54 53 42 56 47 47 59 42 46 58 40 44 56 37 41 53 33 37 49 30 34 46 28 32 44 26 30 42 26 30 42 26 30 42
49 64 95 49 64 95 49 64 95 49 64 95 49 64 95 52 63 93 52 63 93 52 63 93 52 63 93 52 63 93 52 63 93 52 63 93 52 63 93 54 65 95 54 65 95 54 65 95 54 65 95 54 65 95 54 65 95 54 65 95 55 65 92 56 65 82 57 65 76 57 65 78 57 65 76 57 65 78 57 65 76 57 65 78 57 65 76 59 67 80 59 67 78 59 67 80 59 67 78 59 67 80 59 67 78 59 67 80 59 67 78 69 73 82 69 74 80 69 73 82 69 74 80 69 73 82 69 74 80 69 73 82 69 74 80 74 78 87 74 79 85 74 78 87 74 79 85 74 78 87 74 79 85 74 78 87 74 78 89 64 63 79 64 63 81 64 63 81 64 63 81 64 63 81 64 63 81 64 63 81 64 63 81 69 68 86 71 70 88 73 72 90 76 75 93 80 79 97 83 82 100 85 84 102 87 86 102 80 80 92 74 74 84 68 65 76 62 59 70 65 57 70 73 62 76 82 70 84 91 74 90 95 74 91 95 70 89 95 68 87 93 64 84 92 59 80 89 56 77 90 52 75 85 52 73 85 57 79 82 59 79 82 59 79 82 59 79 82 59 79 82 59 79 82 59 79 82 59 79 90 67 87 90 67 87 90 67 87 90 67 87 90 67 87 90 67 87 90 67 87 90 67 87 96 71 90 96 71 90 96 71 90 96 71 90 96 71 90 96 71 90 96 71 90 96 71 90 89 64 83 89 64 83 89 64 83 89 64 83 89 64 83 89 64 83 89 64 83 89 64 83 82 59 75 82 59 75 82 59 75 82 59 75 82 59 75 82 59 75 82 59 75 82 59 75 59 36 52 59 36 52 59 36 52 59 36 52 59 36 52 59 36 52 59 36 52 56 38 52 56 46 57 53 47 57 54 46 57 53 47 57 54 46 57 53 47 57 54 46 57 53 47 57 55 47 58 54 48 58 55 47 58 54 48 58 55 47 58 54 48 58 55 47 58 54 48 58 57 52 59 56 53 60 60 55 62 61 58 65 65 60 67 66 63 70 70 65 72 69 66 73 78 73 80 76 73 80 78 73 80 76 73 80 78 73 80 76 73 80 78 73 80 76 73 80 79 76 83 78 77 83 79 76 83 78 77 83 79 76 83 78 77 83 79 76 83 78 77 83 74 71 78 73 72 78 74 71 78 73 72 78 74 71 78 73 72 78 74 71 78 76 71 78 79 67 79 78 64 77 76 62 75 73 59 72 69 55 68 66 52 65 64 50 63 62 48 61 55 41 54 55 41 54 55 41 54 55 41 54 55 41 54 55 41 54 55 41 54 53 42 56 47 47 59 42 46 58 40 44 56 37 41 53 33 37 49 30 34 46 28 32 44 26 30 42 26 30 42 26 30 42
49 64 95 49 64 95 49 64 95 49 64 95 49 64 95 52 63 93 52 63 93 52 63 93 52 63 93 52 63 93 52 63 93 52 63 93 52 63 93 54 65 95 54 65 95 54 65 95 54 65 95 54 65 95 54 65 95 54 65 95 55 65 92 56 64 83 57 65 78 57 64 80 57 65 78 57 64 80 57 65 78 57 64 80 57 65 78 59 66 82 59 67 80 59 66 82 59 67 80 59 66 82 59 67 80 59 66 82 59 67 80 69 73 84 69 73 82 69 73 84 69 73 82 69 73 84 69 73 82 69 73 84 69 73 82 74 78 89 74 78 87 74 78 89 74 78 87 74 78 89 74 78 87 74 78 89 74 78 89 64 63 79 64 63 81 64 63 81 64 63 81 64 63 81 64 63 81 64 63 81 64 63 81 69 68 86 71 70 88 73 72 90 76 75 93 80 79 97 83 82 100 85 84 102 87 86 102 80 80 92 74 74 84 68 65 76 62 59 70 65 57 70 73 62 76 82 70 84 91 74 90 95 74 91 95 70 89 95 68 87 93 64 84 92 59 80 89 56 77 90 52 75 85 52 73 82 54 76 79 56 76 79 56 76 79 56 76 79 56 76 79 56 76 79 56 76 79 56 76 83 60 80 83 60 80 83 60 80 83 60 80 83 60 80 83 60 80 83 60 80 83 60 80 89 64 83 89 64 83 89 64 83 89 64 83 89 64 83 89 64 83 89 64 83 89 64 83 95 70 89 95 70 89 95 70 89 95 70 89 95 70 89 95 70 89 95 70 89 95 70 89 91 68 84 91 68 84 91 68 84 91 68 84 91 68 84 91 68 84 91 68 84 91 68 84 71 48 64 71 48 64 71 48 64 71 48 64 71 48 64 71 48 64 71 48 64 68 50 64 58 46 58 55 47 58 57 47 58 55 47 58 57 47 58 55 47 58 57 47 58 55 47 58 55 45 56 53 45 56 55 45 56 53 45 56 55 45 56 53 45 56 55 45 56 53 45 56 54 47 55 53 48 55 55 48 56 55 50 57 57 50 58 56 51 58 58 51 59 57 52 59 72 65 73 71 66 73 72 65 73 71 66 73 72 65 73 71 66 73 72 65 73 71 66 73 74 69 76 72 69 76 74 69 76 72 69 76 74 69 76 72 69 76 74 69 76 72 69 76 73 68 75 71 68 75 73 68 75 71 68 75 73 68 75 71 68 75 73 68 75 74 67 75 79 67 79 78 64 77 76 62 75 73 59 72 69 55 68 66 52 65 64 50 63 62 48 61 55 41 54 55 41 54 55 41 54 55 41 54 55 41 54 55 41 54 55 41 54 53 42 56 47 47 59 42 46 58 40 44 56 37 41 53 33 37 49 30 34 46 28 32 44 26 30 42 26 30 42 26 30 42
49 64 95 49 64 95 49 64 95 49 64 95 49 64 95 52 63 93 52 63 93 52 63 93 52 63 93 52 63 93 52 63 93 52 63 93 52 63 93 54 65 95 54 65 95 54 65 95 54 65 95 54 65 95 54 65 95 54 65 95 55 65 92 56 64 83 57 64 80 57 64 82 57 64 80 57 64 82 57 64 80 57 64 82 57 64 80 59 66 84 59 66 82 59 66 84 59 66 82 59 66 84 59 66 82 59 66 84 59 66 82 69 73 85 69 73 84 69 73 85 69 73 84 69 73 85 69 73 84 69 73 85 69 73 84 74 78 90 74 78 89 74 78 90 74 78 89 74 78 90 74 78 89 74 78 90 74 78 90 64 63 79 64 63 81 64 63 81 64 63 81 64 63 81 64 63 81 64 63 81 64 63 81 69 68 86 71 70 88 73 72 90 76 75 93 80 79 97 83 82 100 85 84 102 87 86 102 80 80 92 74 74 84 68 65 76 62 59 70 65 57 70 73 62 76 82 70 84 91 74 90 95 74 91 95 70 89 95 68 87 93 64 84 92 59 80 89 56 77 90 52 75 85 52 73 78 50 72 75 52 72 75 52 72 75 52 72 75 52 72 75 52 72 75 52 72 75 52 72 77 54 74 77 54 74 77 54 74 77 54 74 77 54 74 77 54 74 77 54 74 77 54 74 83 58 77 83 58 77 83 58 77 83 58 77 83 58 77 83 58 77 83 58 77 83 58 77 95 70 89 95 70 89 95 70 89 95 70 89 95 70 89 95 70 89 95 70 89 95 70 89 94 71 87 94 71 87 94 71 87 94 71 87 94 71 87 94 71 87 94 71 87 94 71 87 91 68 84 91 68 84 91 68 84 91 68 84 91 68 84 91 68 84 91 68 84 90 69 84 66 52 65 64 54 65 65 53 65 64 54 65 65 53 65 64 54 65 65 53 65 64 54 65 59 47 59 58 48 59 59 47 59 58 48 59 59 47 59 58 48 59 59 47 59 58 48 59 57 47 56 55 48 56 56 46 55 53 46 54 54 44 53 51 44 52 53 43 52 50 43 51 68 58 67 66 59 67 68 58 67 66 59 67 68 58 67 66 59 67 68 58 67 66 59 67 69 62 70 68 63 70 69 62 70 68 63 70 69 62 70 68 63 70 69 62 70 68 63 70 70 63 71 69 64 71 70 63 71 69 64 71 70 63 71 69 64 71 70 63 71 70 63 71 79 67 79 78 64 77 76 62 75 73 59 72 69 55 68 66 52 65 64 50 63 62 48 61 55 41 54 55 41 54 55 41 54 55 41 54 55 41 54 55 41 54 55 41 54 53 42 56 47 47 59 42 46 58 40 44 56 37 41 53 33 37 49 30 34 46 28 32 44 26 30 42 26 30 42 26 30 42
49 64 95 49 64 95 49 64 95 49 64 95 49 64 95 52 63 93 52 63 93 52 63 93 52 63 93 52 63 93 52 63 93 52 63 93 52 63 93 54 65 95 54 65 95 54 65 95 54 65 95 54 65 95 54 65 95 54 65 95 55 65 92 56 64 85 57 64 83 57 64 83 57 64 83 57 64 83 57 64 83 57 64 83 57 64 83 59 66 85 59 66 85 59 66 85 59 66 85 59 66 85 59 66 85 59 66 85 59 66 84 69 72 89 69 72 87 69 72 87 69 72 87 69 72 87 69 72 87 69 72 87 69 72 87 74 77 92 74 77 92 74 77 92 74 77 92 74 77 92 74 77 92 74 77 92 74 77 92 64 63 81 64 63 81 64 63 81 64 63 81 64 63 81 64 63 81 64 63 81 64 63 81 69 68 86 71 70 88 73 72 90 76 75 93 80 79 97 83 82 100 85 84 102 87 86 102 80 80 92 74 74 84 68 65 76 62 59 70 65 57 70 73 62 76 82 70 84 91 74 90 95 74 91 95 70 89 95 68 87 93 64 84 92 59 80 89 56 77 90 52 75 85 52 73 75 47 69 72 49 69 72 49 69 72 49 69 72 49 69 72 49 69 72 49 69 72 49 69 70 47 67 70 47 67 70 47 67 70 47 67 70 47 67 70 47 67 70 47 67 70 47 67 76 51 70 76 51 70 76 51 70 76 51 70 76 51 70 76 51 70 76 51 70 76 51 70 89 64 83 89 64 83 89 64 83 89 64 83 89 64 83 89 64 83 89 64 83 89 64 83 92 69 85 92 69 85 92 69 85 92 69 85 92 69 85 92 69 85 92 69 85 92 69 85 103 80 96 103 80 96 103 80 96 103 80 96 103 80 96 103 80 96 103 80 96 102 81 96 80 64 77 78 64 77 78 64 77 78 64 77 78 64 77 78 64 77 78 64 77 78 64 77 69 55 68 69 55 68 69 55 68 69 55 68 69 55 68 69 55 68 69 55 68 68 56 68 65 53 63 64 52 62 62 50 60 59 47 57 57 45 55 54 42 52 52 40 50 51 39 49 62 50 60 62 50 60 62 50 60 62 50 60 62 50 60 62 50 60 62 50 60 61 51 60 64 54 63 64 54 63 64 54 63 64 54 63 64 54 63 64 54 63 64 54 63 64 54 63 69 59 68 69 59 68 69 59 68 69 59 68 69 59 68 69 59 68 69 59 68 69 59 68 79 67 79 78 64 77 76 62 75 73 59 72 69 55 68 66 52 65 64 50 63 62 48 61 55 41 54 55 41 54 55 41 54 55 41 54 55 41 54 55 41 54 55 41 54 53 42 56 47 47 59 42 46 58 40 44 56 37 41 53 33 37 49 30 34 46 28 32 44 26 30 42 26 30 42 26 30 42
49 64 95 49 64 95 49 64 95 49 64 95 49 64 95 52 63 93 52 63 93 52 63 93 52 63 93 52 63 93 52 63 93 52 63 93 52 63 93 54 65 95 54 65 95 54 65 95 54 65 95 54 65 95 54 65 95 54 65 95 55 64 93 56 64 87 57 63 85 57 63 85 57 63 85 57 63 85 57 63 85 57 63 85 57 63 85 59 65 87 59 65 87 59 65 87 59 65 87 59 65 87 59 65 87 59 65 87 59 66 85 69 72 91 69 72 89 69 72 89 69 72 89 69 72 89 69 72 89 69 72 89 69 72 89 74 77 94 74 77 94 74 77 94 74 77 94 74 77 94 74 77 94 74 77 94 74 77 94 64 63 81 64 63 81 64 63 81 64 63 81 64 63 81 64 63 81 64 63 81 64 63 81 69 68 86 71 70 88 73 72 90 76 75 93 80 79 97 83 82 100 85 84 102 87 86 102 80 80 92 74 74 84 68 65 76 62 59 70 65 57 70 73 62 76 82 70 84 91 74 90 95 74 91 95 70 89 95 68 87 93 64 84 92 59 80 89 56 77 90 52 75 85 52 73 73 45 67 70 47 67 70 47 67 70 47 67 70 47 67 70 47 67 70 47 67 70 47 67 65 42 62 65 42 62 65 42 62 65 42 62 65 42 62 65 42 62 65 42 62 65 42 62 71 46 65 71 46 65 71 46 65 71 46 65 71 46 65 71 46 65 71 46 65 71 46 65 81 56 75 81 56 75 81 56 75 81 56 75 81 56 75 81 56 75 81 56 75 81 56 75 86 63 79 86 63 79 86 63 79 86 63 79 86 63 79 86 63 79 86 63 79 86 63 79 98 75 91 98 75 91 98 75 91 98 75 91 98 75 91 98 75 91 98 75 91 97 76 91 94 76 90 93 77 90 93 77 90 93 77 90 93 77 90 93 77 90 93 77 90 93 77 90 81 65 78 81 65 78 81 65 78 81 65 78 81 65 78 81 65 78 81 65 78 81 65 78 77 61 72 73 60 70 70 57 67 67 54 64 63 50 60 59 46 56 56 43 53 54 41 51 58 45 55 58 45 55 58 45 55 58 45 55 58 45 55 58 45 55 58 45 55 58 45 55 61 48 58 60 48 58 60 48 58 60 48 58 60 48 58 60 48 58 60 48 58 60 48 58 68 56 66 68 56 66 68 56 66 68 56 66 68 56 66 68 56 66 68 56 66 68 56 66 80 66 79 78 64 77 76 62 75 73 59 72 69 55 68 66 52 65 64 50 63 62 48 61 55 41 54 55 41 54 55 41 54 55 41 54 55 41 54 55 41 54 55 41 54 53 42 56 47 47 59 42 46 58 40 44 56 37 41 53 33 37 49 30 34 46 28 32 44 26 30 42 26 30 42 26 30 42
49 64 95 49 64 95 49 64 95 49 64 95 49 64 95 52 63 93 52 63 93 52 63 93 52 63 93 52 63 93 52 63 93 52 63 93 52 63 93 54 65 95 54 65 95 54 65 95 54 65 95 54 65 95 54 65 95 54 65 95 55 64 93 56 63 91 57 63 89 57 63 89 57 63 89 57 63 89 57 63 89 57 63 89 57 63 89 59 65 91 59 65 91 59 65 91 59 65 91 59 65 91 59 65 91 59 65 91 59 65 89 69 71 94 69 71 92 69 71 92 69 71 92 69 71 92 69 71 92 69 71 92 69 71 92 74 76 97 74 76 97 74 76 97 74 76 97 74 76 97 74 76 97 74 76 97 74 77 96 64 62 83 64 63 81 64 63 81 64 63 81 64 63 81 64 63 81 64 63 81 64 63 81 69 68 86 71 70 88 73 72 90 76 75 93 80 79 97 83 82 100 85 84 102 87 86 102 80 80 92 74 74 84 68 65 76 62 59 70 65 57 70 73 62 76 82 70 84 91 74 90 95 74 91 95 70 89 95 68 87 93 64 84 92 59 80 89 56 77 90 52 75 85 52 73 71 43 65 68 45 65 68 45 65 68 45 65 68 45 65 68 45 65 68 45 65 68 45 65 63 40 60 63 40 60 63 40 60 63 40 60 63 40 60 63 40 60 63 40 60 63 40 60 69 44 63 69 44 63 69 44 63 69 44 63 69 44 63 69 44 63 69 44 63 69 44 63 75 50 69 75 50 69 75 50 69 75 50 69 75 50 69 75 50 69 75 50 69 75 50 69 82 59 75 82 59 75 82 59 75 82 59 75 82 59 75 82 59 75 82 59 75 82 59 75 88 65 81 88 65 81 88 65 81 88 65 81 88 65 81 88 65 81 88 65 81 88 65 81 104 83 98 104 83 98 104 83 98 104 83 98 104 83 98 104 83 98 104 83 98 104 83 98 91 70 85 91 70 85 91 70 85 91 70 85 91 70 85 91 70 85 91 70 85 91 70 85 84 66 78 82 64 76 79 61 73 74 56 68 70 52 64 65 47 59 62 44 56 60 42 54 59 41 53 59 41 53 59 41 53 59 41 53 59 41 53 59 41 53 59 41 53 59 41 53 61 45 56 61 45 56 61 45 56 61 45 56 61 45 56 61 45 56 61 45 56 61 45 56 69 53 64 69 53 64 69 53 64 69 53 64 69 53 64 69 53 64 69 53 64 69 53 64 80 66 79 78 64 77 76 62 75 73 59 72 69 55 68 66 52 65 64 50 63 62 48 61 55 41 54 55 41 54 55 41 54 55 41 54 55 41 54 55 41 54 55 41 54 53 42 56 47 47 59 42 46 58 40 44 56 37 41 53 33 37 49 30 34 46 28 32 44 26 30 42 26 30 42 26 30 42
56 71 102 56 71 102 56 71 102 56 71 102 56 71 102 50 61 91 50 61 91 50 61 91 50 61 91 50 61 91 50 61 91 50 61 91 50 61 91 56 67 97 56 67 97 56 67 97 56 67 97 56 67 97 56 67 97 56 67 97 57 66 97 58 65 94 59 64 94 59 64 94 59 64 94 59 64 94 59 64 94 59 64 94 59 64 94 59 64 94 59 64 94 59 64 94 59 64 94 59 64 94 59 64 94 59 64 94 59 64 93 59 60 88 59 61 86 59 61 86 59 61 86 59 61 86 59 61 86 59 61 86 59 61 86 59 61 86 59 61 86 59 61 86 59 61 86 59 61 86 59 61 86 59 61 86 59 61 84 62 60 81 62 61 79 62 61 79 62 61 79 62 61 79 62 61 79 62 61 79 62 61 79 77 76 94 77 76 94 77 76 94 77 76 94 77 76 94 77 76 94 77 76 94 77 76 92 60 60 72 62 62 72 66 63 74 69 66 77 76 68 81 81 70 84 84 72 86 89 72 88 93 72 89 93 68 87 93 66 85 91 62 82 90 57 78 87 54 75 88 50 73 83 50 71 78 50 72 75 52 72 75 52 72 75 52 72 75 52 72 75 52 72 75 52 72 75 52 72 71 48 68 71 48 68 71 48 68 71 48 68 71 48 68 71 48 68 71 48 68 71 48 68 74 49 68 74 49 68 74 49 68 74 49 68 74 49 68 74 49 68 74 49 68 74 49 68 76 51 70 76 51 70 76 51 70 76 51 70 76 51 70 76 51 70 76 51 70 76 51 70 76 53 69 76 53 69 76 53 69 76 53 69 76 53 69 76 53 69 76 53 69 76 53 69 79 56 72 79 56 72 79 56 72 79 56 72 79 56 72 79 56 72 79 56 72 79 56 72 92 68 84 92 68 84 92 68 84 92 68 84 92 68 84 92 68 84 92 68 84 92 68 84 95 71 87 95 71 87 95 71 87 95 71 87 95 71 87 95 71 87 95 71 87 95 71 87 106 84 97 106 84 97 106 84 97 106 84 97 106 84 97 106 84 97 106 84 97 106 84 97 79 57 70 79 57 70 79 57 70 79 57 70 79 57 70 79 57 70 79 57 70 79 57 70 58 38 50 58 38 50 58 38 50 58 38 50 58 38 50 58 38 50 58 38 50 58 38 50 67 47 59 67 47 59 67 47 59 67 47 59 67 47 59 67 47 59 67 47 59 65 47 59 63 47 60 61 47 60 61 47 60 61 47 60 61 47 60 61 47 60 61 47 60 61 47 60 56 42 55 56 42 55 56 42 55 56 42 55 56 42 55 56 42 55 56 42 55 54 43 57 35 35 47 32 36 48 32 36 48 32 36 48 32 36 48 32 36 48 32 36 48 32 36 48 30 34 46 30 34 46
53 68 99 53 68 99 53 68 99 53 68 99 53 68 99 52 63 93 52 63 93 52 63 93 52 63 93 52 63 93 52 63 93 52 63 93 52 63 93 56 67 97 56 67 97 56 67 97 56 67 97 56 67 97 56 67 97 56 67 97 57 66 97 58 64 98 59 63 98 59 63 98 59 63 98 59 63 98 59 63 98 59 63 98 59 63 98 59 63 98 59 63 98 59 63 98 59 63 98 59 63 98 59 63 98 59 63 98 59 64 96 59 60 91 59 60 90 59 60 90 59 60 90 59 60 90 59 60 90 59 60 90 59 60 90 59 60 90 59 60 90 59 60 90 59 60 90 59 60 90 59 60 90 59 60 90 59 61 86 62 60 81 62 61 79 62 61 79 62 61 79 62 61 79 62 61 79 62 61 79 62 61 79 75 74 92 75 74 92 75 74 92 75 74 92 75 74 92 75 74 92 75 74 92 75 74 90 60 60 72 62 62 72 66 63 74 69 66 77 76 68 81 81 70 84 84 72 86 89 72 88 93 72 89 93 68 87 93 66 85 91 62 82 90 57 78 87 54 75 88 50 73 83 50 71 78 50 72 75 52 72 75 52 72 75 52 72 75 52 72 75 52 72 75 52 72 75 52 72 71 48 68 71 48 68 71 48 68 71 48 68 71 48 68 71 48 68 71 48 68 71 48 68 74 49 68 74 49 68 74 49 68 74 49 68 74 49 68 74 49 68 74 49 68 74 49 68 76 51 70 76 51 70 76 51 70 76 51 70 76 51 70 76 51 70 76 51 70 76 51 70 76 53 69 76 53 69 76 53 69 76 53 69 76 53 69 76 53 69 76 53 69 76 53 69 79 56 72 79 56 72 79 56 72 79 56 72 79 56 72 79 56 72 79 56 72 80 56 72 92 65 82 93 64 82 93 64 82 93 64 82 93 64 82 93 64 82 93 64 82 93 64 82 96 67 85 96 67 85 96 67 85 96 67 85 96 67 85 96 67 85 96 67 85 95 68 85 107 80 95 107 80 95 107 80 95 107 80 95 107 80 95 107 80 95 107 80 95 107 80 95 99 72 87 99 72 87 99 72 87 99 72 87 99 72 87 99 72 87 99 72 87 97 73 87 73 49 63 73 49 63 73 49 63 73 49 63 73 49 63 73 49 63 73 49 63 73 49 63 65 41 55 65 41 55 65 41 55 65 41 55 65 41 55 65 41 55 65 41 55 64 42 55 55 39 52 53 39 52 53 39 52 53 39 52 53 39 52 53 39 52 53 39 52 53 39 52 54 40 53 54 40 53 54 40 53 54 40 53 54 40 53 54 40 53 54 40 53 52 41 55 45 45 57 42 46 58 42 46 58 42 46 58 42 46 58 42 46 58 42 46 58 42 46 58 32 36 48 32 36 48
50 65 96 50 65 96 50 65 96 50 65 96 50 65 96 54 65 95 54 65 95 54 65 95 54 65 95 54 65 95 54 65 95 54 65 95 54 65 95 56 67 97 56 67 97 56 67 97 56 67 97 56 67 97 56 67 97 56 67 97 57 66 99 58 64 100 59 63 100 59 63 100 59 63 100 59 63 100 59 63 100 59 63 100 59 63 100 59 63 100 59 63 100 59 63 100 59 63 100 59 63 100 59 63 100 59 63 100 59 63 98 59 59 93 59 60 91 59 60 91 59 60 91 59 60 91 59 60 91 59 60 91 59 60 91 59 60 91 59 60 91 59 60 91 59 60 91 59 60 91 59 60 91 59 60 91 59 60 88 62 60 82 62 61 79 62 61 79 62 61 79 62 61 79 62 61 79 62 61 79 62 61 79 73 72 90 73 72 90 73 72 90 73 72 90 73 72 90 73 72 90 73 72 90 73 72 88 60 60 72 62 62 72 66 63 74 69 66 77 76 68 81 81 70 84 84 72 86 89 72 88 93 72 89 93 68 87 93 66 85 91 62 82 90 57 78 87 54 75 88 50 73 83 50 71 78 50 72 75 52 72 75 52 72 75 52 72 75 52 72 75 52 72 75 52 72 75 52 72 71 48 68 71 48 68 71 48 68 71 48 68 71 48 68 71 48 68 71 48 68 71 48 68 74 49 68 74 49 68 74 49 68 74 49 68 74 49 68 74 49 68 74 49 68 74 49 68 76 51 70 76 51 70 76 51 70 76 51 70 76 51 70 76 51 70 76 51 70 76 51 70 76 53 69 76 53 69 76 53 69 76 53 69 76 53 69 76 53 69 76 53 69 76 53 69 79 56 72 79 56 72 79 56 72 79 56 72 79 56 72 79 56 72 79 56 72 80 56 72 91 62 80 93 62 80 93 62 80 93 62 80 93 62 80 93 62 80 93 62 80 93 62 80 96 65 83 96 65 83 96 65 83 96 65 83 96 65 83 96 65 83 96 65 83 96 65 83 105 74 90 103 75 90 103 75 90 103 75 90 103 75 90 103 75 90 103 75 90 103 75 90 115 87 102 115 87 102 115 87 102 115 87 102 115 87 102 115 87 102 115 87 102 115 87 102 94 66 81 93 66 81 93 66 81 93 66 81 93 66 81 93 66 81 93 66 81 93 66 81 70 43 58 70 43 58 70 43 58 70 43 58 70 43 58 70 43 58 70 43 58 68 44 58 53 35 49 50 36 49 50 36 49 50 36 49 50 36 49 50 36 49 50 36 49 50 36 49 53 39 52 53 39 52 53 39 52 53 39 52 53 39 52 53 39 52 53 39 52 51 40 54 51 51 63 48 52 64 48 52 64 48 52 64 48 52 64 48 52 64 48 52 64 48 52 64 34 38 50 34 38 50
51 66 97 51 66 97 51 66 97 51 66 97 51 66 97 57 68 98 57 68 98 57 68 98 57 68 98 57 68 98 57 68 98 57 68 98 57 68 98 56 67 97 56 67 97 56 67 97 56 67 97 56 67 97 56 67 97 56 67 97 57 66 99 58 63 101 59 63 101 59 62 103 59 63 101 59 62 103 59 63 101 59 62 103 59 63 101 59 62 103 59 63 101 59 62 103 59 63 101 59 62 103 59 63 101 59 62 103 59 63 101 59 59 95 59 59 93 59 59 95 59 59 93 59 59 95 59 59 93 59 59 95 59 59 93 59 59 95 59 59 93 59 59 95 59 59 93 59 59 95 59 59 93 59 59 95 59 60 90 62 60 82 62 61 79 62 61 79 62 61 79 62 61 79 62 61 79 62 61 79 62 61 79 70 69 87 70 69 87 70 69 87 70 69 87 70 69 87 70 69 87 70 69 87 70 69 85 60 60 72 62 62 72 66 63 74 69 66 77 76 68 81 81 70 84 84 72 86 89 72 88 93 72 89 93 68 87 93 66 85 91 62 82 90 57 78 87 54 75 88 50 73 83 50 71 78 50 72 75 52 72 75 52 72 75 52 72 75 52 72 75 52 72 75 52 72 75 52 72 71 48 68 71 48 68 71 48 68 71 48 68 71 48 68 71 48 68 71 48 68 71 48 68 74 49 68 74 49 68 74 49 68 74 49 68 74 49 68 74 49 68 74 49 68 74 49 68 76 51 70 76 51 70 76 51 70 76 51 70 76 51 70 76 51 70 76 51 70 76 51 70 76 53 69 76 53 69 76 53 69 76 53 69 76 53 69 76 53 69 76 53 69 76 53 69 79 56 72 79 56 72 79 56 72 79 56 72 79 56 72 79 56 72 79 56 72 80 56 72 90 59 77 91 58 77 92 57 77 91 58 77 92 57 77 91 58 77 92 57 77 91 58 77 95 60 80 94 61 80 95 60 80 94 61 80 95 60 80 94 61 80 95 60 80 94 61 80 99 66 83 98 67 83 99 66 83 98 67 83 99 66 83 98 67 83 99 66 83 98 67 83 115 82 99 114 83 99 115 82 99 114 83 99 115 82 99 114 83 99 115 82 99 114 83 99 111 80 96 109 81 96 111 80 96 109 81 96 111 80 96 109 81 96 111 80 96 109 81 96 91 60 76 89 61 76 91 60 76 89 61 76 91 60 76 89 61 76 91 60 76 88 61 76 68 50 64 65 51 64 65 51 64 65 51 64 65 51 64 65 51 64 65 51 64 65 51 64 57 43 56 57 43 56 57 43 56 57 43 56 57 43 56 57 43 56 57 43 56 55 44 58 47 47 59 44 48 60 44 48 60 44 48 60 44 48 60 44 48 60 44 48 60 44 48 60 37 41 53 37 41 53
58 73 104 58 73 104 58 73 104 58 73 104 58 73 104 61 72 102 61 72 102 61 72 102 61 72 102 61 72 102 61 72 102 61 72 102 61 72 102 56 67 97 56 67 97 56 67 97 56 67 97 56 67 97 56 67 97 56 67 97 57 66 99 58 63 101 59 62 103 59 62 105 59 62 103 59 62 105 59 62 103 59 62 105 59 62 103 59 62 105 59 62 103 59 62 105 59 62 103 59 62 105 59 62 103 59 62 105 59 62 103 59 59 97 59 59 95 59 59 97 59 59 95 59 59 97 59 59 95 59 59 97 59 59 95 59 59 97 59 59 95 59 59 97 59 59 95 59 59 97 59 59 95 59 59 97 59 60 91 62 60 82 62 61 79 62 61 79 62 61 79 62 61 79 62 61 79 62 61 79 62 61 79 66 65 83 66 65 83 66 65 83 66 65 83 66 65 83 66 65 83 66 65 83 66 65 81 60 60 72 62 62 72 66 63 74 69 66 77 76 68 81 81 70 84 84 72 86 89 72 88 93 72 89 93 68 87 93 66 85 91 62 82 90 57 78 87 54 75 88 50 73 83 50 71 78 50 72 75 52 72 75 52 72 75 52 72 75 52 72 75 52 72 75 52 72 75 52 72 71 48 68 71 48 68 71 48 68 71 48 68 71 48 68 71 48 68 71 48 68 71 48 68 74 49 68 74 49 68 74 49 68 74 49 68 74 49 68 74 49 68 74 49 68 74 49 68 76 51 70 76 51 70 76 51 70 76 51 70 76 51 70 76 51 70 76 51 70 76 51 70 76 53 69 76 53 69 76 53 69 76 53 69 76 53 69 76 53 69 76 53 69 76 53 69 79 56 72 79 56 72 79 56 72 79 56 72 79 56 72 79 56 72 79 56 72 82 55 72 87 54 73 88 53 73 90 52 73 88 53 73 90 52 73 88 53 73 90 52 73 88 53 73 93 55 76 91 56 76 93 55 76 91 56 76 93 55 76 91 56 76 93 55 76 91 56 76 94 60 77 93 60 77 94 60 77 93 60 77 94 60 77 93 60 77 94 60 77 93 60 77 99 65 82 98 65 82 99 65 82 98 65 82 99 65 82 98 65 82 99 65 82 98 65 82 115 82 99 114 83 99 115 82 99 114 83 99 115 82 99 114 83 99 115 82 99 114 83 99 112 79 96 111 80 96 112 79 96 111 80 96 112 79 96 111 80 96 112 79 96 108 81 96 92 74 88 89 75 88 89 75 88 89 75 88 89 75 88 89 75 88 89 75 88 89 75 88 68 54 67 68 54 67 68 54 67 68 54 67 68 54 67 68 54 67 68 54 67 66 55 69 40 40 52 37 41 53 37 41 53 37 41 53 37 41 53 37 41 53 37 41 53 37 41 53 41 45 57 41 45 57
70 85 116 70 85 116 70 85 116 70 85 116 70 85 116 64 75 105 64 75 105 64 75 105 64 75 105 64 75 105 64 75 105 64 75 105 64 75 105 56 67 97 56 67 97 56 67 97 56 67 97 56 67 97 56 67 97 56 67 97 57 66 99 58 63 103 59 62 105 59 62 107 59 62 105 59 62 107 59 62 105 59 62 107 59 62 105 59 62 107 59 62 105 59 62 107 59 62 105 59 62 107 59 62 105 59 62 107 59 62 105 59 58 98 59 59 97 59 58 98 59 59 97 59 58 98 59 59 97 59 58 98 59 59 97 59 58 98 59 59 97 59 58 98 59 59 97 59 58 98 59 59 97 59 58 98 59 59 93 62 60 84 62 61 79 62 61 79 62 61 79 62 61 79 62 61 79 62 61 79 62 61 79 63 62 80 63 62 80 63 62 80 63 62 80 63 62 80 63 62 80 63 62 80 63 62 78 60 60 72 62 62 72 66 63 74 69 66 77 76 68 81 81 70 84 84 72 86 89 72 88 93 72 89 93 68 87 93 66 85 91 62 82 90 57 78 87 54 75 88 50 73 83 50 71 78 50 72 75 52 72 75 52 72 75 52 72 75 52 72 75 52 72 75 52 72 75 52 72 71 48 68 71 48 68 71 48 68 71 48 68 71 48 68 71 48 68 71 48 68 71 48 68 74 49 68 74 49 68 74 49 68 74 49 68 74 49 68 74 49 68 74 49 68 74 49 68 76 51 70 76 51 70 76 51 70 76 51 70 76 51 70 76 51 70 76 51 70 76 51 70 76 53 69 76 53 69 76 53 69 76 53 69 76 53 69 76 53 69 76 53 69 76 53 69 79 56 72 79 56 72 79 56 72 79 56 72 79 56 72 79 56 72 79 56 72 82 55 72 85 50 70 87 49 70 88 49 70 87 49 70 88 49 70 87 49 70 88 49 70 87 49 70 91 52 73 90 52 73 91 52 73 90 52 73 91 52 73 90 52 73 91 52 73 90 52 73 89 52 70 87 53 70 89 52 70 87 53 70 89 52 70 87 53 70 89 52 70 87 53 70 87 50 68 85 51 68 87 50 68 85 51 68 87 50 68 85 51 68 87 50 68 85 51 68 108 74 91 107 74 91 108 74 91 107 74 91 108 74 91 107 74 91 108 74 91 107 74 91 119 85 102 118 85 102 119 85 102 118 85 102 119 85 102 118 85 102 119 85 102 115 87 102 107 89 103 104 90 103 104 90 103 104 90 103 104 90 103 104 90 103 104 90 103 104 90 103 83 69 82 83 69 82 83 69 82 83 69 82 83 69 82 83 69 82 83 69 82 81 70 84 47 47 59 44 48 60 44 48 60 44 48 60 44 48 60 44 48 60 44 48 60 44 48 60 44 48 60 44 48 60
83 98 129 83 98 129 83 98 129 83 98 129 83 98 129 66 77 107 66 77 107 66 77 107 66 77 107 66 77 107 66 77 107 66 77 107 66 77 107 56 67 97 56 67 97 56 67 97 56 67 97 56 67 97 56 67 97 56 67 97 57 65 101 58 63 105 59 62 107 59 61 109 59 62 107 59 61 109 59 62 107 59 61 109 59 62 107 59 61 109 59 62 107 59 61 109 59 62 107 59 61 109 59 62 107 59 61 109 59 62 107 59 58 100 59 58 98 59 58 100 59 58 98 59 58 100 59 58 98 59 58 100 59 58 98 59 58 100 59 58 98 59 58 100 59 58 98 59 58 100 59 58 98 59 58 100 59 59 95 62 60 84 62 61 79 62 61 79 62 61 79 62 61 79 62 61 79 62 61 79 62 61 79 61 60 78 61 60 78 61 60 78 61 60 78 61 60 78 61 60 78 61 60 78 61 60 76 60 60 72 62 62 72 66 63 74 69 66 77 76 68 81 81 70 84 84 72 86 89 72 88 93 72 89 93 68 87 93 66 85 91 62 82 90 57 78 87 54 75 88 50 73 83 50 71 78 50 72 75 52 72 75 52 72 75 52 72 75 52 72 75 52 72 75 52 72 75 52 72 71 48 68 71 48 68 71 48 68 71 48 68 71 48 68 71 48 68 71 48 68 71 48 68 74 49 68 74 49 68 74 49 68 74 49 68 74 49 68 74 49 68 74 49 68 74 49 68 76 51 70 76 51 70 76 51 70 76 51 70 76 51 70 76 51 70 76 51 70 76 51 70 76 53 69 76 53 69 76 53 69 76 53 69 76 53 69 76 53 69 76 53 69 76 53 69 79 56 72 79 56 72 79 56 72 79 56 72 79 56 72 79 56 72 79 56 72 82 55 72 83 48 68 86 47 68 88 46 68 86 47 68 88 46 68 86 47 68 88 46 68 86 47 68 91 49 71 89 50 71 91 49 71 89 50 71 91 49 71 89 50 71 91 49 71 89 50 71 85 46 65 84 47 65 85 46 65 84 47 65 85 46 65 84 47 65 85 46 65 84 47 65 87 48 67 86 49 67 87 48 67 86 49 67 87 48 67 86 49 67 87 48 67 86 49 67 96 59 77 94 60 77 96 59 77 94 60 77 96 59 77 94 60 77 96 59 77 94 60 77 108 71 89 106 72 89 108 71 89 106 72 89 108 71 89 106 72 89 108 71 89 104 73 89 106 85 100 101 87 100 101 87 100 101 87 100 101 87 100 101 87 100 101 87 100 101 87 100 98 84 97 98 84 97 98 84 97 98 84 97 98 84 97 98 84 97 98 84 97 96 85 99 69 69 81 66 70 82 66 70 82 66 70 82 66 70 82 66 70 82 66 70 82 66 70 82 46 50 62 46 50 62
90 106 139 90 106 139 90 106 139 90 106 139 90 106 139 65 80 113 65 80 113 65 79 114 65 80 113 65 79 114 65 80 113 65 79 114 65 80 113 53 67 102 53 68 101 53 67 102 53 68 101 53 67 102 53 68 101 53 67 102 54 67 102 55 64 107 55 64 107 56 63 109 55 64 107 56 63 109 55 64 107 56 63 109 55 64 107 56 63 109 55 64 107 56 63 109 55 64 107 56 63 109 55 64 107 56 63 109 56 63 107 55 60 102 56 59 100 56 59 100 56 59 100 56 59 100 56 59 100 56 59 100 56 59 100 56 59 100 56 59 100 56 59 100 56 59 100 56 59 100 56 59 100 56 59 100 56 60 97 57 61 88 59 61 84 59 61 84 59 61 84 59 61 84 59 61 84 59 61 84 59 61 84 56 58 81 56 58 81 56 58 81 56 58 81 56 58 81 56 58 81 56 58 81 56 58 79 57 60 77 60 62 77 64 63 79 67 66 82 72 69 86 76 72 89 80 73 91 83 74 93 87 74 94 86 71 92 86 68 90 84 65 87 82 60 83 80 56 80 79 53 78 76 52 76 72 53 75 69 54 75 71 53 77 69 54 75 71 53 77 69 54 75 71 53 77 69 54 75 67 49 73 65 50 71 67 49 73 65 50 71 67 49 73 65 50 71 67 49 73 67 49 71 72 50 73 73 49 71 73 49 71 73 49 71 73 49 71 73 49 71 73 49 71 73 49 71 75 51 73 75 51 73 75 51 73 75 51 73 75 51 73 75 51 73 75 51 73 75 51 73 76 53 73 76 53 71 77 52 73 76 53 71 77 52 73 76 53 71 77 52 73 76 53 71 80 55 76 79 56 74 80 55 76 79 56 74 80 55 76 79 56 74 80 55 76 82 55 74 83 45 68 84 44 68 86 44 68 84 44 68 86 44 68 84 44 68 86 44 68 84 44 68 89 47 71 87 47 71 89 47 71 87 47 71 89 47 71 87 47 71 89 47 71 87 48 69 83 44 63 83 44 62 83 44 62 83 44 62 83 44 62 83 44 62 83 44 62 83 44 62 93 54 72 93 54 72 93 54 72 93 54 72 93 54 72 93 54 72 93 54 72 92 55 72 84 50 67 83 50 67 83 50 69 83 50 67 83 50 69 83 50 67 83 50 69 83 50 67 90 57 76 90 57 74 90 57 76 90 57 74 90 57 76 90 57 74 90 57 76 87 58 76 99 76 92 96 78 92 96 78 92 96 78 92 96 78 92 96 78 92 96 78 92 96 78 92 111 93 107 111 93 107 111 93 107 111 93 107 111 93 107 111 93 107 111 93 107 108 94 109 95 87 102 92 88 102 92 88 103 92 88 102 92 88 103 92 88 102 92 88 103 92 88 102 53 49 64 53 49 63
81 104 138 86 109 143 90 113 147 93 116 150 95 117 154 88 107 149 88 107 149 88 107 150 88 107 149 88 107 150 88 107 149 88 107 150 88 107 149 64 83 126 64 83 125 64 83 126 64 83 125 64 83 126 64 83 125 64 83 126 64 83 125 55 74 114 55 75 112 56 74 114 55 75 112 56 74 114 55 75 112 56 74 114 55 75 112 65 83 123 63 83 120 61 79 119 57 77 114 55 73 113 50 70 107 49 67 107 48 66 104 47 61 100 47 61 100 47 61 100 47 61 100 47 61 100 47 61 100 47 61 100 47 61 100 52 66 105 52 66 105 52 66 105 52 66 105 52 66 105 52 66 105 52 66 105 53 65 103 53 64 96 54 63 94 54 63 94 54 63 94 54 63 94 54 63 94 54 63 94 54 63 94 51 60 91 51 60 91 51 60 91 51 60 91 51 60 91 51 60 91 51 60 91 51 60 89 51 58 86 52 58 84 52 58 84 52 58 84 52 58 84 53 57 84 53 57 84 53 57 84 56 57 85 56 57 85 57 57 85 57 57 85 57 57 85 59 56 85 59 56 85 59 56 85 61 58 87 61 58 85 62 57 87 61 58 85 62 57 87 61 58 85 62 57 87 61 58 85 59 54 84 58 55 82 59 54 84 58 55 82 59 54 84 58 55 82 59 54 84 62 53 82 70 54 83 75 51 83 75 51 83 75 51 83 75 51 83 75 51 83 75 51 83 75 51 83 76 52 84 76 52 84 76 52 84 76 52 84 76 52 84 76 52 84 76 52 84 76 53 82 78 52 79 78 52 77 80 51 79 78 52 77 80 51 79 78 52 77 80 51 79 78 52 77 81 52 80 79 53 78 81 52 80 79 53 78 81 52 80 79 53 78 81 52 80 82 52 78 87 51 77 89 50 77 90 50 77 89 50 77 90 50 77 89 50 77 90 50 77 89 50 77 92 52 79 91 52 79 92 52 79 91 52 79 92 52 79 91 52 79 92 52 79 92 52 76 92 54 69 92 54 65 92 54 65 92 54 65 92 54 65 92 54 65 92 54 65 92 54 65 91 53 64 91 53 64 91 53 64 91 53 64 91 53 64 91 53 64 91 53 64 88 54 68 82 54 69 79 55 71 79 54 73 79 55 71 79 54 73 79 55 71 79 54 73 79 55 71 79 54 73 79 55 71 79 54 73 79 55 71 79 54 73 79 55 71 79 54 73 79 55 71 81 57 73 81 57 73 81 57 73 81 57 73 81 57 73 81 57 73 81 57 73 81 57 73 94 70 86 94 70 86 94 70 86 94 70 86 94 70 86 94 70 86 94 70 86 93 70 86 113 92 109 111 93 109 111 92 111 111 93 109 111 92 111 111 93 109 111 92 111 111 93 109 110 91 110 110 92 108
77 101 135 81 105 141 85 109 143 88 112 148 89 113 151 85 108 150 85 108 152 85 107 154 85 108 152 85 107 154 85 108 152 85 107 154 85 108 152 68 90 137 68 91 135 68 90 137 68 91 135 68 90 137 68 91 135 68 90 137 68 91 133 54 78 116 54 78 114 54 78 114 54 78 114 54 78 114 54 78 114 54 78 114 54 78 114 58 82 118 57 81 117 54 78 114 51 75 111 48 72 108 44 68 104 42 66 102 42 64 101 45 65 102 46 64 102 46 64 102 46 64 102 46 64 102 46 64 102 46 64 102 46 64 102 49 67 105 49 67 105 49 67 105 49 67 105 49 67 105 49 67 105 49 67 105 51 67 103 50 64 101 51 64 99 51 64 99 51 64 99 51 64 99 51 64 99 51 64 99 51 64 99 48 61 96 48 61 96 48 61 96 48 61 96 48 61 96 48 61 96 48 61 96 48 61 95 49 58 91 49 58 89 49 58 89 49 58 89 49 58 89 49 58 89 49 58 89 49 58 89 50 59 90 50 59 90 50 59 90 50 59 90 50 59 90 50 59 90 50 59 90 52 58 90 55 60 90 56 59 90 56 59 90 56 59 90 56 59 90 56 59 90 56 59 90 56 59 90 53 56 87 53 56 87 53 56 87 53 56 87 53 56 87 53 56 87 53 56 87 58 55 86 69 53 89 72 52 87 73 51 87 72 52 87 73 51 87 72 52 87 73 51 87 72 52 87 74 52 88 73 53 88 74 52 88 73 53 88 74 52 88 73 53 88 74 52 88 74 53 86 78 51 82 78 52 81 80 51 81 78 52 81 80 51 81 78 52 81 80 51 81 78 52 81 81 52 82 79 53 82 81 52 82 79 53 82 81 52 82 79 53 82 81 52 82 82 52 80 86 51 81 87 51 79 89 50 79 87 51 79 89 50 79 87 51 79 89 50 79 87 51 79 91 52 81 89 53 81 91 52 81 89 53 81 91 52 81 89 53 81 91 52 81 91 53 78 91 55 69 91 56 63 92 54 65 91 56 63 92 54 65 91 56 63 92 54 65 91 56 63 91 53 64 90 55 62 91 53 64 90 55 62 91 53 64 90 55 62 91 53 64 87 55 66 79 55 69 77 56 73 77 56 73 77 56 73 77 56 73 77 56 73 77 56 73 77 56 73 77 56 73 77 56 73 77 56 73 77 56 73 77 56 73 77 56 73 77 56 73 78 55 73 83 56 73 84 55 73 84 55 73 84 55 73 84 55 73 84 55 73 84 55 73 84 55 73 95 66 84 95 66 84 95 66 84 95 66 84 95 66 84 95 66 84 95 66 84 95 66 84 109 82 101 109 82 101 109 82 101 109 82 101 109 82 101 109 82 101 109 82 101 109 82 101 112 85 104 112 85 104
75 100 131 78 102 136 80 105 136 82 106 140 83 107 143 85 108 149 85 108 150 85 108 152 85 108 150 85 108 152 85 108 150 85 108 152 85 108 150 78 101 145 78 101 143 78 101 145 78 101 143 78 101 145 78 101 143 78 101 145 78 101 143 59 83 121 59 83 119 59 83 119 59 83 119 59 83 119 59 83 119 59 83 119 59 83 119 55 79 115 54 78 114 51 75 111 48 72 108 44 68 104 41 65 101 39 63 99 39 61 98 47 67 104 48 66 104 48 66 104 48 66 104 48 66 104 48 66 104 48 66 104 48 66 104 49 67 105 49 67 105 49 67 105 49 67 105 49 67 105 49 67 105 49 67 105 51 67 103 50 64 101 51 64 99 51 64 99 51 64 99 51 64 99 51 64 99 51 64 99 51 64 99 48 61 96 48 61 96 48 61 96 48 61 96 48 61 96 48 61 96 48 61 96 48 61 95 49 58 91 49 58 89 49 58 89 49 58 89 49 58 89 49 58 89 49 58 89 49 58 89 50 59 90 50 59 90 50 59 90 50 59 90 50 59 90 50 59 90 50 59 90 52 58 90 55 60 90 56 59 90 56 59 90 56 59 90 56 59 90 56 59 90 56 59 90 56 59 90 53 56 87 53 56 87 53 56 87 53 56 87 53 56 87 53 56 87 53 56 87 58 55 86 68 54 89 70 53 87 72 52 87 70 53 87 72 52 87 70 53 87 72 52 87 70 53 87 73 53 88 71 54 88 73 53 88 71 54 88 73 53 88 71 54 88 73 53 88 73 54 86 77 52 82 77 52 81 78 52 81 77 52 81 78 52 81 77 52 81 78 52 81 77 52 81 79 53 82 78 53 82 79 53 82 78 53 82 79 53 82 78 53 82 79 53 82 81 52 80 85 52 81 86 52 79 87 51 79 86 52 79 87 51 79 86 52 79 87 51 79 86 52 79 89 53 81 88 54 81 89 53 81 88 54 81 89 53 81 88 54 81 89 53 81 89 54 78 89 55 71 89 56 65 91 55 67 89 56 65 91 55 67 89 56 65 91 55 67 89 56 65 90 54 66 88 55 64 90 54 66 88 55 64 90 54 66 88 55 64 90 54 66 87 55 68 79 55 71 77 56 73 77 56 73 77 56 73 77 56 73 77 56 73 77 56 73 77 56 73 77 56 73 77 56 73 77 56 73 77 56 73 77 56 73 77 56 73 77 56 73 78 55 73 83 56 73 84 55 73 84 55 73 84 55 73 84 55 73 84 55 73 84 55 73 84 55 73 93 64 82 93 64 82 93 64 82 93 64 82 93 64 82 93 64 82 93 64 82 93 64 82 96 69 88 96 69 88 96 69 88 96 69 88 96 69 88 96 69 88 96 69 88 96 69 88 105 78 97 105 78 97
76 101 131 77 102 133 78 103 133 79 104 135 79 103 137 85 109 147 85 108 149 85 108 150 85 108 149 85 108 150 85 108 149 85 108 150 85 108 149 87 110 152 87 110 151 87 110 152 87 110 151 87 110 152 87 110 151 87 110 152 87 110 151 66 90 128 66 90 126 66 90 126 66 90 126 66 90 126 66 90 126 66 90 126 66 90 126 56 80 116 54 78 114 52 76 112 49 73 109 45 69 105 42 66 102 40 64 100 39 61 98 50 70 107 51 69 107 51 69 107 51 69 107 51 69 107 51 69 107 51 69 107 51 69 107 49 67 105 49 67 105 49 67 105 49 67 105 49 67 105 49 67 105 49 67 105 51 67 103 50 64 101 51 64 99 51 64 99 51 64 99 51 64 99 51 64 99 51 64 99 51 64 99 48 61 96 48 61 96 48 61 96 48 61 96 48 61 96 48 61 96 48 61 96 48 61 95 49 58 91 49 58 89 49 58 89 49 58 89 49 58 89 49 58 89 49 58 89 49 58 89 50 59 90 50 59 90 50 59 90 50 59 90 50 59 90 50 59 90 50 59 90 52 58 90 55 60 90 56 59 90 56 59 90 56 59 90 56 59 90 56 59 90 56 59 90 56 59 90 53 56 87 53 56 87 53 56 87 53 56 87 53 56 87 53 56 87 53 56 87 56 55 86 66 55 89 69 54 87 70 53 87 69 54 87 70 53 87 69 54 87 70 53 87 69 54 87 71 54 88 70 55 88 71 54 88 70 55 88 71 54 88 70 55 88 71 54 88 71 54 86 76 53 82 76 53 81 77 52 81 76 53 81 77 52 81 76 53 81 77 52 81 76 53 81 78 53 82 77 54 82 78 53 82 77 54 82 78 53 82 77 54 82 78 53 82 79 53 80 83 53 81 85 52 79 86 52 79 85 52 79 86 52 79 85 52 79 86 52 79 85 52 79 88 54 81 87 54 81 88 54 81 87 54 81 88 54 81 87 54 81 88 54 81 88 54 78 88 56 71 88 56 67 89 55 69 88 56 67 89 55 69 88 56 67 89 55 69 88 56 67 88 54 68 87 55 66 88 54 68 87 55 66 88 54 68 87 55 66 88 54 68 86 55 70 79 55 71 77 56 73 77 56 73 77 56 73 77 56 73 77 56 73 77 56 73 77 56 73 77 56 73 77 56 73 77 56 73 77 56 73 77 56 73 77 56 73 77 56 73 78 55 73 83 56 73 84 55 73 84 55 73 84 55 73 84 55 73 84 55 73 84 55 73 84 55 73 90 61 79 90 61 79 90 61 79 90 61 79 90 61 79 90 61 79 90 61 79 90 61 79 84 57 76 84 57 76 84 57 76 84 57 76 84 57 76 84 57 76 84 57 76 84 57 76 95 68 87 95 68 87
84 110 137 83 108 138 82 108 135 82 107 137 81 106 137 85 109 145 85 109 147 85 108 149 85 109 147 85 108 149 85 109 147 85 108 149 85 109 147 90 113 154 90 114 152 90 113 154 90 114 152 90 113 154 90 114 152 90 113 154 90 114 152 72 96 132 72 96 132 72 96 132 72 96 132 72 96 132 72 96 132 72 96 132 72 96 132 62 86 122 61 85 121 59 83 119 56 80 116 52 76 112 49 73 109 46 70 106 46 68 105 54 74 111 55 73 111 55 73 111 55 73 111 55 73 111 55 73 111 55 73 111 55 73 111 49 67 105 49 67 105 49 67 105 49 67 105 49 67 105 49 67 105 49 67 105 51 67 103 50 64 101 51 64 99 51 64 99 51 64 99 51 64 99 51 64 99 51 64 99 51 64 99 48 61 96 48 61 96 48 61 96 48 61 96 48 61 96 48 61 96 48 61 96 48 61 95 49 58 91 49 58 89 49 58 89 49 58 89 49 58 89 49 58 89 49 58 89 49 58 89 50 59 90 50 59 90 50 59 90 50 59 90 50 59 90 50 59 90 50 59 90 52 58 90 55 60 90 56 59 90 56 59 90 56 59 90 56 59 90 56 59 90 56 59 90 56 59 90 53 56 87 53 56 87 53 56 87 53 56 87 53 56 87 53 56 87 53 56 87 56 55 86 65 55 89 68 54 87 69 54 87 68 54 87 69 54 87 68 54 87 69 54 87 68 54 87 70 55 88 69 55 88 70 55 88 69 55 88 70 55 88 69 55 88 70 55 88 70 55 86 74 54 82 74 54 81 76 53 81 74 54 81 76 53 81 74 54 81 76 53 81 74 54 81 77 54 82 75 55 82 77 54 82 75 55 82 77 54 82 75 55 82 77 54 82 78 54 80 82 53 81 83 53 79 85 52 79 83 53 79 85 52 79 83 53 79 85 52 79 83 53 79 87 54 81 85 55 81 87 54 81 85 55 81 87 54 81 85 55 81 87 54 81 87 55 78 87 56 72 87 57 69 88 56 71 87 57 69 88 56 71 87 57 69 88 56 71 87 57 69 87 55 70 86 56 68 87 55 70 86 56 68 87 55 70 86 56 68 87 55 70 84 56 70 78 55 71 77 56 73 77 56 73 77 56 73 77 56 73 77 56 73 77 56 73 77 56 73 77 56 73 77 56 73 77 56 73 77 56 73 77 56 73 77 56 73 77 56 73 78 55 73 83 56 73 84 55 73 84 55 73 84 55 73 84 55 73 84 55 73 84 55 73 84 55 73 86 57 75 86 57 75 86 57 75 86 57 75 86 57 75 86 57 75 86 57 75 86 57 75 77 50 69 77 50 69 77 50 69 77 50 69 77 50 69 77 50 69 77 50 69 77 50 69 85 58 77 85 58 77
97 123 148 94 120 145 92 118 143 90 116 141 89 115 142 85 109 143 85 109 145 85 109 145 85 109 145 85 109 145 85 109 145 85 109 145 85 109 145 88 112 148 88 112 148 88 112 148 88 112 148 88 112 148 88 112 148 88 112 148 88 112 148 79 103 139 79 103 139 79 103 139 79 103 139 79 103 139 79 103 139 79 103 139 79 103 139 75 99 135 73 97 133 71 95 131 68 92 128 64 88 124 61 85 121 58 82 118 58 80 117 57 77 114 58 76 114 58 76 114 58 76 114 58 76 114 58 76 114 58 76 114 58 76 114 49 67 105 49 67 105 49 67 105 49 67 105 49 67 105 49 67 105 49 67 105 51 67 103 50 64 101 51 64 99 51 64 99 51 64 99 51 64 99 51 64 99 51 64 99 51 64 99 48 61 96 48 61 96 48 61 96 48 61 96 48 61 96 48 61 96 48 61 96 48 61 95 49 58 91 49 58 89 49 58 89 49 58 89 49 58 89 49 58 89 49 58 89 49 58 89 50 59 90 50 59 90 50 59 90 50 59 90 50 59 90 50 59 90 50 59 90 52 58 90 55 60 90 56 59 90 56 59 90 56 59 90 56 59 90 56 59 90 56 59 90 56 59 90 53 56 87 53 56 87 53 56 87 53 56 87 53 56 87 53 56 87 53 56 87 56 55 86 63 56 89 66 55 87 66 55 87 66 55 87 66 55 87 66 55 87 66 55 87 66 55 87 67 56 88 67 56 88 67 56 88 67 56 88 67 56 88 67 56 88 67 56 88 69 56 86 71 55 82 73 55 81 73 55 81 73 55 81 73 55 81 73 55 81 73 55 81 73 55 81 74 56 82 74 56 82 74 56 82 74 56 82 74 56 82 74 56 82 74 56 82 75 55 80 80 54 81 82 54 79 82 54 79 82 54 79 82 54 79 82 54 79 82 54 79 82 54 79 84 56 81 84 56 81 84 56 81 84 56 81 84 56 81 84 56 81 84 56 81 84 56 79 85 56 74 85 57 72 85 57 72 85 57 72 85 57 72 85 57 72 85 57 72 85 57 72 84 56 71 84 56 71 84 56 71 84 56 71 84 56 71 84 56 71 84 56 71 83 56 71 78 55 71 77 56 73 77 56 73 77 56 73 77 56 73 77 56 73 77 56 73 77 56 73 77 56 73 77 56 73 77 56 73 77 56 73 77 56 73 77 56 73 77 56 73 78 55 73 83 56 73 84 55 73 84 55 73 84 55 73 84 55 73 84 55 73 84 55 73 84 55 73 83 54 72 83 54 72 83 54 72 83 54 72 83 54 72 83 54 72 83 54 72 83 54 72 76 49 68 76 49 68 76 49 68 76 49 68 76 49 68 76 49 68 76 49 68 76 49 68 75 48 67 75 48 67
111 137 160 107 133 156 103 129 152 100 126 149 99 125 150 85 110 141 85 109 143 85 109 143 85 109 143 85 109 143 85 109 143 85 109 143 85 109 143 82 106 140 82 106 140 82 106 140 82 106 140 82 106 140 82 106 140 82 106 140 82 106 140 84 108 144 84 108 144 84 108 144 84 108 144 84 108 144 84 108 144 84 108 144 84 108 144 87 111 147 86 110 146 84 108 144 80 104 140 77 101 137 74 98 134 71 95 131 71 93 130 59 79 116 60 78 116 60 78 116 60 78 116 60 78 116 60 78 116 60 78 116 60 78 116 49 67 105 49 67 105 49 67 105 49 67 105 49 67 105 49 67 105 49 67 105 51 67 103 50 64 101 51 64 99 51 64 99 51 64 99 51 64 99 51 64 99 51 64 99 51 64 99 48 61 96 48 61 96 48 61 96 48 61 96 48 61 96 48 61 96 48 61 96 48 61 95 49 58 91 49 58 89 49 58 89 49 58 89 49 58 89 49 58 89 49 58 89 49 58 89 50 59 90 50 59 90 50 59 90 50 59 90 50 59 90 50 59 90 50 59 90 52 58 90 55 60 90 56 59 90 56 59 90 56 59 90 56 59 90 56 59 90 56 59 90 56 59 90 53 56 87 53 56 87 53 56 87 53 56 87 53 56 87 53 56 87 53 56 87 55 56 86 62 57 89 65 56 87 65 56 87 65 56 87 65 56 87 65 56 87 65 56 87 65 56 87 66 57 88 66 57 88 66 57 88 66 57 88 66 57 88 66 57 88 66 57 88 67 56 86 70 56 82 71 55 81 71 55 81 71 55 81 71 55 81 71 55 81 71 55 81 71 55 81 72 56 82 72 56 82 72 56 82 72 56 82 72 56 82 72 56 82 72 56 82 74 56 80 79 55 81 80 54 79 80 54 79 80 54 79 80 54 79 80 54 79 80 54 79 80 54 79 82 56 81 82 56 81 82 56 81 82 56 81 82 56 81 82 56 81 82 56 81 82 57 79 84 57 76 84 57 74 84 57 74 84 57 74 84 57 74 84 57 74 84 57 74 84 57 74 83 56 73 83 56 73 83 56 73 83 56 73 83 56 73 83 56 73 83 56 73 81 57 73 78 55 73 77 56 73 77 56 73 77 56 73 77 56 73 77 56 73 77 56 73 77 56 73 77 56 73 77 56 73 77 56 73 77 56 73 77 56 73 77 56 73 77 56 73 78 55 73 83 56 73 84 55 73 84 55 73 84 55 73 84 55 73 84 55 73 84 55 73 84 55 73 81 52 70 81 52 70 81 52 70 81 52 70 81 52 70 81 52 70 81 52 70 81 52 70 79 52 71 79 52 71 79 52 71 79 52 71 79 52 71 79 52 71 79 52 71 79 52 71 68 41 60 68 41 60
119 146 165 115 142 161 110 137 156 107 134 153 105 132 153 85 111 138 85 110 140 85 110 140 85 110 140 85 110 140 85 110 140 85 110 140 85 110 140 78 103 133 78 103 133 78 103 133 78 103 133 78 103 133 78 103 133 78 103 133 78 103 134 86 110 144 86 110 146 86 110 146 86 110 146 86 110 146 86 110 146 86 110 146 86 110 146 96 120 156 94 118 154 92 116 152 89 113 149 85 109 145 82 106 142 80 104 140 79 101 138 61 81 118 62 80 118 62 80 118 62 80 118 62 80 118 62 80 118 62 80 118 62 80 118 49 67 105 49 67 105 49 67 105 49 67 105 49 67 105 49 67 105 49 67 105 51 67 103 50 64 101 51 64 99 51 64 99 51 64 99 51 64 99 51 64 99 51 64 99 51 64 99 48 61 96 48 61 96 48 61 96 48 61 96 48 61 96 48 61 96 48 61 96 48 61 95 49 58 91 49 58 89 49 58 89 49 58 89 49 58 89 49 58 89 49 58 89 49 58 89 50 59 90 50 59 90 50 59 90 50 59 90 50 59 90 50 59 90 50 59 90 52 58 90 55 60 90 56 59 90 56 59 90 56 59 90 56 59 90 56 59 90 56 59 90 56 59 90 53 56 87 53 56 87 53 56 87 53 56 87 53 56 87 53 56 87 53 56 87 55 56 86 61 58 89 62 57 87 62 57 87 62 57 87 62 57 87 62 57 87 62 57 87 62 57 87 63 58 88 63 58 88 63 58 88 63 58 88 63 58 88 63 58 88 63 58 88 64 58 86 67 57 82 69 57 81 69 57 81 69 57 81 69 57 81 69 57 81 69 57 81 69 57 81 70 58 82 70 58 82 70 58 82 70 58 82 70 58 82 70 58 82 70 58 82 71 57 80 76 56 81 78 56 79 78 56 79 78 56 79 78 56 79 78 56 79 78 56 79 78 56 79 80 58 81 80 58 81 80 58 81 80 58 81 80 58 81 80 58 81 80 58 81 80 58 79 81 57 79 81 58 78 81 58 78 81 58 78 81 58 78 81 58 78 81 58 78 81 58 78 80 57 77 80 57 77 80 57 77 80 57 77 80 57 77 80 57 77 80 57 77 80 57 77 77 56 73 77 56 73 77 56 73 77 56 73 77 56 73 77 56 73 77 56 73 77 56 73 77 56 73 77 56 73 77 56 73 77 56 73 77 56 73 77 56 73 77 56 73 78 55 73 83 56 73 84 55 73 84 55 73 84 55 73 84 55 73 84 55 73 84 55 73 84 55 73 79 50 68 79 50 68 79 50 68 79 50 68 79 50 68 79 50 68 79 50 68 79 50 68 82 55 74 82 55 74 82 55 74 82 55 74 82 55 74 82 55 74 82 55 74 82 55 74 64 37 56 64 37 56
