P3
172 37
255
125 108 140 125 109 138 125 108 140 125 109 138 113 96 128 112 96 125 110 93 125 106 90 119 103 86 118 100 84 113 97 80 112 96 80 109 93 78 107 92 78 104 90 75 104 86 72 98 83 68 97 80 66 92 77 62 91 76 62 88 46 31 60 44 30 56 39 24 53 32 18 44 25 10 39 19 5 31 14 0 28 6 1 24 0 1 21 0 4 19 0 4 21 0 4 19 0 8 25 0 11 26 0 14 31 0 16 31 0 9 26 0 9 24 0 9 26 0 9 24 0 9 26 0 9 24 0 9 26 0 8 24 0 6 25 0 6 24 0 6 25 0 6 24 0 6 25 0 6 24 0 6 25 0 6 24 1 8 27 1 8 26 1 8 27 1 8 26 1 8 27 1 8 26 1 8 27 0 9 26 4 13 28 2 14 26 2 14 28 2 14 26 2 14 28 2 14 26 2 14 28 2 14 26 1 13 27 1 13 25 1 13 27 1 13 25 1 13 27 1 13 25 1 13 27 1 14 23 0 13 16 0 13 13 0 13 13 0 13 13 0 13 13 0 13 13 0 13 13 0 13 13 3 17 17 3 17 17 3 17 17 3 17 17 3 17 17 3 17 17 3 17 17 2 18 15 0 20 14 0 21 12 0 21 12 0 21 12 0 21 12 0 21 12 0 21 12 0 21 12 0 13 4 0 13 4 0 13 4 0 13 4 0 13 4 0 13 4 0 13 4 0 13 4 0 18 6 0 18 6 0 18 6 0 18 6 0 18 6 0 18 6 0 18 6 0 18 6 4 32 20 6 34 22 8 36 24 11 39 27 15 43 31 18 46 34 20 48 36 22 50 36 44 70 57 46 73 58 51 78 63 58 85 70 64 91 76 71 98 83 76 103 88 78 105 90 82 109 94 83 110 95 86 113 98 89 116 101 92 119 104 96 123 108 98 125 110 99 126 111 67 89 77 59 81 69 46 68 56 34 56 44 27 49 37 26 48 36 29 51 39 32 54 42 27 49 37 27 49 37 27 49 37 27 49 37 27 49 37 27 49 37 27 49 37 27 49 37 24 46 34 24 46 34 24 46 34 24 46 34 24 46 34 24 46 34 24 46 34 24 46 34 27 49 37 27 49 37 27 49 37 27 49 37 27 49 37 27 49 37 27 49 37 27 49 37
121 111 138 121 111 138 121 111 138 121 111 138 108 98 125 107 97 124 104 94 121 101 91 118 98 88 115 94 84 111 92 82 109 91 81 108 88 80 104 87 79 103 84 76 100 81 73 97 78 70 94 74 66 90 72 64 88 71 63 87 38 30 54 36 28 52 31 23 47 24 16 40 18 10 34 11 3 27 6 0 22 0 0 20 0 1 19 0 4 19 0 3 19 0 4 19 0 6 22 0 11 26 0 14 30 0 16 31 0 8 24 0 9 24 0 8 24 0 9 24 0 8 24 0 9 24 0 8 24 0 8 24 0 7 24 0 5 24 0 5 24 0 5 24 0 5 24 0 5 24 0 5 24 0 5 24 2 7 26 2 7 26 2 7 26 2 7 26 2 7 26 2 7 26 2 7 26 1 8 26 4 13 28 4 14 26 4 14 26 4 14 26 4 14 26 4 14 26 4 14 26 4 14 26 3 13 25 3 13 25 3 13 25 3 13 25 3 13 25 3 13 25 3 13 25 3 13 23 1 12 16 1 12 14 1 12 14 1 12 14 1 12 14 1 12 14 1 12 14 1 12 14 5 16 18 5 16 18 5 16 18 5 16 18 5 16 18 5 16 18 5 16 18 2 18 17 0 20 14 0 20 14 0 20 14 0 20 14 0 20 14 0 20 14 0 20 14 0 20 14 0 12 6 0 12 6 0 12 6 0 12 6 0 12 6 0 12 6 0 12 6 0 13 4 0 17 8 0 18 6 0 17 8 0 18 6 0 17 8 0 18 6 0 17 8 0 18 6 4 31 22 6 34 22 8 35 26 11 39 27 15 42 33 18 46 34 20 47 38 22 50 38 44 70 57 46 73 58 51 77 64 58 85 70 64 90 77 71 98 83 76 102 89 78 105 90 81 107 94 82 109 94 84 110 97 88 115 100 91 117 104 94 121 106 97 123 110 100 124 111 67 89 77 60 80 69 47 67 56 35 55 44 28 48 37 27 47 36 30 50 39 33 53 42 28 48 37 28 48 37 28 48 37 28 48 37 28 48 37 28 48 37 28 48 37 28 48 37 25 45 34 24 46 34 25 45 34 24 46 34 25 45 34 24 46 34 25 45 34 24 46 34 28 48 37 27 49 37 28 48 37 27 49 37 28 48 37 27 49 37 28 48 37 27 49 37
109 99 123 102 92 116 97 87 111 95 85 109 104 94 118 103 93 117 100 90 114 97 87 111 94 84 108 90 80 104 88 78 102 87 77 101 78 70 91 73 68 88 67 62 82 60 55 75 52 47 67 44 39 59 38 33 53 35 30 50 6 1 21 6 1 21 6 1 21 6 1 21 6 1 21 6 1 21 6 1 21 5 2 21 2 4 19 0 5 19 1 4 19 0 5 19 1 4 19 0 5 19 1 4 19 0 5 19 1 4 19 0 5 19 1 4 19 0 5 19 1 4 19 0 5 19 1 4 19 1 4 19 3 6 21 3 6 21 3 6 21 3 6 21 3 6 21 3 6 21 3 6 21 3 6 21 5 8 23 5 8 23 5 8 23 5 8 23 5 8 23 5 8 23 5 8 23 5 8 23 5 11 23 5 11 23 5 11 23 5 11 23 5 11 23 5 11 23 5 11 23 5 11 23 3 9 21 3 9 21 3 9 21 3 9 21 3 9 21 3 9 21 3 9 21 3 10 20 4 13 20 4 13 18 4 13 18 4 13 18 4 13 18 4 13 18 4 13 18 4 13 18 6 15 20 6 15 20 6 15 20 6 15 20 6 15 20 6 15 20 6 15 20 6 15 20 5 16 18 5 17 17 5 17 17 5 17 17 5 17 17 5 17 17 5 17 17 5 17 17 17 29 29 10 22 22 0 12 12 0 4 4 0 4 4 0 4 4 0 8 8 0 12 12 0 12 10 0 12 8 0 12 10 0 12 8 0 12 10 0 12 8 0 12 10 0 12 8 15 27 25 17 29 25 19 31 29 22 34 30 26 38 36 29 41 37 31 43 41 33 45 41 52 63 57 54 65 57 56 67 61 59 70 62 63 74 68 66 77 69 68 79 73 70 81 73 83 94 88 84 95 87 87 98 92 90 101 93 93 104 98 97 108 100 99 110 104 101 111 103 74 81 74 67 72 66 54 59 53 42 47 41 35 40 34 34 39 33 37 42 36 40 45 39 37 42 36 37 42 36 37 42 36 37 42 36 37 42 36 37 42 36 37 42 36 37 42 36 35 40 36 34 40 36 35 40 36 34 40 36 35 40 36 34 40 36 35 40 36 34 40 36 34 39 35 33 39 35 34 39 35 33 39 35 34 39 35 33 39 35 34 39 35 33 39 35
109 100 121 103 94 115 98 89 110 95 86 107 97 88 109 96 87 108 94 85 106 90 81 102 87 78 99 84 75 96 81 72 93 79 71 92 67 60 78 62 58 75 57 53 70 50 46 63 42 38 55 35 31 48 30 26 43 27 23 40 6 2 19 6 2 19 6 2 19 6 2 19 6 2 19 6 2 19 6 2 19 6 2 19 5 3 17 5 3 17 5 3 17 5 3 17 5 3 17 5 3 17 5 3 17 5 3 17 5 3 17 5 3 17 5 3 17 5 3 17 5 3 17 5 3 17 5 3 17 4 3 17 6 5 19 4 6 19 4 6 19 4 6 19 4 6 19 4 6 19 4 6 19 4 6 19 6 8 21 6 8 21 6 8 21 6 8 21 6 8 21 6 8 21 6 8 21 6 8 21 7 11 22 7 11 22 7 11 22 7 11 22 7 11 22 7 11 22 7 11 22 7 11 22 5 9 20 5 9 20 5 9 20 5 9 20 5 9 20 5 9 20 5 9 20 5 9 20 5 12 20 5 12 20 5 12 20 5 12 20 5 12 20 5 12 20 5 12 20 5 12 20 7 14 22 7 14 22 7 14 22 7 14 22 7 14 22 7 14 22 7 14 22 7 14 20 9 14 20 9 14 18 9 14 18 9 14 18 9 14 18 9 14 18 9 14 18 9 14 18 21 26 30 14 19 23 4 9 13 0 1 5 0 1 5 0 1 5 0 5 9 4 9 12 4 9 12 4 10 10 4 10 10 4 10 10 4 10 10 4 10 10 4 10 10 4 10 10 19 25 25 21 27 27 23 29 29 26 32 32 30 36 36 33 39 39 35 41 41 37 43 41 56 60 59 58 63 59 60 65 61 63 68 64 67 72 68 70 75 71 72 77 73 74 79 75 86 91 87 87 92 88 89 94 90 93 98 94 96 101 97 99 104 100 102 107 103 105 107 104 79 78 74 73 69 66 60 56 53 48 44 41 41 37 34 40 36 33 43 39 36 46 42 39 43 39 36 43 39 36 43 39 36 43 39 36 43 39 36 43 39 36 43 39 36 43 39 36 39 38 36 39 38 36 39 38 36 39 38 36 39 38 36 39 38 36 39 38 36 39 38 36 38 37 35 38 37 35 38 37 35 38 37 35 38 37 35 38 37 35 38 37 35 38 37 35
107 98 119 101 92 113 96 87 108 93 84 105 85 76 97 84 75 96 81 72 93 78 69 90 75 66 87 72 63 84 69 60 81 67 59 80 48 41 59 44 40 57 40 36 53 34 30 47 28 24 41 22 18 35 18 14 31 15 11 28 6 2 19 6 2 19 6 2 19 6 2 19 6 2 19 6 2 19 6 2 19 6 2 19 5 3 17 5 3 17 5 3 17 5 3 17 5 3 17 5 3 17 5 3 17 5 3 17 5 3 17 5 3 17 5 3 17 5 3 17 5 3 17 5 3 17 5 3 17 4 3 17 6 5 19 4 6 19 4 6 19 4 6 19 4 6 19 4 6 19 4 6 19 4 6 19 6 8 21 6 8 21 6 8 21 6 8 21 6 8 21 6 8 21 6 8 21 6 8 21 7 11 22 7 11 22 7 11 22 7 11 22 7 11 22 7 11 22 7 11 22 7 11 22 5 9 20 5 9 20 5 9 20 5 9 20 5 9 20 5 9 20 5 9 20 5 9 20 5 12 20 5 12 20 5 12 20 5 12 20 5 12 20 5 12 20 5 12 20 5 12 20 7 14 22 7 14 22 7 14 22 7 14 22 7 14 22 7 14 22 7 14 22 7 14 20 9 14 20 9 14 18 9 14 18 9 14 18 9 14 18 9 14 18 9 14 18 9 14 18 21 26 30 14 19 23 4 9 13 0 1 5 0 1 5 0 1 5 0 5 9 4 9 12 4 9 12 4 10 10 4 10 10 4 10 10 4 10 10 4 10 10 4 10 10 4 10 10 19 25 25 21 27 27 23 29 29 26 32 32 30 36 36 33 39 39 35 41 41 37 43 41 56 60 59 58 63 59 60 65 61 63 68 64 67 72 68 70 75 71 72 77 73 74 79 75 83 88 84 85 90 86 87 92 88 90 95 91 94 99 95 97 102 98 99 104 100 103 105 102 79 78 74 73 69 66 60 56 53 48 44 41 41 37 34 40 36 33 43 39 36 46 42 39 43 39 36 43 39 36 43 39 36 43 39 36 43 39 36 43 39 36 43 39 36 43 39 36 39 38 36 39 38 36 39 38 36 39 38 36 39 38 36 39 38 36 39 38 36 39 38 36 38 37 35 38 37 35 38 37 35 38 37 35 38 37 35 38 37 35 38 37 35 38 37 35
100 91 112 94 85 106 89 80 101 86 77 98 69 60 81 68 59 80 66 57 78 62 53 74 59 50 71 56 47 68 53 44 65 51 43 64 29 22 40 25 21 38 22 18 35 18 14 31 13 9 26 9 5 22 6 2 19 4 0 17 6 2 19 6 2 19 6 2 19 6 2 19 6 2 19 6 2 19 6 2 19 6 2 19 5 3 17 5 3 17 5 3 17 5 3 17 5 3 17 5 3 17 5 3 17 5 3 17 5 3 17 5 3 17 5 3 17 5 3 17 5 3 17 5 3 17 5 3 17 4 3 17 6 5 19 4 6 19 4 6 19 4 6 19 4 6 19 4 6 19 4 6 19 4 6 19 6 8 21 6 8 21 6 8 21 6 8 21 6 8 21 6 8 21 6 8 21 6 8 21 7 11 22 7 11 22 7 11 22 7 11 22 7 11 22 7 11 22 7 11 22 7 11 22 5 9 20 5 9 20 5 9 20 5 9 20 5 9 20 5 9 20 5 9 20 5 9 20 5 12 20 5 12 20 5 12 20 5 12 20 5 12 20 5 12 20 5 12 20 5 12 20 7 14 22 7 14 22 7 14 22 7 14 22 7 14 22 7 14 22 7 14 22 7 14 20 9 14 20 9 14 18 9 14 18 9 14 18 9 14 18 9 14 18 9 14 18 9 14 18 21 26 30 14 19 23 4 9 13 0 1 5 0 1 5 0 1 5 0 5 9 4 9 12 4 9 12 4 10 10 4 10 10 4 10 10 4 10 10 4 10 10 4 10 10 4 10 10 19 25 25 21 27 27 23 29 29 26 32 32 30 36 36 33 39 39 35 41 41 37 43 41 56 60 59 58 63 59 60 65 61 63 68 64 67 72 68 70 75 71 72 77 73 74 79 75 80 85 81 81 86 82 84 89 85 87 92 88 90 95 91 94 99 95 96 101 97 99 101 98 79 78 74 73 69 66 60 56 53 48 44 41 41 37 34 40 36 33 43 39 36 46 42 39 43 39 36 43 39 36 43 39 36 43 39 36 43 39 36 43 39 36 43 39 36 43 39 36 39 38 36 39 38 36 39 38 36 39 38 36 39 38 36 39 38 36 39 38 36 39 38 36 38 37 35 38 37 35 38 37 35 38 37 35 38 37 35 38 37 35 38 37 35 38 37 35
86 77 98 80 71 92 75 66 87 72 63 84 52 43 64 51 42 63 48 39 60 45 36 57 42 33 54 38 29 50 36 27 48 34 26 47 13 6 24 11 7 24 9 5 22 6 2 19 4 0 17 2 0 15 1 0 14 1 0 14 6 2 19 6 2 19 6 2 19 6 2 19 6 2 19 6 2 19 6 2 19 6 2 19 5 3 17 5 3 17 5 3 17 5 3 17 5 3 17 5 3 17 5 3 17 5 3 17 5 3 17 5 3 17 5 3 17 5 3 17 5 3 17 5 3 17 5 3 17 4 3 17 6 5 19 4 6 19 4 6 19 4 6 19 4 6 19 4 6 19 4 6 19 4 6 19 6 8 21 6 8 21 6 8 21 6 8 21 6 8 21 6 8 21 6 8 21 6 8 21 7 11 22 7 11 22 7 11 22 7 11 22 7 11 22 7 11 22 7 11 22 7 11 22 5 9 20 5 9 20 5 9 20 5 9 20 5 9 20 5 9 20 5 9 20 5 9 20 5 12 20 5 12 20 5 12 20 5 12 20 5 12 20 5 12 20 5 12 20 5 12 20 7 14 22 7 14 22 7 14 22 7 14 22 7 14 22 7 14 22 7 14 22 7 14 20 9 14 20 9 14 18 9 14 18 9 14 18 9 14 18 9 14 18 9 14 18 9 14 18 21 26 30 14 19 23 4 9 13 0 1 5 0 1 5 0 1 5 0 5 9 4 9 12 4 9 12 4 10 10 4 10 10 4 10 10 4 10 10 4 10 10 4 10 10 4 10 10 19 25 25 21 27 27 23 29 29 26 32 32 30 36 36 33 39 39 35 41 41 37 43 41 56 60 59 58 63 59 60 65 61 63 68 64 67 72 68 70 75 71 72 77 73 74 79 75 77 82 78 78 83 79 80 85 81 84 89 85 87 92 88 90 95 91 93 98 94 96 98 95 79 78 74 73 69 66 60 56 53 48 44 41 41 37 34 40 36 33 43 39 36 46 42 39 43 39 36 43 39 36 43 39 36 43 39 36 43 39 36 43 39 36 43 39 36 43 39 36 39 38 36 39 38 36 39 38 36 39 38 36 39 38 36 39 38 36 39 38 36 39 38 36 38 37 35 38 37 35 38 37 35 38 37 35 38 37 35 38 37 35 38 37 35 38 37 35
68 59 80 62 53 74 57 48 69 54 45 66 36 27 48 35 26 47 32 23 44 29 20 41 26 17 38 23 14 35 20 11 32 18 10 31 5 0 16 3 0 16 2 0 15 2 0 15 1 0 14 1 0 14 1 0 14 1 0 14 6 2 19 6 2 19 6 2 19 6 2 19 6 2 19 6 2 19 6 2 19 6 2 19 5 3 17 5 3 17 5 3 17 5 3 17 5 3 17 5 3 17 5 3 17 5 3 17 5 3 17 5 3 17 5 3 17 5 3 17 5 3 17 5 3 17 5 3 17 4 3 17 6 5 19 4 6 19 4 6 19 4 6 19 4 6 19 4 6 19 4 6 19 4 6 19 6 8 21 6 8 21 6 8 21 6 8 21 6 8 21 6 8 21 6 8 21 6 8 21 7 11 22 7 11 22 7 11 22 7 11 22 7 11 22 7 11 22 7 11 22 7 11 22 5 9 20 5 9 20 5 9 20 5 9 20 5 9 20 5 9 20 5 9 20 5 9 20 5 12 20 5 12 20 5 12 20 5 12 20 5 12 20 5 12 20 5 12 20 5 12 20 7 14 22 7 14 22 7 14 22 7 14 22 7 14 22 7 14 22 7 14 22 7 14 20 9 14 20 9 14 18 9 14 18 9 14 18 9 14 18 9 14 18 9 14 18 9 14 18 21 26 30 14 19 23 4 9 13 0 1 5 0 1 5 0 1 5 0 5 9 4 9 12 4 9 12 4 10 10 4 10 10 4 10 10 4 10 10 4 10 10 4 10 10 4 10 10 19 25 25 21 27 27 23 29 29 26 32 32 30 36 36 33 39 39 35 41 41 37 43 41 56 60 59 58 63 59 60 65 61 63 68 64 67 72 68 70 75 71 72 77 73 74 79 75 73 78 74 75 80 76 77 82 78 80 85 81 84 89 85 87 92 88 89 94 90 93 95 92 79 78 74 73 69 66 60 56 53 48 44 41 41 37 34 40 36 33 43 39 36 46 42 39 43 39 36 43 39 36 43 39 36 43 39 36 43 39 36 43 39 36 43 39 36 43 39 36 39 38 36 39 38 36 39 38 36 39 38 36 39 38 36 39 38 36 39 38 36 39 38 36 38 37 35 38 37 35 38 37 35 38 37 35 38 37 35 38 37 35 38 37 35 38 37 35
50 41 62 44 35 56 39 30 51 36 27 48 24 15 36 23 14 35 20 11 32 17 8 29 14 5 26 10 1 22 8 0 20 6 0 19 3 0 14 1 0 14 1 0 14 2 0 15 2 0 15 3 0 16 3 0 16 3 0 16 6 2 19 6 2 19 6 2 19 6 2 19 6 2 19 6 2 19 6 2 19 6 2 19 5 3 17 5 3 17 5 3 17 5 3 17 5 3 17 5 3 17 5 3 17 5 3 17 5 3 17 5 3 17 5 3 17 5 3 17 5 3 17 5 3 17 5 3 17 4 3 17 6 5 19 4 6 19 4 6 19 4 6 19 4 6 19 4 6 19 4 6 19 4 6 19 6 8 21 6 8 21 6 8 21 6 8 21 6 8 21 6 8 21 6 8 21 6 8 21 7 11 22 7 11 22 7 11 22 7 11 22 7 11 22 7 11 22 7 11 22 7 11 22 5 9 20 5 9 20 5 9 20 5 9 20 5 9 20 5 9 20 5 9 20 5 9 20 5 12 20 5 12 20 5 12 20 5 12 20 5 12 20 5 12 20 5 12 20 5 12 20 7 14 22 7 14 22 7 14 22 7 14 22 7 14 22 7 14 22 7 14 22 7 14 20 9 14 20 9 14 18 9 14 18 9 14 18 9 14 18 9 14 18 9 14 18 9 14 18 21 26 30 14 19 23 4 9 13 0 1 5 0 1 5 0 1 5 0 5 9 4 9 12 4 9 12 4 10 10 4 10 10 4 10 10 4 10 10 4 10 10 4 10 10 4 10 10 19 25 25 21 27 27 23 29 29 26 32 32 30 36 36 33 39 39 35 41 41 37 43 41 56 60 59 58 63 59 60 65 61 63 68 64 67 72 68 70 75 71 72 77 73 74 79 75 71 76 72 72 77 73 75 80 76 78 83 79 81 86 82 85 90 86 87 92 88 90 92 89 79 78 74 73 69 66 60 56 53 48 44 41 41 37 34 40 36 33 43 39 36 46 42 39 43 39 36 43 39 36 43 39 36 43 39 36 43 39 36 43 39 36 43 39 36 43 39 36 39 38 36 39 38 36 39 38 36 39 38 36 39 38 36 39 38 36 39 38 36 39 38 36 38 37 35 38 37 35 38 37 35 38 37 35 38 37 35 38 37 35 38 37 35 38 37 35
39 30 51 33 24 45 28 19 40 25 16 37 17 8 29 16 7 28 14 5 26 10 1 22 7 0 19 4 0 16 4 0 16 3 0 16 3 0 14 1 0 14 2 0 15 3 0 16 4 0 17 6 2 19 6 2 19 7 3 20 6 2 19 6 2 19 6 2 19 6 2 19 6 2 19 6 2 19 6 2 19 6 2 19 5 3 17 5 3 17 5 3 17 5 3 17 5 3 17 5 3 17 5 3 17 5 3 17 5 3 17 5 3 17 5 3 17 5 3 17 5 3 17 5 3 17 5 3 17 4 3 17 6 5 19 4 6 19 4 6 19 4 6 19 4 6 19 4 6 19 4 6 19 4 6 19 6 8 21 6 8 21 6 8 21 6 8 21 6 8 21 6 8 21 6 8 21 6 8 21 7 11 22 7 11 22 7 11 22 7 11 22 7 11 22 7 11 22 7 11 22 7 11 22 5 9 20 5 9 20 5 9 20 5 9 20 5 9 20 5 9 20 5 9 20 5 9 20 5 12 20 5 12 20 5 12 20 5 12 20 5 12 20 5 12 20 5 12 20 5 12 20 7 14 22 7 14 22 7 14 22 7 14 22 7 14 22 7 14 22 7 14 22 7 14 20 9 14 20 9 14 18 9 14 18 9 14 18 9 14 18 9 14 18 9 14 18 9 14 18 21 26 30 14 19 23 4 9 13 0 1 5 0 1 5 0 1 5 0 5 9 4 9 12 4 9 12 4 10 10 4 10 10 4 10 10 4 10 10 4 10 10 4 10 10 4 10 10 19 25 25 21 27 27 23 29 29 26 32 32 30 36 36 33 39 39 35 41 41 37 43 41 56 60 59 58 63 59 60 65 61 63 68 64 67 72 68 70 75 71 72 77 73 74 79 75 70 75 71 71 76 72 73 78 74 77 82 78 80 85 81 83 88 84 86 91 87 89 91 88 79 78 74 73 69 66 60 56 53 48 44 41 41 37 34 40 36 33 43 39 36 46 42 39 43 39 36 43 39 36 43 39 36 43 39 36 43 39 36 43 39 36 43 39 36 43 39 36 39 38 36 39 38 36 39 38 36 39 38 36 39 38 36 39 38 36 39 38 36 39 38 36 38 37 35 38 37 35 38 37 35 38 37 35 38 37 35 38 37 35 38 37 35 38 37 35
19 10 31 11 2 23 5 0 17 4 0 16 8 0 20 8 0 20 8 0 20 8 0 20 8 0 20 8 0 20 8 0 20 7 0 20 7 0 18 5 1 18 5 1 18 5 1 18 5 1 18 5 1 18 5 1 18 5 1 18 8 4 21 8 4 21 8 4 21 8 4 21 8 4 21 8 4 21 8 4 21 8 4 21 7 5 19 7 5 19 7 5 19 7 5 19 7 5 19 7 5 19 7 5 19 7 5 19 7 5 19 7 5 19 7 5 19 7 5 19 7 5 19 7 5 19 7 5 19 6 5 19 6 5 19 4 6 19 4 6 19 4 6 19 4 6 19 4 6 19 4 6 19 4 6 19 6 8 21 6 8 21 6 8 21 6 8 21 6 8 21 6 8 21 6 8 21 6 8 21 5 9 20 5 9 20 5 9 20 5 9 20 5 9 20 5 9 20 5 9 20 5 9 20 6 10 21 6 10 21 6 10 21 6 10 21 6 10 21 6 10 21 6 10 21 6 10 21 6 13 21 6 13 21 6 13 21 6 13 21 6 13 21 6 13 21 6 13 21 6 13 21 7 14 22 7 14 22 7 14 22 7 14 22 7 14 22 7 14 22 7 14 22 7 14 20 8 13 19 8 13 17 8 13 17 8 13 17 8 13 17 8 13 17 8 13 17 8 13 17 1 6 10 1 6 10 1 6 10 1 6 10 1 6 10 1 6 10 1 6 10 1 6 9 3 8 11 3 9 9 3 9 9 3 9 9 3 9 9 3 9 9 3 9 9 3 9 9 19 25 25 21 27 27 23 29 29 26 32 32 30 36 36 33 39 39 35 41 41 37 43 41 43 47 46 45 50 46 47 52 48 50 55 51 54 59 55 57 62 58 59 64 60 61 66 62 74 79 75 74 79 75 74 79 75 74 79 75 74 79 75 74 79 75 74 79 75 76 78 75 64 63 59 64 60 57 59 55 52 52 48 45 46 42 39 39 35 32 34 30 27 32 28 25 36 32 29 36 32 29 36 32 29 36 32 29 36 32 29 36 32 29 36 32 29 36 32 29 34 33 31 34 33 31 34 33 31 34 33 31 34 33 31 34 33 31 34 33 31 34 33 31 37 36 34 37 36 34 37 36 34 37 36 34 37 36 34 37 36 34 37 36 34 37 36 34
18 9 30 11 2 23 5 0 17 4 0 16 8 0 20 8 0 20 8 0 20 8 0 20 8 0 20 8 0 20 8 0 20 7 0 20 7 0 18 5 1 18 5 1 18 5 1 18 5 1 18 5 1 18 5 1 18 5 1 18 8 4 21 8 4 21 8 4 21 8 4 21 8 4 21 8 4 21 8 4 21 8 4 21 7 5 19 7 5 19 7 5 19 7 5 19 7 5 19 7 5 19 7 5 19 7 5 19 7 5 19 7 5 19 7 5 19 7 5 19 7 5 19 7 5 19 7 5 19 6 5 19 6 5 19 4 6 19 4 6 19 4 6 19 4 6 19 4 6 19 4 6 19 4 6 19 6 8 21 6 8 21 6 8 21 6 8 21 6 8 21 6 8 21 6 8 21 6 8 21 5 9 20 5 9 20 5 9 20 5 9 20 5 9 20 5 9 20 5 9 20 5 9 20 6 10 21 6 10 21 6 10 21 6 10 21 6 10 21 6 10 21 6 10 21 6 10 21 6 13 21 6 13 21 6 13 21 6 13 21 6 13 21 6 13 21 6 13 21 6 13 21 7 14 22 7 14 22 7 14 22 7 14 22 7 14 22 7 14 22 7 14 22 7 14 20 8 13 19 8 13 17 8 13 17 8 13 17 8 13 17 8 13 17 8 13 17 8 13 17 1 6 10 1 6 10 1 6 10 1 6 10 1 6 10 1 6 10 1 6 10 1 6 9 3 8 11 3 9 9 3 9 9 3 9 9 3 9 9 3 9 9 3 9 9 3 9 9 19 25 25 21 27 27 23 29 29 26 32 32 30 36 36 33 39 39 35 41 41 37 43 41 43 47 46 45 50 46 47 52 48 50 55 51 54 59 55 57 62 58 59 64 60 61 66 62 72 77 73 72 77 73 72 77 73 72 77 73 72 77 73 72 77 73 72 77 73 74 76 73 64 63 59 64 60 57 59 55 52 52 48 45 46 42 39 39 35 32 34 30 27 32 28 25 36 32 29 36 32 29 36 32 29 36 32 29 36 32 29 36 32 29 36 32 29 36 32 29 34 33 31 34 33 31 34 33 31 34 33 31 34 33 31 34 33 31 34 33 31 34 33 31 37 36 34 37 36 34 37 36 34 37 36 34 37 36 34 37 36 34 37 36 34 37 36 34
16 7 28 10 1 22 6 0 18 4 0 16 8 0 20 8 0 20 8 0 20 8 0 20 8 0 20 8 0 20 8 0 20 7 0 20 7 0 18 5 1 18 5 1 18 5 1 18 5 1 18 5 1 18 5 1 18 5 1 18 8 4 21 8 4 21 8 4 21 8 4 21 8 4 21 8 4 21 8 4 21 8 4 21 7 5 19 7 5 19 7 5 19 7 5 19 7 5 19 7 5 19 7 5 19 7 5 19 7 5 19 7 5 19 7 5 19 7 5 19 7 5 19 7 5 19 7 5 19 6 5 19 6 5 19 4 6 19 4 6 19 4 6 19 4 6 19 4 6 19 4 6 19 4 6 19 6 8 21 6 8 21 6 8 21 6 8 21 6 8 21 6 8 21 6 8 21 6 8 21 5 9 20 5 9 20 5 9 20 5 9 20 5 9 20 5 9 20 5 9 20 5 9 20 6 10 21 6 10 21 6 10 21 6 10 21 6 10 21 6 10 21 6 10 21 6 10 21 6 13 21 6 13 21 6 13 21 6 13 21 6 13 21 6 13 21 6 13 21 6 13 21 7 14 22 7 14 22 7 14 22 7 14 22 7 14 22 7 14 22 7 14 22 7 14 20 8 13 19 8 13 17 8 13 17 8 13 17 8 13 17 8 13 17 8 13 17 8 13 17 1 6 10 1 6 10 1 6 10 1 6 10 1 6 10 1 6 10 1 6 10 1 6 9 3 8 11 3 9 9 3 9 9 3 9 9 3 9 9 3 9 9 3 9 9 3 9 9 19 25 25 21 27 27 23 29 29 26 32 32 30 36 36 33 39 39 35 41 41 37 43 41 43 47 46 45 50 46 47 52 48 50 55 51 54 59 55 57 62 58 59 64 60 61 66 62 70 75 71 70 75 71 70 75 71 70 75 71 70 75 71 70 75 71 70 75 71 72 74 71 64 63 59 64 60 57 59 55 52 52 48 45 46 42 39 39 35 32 34 30 27 32 28 25 36 32 29 36 32 29 36 32 29 36 32 29 36 32 29 36 32 29 36 32 29 36 32 29 34 33 31 34 33 31 34 33 31 34 33 31 34 33 31 34 33 31 34 33 31 34 33 31 37 36 34 37 36 34 37 36 34 37 36 34 37 36 34 37 36 34 37 36 34 37 36 34
14 5 26 9 0 21 6 0 18 5 0 17 8 0 20 8 0 20 8 0 20 8 0 20 8 0 20 8 0 20 8 0 20 7 0 20 7 0 18 5 1 18 5 1 18 5 1 18 5 1 18 5 1 18 5 1 18 5 1 18 8 4 21 8 4 21 8 4 21 8 4 21 8 4 21 8 4 21 8 4 21 8 4 21 7 5 19 7 5 19 7 5 19 7 5 19 7 5 19 7 5 19 7 5 19 7 5 19 7 5 19 7 5 19 7 5 19 7 5 19 7 5 19 7 5 19 7 5 19 6 5 19 6 5 19 4 6 19 4 6 19 4 6 19 4 6 19 4 6 19 4 6 19 4 6 19 6 8 21 6 8 21 6 8 21 6 8 21 6 8 21 6 8 21 6 8 21 6 8 21 5 9 20 5 9 20 5 9 20 5 9 20 5 9 20 5 9 20 5 9 20 5 9 20 6 10 21 6 10 21 6 10 21 6 10 21 6 10 21 6 10 21 6 10 21 6 10 21 6 13 21 6 13 21 6 13 21 6 13 21 6 13 21 6 13 21 6 13 21 6 13 21 7 14 22 7 14 22 7 14 22 7 14 22 7 14 22 7 14 22 7 14 22 7 14 20 8 13 19 8 13 17 8 13 17 8 13 17 8 13 17 8 13 17 8 13 17 8 13 17 1 6 10 1 6 10 1 6 10 1 6 10 1 6 10 1 6 10 1 6 10 1 6 9 3 8 11 3 9 9 3 9 9 3 9 9 3 9 9 3 9 9 3 9 9 3 9 9 19 25 25 21 27 27 23 29 29 26 32 32 30 36 36 33 39 39 35 41 41 37 43 41 43 47 46 45 50 46 47 52 48 50 55 51 54 59 55 57 62 58 59 64 60 61 66 62 67 72 68 67 72 68 67 72 68 67 72 68 67 72 68 67 72 68 67 72 68 69 71 68 64 63 59 64 60 57 59 55 52 52 48 45 46 42 39 39 35 32 34 30 27 32 28 25 36 32 29 36 32 29 36 32 29 36 32 29 36 32 29 36 32 29 36 32 29 36 32 29 34 33 31 34 33 31 34 33 31 34 33 31 34 33 31 34 33 31 34 33 31 34 33 31 37 36 34 37 36 34 37 36 34 37 36 34 37 36 34 37 36 34 37 36 34 37 36 34
11 2 23 9 0 21 7 0 19 6 0 18 8 0 20 8 0 20 8 0 20 8 0 20 8 0 20 8 0 20 8 0 20 7 0 20 7 0 18 5 1 18 5 1 18 5 1 18 5 1 18 5 1 18 5 1 18 5 1 18 8 4 21 8 4 21 8 4 21 8 4 21 8 4 21 8 4 21 8 4 21 8 4 21 7 5 19 7 5 19 7 5 19 7 5 19 7 5 19 7 5 19 7 5 19 7 5 19 7 5 19 7 5 19 7 5 19 7 5 19 7 5 19 7 5 19 7 5 19 6 5 19 6 5 19 4 6 19 4 6 19 4 6 19 4 6 19 4 6 19 4 6 19 4 6 19 6 8 21 6 8 21 6 8 21 6 8 21 6 8 21 6 8 21 6 8 21 6 8 21 5 9 20 5 9 20 5 9 20 5 9 20 5 9 20 5 9 20 5 9 20 5 9 20 6 10 21 6 10 21 6 10 21 6 10 21 6 10 21 6 10 21 6 10 21 6 10 21 6 13 21 6 13 21 6 13 21 6 13 21 6 13 21 6 13 21 6 13 21 6 13 21 7 14 22 7 14 22 7 14 22 7 14 22 7 14 22 7 14 22 7 14 22 7 14 20 8 13 19 8 13 17 8 13 17 8 13 17 8 13 17 8 13 17 8 13 17 8 13 17 1 6 10 1 6 10 1 6 10 1 6 10 1 6 10 1 6 10 1 6 10 1 6 9 3 8 11 3 9 9 3 9 9 3 9 9 3 9 9 3 9 9 3 9 9 3 9 9 19 25 25 21 27 27 23 29 29 26 32 32 30 36 36 33 39 39 35 41 41 37 43 41 43 47 46 45 50 46 47 52 48 50 55 51 54 59 55 57 62 58 59 64 60 61 66 62 63 68 64 63 68 64 63 68 64 63 68 64 63 68 64 63 68 64 63 68 64 65 67 64 64 63 59 64 60 57 59 55 52 52 48 45 46 42 39 39 35 32 34 30 27 32 28 25 36 32 29 36 32 29 36 32 29 36 32 29 36 32 29 36 32 29 36 32 29 36 32 29 34 33 31 34 33 31 34 33 31 34 33 31 34 33 31 34 33 31 34 33 31 34 33 31 37 36 34 37 36 34 37 36 34 37 36 34 37 36 34 37 36 34 37 36 34 37 36 34
9 0 21 8 0 20 8 0 20 7 0 19 8 0 20 8 0 20 8 0 20 8 0 20 8 0 20 8 0 20 8 0 20 7 0 20 7 0 18 5 1 18 5 1 18 5 1 18 5 1 18 5 1 18 5 1 18 5 1 18 8 4 21 8 4 21 8 4 21 8 4 21 8 4 21 8 4 21 8 4 21 8 4 21 7 5 19 7 5 19 7 5 19 7 5 19 7 5 19 7 5 19 7 5 19 7 5 19 7 5 19 7 5 19 7 5 19 7 5 19 7 5 19 7 5 19 7 5 19 6 5 19 6 5 19 4 6 19 4 6 19 4 6 19 4 6 19 4 6 19 4 6 19 4 6 19 6 8 21 6 8 21 6 8 21 6 8 21 6 8 21 6 8 21 6 8 21 6 8 21 5 9 20 5 9 20 5 9 20 5 9 20 5 9 20 5 9 20 5 9 20 5 9 20 6 10 21 6 10 21 6 10 21 6 10 21 6 10 21 6 10 21 6 10 21 6 10 21 6 13 21 6 13 21 6 13 21 6 13 21 6 13 21 6 13 21 6 13 21 6 13 21 7 14 22 7 14 22 7 14 22 7 14 22 7 14 22 7 14 22 7 14 22 7 14 20 8 13 19 8 13 17 8 13 17 8 13 17 8 13 17 8 13 17 8 13 17 8 13 17 1 6 10 1 6 10 1 6 10 1 6 10 1 6 10 1 6 10 1 6 10 1 6 9 3 8 11 3 9 9 3 9 9 3 9 9 3 9 9 3 9 9 3 9 9 3 9 9 19 25 25 21 27 27 23 29 29 26 32 32 30 36 36 33 39 39 35 41 41 37 43 41 43 47 46 45 50 46 47 52 48 50 55 51 54 59 55 57 62 58 59 64 60 61 66 62 60 65 61 60 65 61 60 65 61 60 65 61 60 65 61 60 65 61 60 65 61 62 64 61 64 63 59 64 60 57 59 55 52 52 48 45 46 42 39 39 35 32 34 30 27 32 28 25 36 32 29 36 32 29 36 32 29 36 32 29 36 32 29 36 32 29 36 32 29 36 32 29 34 33 31 34 33 31 34 33 31 34 33 31 34 33 31 34 33 31 34 33 31 34 33 31 37 36 34 37 36 34 37 36 34 37 36 34 37 36 34 37 36 34 37 36 34 37 36 34
7 0 19 8 0 20 8 0 20 8 0 20 8 0 20 8 0 20 8 0 20 8 0 20 8 0 20 8 0 20 8 0 20 7 0 20 7 0 18 5 1 18 5 1 18 5 1 18 5 1 18 5 1 18 5 1 18 5 1 18 8 4 21 8 4 21 8 4 21 8 4 21 8 4 21 8 4 21 8 4 21 8 4 21 7 5 19 7 5 19 7 5 19 7 5 19 7 5 19 7 5 19 7 5 19 7 5 19 7 5 19 7 5 19 7 5 19 7 5 19 7 5 19 7 5 19 7 5 19 6 5 19 6 5 19 4 6 19 4 6 19 4 6 19 4 6 19 4 6 19 4 6 19 4 6 19 6 8 21 6 8 21 6 8 21 6 8 21 6 8 21 6 8 21 6 8 21 6 8 21 5 9 20 5 9 20 5 9 20 5 9 20 5 9 20 5 9 20 5 9 20 5 9 20 6 10 21 6 10 21 6 10 21 6 10 21 6 10 21 6 10 21 6 10 21 6 10 21 6 13 21 6 13 21 6 13 21 6 13 21 6 13 21 6 13 21 6 13 21 6 13 21 7 14 22 7 14 22 7 14 22 7 14 22 7 14 22 7 14 22 7 14 22 7 14 20 8 13 19 8 13 17 8 13 17 8 13 17 8 13 17 8 13 17 8 13 17 8 13 17 1 6 10 1 6 10 1 6 10 1 6 10 1 6 10 1 6 10 1 6 10 1 6 9 3 8 11 3 9 9 3 9 9 3 9 9 3 9 9 3 9 9 3 9 9 3 9 9 19 25 25 21 27 27 23 29 29 26 32 32 30 36 36 33 39 39 35 41 41 37 43 41 43 47 46 45 50 46 47 52 48 50 55 51 54 59 55 57 62 58 59 64 60 61 66 62 58 63 59 58 63 59 58 63 59 58 63 59 58 63 59 58 63 59 58 63 59 60 62 59 64 63 59 64 60 57 59 55 52 52 48 45 46 42 39 39 35 32 34 30 27 32 28 25 36 32 29 36 32 29 36 32 29 36 32 29 36 32 29 36 32 29 36 32 29 36 32 29 34 33 31 34 33 31 34 33 31 34 33 31 34 33 31 34 33 31 34 33 31 34 33 31 37 36 34 37 36 34 37 36 34 37 36 34 37 36 34 37 36 34 37 36 34 37 36 34
5 0 16 6 0 17 7 0 18 8 1 19 7 0 18 7 0 18 7 0 18 7 0 18 7 0 18 7 0 18 7 0 18 7 0 18 5 1 18 4 1 18 5 1 18 4 1 18 5 1 18 4 1 18 5 1 18 4 1 18 8 4 21 7 4 21 8 4 21 7 4 21 8 4 21 7 4 21 8 4 21 7 5 19 7 5 19 7 5 18 7 5 19 7 5 18 7 5 19 7 5 18 7 5 19 7 5 18 7 5 19 7 5 18 7 5 19 7 5 18 7 5 19 7 5 18 7 5 19 6 5 19 4 6 19 4 6 19 4 6 19 4 6 19 4 6 19 4 6 19 4 6 19 4 6 19 6 8 21 6 8 21 6 8 21 6 8 21 6 8 21 6 8 21 6 8 21 5 9 20 5 9 20 5 9 18 5 9 20 5 9 18 5 9 20 5 9 18 5 9 20 5 9 18 6 10 21 6 10 19 6 10 21 6 10 19 6 10 21 6 10 19 6 10 21 6 10 19 6 13 21 6 13 19 6 13 21 6 13 19 6 13 21 6 13 19 6 13 21 6 13 19 7 14 22 7 14 20 7 14 22 7 14 20 7 14 22 7 14 20 7 14 22 7 14 20 8 13 17 8 13 17 8 13 17 8 13 17 8 13 17 8 13 17 8 13 17 8 13 17 1 6 10 1 6 10 1 6 10 1 6 10 1 6 10 1 6 10 1 6 10 1 6 10 3 8 11 3 9 9 3 9 9 3 9 9 3 9 9 3 9 9 3 9 9 3 9 9 19 25 25 21 27 27 23 29 29 26 32 32 30 36 36 33 39 39 35 41 41 37 43 43 43 47 46 45 50 46 47 52 48 50 55 51 54 59 55 57 62 58 59 64 60 61 66 62 56 61 57 56 61 57 56 61 57 56 61 57 56 61 57 56 61 57 56 61 57 58 60 57 64 63 61 64 60 57 59 55 52 52 48 45 46 42 39 39 35 32 34 30 27 32 28 25 36 32 29 36 32 29 36 32 29 36 32 29 36 32 29 36 32 29 36 32 29 36 32 29 36 32 31 34 33 31 36 32 31 34 33 31 36 32 31 34 33 31 36 32 31 34 33 31 39 35 34 37 36 34 39 35 34 37 36 34 39 35 34 37 36 34 39 35 34 37 36 34
4 0 15 4 0 15 4 0 15 4 0 15 6 2 17 6 2 17 6 2 17 6 2 17 6 2 17 6 2 17 6 2 17 5 3 17 5 3 17 4 3 17 5 3 17 4 3 17 5 3 17 4 3 17 5 3 17 4 3 17 7 5 19 6 5 19 7 5 19 6 5 19 7 5 19 6 5 19 7 5 19 6 5 19 6 6 18 6 6 16 6 6 18 6 6 16 6 6 18 6 6 16 6 6 18 6 6 16 5 5 17 5 5 15 5 5 17 5 5 15 5 5 17 5 5 15 5 5 17 5 5 17 4 6 18 3 7 18 3 7 18 3 7 18 3 7 18 3 7 18 3 7 18 3 7 18 6 10 21 6 10 21 6 10 21 6 10 21 6 10 21 6 10 21 6 10 21 6 10 21 8 12 21 6 13 19 6 13 21 6 13 19 6 13 21 6 13 19 6 13 21 6 13 19 5 12 20 5 12 18 5 12 20 5 12 18 5 12 20 5 12 18 5 12 20 5 12 18 13 20 26 12 20 23 8 15 21 4 12 15 0 6 12 0 3 6 0 1 7 0 2 5 2 9 15 2 10 13 2 9 15 2 10 13 2 9 15 2 10 13 2 9 15 2 10 13 2 10 13 3 11 14 7 15 18 11 19 22 16 24 27 20 28 31 24 32 35 26 34 37 16 24 27 14 22 25 12 20 23 9 17 20 5 13 16 2 10 13 0 8 11 0 6 9 5 10 13 5 10 13 5 10 13 5 10 13 5 10 13 5 10 13 5 10 13 5 10 13 15 20 23 17 22 25 19 24 27 22 27 30 26 31 34 29 34 37 31 36 39 33 39 39 40 44 43 40 44 43 40 44 43 40 44 43 40 44 43 40 44 43 40 44 43 40 44 43 55 59 58 55 59 58 55 59 58 55 59 58 55 59 58 55 59 58 55 59 58 57 59 56 47 46 44 47 43 42 45 41 40 42 38 37 38 34 33 35 31 30 33 29 28 31 27 26 35 31 30 35 31 30 35 31 30 35 31 30 35 31 30 35 31 30 35 31 30 35 31 30 36 32 33 36 32 33 37 31 33 36 32 33 37 31 33 36 32 33 37 31 33 36 32 33 38 32 34 37 33 34 38 32 34 37 33 34 38 32 34 37 33 34 38 32 34 37 33 34
3 1 14 3 1 14 3 1 14 3 1 14 5 3 16 5 3 16 5 3 16 5 3 16 5 3 16 5 3 16 5 3 16 5 3 16 4 3 17 4 3 17 4 3 17 4 3 17 4 3 17 4 3 17 4 3 17 4 3 17 6 5 19 6 5 19 6 5 19 6 5 19 6 5 19 6 5 19 6 5 19 6 6 18 6 6 18 6 6 16 6 6 16 6 6 16 6 6 16 6 6 16 6 6 16 6 6 16 5 5 15 5 5 15 5 5 15 5 5 15 5 5 15 5 5 15 5 5 15 3 6 15 4 6 18 3 7 18 3 7 18 3 7 18 3 7 18 3 7 18 3 7 18 3 7 18 6 10 21 6 10 21 6 10 21 6 10 21 6 10 21 6 10 21 6 10 21 6 10 19 6 13 21 6 13 19 6 13 19 6 13 19 6 13 19 6 13 19 6 13 19 6 13 19 5 12 18 5 12 18 5 12 18 5 12 18 5 12 18 5 12 18 5 12 18 5 12 18 13 21 24 11 19 22 8 16 19 5 13 16 1 9 12 0 5 8 0 2 5 0 2 5 6 14 17 6 14 17 6 14 17 6 14 17 6 14 17 6 14 17 6 14 17 6 14 17 6 14 17 8 16 19 11 19 22 14 22 25 18 26 29 22 30 33 25 33 36 26 34 37 16 24 27 14 22 25 12 20 23 9 17 20 5 13 16 2 10 13 0 8 11 0 6 9 5 10 13 5 10 13 5 10 13 5 10 13 5 10 13 5 10 13 5 10 13 5 10 13 15 20 23 17 22 25 19 24 27 22 27 30 26 31 34 29 34 37 31 36 39 33 39 39 40 44 45 40 44 43 40 44 43 40 44 43 40 44 43 40 44 43 40 44 43 40 44 43 53 57 56 53 57 56 53 57 56 53 57 56 53 57 56 53 57 56 53 57 56 55 57 56 47 46 44 47 43 42 45 41 40 42 38 37 38 34 33 35 31 30 33 29 28 31 27 26 35 31 30 35 31 30 35 31 30 35 31 30 35 31 30 35 31 30 35 31 30 35 31 30 37 31 33 37 31 33 37 31 33 37 31 33 37 31 33 37 31 33 37 31 33 37 31 33 38 32 34 38 32 34 38 32 34 38 32 34 38 32 34 38 32 34 38 32 34 38 32 34
3 1 14 3 1 14 3 1 14 3 1 14 5 3 16 5 3 16 5 3 16 5 3 16 5 3 16 5 3 16 5 3 16 5 3 16 4 3 17 4 3 17 4 3 17 4 3 17 4 3 17 4 3 17 4 3 17 4 3 17 6 5 19 6 5 19 6 5 19 6 5 19 6 5 19 6 5 19 6 5 19 6 6 18 6 6 18 6 6 16 6 6 16 6 6 16 6 6 16 6 6 16 6 6 16 6 6 16 5 5 15 5 5 15 5 5 15 5 5 15 5 5 15 5 5 15 5 5 15 3 6 15 4 6 18 3 7 18 3 7 18 3 7 18 3 7 18 3 7 18 3 7 18 3 7 18 6 10 21 6 10 21 6 10 21 6 10 21 6 10 21 6 10 21 6 10 21 6 10 19 6 13 21 6 13 19 6 13 19 6 13 19 6 13 19 6 13 19 6 13 19 6 13 19 5 12 18 5 12 18 5 12 18 5 12 18 5 12 18 5 12 18 5 12 18 5 12 18 12 20 23 11 19 22 9 17 20 6 14 17 4 12 15 1 9 12 0 7 10 0 6 9 13 21 24 13 21 24 13 21 24 13 21 24 13 21 24 13 21 24 13 21 24 13 21 24 14 22 25 15 23 26 17 25 28 20 28 31 23 31 34 25 33 36 27 35 38 28 36 39 16 24 27 14 22 25 12 20 23 9 17 20 5 13 16 2 10 13 0 8 11 0 6 9 5 10 13 5 10 13 5 10 13 5 10 13 5 10 13 5 10 13 5 10 13 5 10 13 15 20 23 17 22 25 19 24 27 22 27 30 26 31 34 29 34 37 31 36 39 33 39 39 40 44 45 40 44 43 40 44 43 40 44 43 40 44 43 40 44 43 40 44 43 40 44 43 51 55 54 51 55 54 51 55 54 51 55 54 51 55 54 51 55 54 51 55 54 53 55 54 47 46 44 47 43 42 45 41 40 42 38 37 38 34 33 35 31 30 33 29 28 31 27 26 35 31 30 35 31 30 35 31 30 35 31 30 35 31 30 35 31 30 35 31 30 35 31 30 37 31 33 37 31 33 37 31 33 37 31 33 37 31 33 37 31 33 37 31 33 37 31 33 38 32 34 38 32 34 38 32 34 38 32 34 38 32 34 38 32 34 38 32 34 38 32 34
3 1 14 3 1 14 3 1 14 3 1 14 5 3 16 5 3 16 5 3 16 5 3 16 5 3 16 5 3 16 5 3 16 5 3 16 4 3 17 4 3 17 4 3 17 4 3 17 4 3 17 4 3 17 4 3 17 4 3 17 6 5 19 6 5 19 6 5 19 6 5 19 6 5 19 6 5 19 6 5 19 6 6 18 6 6 18 6 6 16 6 6 16 6 6 16 6 6 16 6 6 16 6 6 16 6 6 16 5 5 15 5 5 15 5 5 15 5 5 15 5 5 15 5 5 15 5 5 15 3 6 15 4 6 18 3 7 18 3 7 18 3 7 18 3 7 18 3 7 18 3 7 18 3 7 18 6 10 21 6 10 21 6 10 21 6 10 21 6 10 21 6 10 21 6 10 21 6 10 19 6 13 21 6 13 19 6 13 19 6 13 19 6 13 19 6 13 19 6 13 19 6 13 19 5 12 18 5 12 18 5 12 18 5 12 18 5 12 18 5 12 18 5 12 18 5 12 18 11 19 22 10 18 21 10 18 21 9 17 20 8 16 19 7 15 18 6 14 17 6 14 17 23 31 34 23 31 34 23 31 34 23 31 34 23 31 34 23 31 34 23 31 34 23 31 34 25 33 36 26 34 37 26 34 37 27 35 38 28 36 39 29 37 40 30 38 41 30 38 41 16 24 27 14 22 25 12 20 23 9 17 20 5 13 16 2 10 13 0 8 11 0 6 9 5 10 13 5 10 13 5 10 13 5 10 13 5 10 13 5 10 13 5 10 13 5 10 13 15 20 23 17 22 25 19 24 27 22 27 30 26 31 34 29 34 37 31 36 39 33 39 39 40 44 45 40 44 43 40 44 43 40 44 43 40 44 43 40 44 43 40 44 43 40 44 43 48 52 51 48 52 51 48 52 51 48 52 51 48 52 51 48 52 51 48 52 51 50 52 51 47 46 44 47 43 42 45 41 40 42 38 37 38 34 33 35 31 30 33 29 28 31 27 26 35 31 30 35 31 30 35 31 30 35 31 30 35 31 30 35 31 30 35 31 30 35 31 30 37 31 33 37 31 33 37 31 33 37 31 33 37 31 33 37 31 33 37 31 33 37 31 33 38 32 34 38 32 34 38 32 34 38 32 34 38 32 34 38 32 34 38 32 34 38 32 34
3 1 14 3 1 14 3 1 14 3 1 14 5 3 16 5 3 16 5 3 16 5 3 16 5 3 16 5 3 16 5 3 16 5 3 16 4 3 17 4 3 17 4 3 17 4 3 17 4 3 17 4 3 17 4 3 17 4 3 17 6 5 19 6 5 19 6 5 19 6 5 19 6 5 19 6 5 19 6 5 19 6 6 18 6 6 18 6 6 16 6 6 16 6 6 16 6 6 16 6 6 16 6 6 16 6 6 16 5 5 15 5 5 15 5 5 15 5 5 15 5 5 15 5 5 15 5 5 15 3 6 15 4 6 18 3 7 18 3 7 18 3 7 18 3 7 18 3 7 18 3 7 18 3 7 18 6 10 21 6 10 21 6 10 21 6 10 21 6 10 21 6 10 21 6 10 21 6 10 19 6 13 21 6 13 19 6 13 19 6 13 19 6 13 19 6 13 19 6 13 19 6 13 19 5 12 18 5 12 18 5 12 18 5 12 18 5 12 18 5 12 18 5 12 18 5 12 18 9 17 20 10 18 21 10 18 21 11 19 22 12 20 23 13 21 24 14 22 25 14 22 25 33 41 44 33 41 44 33 41 44 33 41 44 33 41 44 33 41 44 33 41 44 33 41 44 37 45 48 36 44 47 36 44 47 35 43 46 34 42 45 33 41 44 32 40 43 32 40 43 16 24 27 14 22 25 12 20 23 9 17 20 5 13 16 2 10 13 0 8 11 0 6 9 5 10 13 5 10 13 5 10 13 5 10 13 5 10 13 5 10 13 5 10 13 5 10 13 15 20 23 17 22 25 19 24 27 22 27 30 26 31 34 29 34 37 31 36 39 33 39 39 40 44 45 40 44 43 40 44 43 40 44 43 40 44 43 40 44 43 40 44 43 40 44 43 44 48 47 44 48 47 44 48 47 44 48 47 44 48 47 44 48 47 44 48 47 46 48 47 47 46 44 47 43 42 45 41 40 42 38 37 38 34 33 35 31 30 33 29 28 31 27 26 35 31 30 35 31 30 35 31 30 35 31 30 35 31 30 35 31 30 35 31 30 35 31 30 37 31 33 37 31 33 37 31 33 37 31 33 37 31 33 37 31 33 37 31 33 37 31 33 38 32 34 38 32 34 38 32 34 38 32 34 38 32 34 38 32 34 38 32 34 38 32 34
3 1 14 3 1 14 3 1 14 3 1 14 5 3 16 5 3 16 5 3 16 5 3 16 5 3 16 5 3 16 5 3 16 5 3 16 4 3 17 4 3 17 4 3 17 4 3 17 4 3 17 4 3 17 4 3 17 4 3 17 6 5 19 6 5 19 6 5 19 6 5 19 6 5 19 6 5 19 6 5 19 6 6 18 6 6 18 6 6 16 6 6 16 6 6 16 6 6 16 6 6 16 6 6 16 6 6 16 5 5 15 5 5 15 5 5 15 5 5 15 5 5 15 5 5 15 5 5 15 3 6 15 4 6 18 3 7 18 3 7 18 3 7 18 3 7 18 3 7 18 3 7 18 3 7 18 6 10 21 6 10 21 6 10 21 6 10 21 6 10 21 6 10 21 6 10 21 6 10 19 6 13 21 6 13 19 6 13 19 6 13 19 6 13 19 6 13 19 6 13 19 6 13 19 5 12 18 5 12 18 5 12 18 5 12 18 5 12 18 5 12 18 5 12 18 5 12 18 8 16 19 9 17 20 11 19 22 14 22 25 16 24 27 19 27 30 21 29 32 22 30 33 43 51 54 43 51 54 43 51 54 43 51 54 43 51 54 43 51 54 43 51 54 43 51 54 48 56 59 47 55 58 45 53 56 42 50 53 39 47 50 37 45 48 35 43 46 34 42 45 16 24 27 14 22 25 12 20 23 9 17 20 5 13 16 2 10 13 0 8 11 0 6 9 5 10 13 5 10 13 5 10 13 5 10 13 5 10 13 5 10 13 5 10 13 5 10 13 15 20 23 17 22 25 19 24 27 22 27 30 26 31 34 29 34 37 31 36 39 33 39 39 40 44 45 40 44 43 40 44 43 40 44 43 40 44 43 40 44 43 40 44 43 40 44 43 41 45 44 41 45 44 41 45 44 41 45 44 41 45 44 41 45 44 41 45 44 43 45 44 47 46 44 47 43 42 45 41 40 42 38 37 38 34 33 35 31 30 33 29 28 31 27 26 35 31 30 35 31 30 35 31 30 35 31 30 35 31 30 35 31 30 35 31 30 35 31 30 37 31 33 37 31 33 37 31 33 37 31 33 37 31 33 37 31 33 37 31 33 37 31 33 38 32 34 38 32 34 38 32 34 38 32 34 38 32 34 38 32 34 38 32 34 38 32 34
3 1 14 3 1 14 3 1 14 3 1 14 5 3 16 5 3 16 5 3 16 5 3 16 5 3 16 5 3 16 5 3 16 5 3 16 4 3 17 4 3 17 4 3 17 4 3 17 4 3 17 4 3 17 4 3 17 4 3 17 6 5 19 6 5 19 6 5 19 6 5 19 6 5 19 6 5 19 6 5 19 6 6 18 6 6 18 6 6 16 6 6 16 6 6 16 6 6 16 6 6 16 6 6 16 6 6 16 5 5 15 5 5 15 5 5 15 5 5 15 5 5 15 5 5 15 5 5 15 3 6 15 4 6 18 3 7 18 3 7 18 3 7 18 3 7 18 3 7 18 3 7 18 3 7 18 6 10 21 6 10 21 6 10 21 6 10 21 6 10 21 6 10 21 6 10 21 6 10 19 6 13 21 6 13 19 6 13 19 6 13 19 6 13 19 6 13 19 6 13 19 6 13 19 5 12 18 5 12 18 5 12 18 5 12 18 5 12 18 5 12 18 5 12 18 5 12 18 7 15 18 9 17 20 12 20 23 15 23 26 19 27 30 23 31 34 26 34 37 28 36 39 50 58 61 50 58 61 50 58 61 50 58 61 50 58 61 50 58 61 50 58 61 50 58 61 56 64 67 54 62 65 51 59 62 48 56 59 44 52 55 40 48 51 37 45 48 36 44 47 16 24 27 14 22 25 12 20 23 9 17 20 5 13 16 2 10 13 0 8 11 0 6 9 5 10 13 5 10 13 5 10 13 5 10 13 5 10 13 5 10 13 5 10 13 5 10 13 15 20 23 17 22 25 19 24 27 22 27 30 26 31 34 29 34 37 31 36 39 33 39 39 40 44 45 40 44 43 40 44 43 40 44 43 40 44 43 40 44 43 40 44 43 40 44 43 39 43 42 39 43 42 39 43 42 39 43 42 39 43 42 39 43 42 39 43 42 41 43 42 47 46 44 47 43 42 45 41 40 42 38 37 38 34 33 35 31 30 33 29 28 31 27 26 35 31 30 35 31 30 35 31 30 35 31 30 35 31 30 35 31 30 35 31 30 35 31 30 37 31 33 37 31 33 37 31 33 37 31 33 37 31 33 37 31 33 37 31 33 37 31 33 38 32 34 38 32 34 38 32 34 38 32 34 38 32 34 38 32 34 38 32 34 38 32 34
3 1 14 3 1 14 3 1 14 3 1 14 5 3 16 5 3 16 5 3 16 5 3 16 5 3 16 5 3 16 5 3 16 5 3 16 4 3 17 4 3 17 4 3 17 4 3 17 4 3 17 4 3 17 4 3 17 4 3 17 6 5 19 6 5 19 6 5 19 6 5 19 6 5 19 6 5 19 6 5 19 6 6 18 6 6 18 6 6 16 6 6 16 6 6 16 6 6 16 6 6 16 6 6 16 6 6 16 5 5 15 5 5 15 5 5 15 5 5 15 5 5 15 5 5 15 5 5 15 3 6 15 4 6 18 3 7 18 3 7 18 3 7 18 3 7 18 3 7 18 3 7 18 3 7 18 6 10 21 6 10 21 6 10 21 6 10 21 6 10 21 6 10 21 6 10 21 6 10 19 6 13 21 6 13 19 6 13 19 6 13 19 6 13 19 6 13 19 6 13 19 6 13 19 5 12 18 5 12 18 5 12 18 5 12 18 5 12 18 5 12 18 5 12 18 5 12 18 7 15 18 8 16 19 12 20 23 16 24 27 21 29 32 25 33 36 29 37 40 31 39 42 54 62 65 54 62 65 54 62 65 54 62 65 54 62 65 54 62 65 54 62 65 54 62 65 60 68 71 59 67 70 55 63 66 51 59 62 46 54 57 42 50 53 38 46 49 36 44 47 16 24 27 14 22 25 12 20 23 9 17 20 5 13 16 2 10 13 0 8 11 0 6 9 5 10 13 5 10 13 5 10 13 5 10 13 5 10 13 5 10 13 5 10 13 5 10 13 15 20 23 17 22 25 19 24 27 22 27 30 26 31 34 29 34 37 31 36 39 33 39 39 40 44 45 40 44 43 40 44 43 40 44 43 40 44 43 40 44 43 40 44 43 40 44 43 37 41 40 37 41 40 37 41 40 37 41 40 37 41 40 37 41 40 37 41 40 39 41 40 47 46 44 47 43 42 45 41 40 42 38 37 38 34 33 35 31 30 33 29 28 31 27 26 35 31 30 35 31 30 35 31 30 35 31 30 35 31 30 35 31 30 35 31 30 35 31 30 37 31 33 37 31 33 37 31 33 37 31 33 37 31 33 37 31 33 37 31 33 37 31 33 38 32 34 38 32 34 38 32 34 38 32 34 38 32 34 38 32 34 38 32 34 38 32 34
3 1 14 3 1 14 3 1 14 3 1 14 4 2 15 4 2 15 4 2 15 4 2 15 4 2 15 4 2 15 4 2 15 4 2 15 4 3 17 4 3 17 4 3 17 4 3 17 4 3 17 4 3 17 4 3 17 4 3 17 4 3 17 4 3 17 4 3 17 4 3 17 4 3 17 4 3 17 4 3 17 4 4 16 5 5 17 5 5 15 5 5 15 5 5 15 5 5 15 5 5 15 5 5 15 5 5 15 6 6 16 6 6 16 6 6 16 6 6 16 6 6 16 6 6 16 6 6 16 4 7 16 6 8 20 5 9 20 5 9 20 5 9 20 5 9 20 5 9 20 5 9 20 5 9 20 6 10 21 6 10 21 6 10 21 6 10 21 6 10 21 6 10 21 6 10 21 6 10 19 10 17 25 10 17 23 10 17 23 10 17 23 10 17 23 10 17 23 10 17 23 10 17 23 0 3 9 0 5 11 0 7 13 3 10 16 7 14 20 10 17 23 12 19 25 14 21 27 36 44 47 38 46 49 42 50 53 46 54 57 51 59 62 55 63 66 59 67 70 60 68 71 52 60 63 52 60 63 52 60 63 52 60 63 52 60 63 52 60 63 52 60 63 52 60 63 48 56 59 47 55 58 44 52 55 41 49 52 38 46 49 34 42 45 32 40 43 31 39 42 28 36 39 21 29 32 11 19 22 2 10 13 0 7 10 1 9 12 7 15 18 11 19 22 10 15 18 10 15 18 10 15 18 10 15 18 10 15 18 10 15 18 10 15 18 10 15 18 22 27 30 22 27 30 22 27 30 22 27 30 22 27 30 22 27 30 22 27 30 22 28 28 30 34 35 30 34 33 30 34 33 30 34 33 30 34 33 30 34 33 30 34 33 30 34 33 41 45 44 41 45 44 41 45 44 41 45 44 41 45 44 41 45 44 41 45 44 43 45 44 31 30 28 33 29 28 33 29 28 33 29 28 33 29 28 33 29 28 33 29 28 33 29 28 34 30 29 34 30 29 34 30 29 34 30 29 34 30 29 34 30 29 34 30 29 34 30 29 36 30 32 36 30 32 36 30 32 36 30 32 36 30 32 36 30 32 36 30 32 36 30 32 36 30 32 36 30 32 36 30 32 36 30 32 36 30 32 36 30 32 36 30 32 36 30 32
3 1 14 3 1 14 3 1 14 3 1 14 4 2 15 4 2 15 4 2 15 4 2 15 4 2 15 4 2 15 4 2 15 4 2 15 4 3 17 4 3 17 4 3 17 4 3 17 4 3 17 4 3 17 4 3 17 4 3 17 4 3 17 4 3 17 4 3 17 4 3 17 4 3 17 4 3 17 4 3 17 4 4 16 5 5 17 5 5 15 5 5 15 5 5 15 5 5 15 5 5 15 5 5 15 5 5 15 6 6 16 6 6 16 6 6 16 6 6 16 6 6 16 6 6 16 6 6 16 4 7 16 6 8 20 5 9 20 5 9 20 5 9 20 5 9 20 5 9 20 5 9 20 5 9 20 6 10 21 6 10 21 6 10 21 6 10 21 6 10 21 6 10 21 6 10 21 6 10 19 10 17 25 10 17 23 10 17 23 10 17 23 10 17 23 10 17 23 10 17 23 10 17 23 0 7 13 2 9 15 4 11 17 7 14 20 11 18 24 14 21 27 16 23 29 18 25 31 39 47 50 41 49 52 44 52 55 48 56 59 52 60 63 55 63 66 58 66 69 60 68 71 54 62 65 54 62 65 54 62 65 54 62 65 54 62 65 54 62 65 54 62 65 54 62 65 49 57 60 48 56 59 46 54 57 42 50 53 39 47 50 36 44 47 33 41 44 32 40 43 28 36 39 21 29 32 11 19 22 2 10 13 0 7 10 1 9 12 7 15 18 11 19 22 10 15 18 10 15 18 10 15 18 10 15 18 10 15 18 10 15 18 10 15 18 10 15 18 22 27 30 22 27 30 22 27 30 22 27 30 22 27 30 22 27 30 22 27 30 22 28 28 30 34 35 30 34 33 30 34 33 30 34 33 30 34 33 30 34 33 30 34 33 30 34 33 39 43 42 39 43 42 39 43 42 39 43 42 39 43 42 39 43 42 39 43 42 41 43 42 31 30 28 33 29 28 33 29 28 33 29 28 33 29 28 33 29 28 33 29 28 33 29 28 34 30 29 34 30 29 34 30 29 34 30 29 34 30 29 34 30 29 34 30 29 34 30 29 36 30 32 36 30 32 36 30 32 36 30 32 36 30 32 36 30 32 36 30 32 36 30 32 36 30 32 36 30 32 36 30 32 36 30 32 36 30 32 36 30 32 36 30 32 36 30 32
3 1 14 3 1 14 3 1 14 3 1 14 4 2 15 4 2 15 4 2 15 4 2 15 4 2 15 4 2 15 4 2 15 4 2 15 4 3 17 4 3 17 4 3 17 4 3 17 4 3 17 4 3 17 4 3 17 4 3 17 4 3 17 4 3 17 4 3 17 4 3 17 4 3 17 4 3 17 4 3 17 4 4 16 5 5 17 5 5 15 5 5 15 5 5 15 5 5 15 5 5 15 5 5 15 5 5 15 6 6 16 6 6 16 6 6 16 6 6 16 6 6 16 6 6 16 6 6 16 4 7 16 6 8 20 5 9 20 5 9 20 5 9 20 5 9 20 5 9 20 5 9 20 5 9 20 6 10 21 6 10 21 6 10 21 6 10 21 6 10 21 6 10 21 6 10 21 6 10 19 10 17 25 10 17 23 10 17 23 10 17 23 10 17 23 10 17 23 10 17 23 10 17 23 8 15 21 9 16 22 11 18 24 15 22 28 18 25 31 21 28 34 24 31 37 25 32 38 45 53 56 46 54 57 48 56 59 51 59 62 53 61 64 56 64 67 58 66 69 59 67 70 56 64 67 56 64 67 56 64 67 56 64 67 56 64 67 56 64 67 56 64 67 56 64 67 52 60 63 50 58 61 48 56 59 45 53 56 41 49 52 38 46 49 36 44 47 34 42 45 28 36 39 21 29 32 11 19 22 2 10 13 0 7 10 1 9 12 7 15 18 11 19 22 10 15 18 10 15 18 10 15 18 10 15 18 10 15 18 10 15 18 10 15 18 10 15 18 22 27 30 22 27 30 22 27 30 22 27 30 22 27 30 22 27 30 22 27 30 22 28 28 30 34 35 30 34 33 30 34 33 30 34 33 30 34 33 30 34 33 30 34 33 30 34 33 37 41 40 37 41 40 37 41 40 37 41 40 37 41 40 37 41 40 37 41 40 39 41 40 31 30 28 33 29 28 33 29 28 33 29 28 33 29 28 33 29 28 33 29 28 33 29 28 34 30 29 34 30 29 34 30 29 34 30 29 34 30 29 34 30 29 34 30 29 34 30 29 36 30 32 36 30 32 36 30 32 36 30 32 36 30 32 36 30 32 36 30 32 36 30 32 36 30 32 36 30 32 36 30 32 36 30 32 36 30 32 36 30 32 36 30 32 36 30 32
3 1 14 3 1 14 3 1 14 3 1 14 4 2 15 4 2 15 4 2 15 4 2 15 4 2 15 4 2 15 4 2 15 4 2 15 4 3 17 4 3 17 4 3 17 4 3 17 4 3 17 4 3 17 4 3 17 4 3 17 4 3 17 4 3 17 4 3 17 4 3 17 4 3 17 4 3 17 4 3 17 4 4 16 5 5 17 5 5 15 5 5 15 5 5 15 5 5 15 5 5 15 5 5 15 5 5 15 6 6 16 6 6 16 6 6 16 6 6 16 6 6 16 6 6 16 6 6 16 4 7 16 6 8 20 5 9 20 5 9 20 5 9 20 5 9 20 5 9 20 5 9 20 5 9 20 6 10 21 6 10 21 6 10 21 6 10 21 6 10 21 6 10 21 6 10 21 6 10 19 10 17 25 10 17 23 10 17 23 10 17 23 10 17 23 10 17 23 10 17 23 10 17 23 17 24 30 18 25 31 21 28 34 24 31 37 28 35 41 31 38 44 33 40 46 34 41 47 53 61 64 53 61 64 54 62 65 55 63 66 56 64 67 57 65 68 57 65 68 58 66 69 59 67 70 59 67 70 59 67 70 59 67 70 59 67 70 59 67 70 59 67 70 59 67 70 55 63 66 54 62 65 51 59 62 48 56 59 45 53 56 41 49 52 39 47 50 38 46 49 28 36 39 21 29 32 11 19 22 2 10 13 0 7 10 1 9 12 7 15 18 11 19 22 10 15 18 10 15 18 10 15 18 10 15 18 10 15 18 10 15 18 10 15 18 10 15 18 22 27 30 22 27 30 22 27 30 22 27 30 22 27 30 22 27 30 22 27 30 22 28 28 30 34 35 30 34 33 30 34 33 30 34 33 30 34 33 30 34 33 30 34 33 30 34 33 34 38 37 34 38 37 34 38 37 34 38 37 34 38 37 34 38 37 34 38 37 36 38 37 31 30 28 33 29 28 33 29 28 33 29 28 33 29 28 33 29 28 33 29 28 33 29 28 34 30 29 34 30 29 34 30 29 34 30 29 34 30 29 34 30 29 34 30 29 34 30 29 36 30 32 36 30 32 36 30 32 36 30 32 36 30 32 36 30 32 36 30 32 36 30 32 36 30 32 36 30 32 36 30 32 36 30 32 36 30 32 36 30 32 36 30 32 36 30 32
3 1 14 3 1 14 3 1 14 3 1 14 4 2 15 4 2 15 4 2 15 4 2 15 4 2 15 4 2 15 4 2 15 4 2 15 4 3 17 4 3 17 4 3 17 4 3 17 4 3 17 4 3 17 4 3 17 4 3 17 4 3 17 4 3 17 4 3 17 4 3 17 4 3 17 4 3 17 4 3 17 4 4 16 5 5 17 5 5 15 5 5 15 5 5 15 5 5 15 5 5 15 5 5 15 5 5 15 6 6 16 6 6 16 6 6 16 6 6 16 6 6 16 6 6 16 6 6 16 4 7 16 6 8 20 5 9 20 5 9 20 5 9 20 5 9 20 5 9 20 5 9 20 5 9 20 6 10 21 6 10 21 6 10 21 6 10 21 6 10 21 6 10 21 6 10 21 6 10 19 10 17 25 10 17 23 10 17 23 10 17 23 10 17 23 10 17 23 10 17 23 10 17 23 28 35 41 29 36 42 31 38 44 34 41 47 38 45 51 41 48 54 44 51 57 45 52 58 61 69 72 61 69 72 60 68 71 59 67 70 58 66 69 57 65 68 57 65 68 56 64 67 63 71 74 63 71 74 63 71 74 63 71 74 63 71 74 63 71 74 63 71 74 63 71 74 58 66 69 57 65 68 55 63 66 51 59 62 48 56 59 45 53 56 42 50 53 41 49 52 28 36 39 21 29 32 11 19 22 2 10 13 0 7 10 1 9 12 7 15 18 11 19 22 10 15 18 10 15 18 10 15 18 10 15 18 10 15 18 10 15 18 10 15 18 10 15 18 22 27 30 22 27 30 22 27 30 22 27 30 22 27 30 22 27 30 22 27 30 22 28 28 30 34 35 30 34 33 30 34 33 30 34 33 30 34 33 30 34 33 30 34 33 30 34 33 30 34 33 30 34 33 30 34 33 30 34 33 30 34 33 30 34 33 30 34 33 32 34 33 31 30 28 33 29 28 33 29 28 33 29 28 33 29 28 33 29 28 33 29 28 33 29 28 34 30 29 34 30 29 34 30 29 34 30 29 34 30 29 34 30 29 34 30 29 34 30 29 36 30 32 36 30 32 36 30 32 36 30 32 36 30 32 36 30 32 36 30 32 36 30 32 36 30 32 36 30 32 36 30 32 36 30 32 36 30 32 36 30 32 36 30 32 36 30 32
3 1 14 3 1 14 3 1 14 3 1 14 4 2 15 4 2 15 4 2 15 4 2 15 4 2 15 4 2 15 4 2 15 4 2 15 4 3 17 4 3 17 4 3 17 4 3 17 4 3 17 4 3 17 4 3 17 4 3 17 4 3 17 4 3 17 4 3 17 4 3 17 4 3 17 4 3 17 4 3 17 4 4 16 5 5 17 5 5 15 5 5 15 5 5 15 5 5 15 5 5 15 5 5 15 5 5 15 6 6 16 6 6 16 6 6 16 6 6 16 6 6 16 6 6 16 6 6 16 4 7 16 6 8 20 5 9 20 5 9 20 5 9 20 5 9 20 5 9 20 5 9 20 5 9 20 6 10 21 6 10 21 6 10 21 6 10 21 6 10 21 6 10 21 6 10 21 6 10 19 10 17 25 10 17 23 10 17 23 10 17 23 10 17 23 10 17 23 10 17 23 10 17 23 37 44 50 38 45 51 41 48 54 44 51 57 47 54 60 51 58 64 53 60 66 54 61 67 69 77 80 68 76 79 66 74 77 63 71 74 61 69 72 58 66 69 56 64 67 55 63 66 66 74 77 66 74 77 66 74 77 66 74 77 66 74 77 66 74 77 66 74 77 66 74 77 62 70 73 60 68 71 58 66 69 55 63 66 51 59 62 48 56 59 46 54 57 44 52 55 28 36 39 21 29 32 11 19 22 2 10 13 0 7 10 1 9 12 7 15 18 11 19 22 10 15 18 10 15 18 10 15 18 10 15 18 10 15 18 10 15 18 10 15 18 10 15 18 22 27 30 22 27 30 22 27 30 22 27 30 22 27 30 22 27 30 22 27 30 22 28 28 30 34 35 30 34 33 30 34 33 30 34 33 30 34 33 30 34 33 30 34 33 30 34 33 27 31 30 27 31 30 27 31 30 27 31 30 27 31 30 27 31 30 27 31 30 29 31 30 31 30 28 33 29 28 33 29 28 33 29 28 33 29 28 33 29 28 33 29 28 33 29 28 34 30 29 34 30 29 34 30 29 34 30 29 34 30 29 34 30 29 34 30 29 34 30 29 36 30 32 36 30 32 36 30 32 36 30 32 36 30 32 36 30 32 36 30 32 36 30 32 36 30 32 36 30 32 36 30 32 36 30 32 36 30 32 36 30 32 36 30 32 36 30 32
3 1 14 3 1 14 3 1 14 3 1 14 4 2 15 4 2 15 4 2 15 4 2 15 4 2 15 4 2 15 4 2 15 4 2 15 4 3 17 4 3 17 4 3 17 4 3 17 4 3 17 4 3 17 4 3 17 4 3 17 4 3 17 4 3 17 4 3 17 4 3 17 4 3 17 4 3 17 4 3 17 4 4 16 5 5 17 5 5 15 5 5 15 5 5 15 5 5 15 5 5 15 5 5 15 5 5 15 6 6 16 6 6 16 6 6 16 6 6 16 6 6 16 6 6 16 6 6 16 4 7 16 6 8 20 5 9 20 5 9 20 5 9 20 5 9 20 5 9 20 5 9 20 5 9 20 6 10 21 6 10 21 6 10 21 6 10 21 6 10 21 6 10 21 6 10 21 6 10 19 10 17 25 10 17 23 10 17 23 10 17 23 10 17 23 10 17 23 10 17 23 10 17 23 44 51 57 46 53 59 48 55 61 51 58 64 55 62 68 58 65 71 60 67 73 62 69 75 75 83 86 73 81 84 70 78 81 66 74 77 62 70 73 59 67 70 56 64 67 54 62 65 68 76 79 68 76 79 68 76 79 68 76 79 68 76 79 68 76 79 68 76 79 68 76 79 64 72 75 63 71 74 60 68 71 57 65 68 54 62 65 50 58 61 48 56 59 47 55 58 28 36 39 21 29 32 11 19 22 2 10 13 0 7 10 1 9 12 7 15 18 11 19 22 10 15 18 10 15 18 10 15 18 10 15 18 10 15 18 10 15 18 10 15 18 10 15 18 22 27 30 22 27 30 22 27 30 22 27 30 22 27 30 22 27 30 22 27 30 22 28 28 30 34 35 30 34 33 30 34 33 30 34 33 30 34 33 30 34 33 30 34 33 30 34 33 25 29 28 25 29 28 25 29 28 25 29 28 25 29 28 25 29 28 25 29 28 27 29 28 31 30 28 33 29 28 33 29 28 33 29 28 33 29 28 33 29 28 33 29 28 33 29 28 34 30 29 34 30 29 34 30 29 34 30 29 34 30 29 34 30 29 34 30 29 34 30 29 36 30 32 36 30 32 36 30 32 36 30 32 36 30 32 36 30 32 36 30 32 36 30 32 36 30 32 36 30 32 36 30 32 36 30 32 36 30 32 36 30 32 36 30 32 36 30 32
3 1 12 3 1 12 3 1 12 3 1 12 4 2 13 4 2 13 4 2 13 4 2 13 4 2 13 4 2 13 4 2 13 4 2 15 4 4 16 4 4 16 4 3 17 4 4 16 4 3 17 4 4 16 4 3 17 4 4 16 4 3 17 4 4 16 4 3 17 4 4 16 4 3 17 4 4 16 4 3 17 4 4 16 5 5 15 5 5 15 5 5 15 5 5 15 5 5 15 5 5 15 5 5 15 5 5 15 6 6 16 6 6 16 6 6 16 6 6 16 6 6 16 6 6 16 6 6 16 4 7 16 5 9 20 3 10 20 5 9 20 3 10 20 5 9 20 3 10 20 5 9 20 3 10 20 6 10 21 4 11 21 6 10 21 4 11 21 6 10 21 4 11 21 6 10 21 4 11 19 10 17 23 10 17 23 10 17 23 10 17 23 10 17 23 10 17 23 10 17 23 10 17 23 48 55 61 50 57 63 52 59 65 55 62 68 59 66 72 62 69 75 64 71 77 66 73 79 78 86 89 76 84 87 72 80 83 68 76 79 63 71 74 59 67 70 55 63 66 54 62 65 70 78 81 70 78 81 70 78 81 70 78 81 70 78 81 70 78 81 70 78 81 70 78 81 65 73 76 64 72 75 62 70 73 58 66 69 55 63 66 52 60 63 49 57 60 48 56 59 28 36 39 21 29 32 11 19 22 2 10 13 0 7 10 1 9 12 7 15 18 11 19 22 10 15 18 10 15 18 10 15 18 10 15 18 10 15 18 10 15 18 10 15 18 10 15 18 22 27 30 22 27 30 22 27 30 22 27 30 22 27 30 22 27 30 22 27 30 22 27 30 29 35 35 29 35 33 30 34 35 29 35 33 30 34 35 29 35 33 30 34 35 29 35 33 23 27 28 22 28 26 23 27 28 22 28 26 23 27 28 22 28 26 23 27 28 25 27 26 31 30 28 33 29 28 33 29 28 33 29 28 33 29 28 33 29 28 33 29 28 33 29 28 34 30 29 34 30 29 34 30 29 34 30 29 34 30 29 34 30 29 34 30 29 34 30 29 36 30 30 36 30 30 36 30 30 36 30 30 36 30 30 36 30 30 36 30 30 36 30 30 36 30 30 36 30 30 36 30 30 36 30 30 36 30 30 36 30 30 36 30 30 36 30 30
2 1 9 2 1 9 2 1 9 2 1 9 2 1 9 2 1 9 2 1 9 2 1 9 2 1 9 2 1 9 2 1 9 2 1 9 3 1 12 3 1 12 3 1 14 3 1 12 3 1 14 3 1 12 3 1 14 3 1 12 3 1 14 3 1 12 3 1 14 3 1 12 3 1 14 3 1 12 3 1 14 3 1 12 5 5 15 5 5 13 5 5 13 5 5 13 5 5 13 5 5 13 5 5 13 5 5 13 5 5 13 5 5 13 5 5 13 5 5 13 5 5 13 5 5 13 5 5 13 3 6 13 0 5 13 0 6 13 0 5 13 0 6 13 0 5 13 0 6 13 0 5 13 0 6 13 0 1 9 0 3 10 0 4 12 0 8 15 4 11 19 6 15 22 9 16 24 11 18 26 36 43 49 37 44 50 39 46 52 43 50 56 46 53 59 49 56 62 52 59 65 53 60 66 65 72 78 65 72 78 65 72 78 65 72 78 65 72 78 65 72 78 65 72 78 65 72 78 68 73 79 68 73 79 68 73 79 68 73 79 68 73 79 68 73 79 68 73 79 68 73 79 79 84 90 79 84 90 79 84 90 79 84 90 79 84 90 79 84 90 79 84 90 79 84 90 68 76 79 66 74 77 64 72 75 61 69 72 57 65 68 54 62 65 52 60 63 50 58 61 30 38 41 23 31 34 13 21 24 4 12 15 1 9 12 3 11 14 9 17 20 13 21 24 12 20 23 12 20 23 12 20 23 12 20 23 12 20 23 12 20 23 12 20 23 12 20 23 25 33 36 25 33 36 25 33 36 25 33 36 25 33 36 25 33 36 25 33 36 25 33 35 30 38 40 30 39 38 32 37 40 30 39 38 32 37 40 30 39 38 32 37 40 30 39 38 20 25 28 18 27 26 20 25 28 18 27 26 20 25 28 18 27 26 20 25 28 21 25 26 30 29 27 33 28 25 33 28 25 33 28 25 33 28 25 33 28 25 33 28 25 33 28 25 34 29 26 34 29 26 34 29 26 34 29 26 34 29 26 34 29 26 34 29 26 34 29 26 38 30 28 38 30 28 38 30 28 38 30 28 38 30 28 38 30 28 38 30 28 38 30 28 39 31 29 39 31 29 39 31 29 39 31 29 39 31 29 39 31 29 39 31 29 39 31 29
2 1 7 2 1 7 2 1 7 2 1 7 2 1 7 2 1 7 2 1 7 2 1 7 2 1 7 2 1 7 2 1 7 2 1 7 3 1 12 3 1 12 3 1 12 3 1 12 3 1 12 3 1 12 3 1 12 3 1 12 3 1 12 3 1 12 3 1 12 3 1 12 3 1 12 3 1 12 3 1 12 3 1 12 5 5 13 5 5 13 5 5 13 5 5 13 5 5 13 5 5 13 5 5 13 5 5 13 5 5 13 5 5 13 5 5 13 5 5 13 5 5 13 5 5 13 5 5 13 3 6 13 0 7 15 0 8 15 0 8 15 0 8 15 0 8 15 0 8 15 0 8 15 0 8 15 0 5 12 0 7 14 0 9 16 3 12 19 7 16 23 10 19 26 12 21 28 14 23 30 37 44 50 38 45 51 41 48 54 44 51 57 47 54 60 51 58 64 53 60 66 54 61 67 65 72 78 65 72 78 65 72 78 65 72 78 65 72 78 65 72 78 65 72 78 65 72 78 70 75 81 70 75 81 70 75 81 70 75 81 70 75 81 70 75 81 70 75 81 70 75 81 79 84 90 79 84 90 79 84 90 79 84 90 79 84 90 79 84 90 79 84 90 79 84 90 68 76 79 66 74 77 64 72 75 61 69 72 57 65 68 54 62 65 52 60 63 50 58 61 30 38 41 23 31 34 13 21 24 4 12 15 1 9 12 3 11 14 9 17 20 13 21 24 12 20 23 12 20 23 12 20 23 12 20 23 12 20 23 12 20 23 12 20 23 12 20 23 23 31 34 23 31 34 23 31 34 23 31 34 23 31 34 23 31 34 23 31 34 23 31 34 28 36 38 28 36 38 28 36 38 28 36 38 28 36 38 28 36 38 28 36 38 28 36 38 18 26 28 18 26 28 18 26 28 18 26 28 18 26 28 18 26 28 18 26 28 21 25 26 30 29 27 33 28 25 33 28 25 33 28 25 33 28 25 33 28 25 33 28 25 33 28 25 34 29 26 34 29 26 34 29 26 34 29 26 34 29 26 34 29 26 34 29 26 34 29 26 38 30 27 38 30 27 38 30 27 38 30 27 38 30 27 38 30 27 38 30 27 38 30 27 39 31 28 39 31 28 39 31 28 39 31 28 39 31 28 39 31 28 39 31 28 39 31 28
2 1 7 2 1 7 2 1 7 2 1 7 2 1 7 2 1 7 2 1 7 2 1 7 2 1 7 2 1 7 2 1 7 2 1 7 3 1 12 3 1 12 3 1 12 3 1 12 3 1 12 3 1 12 3 1 12 3 1 12 3 1 12 3 1 12 3 1 12 3 1 12 3 1 12 3 1 12 3 1 12 3 1 12 5 5 13 5 5 13 5 5 13 5 5 13 5 5 13 5 5 13 5 5 13 5 5 13 5 5 13 5 5 13 5 5 13 5 5 13 5 5 13 5 5 13 5 5 13 3 6 13 2 9 17 1 10 17 1 10 17 1 10 17 1 10 17 1 10 17 1 10 17 1 10 17 4 13 20 5 14 21 7 16 23 11 20 27 14 23 30 17 26 33 20 29 36 21 30 37 39 46 52 41 48 54 43 50 56 46 53 59 50 57 63 53 60 66 55 62 68 57 64 70 65 72 78 65 72 78 65 72 78 65 72 78 65 72 78 65 72 78 65 72 78 65 72 78 72 77 83 72 77 83 72 77 83 72 77 83 72 77 83 72 77 83 72 77 83 72 77 83 79 84 90 79 84 90 79 84 90 79 84 90 79 84 90 79 84 90 79 84 90 79 84 90 68 76 79 66 74 77 64 72 75 61 69 72 57 65 68 54 62 65 52 60 63 50 58 61 30 38 41 23 31 34 13 21 24 4 12 15 1 9 12 3 11 14 9 17 20 13 21 24 12 20 23 12 20 23 12 20 23 12 20 23 12 20 23 12 20 23 12 20 23 12 20 23 21 29 32 21 29 32 21 29 32 21 29 32 21 29 32 21 29 32 21 29 32 21 29 32 26 34 36 26 34 36 26 34 36 26 34 36 26 34 36 26 34 36 26 34 36 26 34 36 18 26 28 18 26 28 18 26 28 18 26 28 18 26 28 18 26 28 18 26 28 21 25 26 30 29 27 33 28 25 33 28 25 33 28 25 33 28 25 33 28 25 33 28 25 33 28 25 34 29 26 34 29 26 34 29 26 34 29 26 34 29 26 34 29 26 34 29 26 34 29 26 38 30 27 38 30 27 38 30 27 38 30 27 38 30 27 38 30 27 38 30 27 38 30 27 39 31 28 39 31 28 39 31 28 39 31 28 39 31 28 39 31 28 39 31 28 39 31 28
