P3
172 37
255
0 0 2 0 0 2 0 0 2 0 0 2 0 0 2 0 0 2 0 0 2 0 0 2 0 0 2 0 0 2 0 0 2 0 0 2 1 1 3 1 1 3 1 1 3 1 1 3 1 1 3 1 1 3 1 1 3 1 1 3 0 0 2 0 0 2 0 0 2 0 0 2 0 0 2 0 0 2 0 0 2 0 0 2 1 0 5 1 0 5 1 0 5 1 0 5 1 0 5 1 0 5 1 0 5 1 0 5 0 0 4 0 0 4 0 0 4 0 0 4 0 0 4 0 0 4 0 0 4 0 0 4 2 2 4 2 2 4 2 2 4 2 2 4 2 2 4 2 2 4 2 2 4 2 2 4 1 1 3 1 1 3 1 1 3 1 1 3 1 1 3 1 1 3 1 1 3 1 1 3 1 1 3 1 1 3 1 1 3 1 1 3 1 1 3 1 1 3 1 1 3 1 1 3 1 1 3 1 1 3 1 1 3 1 1 3 1 1 3 1 1 3 1 1 3 1 1 3 2 1 6 2 1 6 2 1 6 2 1 6 2 1 6 2 1 6 2 1 6 2 1 6 1 0 5 1 0 5 1 0 5 1 0 5 1 0 5 1 0 5 1 0 5 1 0 5 1 0 8 1 0 8 1 0 8 1 0 8 1 0 8 1 0 8 1 0 8 1 0 8 0 0 7 0 0 7 2 1 9 11 10 18 22 21 29 31 30 38 39 38 46 44 41 48 56 50 54 58 49 52 58 49 52 58 49 52 58 49 52 58 49 52 58 49 52 58 49 52 64 55 58 66 57 60 68 59 62 71 62 65 75 66 69 78 69 72 80 71 74 83 73 74 93 78 81 96 80 81 98 82 83 101 85 86 105 89 90 108 92 93 110 94 95 112 96 97 118 102 103 120 104 105 122 106 107 125 109 110 129 113 114 132 116 117 134 118 119 135 121 121 137 123 122 137 126 124 139 128 126 142 131 129 146 135 133 149 138 136 151 140 138 153 142 140 156 145 143 156 145 143 156 145 143 156 145 143 156 145 143 156 145 143 156 145 143 156 145 143 154 143 141 154 143 141 154 143 141 154 143 141 154 143 141 154 143 141 154 143 141 154 143 141 139 128 126 139 128 126 138 127 125 131 120 118 117 106 104 98 87 85 81 70 68 69 59 57
0 0 2 0 0 2 0 0 2 0 0 2 0 0 2 0 0 2 0 0 2 0 0 2 0 0 2 0 0 2 0 0 2 0 0 2 1 1 3 1 1 3 1 1 3 1 1 3 1 1 3 1 1 3 1 1 3 1 1 3 0 0 2 0 0 2 0 0 2 0 0 2 0 0 2 0 0 2 0 0 2 0 0 2 1 0 5 1 0 5 1 0 5 1 0 5 1 0 5 1 0 5 1 0 5 1 0 5 0 0 4 0 0 4 0 0 4 0 0 4 0 0 4 0 0 4 0 0 4 0 0 4 2 2 4 2 2 4 2 2 4 2 2 4 2 2 4 2 2 4 2 2 4 2 2 4 1 1 3 1 1 3 1 1 3 1 1 3 1 1 3 1 1 3 1 1 3 1 1 3 1 1 3 1 1 3 1 1 3 1 1 3 1 1 3 1 1 3 1 1 3 1 1 3 1 1 3 1 1 3 1 1 3 1 1 3 1 1 3 1 1 3 1 1 3 1 1 3 2 1 6 2 1 6 2 1 6 2 1 6 2 1 6 2 1 6 2 1 6 2 1 6 1 0 5 1 0 5 1 0 5 1 0 5 1 0 5 1 0 5 1 0 5 1 0 5 1 0 6 1 0 6 1 0 6 1 0 6 1 0 6 1 0 6 1 0 6 1 0 6 0 0 5 0 0 5 1 0 6 10 9 15 21 20 26 30 29 35 37 36 42 42 40 45 56 50 54 58 49 52 58 49 52 58 49 52 58 49 52 58 49 52 58 49 52 58 49 52 64 55 58 66 57 60 68 59 62 71 62 65 75 66 69 78 69 72 80 71 74 83 73 74 94 78 79 98 80 80 100 81 83 103 85 85 107 88 90 110 92 92 112 93 95 114 96 96 120 101 103 122 104 104 124 105 107 127 109 109 131 112 114 134 116 116 136 117 119 136 120 120 137 123 122 137 126 124 141 127 126 142 131 129 148 134 133 149 138 136 153 139 138 153 142 140 158 144 143 156 145 143 158 144 143 156 145 143 158 144 143 156 145 143 158 144 143 156 145 143 156 142 141 154 143 141 156 142 141 154 143 141 156 142 141 154 143 141 156 142 141 154 143 141 141 127 126 139 128 126 140 126 125 131 120 118 119 105 104 98 87 85 83 69 68 70 59 57
0 0 0 0 0 0 0 0 0 0 0 0 0 0 0 0 0 0 0 0 0 0 0 0 0 0 0 0 0 0 0 0 0 0 0 0 0 0 2 0 0 2 0 0 2 0 0 2 0 0 2 0 0 2 0 0 2 0 0 2 2 2 4 2 2 4 2 2 4 2 2 4 2 2 4 2 2 4 2 2 4 2 2 4 1 1 3 1 1 3 1 1 3 1 1 3 1 1 3 1 1 3 1 1 3 1 1 3 1 1 3 1 1 3 1 1 3 1 1 3 1 1 3 1 1 3 1 1 3 1 1 3 1 1 3 1 1 3 1 1 3 1 1 3 1 1 3 1 1 3 1 1 3 1 1 3 1 1 3 1 1 3 1 1 3 1 1 3 1 1 3 1 1 3 1 1 3 1 1 3 1 1 3 1 1 3 1 1 3 1 1 3 1 1 3 1 1 3 1 1 3 1 1 3 1 1 3 1 1 3 1 1 3 1 1 3 1 1 3 1 1 3 1 1 3 1 1 3 1 1 3 1 1 3 1 1 3 1 1 3 1 1 3 1 1 3 1 1 3 1 1 3 0 0 2 0 0 2 0 0 2 0 0 2 0 0 2 0 0 2 0 0 2 0 0 2 0 0 4 0 0 4 0 0 4 0 0 4 0 0 4 0 0 4 0 0 4 0 0 4 2 1 6 0 0 4 0 0 4 0 0 4 4 3 8 16 15 20 29 28 33 38 36 39 49 43 45 51 42 43 51 42 43 51 42 43 51 42 43 51 42 43 51 42 43 51 42 43 64 55 56 66 57 58 68 59 60 71 62 63 75 66 67 78 69 70 80 71 72 84 72 74 97 79 79 100 80 79 102 82 83 105 85 84 109 89 90 112 92 91 114 94 95 116 96 95 122 102 103 124 104 103 126 106 107 129 109 108 133 113 114 136 116 115 138 118 119 140 120 119 141 126 123 142 128 125 145 130 127 147 133 130 152 137 134 154 140 137 157 142 139 158 144 141 161 146 143 160 146 143 161 146 143 160 146 143 161 146 143 160 146 143 161 146 143 160 146 143 157 142 139 156 142 139 157 142 139 156 142 139 157 142 139 156 142 139 157 142 139 156 142 139 147 132 129 140 126 123 129 114 111 112 98 95 95 80 77 78 64 61 67 52 49 58 47 45
0 0 0 0 0 0 0 0 0 0 0 0 0 0 0 0 0 0 0 0 0 0 0 0 0 0 0 0 0 0 0 0 0 0 0 0 0 0 2 0 0 2 0 0 2 0 0 2 0 0 2 0 0 2 0 0 2 0 0 2 2 2 4 2 2 4 2 2 4 2 2 4 2 2 4 2 2 4 2 2 4 2 2 4 1 1 3 1 1 3 1 1 3 1 1 3 1 1 3 1 1 3 1 1 3 1 1 3 1 1 3 1 1 3 1 1 3 1 1 3 1 1 3 1 1 3 1 1 3 1 1 3 1 1 3 1 1 3 1 1 3 1 1 3 1 1 3 1 1 3 1 1 3 1 1 3 1 1 3 1 1 3 1 1 3 1 1 3 1 1 3 1 1 3 1 1 3 1 1 3 1 1 3 1 1 3 1 1 3 1 1 3 1 1 3 1 1 3 1 1 3 1 1 3 1 1 3 1 1 3 1 1 3 1 1 3 1 1 3 1 1 3 1 1 3 1 1 3 1 1 3 1 1 3 1 1 3 1 1 3 1 1 3 1 1 3 1 1 3 1 1 3 0 0 2 0 0 2 0 0 2 0 0 2 0 0 2 0 0 2 0 0 2 0 0 2 0 0 2 0 0 2 0 0 2 0 0 2 0 0 2 0 0 2 0 0 2 0 0 2 2 2 4 0 0 2 0 0 2 0 0 2 4 4 6 16 16 18 29 29 31 38 36 37 49 43 45 51 42 43 51 42 43 51 42 43 51 42 43 51 42 43 51 42 43 51 42 43 64 55 56 66 57 58 68 59 60 71 62 63 75 66 67 78 69 70 80 71 72 84 72 72 97 79 79 101 80 79 103 82 81 106 85 84 110 89 88 113 92 91 115 94 93 117 96 95 123 102 101 125 104 103 127 106 105 130 109 108 134 113 112 137 116 115 139 118 117 140 120 119 143 125 123 143 128 125 145 130 127 148 133 130 152 137 134 155 140 137 157 142 139 159 144 141 161 146 143 161 146 143 161 146 143 161 146 143 161 146 143 161 146 143 161 146 143 161 146 143 157 142 139 157 142 139 157 142 139 157 142 139 157 142 139 157 142 139 157 142 139 157 142 139 147 132 129 141 126 123 129 114 111 113 98 95 95 80 77 79 64 61 67 52 49 58 47 45
0 0 0 0 0 0 0 0 0 0 0 0 0 0 0 0 0 0 0 0 0 0 0 0 0 0 0 0 0 0 0 0 0 0 0 0 0 0 2 0 0 2 0 0 2 0 0 2 0 0 2 0 0 2 0 0 2 0 0 2 2 2 4 2 2 4 2 2 4 2 2 4 2 2 4 2 2 4 2 2 4 2 2 4 1 1 3 1 1 3 1 1 3 1 1 3 1 1 3 1 1 3 1 1 3 1 1 3 1 1 3 1 1 3 1 1 3 1 1 3 1 1 3 1 1 3 1 1 3 1 1 3 1 1 3 1 1 3 1 1 3 1 1 3 1 1 3 1 1 3 1 1 3 1 1 3 1 1 3 1 1 3 1 1 3 1 1 3 1 1 3 1 1 3 1 1 3 1 1 3 1 1 3 1 1 3 1 1 3 1 1 3 1 1 3 1 1 3 1 1 3 1 1 3 1 1 3 1 1 3 1 1 3 1 1 3 1 1 3 1 1 3 1 1 3 1 1 3 1 1 3 1 1 3 1 1 3 1 1 3 1 1 3 1 1 3 1 1 3 1 1 3 0 0 2 0 0 2 0 0 2 0 0 2 0 0 2 0 0 2 0 0 2 0 0 2 0 0 2 0 0 2 0 0 2 0 0 2 0 0 2 0 0 2 0 0 2 0 0 2 2 2 4 0 0 2 0 0 2 0 0 2 4 4 6 16 16 18 29 29 31 38 36 37 49 43 45 51 42 43 51 42 43 51 42 43 51 42 43 51 42 43 51 42 43 51 42 43 64 55 56 66 57 58 68 59 60 71 62 63 75 66 67 78 69 70 80 71 72 84 72 72 97 79 79 101 80 79 103 82 81 106 85 84 110 89 88 113 92 91 115 94 93 117 96 95 123 102 101 125 104 103 127 106 105 130 109 108 134 113 112 137 116 115 139 118 117 140 120 119 143 125 123 143 128 125 145 130 127 148 133 130 152 137 134 155 140 137 157 142 139 159 144 141 161 146 143 161 146 143 161 146 143 161 146 143 161 146 143 161 146 143 161 146 143 161 146 143 157 142 139 157 142 139 157 142 139 157 142 139 157 142 139 157 142 139 157 142 139 157 142 139 147 132 129 141 126 123 129 114 111 113 98 95 95 80 77 79 64 61 67 52 49 58 47 45
0 0 0 0 0 0 0 0 0 0 0 0 0 0 0 0 0 0 0 0 0 0 0 0 0 0 0 0 0 0 0 0 0 0 0 0 0 0 2 0 0 2 0 0 2 0 0 2 0 0 2 0 0 2 0 0 2 0 0 2 2 2 4 2 2 4 2 2 4 2 2 4 2 2 4 2 2 4 2 2 4 2 2 4 1 1 3 1 1 3 1 1 3 1 1 3 1 1 3 1 1 3 1 1 3 1 1 3 1 1 3 1 1 3 1 1 3 1 1 3 1 1 3 1 1 3 1 1 3 1 1 3 1 1 3 1 1 3 1 1 3 1 1 3 1 1 3 1 1 3 1 1 3 1 1 3 1 1 3 1 1 3 1 1 3 1 1 3 1 1 3 1 1 3 1 1 3 1 1 3 1 1 3 1 1 3 1 1 3 1 1 3 1 1 3 1 1 3 1 1 3 1 1 3 1 1 3 1 1 3 1 1 3 1 1 3 1 1 3 1 1 3 1 1 3 1 1 3 1 1 3 1 1 3 1 1 3 1 1 3 1 1 3 1 1 3 1 1 3 1 1 3 0 0 2 0 0 2 0 0 2 0 0 2 0 0 2 0 0 2 0 0 2 0 0 2 0 0 2 0 0 2 0 0 2 0 0 2 0 0 2 0 0 2 0 0 2 0 0 2 2 2 4 0 0 2 0 0 2 0 0 2 4 4 6 16 16 18 29 29 31 38 36 37 49 43 45 51 42 43 51 42 43 51 42 43 51 42 43 51 42 43 51 42 43 51 42 43 64 55 56 66 57 58 68 59 60 71 62 63 75 66 67 78 69 70 80 71 72 84 72 72 97 79 79 101 80 79 103 82 81 106 85 84 110 89 88 113 92 91 115 94 93 117 96 95 123 102 101 125 104 103 127 106 105 130 109 108 134 113 112 137 116 115 139 118 117 140 120 119 143 125 123 143 128 125 145 130 127 148 133 130 152 137 134 155 140 137 157 142 139 159 144 141 161 146 143 161 146 143 161 146 143 161 146 143 161 146 143 161 146 143 161 146 143 161 146 143 157 142 139 157 142 139 157 142 139 157 142 139 157 142 139 157 142 139 157 142 139 157 142 139 147 132 129 141 126 123 129 114 111 113 98 95 95 80 77 79 64 61 67 52 49 58 47 45
0 0 0 0 0 0 0 0 0 0 0 0 0 0 0 0 0 0 0 0 0 0 0 0 0 0 0 0 0 0 0 0 0 0 0 0 0 0 2 0 0 2 0 0 2 0 0 2 0 0 2 0 0 2 0 0 2 0 0 2 2 2 4 2 2 4 2 2 4 2 2 4 2 2 4 2 2 4 2 2 4 2 2 4 1 1 3 1 1 3 1 1 3 1 1 3 1 1 3 1 1 3 1 1 3 1 1 3 1 1 3 1 1 3 1 1 3 1 1 3 1 1 3 1 1 3 1 1 3 1 1 3 1 1 3 1 1 3 1 1 3 1 1 3 1 1 3 1 1 3 1 1 3 1 1 3 1 1 3 1 1 3 1 1 3 1 1 3 1 1 3 1 1 3 1 1 3 1 1 3 1 1 3 1 1 3 1 1 3 1 1 3 1 1 3 1 1 3 1 1 3 1 1 3 1 1 3 1 1 3 1 1 3 1 1 3 1 1 3 1 1 3 1 1 3 1 1 3 1 1 3 1 1 3 1 1 3 1 1 3 1 1 3 1 1 3 1 1 3 1 1 3 0 0 2 0 0 2 0 0 2 0 0 2 0 0 2 0 0 2 0 0 2 0 0 2 0 0 2 0 0 2 0 0 2 0 0 2 0 0 2 0 0 2 0 0 2 0 0 2 2 2 4 0 0 2 0 0 2 0 0 2 4 4 6 16 16 18 29 29 31 38 36 37 49 43 45 51 42 43 51 42 43 51 42 43 51 42 43 51 42 43 51 42 43 51 42 43 64 55 56 66 57 58 68 59 60 71 62 63 75 66 67 78 69 70 80 71 72 84 72 72 97 79 79 101 80 79 103 82 81 106 85 84 110 89 88 113 92 91 115 94 93 117 96 95 123 102 101 125 104 103 127 106 105 130 109 108 134 113 112 137 116 115 139 118 117 140 120 119 143 125 123 143 128 125 145 130 127 148 133 130 152 137 134 155 140 137 157 142 139 159 144 141 161 146 143 161 146 143 161 146 143 161 146 143 161 146 143 161 146 143 161 146 143 161 146 143 157 142 139 157 142 139 157 142 139 157 142 139 157 142 139 157 142 139 157 142 139 157 142 139 147 132 129 141 126 123 129 114 111 113 98 95 95 80 77 79 64 61 67 52 49 58 47 45
0 0 0 0 0 0 0 0 0 0 0 0 0 0 0 0 0 0 0 0 0 0 0 0 0 0 0 0 0 0 0 0 0 0 0 0 0 0 2 0 0 2 0 0 2 0 0 2 0 0 2 0 0 2 0 0 2 0 0 2 2 2 4 2 2 4 2 2 4 2 2 4 2 2 4 2 2 4 2 2 4 2 2 4 1 1 3 1 1 3 1 1 3 1 1 3 1 1 3 1 1 3 1 1 3 1 1 3 1 1 3 1 1 3 1 1 3 1 1 3 1 1 3 1 1 3 1 1 3 1 1 3 1 1 3 1 1 3 1 1 3 1 1 3 1 1 3 1 1 3 1 1 3 1 1 3 1 1 3 1 1 3 1 1 3 1 1 3 1 1 3 1 1 3 1 1 3 1 1 3 1 1 3 1 1 3 1 1 3 1 1 3 1 1 3 1 1 3 1 1 3 1 1 3 1 1 3 1 1 3 1 1 3 1 1 3 1 1 3 1 1 3 1 1 3 1 1 3 1 1 3 1 1 3 1 1 3 1 1 3 1 1 3 1 1 3 1 1 3 1 1 3 0 0 2 0 0 2 0 0 2 0 0 2 0 0 2 0 0 2 0 0 2 0 0 2 0 0 2 0 0 2 0 0 2 0 0 2 0 0 2 0 0 2 0 0 2 0 0 2 2 2 4 0 0 2 0 0 2 0 0 2 4 4 6 16 16 18 29 29 31 38 36 37 49 43 45 51 42 43 51 42 43 51 42 43 51 42 43 51 42 43 51 42 43 51 42 43 64 55 56 66 57 58 68 59 60 71 62 63 75 66 67 78 69 70 80 71 72 84 72 72 97 79 79 101 80 79 103 82 81 106 85 84 110 89 88 113 92 91 115 94 93 117 96 95 123 102 101 125 104 103 127 106 105 130 109 108 134 113 112 137 116 115 139 118 117 140 120 119 143 125 123 143 128 125 145 130 127 148 133 130 152 137 134 155 140 137 157 142 139 159 144 141 161 146 143 161 146 143 161 146 143 161 146 143 161 146 143 161 146 143 161 146 143 161 146 143 157 142 139 157 142 139 157 142 139 157 142 139 157 142 139 157 142 139 157 142 139 157 142 139 147 132 129 141 126 123 129 114 111 113 98 95 95 80 77 79 64 61 67 52 49 58 47 45
0 0 0 0 0 0 0 0 0 0 0 0 0 0 0 0 0 0 0 0 0 0 0 0 0 0 0 0 0 0 0 0 0 0 0 0 0 0 2 0 0 2 0 0 2 0 0 2 0 0 2 0 0 2 0 0 2 0 0 2 2 2 4 2 2 4 2 2 4 2 2 4 2 2 4 2 2 4 2 2 4 2 2 4 1 1 3 1 1 3 1 1 3 1 1 3 1 1 3 1 1 3 1 1 3 1 1 3 1 1 3 1 1 3 1 1 3 1 1 3 1 1 3 1 1 3 1 1 3 1 1 3 1 1 3 1 1 3 1 1 3 1 1 3 1 1 3 1 1 3 1 1 3 1 1 3 1 1 3 1 1 3 1 1 3 1 1 3 1 1 3 1 1 3 1 1 3 1 1 3 1 1 3 1 1 3 1 1 3 1 1 3 1 1 3 1 1 3 1 1 3 1 1 3 1 1 3 1 1 3 1 1 3 1 1 3 1 1 3 1 1 3 1 1 3 1 1 3 1 1 3 1 1 3 1 1 3 1 1 3 1 1 3 1 1 3 1 1 3 1 1 3 0 0 2 0 0 2 0 0 2 0 0 2 0 0 2 0 0 2 0 0 2 0 0 2 0 0 2 0 0 2 0 0 2 0 0 2 0 0 2 0 0 2 0 0 2 0 0 2 2 2 4 0 0 2 0 0 2 0 0 2 4 4 6 16 16 18 29 29 31 38 36 37 49 43 45 51 42 43 51 42 43 51 42 43 51 42 43 51 42 43 51 42 43 51 42 43 64 55 56 66 57 58 68 59 60 71 62 63 75 66 67 78 69 70 80 71 72 84 72 72 97 79 79 101 80 79 103 82 81 106 85 84 110 89 88 113 92 91 115 94 93 117 96 95 123 102 101 125 104 103 127 106 105 130 109 108 134 113 112 137 116 115 139 118 117 140 120 119 143 125 123 143 128 125 145 130 127 148 133 130 152 137 134 155 140 137 157 142 139 159 144 141 161 146 143 161 146 143 161 146 143 161 146 143 161 146 143 161 146 143 161 146 143 161 146 143 157 142 139 157 142 139 157 142 139 157 142 139 157 142 139 157 142 139 157 142 139 157 142 139 147 132 129 141 126 123 129 114 111 113 98 95 95 80 77 79 64 61 67 52 49 58 47 45
0 0 0 0 0 0 0 0 0 0 0 0 0 0 0 0 0 0 0 0 0 0 0 0 0 0 0 0 0 0 0 0 0 0 0 0 0 0 2 0 0 2 0 0 2 0 0 2 0 0 2 0 0 2 0 0 2 0 0 2 2 2 4 2 2 4 2 2 4 2 2 4 2 2 4 2 2 4 2 2 4 2 2 4 1 1 3 1 1 3 1 1 3 1 1 3 1 1 3 1 1 3 1 1 3 1 1 3 1 1 3 1 1 3 1 1 3 1 1 3 1 1 3 1 1 3 1 1 3 1 1 3 1 1 3 1 1 3 1 1 3 1 1 3 1 1 3 1 1 3 1 1 3 1 1 3 1 1 3 1 1 3 1 1 3 1 1 3 1 1 3 1 1 3 1 1 3 1 1 3 1 1 3 1 1 3 1 1 3 1 1 3 1 1 3 1 1 3 1 1 3 1 1 3 1 1 3 1 1 3 1 1 3 1 1 3 1 1 3 1 1 3 1 1 3 1 1 3 1 1 3 1 1 3 1 1 3 1 1 3 1 1 3 1 1 3 1 1 3 1 1 3 0 0 2 0 0 2 0 0 2 0 0 2 0 0 2 0 0 2 0 0 2 0 0 2 0 0 2 0 0 2 0 0 2 0 0 2 0 0 2 0 0 2 0 0 2 0 0 2 2 2 4 0 0 2 0 0 2 0 0 2 4 4 6 16 16 18 29 29 31 38 36 37 49 43 45 51 42 43 51 42 43 51 42 43 51 42 43 51 42 43 51 42 43 51 42 43 64 55 56 66 57 58 68 59 60 71 62 63 75 66 67 78 69 70 80 71 72 84 72 72 97 79 79 101 80 79 103 82 81 106 85 84 110 89 88 113 92 91 115 94 93 117 96 95 123 102 101 125 104 103 127 106 105 130 109 108 134 113 112 137 116 115 139 118 117 140 120 119 143 125 123 143 128 125 145 130 127 148 133 130 152 137 134 155 140 137 157 142 139 159 144 141 161 146 143 161 146 143 161 146 143 161 146 143 161 146 143 161 146 143 161 146 143 161 146 143 157 142 139 157 142 139 157 142 139 157 142 139 157 142 139 157 142 139 157 142 139 157 142 139 147 132 129 141 126 123 129 114 111 113 98 95 95 80 77 79 64 61 67 52 49 58 47 45
0 0 0 0 0 0 0 0 0 0 0 0 0 0 0 0 0 0 0 0 0 0 0 0 0 0 0 0 0 0 0 0 0 0 0 0 1 1 3 1 1 3 1 1 3 1 1 3 1 1 3 1 1 3 1 1 3 1 1 3 0 0 2 0 0 2 0 0 2 0 0 2 0 0 2 0 0 2 0 0 2 0 0 2 0 0 2 0 0 2 0 0 2 0 0 2 0 0 2 0 0 2 0 0 2 0 0 2 1 1 3 1 1 3 1 1 3 1 1 3 1 1 3 1 1 3 1 1 3 1 1 3 1 1 3 1 1 3 1 1 3 1 1 3 1 1 3 1 1 3 1 1 3 1 1 3 1 1 3 1 1 3 1 1 3 1 1 3 1 1 3 1 1 3 1 1 3 1 1 3 0 0 2 0 0 2 0 0 2 0 0 2 0 0 2 0 0 2 0 0 2 0 0 2 0 0 2 0 0 2 0 0 2 0 0 2 0 0 2 0 0 2 0 0 2 0 0 2 0 0 2 0 0 2 0 0 2 0 0 2 0 0 2 0 0 2 0 0 2 0 0 2 0 0 2 0 0 2 0 0 2 0 0 2 0 0 2 0 0 2 0 0 2 0 0 2 4 4 6 4 4 6 4 4 6 4 4 6 4 4 6 4 4 6 4 4 6 4 4 6 4 4 6 4 4 6 4 4 6 4 4 6 4 4 6 4 4 6 4 4 6 5 3 4 32 26 28 36 27 28 38 29 30 41 32 33 45 36 37 48 39 40 50 41 42 52 43 44 62 53 54 64 55 56 66 57 58 69 60 61 73 64 65 76 67 68 78 69 70 82 70 70 94 76 76 98 77 76 100 79 78 103 82 81 107 86 85 110 89 88 112 91 90 114 93 92 119 98 97 121 100 99 123 102 101 126 105 104 130 109 108 133 112 111 135 114 113 136 116 115 139 121 119 139 124 121 141 126 123 144 129 126 148 133 130 151 136 133 153 138 135 155 140 137 160 145 142 160 145 142 160 145 142 160 145 142 160 145 142 160 145 142 160 145 142 160 145 142 161 146 143 159 144 141 157 142 139 154 139 136 150 135 132 147 132 129 145 130 127 143 128 125 141 126 123 130 115 112 112 97 94 94 79 76 80 65 62 73 58 55 71 56 53 69 58 56
0 0 0 0 0 0 0 0 0 0 0 0 0 0 0 0 0 0 0 0 0 0 0 0 0 0 0 0 0 0 0 0 0 0 0 0 1 1 3 1 1 3 1 1 3 1 1 3 1 1 3 1 1 3 1 1 3 1 1 3 0 0 2 0 0 2 0 0 2 0 0 2 0 0 2 0 0 2 0 0 2 0 0 2 0 0 2 0 0 2 0 0 2 0 0 2 0 0 2 0 0 2 0 0 2 0 0 2 1 1 3 1 1 3 1 1 3 1 1 3 1 1 3 1 1 3 1 1 3 1 1 3 1 1 3 1 1 3 1 1 3 1 1 3 1 1 3 1 1 3 1 1 3 1 1 3 1 1 3 1 1 3 1 1 3 1 1 3 1 1 3 1 1 3 1 1 3 1 1 3 0 0 2 0 0 2 0 0 2 0 0 2 0 0 2 0 0 2 0 0 2 0 0 2 0 0 2 0 0 2 0 0 2 0 0 2 0 0 2 0 0 2 0 0 2 0 0 2 0 0 2 0 0 2 0 0 2 0 0 2 0 0 2 0 0 2 0 0 2 0 0 2 0 0 2 0 0 2 0 0 2 0 0 2 0 0 2 0 0 2 0 0 2 0 0 2 4 4 6 4 4 6 4 4 6 4 4 6 4 4 6 4 4 6 4 4 6 4 4 6 4 4 6 4 4 6 4 4 6 4 4 6 4 4 6 4 4 6 4 4 6 5 3 4 32 26 28 36 27 28 38 29 30 41 32 33 45 36 37 48 39 40 50 41 42 52 43 44 62 53 54 64 55 56 66 57 58 69 60 61 73 64 65 76 67 68 78 69 70 82 70 70 94 76 76 98 77 76 100 79 78 103 82 81 107 86 85 110 89 88 112 91 90 114 93 92 119 98 97 121 100 99 123 102 101 126 105 104 130 109 108 133 112 111 135 114 113 136 116 115 139 121 119 139 124 121 141 126 123 144 129 126 148 133 130 151 136 133 153 138 135 155 140 137 160 145 142 160 145 142 160 145 142 160 145 142 160 145 142 160 145 142 160 145 142 160 145 142 161 146 143 159 144 141 157 142 139 154 139 136 150 135 132 147 132 129 145 130 127 143 128 125 140 125 122 129 114 111 111 96 93 93 78 75 79 64 61 72 57 54 70 55 52 67 56 54
0 0 0 0 0 0 0 0 0 0 0 0 0 0 0 0 0 0 0 0 0 0 0 0 0 0 0 0 0 0 0 0 0 0 0 0 1 1 3 1 1 3 1 1 3 1 1 3 1 1 3 1 1 3 1 1 3 1 1 3 0 0 2 0 0 2 0 0 2 0 0 2 0 0 2 0 0 2 0 0 2 0 0 2 0 0 2 0 0 2 0 0 2 0 0 2 0 0 2 0 0 2 0 0 2 0 0 2 1 1 3 1 1 3 1 1 3 1 1 3 1 1 3 1 1 3 1 1 3 1 1 3 1 1 3 1 1 3 1 1 3 1 1 3 1 1 3 1 1 3 1 1 3 1 1 3 1 1 3 1 1 3 1 1 3 1 1 3 1 1 3 1 1 3 1 1 3 1 1 3 0 0 2 0 0 2 0 0 2 0 0 2 0 0 2 0 0 2 0 0 2 0 0 2 0 0 2 0 0 2 0 0 2 0 0 2 0 0 2 0 0 2 0 0 2 0 0 2 0 0 2 0 0 2 0 0 2 0 0 2 0 0 2 0 0 2 0 0 2 0 0 2 0 0 2 0 0 2 0 0 2 0 0 2 0 0 2 0 0 2 0 0 2 0 0 2 4 4 6 4 4 6 4 4 6 4 4 6 4 4 6 4 4 6 4 4 6 4 4 6 4 4 6 4 4 6 4 4 6 4 4 6 4 4 6 4 4 6 4 4 6 5 3 4 32 26 28 36 27 28 38 29 30 41 32 33 45 36 37 48 39 40 50 41 42 52 43 44 62 53 54 64 55 56 66 57 58 69 60 61 73 64 65 76 67 68 78 69 70 82 70 70 94 76 76 98 77 76 100 79 78 103 82 81 107 86 85 110 89 88 112 91 90 114 93 92 119 98 97 121 100 99 123 102 101 126 105 104 130 109 108 133 112 111 135 114 113 136 116 115 139 121 119 139 124 121 141 126 123 144 129 126 148 133 130 151 136 133 153 138 135 155 140 137 160 145 142 160 145 142 160 145 142 160 145 142 160 145 142 160 145 142 160 145 142 160 145 142 161 146 143 159 144 141 157 142 139 154 139 136 150 135 132 147 132 129 145 130 127 143 128 125 137 122 119 126 111 108 109 94 91 90 75 72 76 61 58 69 54 51 67 52 49 65 54 52
0 0 0 0 0 0 0 0 0 0 0 0 0 0 0 0 0 0 0 0 0 0 0 0 0 0 0 0 0 0 0 0 0 0 0 0 1 1 3 1 1 3 1 1 3 1 1 3 1 1 3 1 1 3 1 1 3 1 1 3 0 0 2 0 0 2 0 0 2 0 0 2 0 0 2 0 0 2 0 0 2 0 0 2 0 0 2 0 0 2 0 0 2 0 0 2 0 0 2 0 0 2 0 0 2 0 0 2 1 1 3 1 1 3 1 1 3 1 1 3 1 1 3 1 1 3 1 1 3 1 1 3 1 1 3 1 1 3 1 1 3 1 1 3 1 1 3 1 1 3 1 1 3 1 1 3 1 1 3 1 1 3 1 1 3 1 1 3 1 1 3 1 1 3 1 1 3 1 1 3 0 0 2 0 0 2 0 0 2 0 0 2 0 0 2 0 0 2 0 0 2 0 0 2 0 0 2 0 0 2 0 0 2 0 0 2 0 0 2 0 0 2 0 0 2 0 0 2 0 0 2 0 0 2 0 0 2 0 0 2 0 0 2 0 0 2 0 0 2 0 0 2 0 0 2 0 0 2 0 0 2 0 0 2 0 0 2 0 0 2 0 0 2 0 0 2 4 4 6 4 4 6 4 4 6 4 4 6 4 4 6 4 4 6 4 4 6 4 4 6 4 4 6 4 4 6 4 4 6 4 4 6 4 4 6 4 4 6 4 4 6 5 3 4 32 26 28 36 27 28 38 29 30 41 32 33 45 36 37 48 39 40 50 41 42 52 43 44 62 53 54 64 55 56 66 57 58 69 60 61 73 64 65 76 67 68 78 69 70 82 70 70 94 76 76 98 77 76 100 79 78 103 82 81 107 86 85 110 89 88 112 91 90 114 93 92 119 98 97 121 100 99 123 102 101 126 105 104 130 109 108 133 112 111 135 114 113 136 116 115 139 121 119 139 124 121 141 126 123 144 129 126 148 133 130 151 136 133 153 138 135 155 140 137 160 145 142 160 145 142 160 145 142 160 145 142 160 145 142 160 145 142 160 145 142 160 145 142 161 146 143 159 144 141 157 142 139 154 139 136 150 135 132 147 132 129 145 130 127 143 128 125 134 119 116 123 108 105 105 90 87 87 72 69 73 58 55 66 51 48 64 49 46 62 51 49
0 0 0 0 0 0 0 0 0 0 0 0 0 0 0 0 0 0 0 0 0 0 0 0 0 0 0 0 0 0 0 0 0 0 0 0 1 1 3 1 1 3 1 1 3 1 1 3 1 1 3 1 1 3 1 1 3 1 1 3 0 0 2 0 0 2 0 0 2 0 0 2 0 0 2 0 0 2 0 0 2 0 0 2 0 0 2 0 0 2 0 0 2 0 0 2 0 0 2 0 0 2 0 0 2 0 0 2 1 1 3 1 1 3 1 1 3 1 1 3 1 1 3 1 1 3 1 1 3 1 1 3 1 1 3 1 1 3 1 1 3 1 1 3 1 1 3 1 1 3 1 1 3 1 1 3 1 1 3 1 1 3 1 1 3 1 1 3 1 1 3 1 1 3 1 1 3 1 1 3 0 0 2 0 0 2 0 0 2 0 0 2 0 0 2 0 0 2 0 0 2 0 0 2 0 0 2 0 0 2 0 0 2 0 0 2 0 0 2 0 0 2 0 0 2 0 0 2 0 0 2 0 0 2 0 0 2 0 0 2 0 0 2 0 0 2 0 0 2 0 0 2 0 0 2 0 0 2 0 0 2 0 0 2 0 0 2 0 0 2 0 0 2 0 0 2 4 4 6 4 4 6 4 4 6 4 4 6 4 4 6 4 4 6 4 4 6 4 4 6 4 4 6 4 4 6 4 4 6 4 4 6 4 4 6 4 4 6 4 4 6 5 3 4 32 26 28 36 27 28 38 29 30 41 32 33 45 36 37 48 39 40 50 41 42 52 43 44 62 53 54 64 55 56 66 57 58 69 60 61 73 64 65 76 67 68 78 69 70 82 70 70 94 76 76 98 77 76 100 79 78 103 82 81 107 86 85 110 89 88 112 91 90 114 93 92 119 98 97 121 100 99 123 102 101 126 105 104 130 109 108 133 112 111 135 114 113 136 116 115 139 121 119 139 124 121 141 126 123 144 129 126 148 133 130 151 136 133 153 138 135 155 140 137 160 145 142 160 145 142 160 145 142 160 145 142 160 145 142 160 145 142 160 145 142 160 145 142 161 146 143 159 144 141 157 142 139 154 139 136 150 135 132 147 132 129 145 130 127 143 128 125 131 116 113 120 105 102 102 87 84 84 69 66 70 55 52 63 48 45 61 46 43 58 47 45
0 0 0 0 0 0 0 0 0 0 0 0 0 0 0 0 0 0 0 0 0 0 0 0 0 0 0 0 0 0 0 0 0 0 0 0 1 1 3 1 1 3 1 1 3 1 1 3 1 1 3 1 1 3 1 1 3 1 1 3 0 0 2 0 0 2 0 0 2 0 0 2 0 0 2 0 0 2 0 0 2 0 0 2 0 0 2 0 0 2 0 0 2 0 0 2 0 0 2 0 0 2 0 0 2 0 0 2 1 1 3 1 1 3 1 1 3 1 1 3 1 1 3 1 1 3 1 1 3 1 1 3 1 1 3 1 1 3 1 1 3 1 1 3 1 1 3 1 1 3 1 1 3 1 1 3 1 1 3 1 1 3 1 1 3 1 1 3 1 1 3 1 1 3 1 1 3 1 1 3 0 0 2 0 0 2 0 0 2 0 0 2 0 0 2 0 0 2 0 0 2 0 0 2 0 0 2 0 0 2 0 0 2 0 0 2 0 0 2 0 0 2 0 0 2 0 0 2 0 0 2 0 0 2 0 0 2 0 0 2 0 0 2 0 0 2 0 0 2 0 0 2 0 0 2 0 0 2 0 0 2 0 0 2 0 0 2 0 0 2 0 0 2 0 0 2 4 4 6 4 4 6 4 4 6 4 4 6 4 4 6 4 4 6 4 4 6 4 4 6 4 4 6 4 4 6 4 4 6 4 4 6 4 4 6 4 4 6 4 4 6 5 3 4 32 26 28 36 27 28 38 29 30 41 32 33 45 36 37 48 39 40 50 41 42 52 43 44 62 53 54 64 55 56 66 57 58 69 60 61 73 64 65 76 67 68 78 69 70 82 70 70 94 76 76 98 77 76 100 79 78 103 82 81 107 86 85 110 89 88 112 91 90 114 93 92 119 98 97 121 100 99 123 102 101 126 105 104 130 109 108 133 112 111 135 114 113 136 116 115 139 121 119 139 124 121 141 126 123 144 129 126 148 133 130 151 136 133 153 138 135 155 140 137 160 145 142 160 145 142 160 145 142 160 145 142 160 145 142 160 145 142 160 145 142 160 145 142 161 146 143 159 144 141 157 142 139 154 139 136 150 135 132 147 132 129 145 130 127 143 128 125 127 112 109 116 101 98 99 84 81 80 65 62 67 52 49 59 44 41 58 43 40 55 44 42
0 0 0 0 0 0 0 0 0 0 0 0 0 0 0 0 0 0 0 0 0 0 0 0 0 0 0 0 0 0 0 0 0 0 0 0 1 1 3 1 1 3 1 1 3 1 1 3 1 1 3 1 1 3 1 1 3 1 1 3 0 0 2 0 0 2 0 0 2 0 0 2 0 0 2 0 0 2 0 0 2 0 0 2 0 0 2 0 0 2 0 0 2 0 0 2 0 0 2 0 0 2 0 0 2 0 0 2 1 1 3 1 1 3 1 1 3 1 1 3 1 1 3 1 1 3 1 1 3 1 1 3 1 1 3 1 1 3 1 1 3 1 1 3 1 1 3 1 1 3 1 1 3 1 1 3 1 1 3 1 1 3 1 1 3 1 1 3 1 1 3 1 1 3 1 1 3 1 1 3 0 0 2 0 0 2 0 0 2 0 0 2 0 0 2 0 0 2 0 0 2 0 0 2 0 0 2 0 0 2 0 0 2 0 0 2 0 0 2 0 0 2 0 0 2 0 0 2 0 0 2 0 0 2 0 0 2 0 0 2 0 0 2 0 0 2 0 0 2 0 0 2 0 0 2 0 0 2 0 0 2 0 0 2 0 0 2 0 0 2 0 0 2 0 0 2 4 4 6 4 4 6 4 4 6 4 4 6 4 4 6 4 4 6 4 4 6 4 4 6 4 4 6 4 4 6 4 4 6 4 4 6 4 4 6 4 4 6 4 4 6 5 3 4 32 26 28 36 27 28 38 29 30 41 32 33 45 36 37 48 39 40 50 41 42 52 43 44 62 53 54 64 55 56 66 57 58 69 60 61 73 64 65 76 67 68 78 69 70 82 70 70 94 76 76 98 77 76 100 79 78 103 82 81 107 86 85 110 89 88 112 91 90 114 93 92 119 98 97 121 100 99 123 102 101 126 105 104 130 109 108 133 112 111 135 114 113 136 116 115 139 121 119 139 124 121 141 126 123 144 129 126 148 133 130 151 136 133 153 138 135 155 140 137 160 145 142 160 145 142 160 145 142 160 145 142 160 145 142 160 145 142 160 145 142 160 145 142 161 146 143 159 144 141 157 142 139 154 139 136 150 135 132 147 132 129 145 130 127 143 128 125 125 110 107 114 99 96 96 81 78 78 63 60 64 49 46 57 42 39 55 40 37 53 42 40
0 0 0 0 0 0 0 0 0 0 0 0 0 0 0 0 0 0 0 0 0 0 0 0 0 0 0 0 0 0 0 0 0 0 0 0 1 1 3 1 1 3 1 1 3 1 1 3 1 1 3 1 1 3 1 1 3 1 1 3 0 0 2 0 0 2 0 0 2 0 0 2 0 0 2 0 0 2 0 0 2 0 0 2 0 0 2 0 0 2 0 0 2 0 0 2 0 0 2 0 0 2 0 0 2 0 0 2 1 1 3 1 1 3 1 1 3 1 1 3 1 1 3 1 1 3 1 1 3 1 1 3 1 1 3 1 1 3 1 1 3 1 1 3 1 1 3 1 1 3 1 1 3 1 1 3 1 1 3 1 1 3 1 1 3 1 1 3 1 1 3 1 1 3 1 1 3 1 1 3 0 0 2 0 0 2 0 0 2 0 0 2 0 0 2 0 0 2 0 0 2 0 0 2 0 0 2 0 0 2 0 0 2 0 0 2 0 0 2 0 0 2 0 0 2 0 0 2 0 0 2 0 0 2 0 0 2 0 0 2 0 0 2 0 0 2 0 0 2 0 0 2 0 0 2 0 0 2 0 0 2 0 0 2 0 0 2 0 0 2 0 0 2 0 0 2 3 4 6 3 4 6 3 4 6 3 4 6 3 4 6 3 4 6 3 4 6 3 4 6 3 4 6 3 4 6 3 4 6 3 4 6 3 4 6 3 4 6 3 4 6 4 4 4 32 26 28 36 27 28 38 29 30 41 32 33 45 36 37 48 39 40 50 41 42 52 43 44 62 53 54 64 55 56 66 57 58 69 60 61 73 64 65 76 67 68 78 69 70 82 70 70 94 76 76 98 77 76 100 79 78 103 82 81 107 86 85 110 89 88 112 91 90 114 93 92 119 98 97 121 100 99 123 102 101 126 105 104 130 109 108 133 112 111 135 114 113 136 116 115 139 121 119 139 124 121 141 126 123 144 129 126 148 133 130 151 136 133 153 138 135 155 140 137 160 145 142 160 145 142 160 145 142 160 145 142 160 145 142 160 145 142 160 145 142 160 145 142 161 146 143 159 144 141 157 142 139 154 139 136 150 135 132 147 132 129 145 130 127 143 128 125 124 109 106 113 98 95 95 80 77 77 62 59 63 48 45 56 41 38 54 39 36 53 39 38
0 0 0 0 0 0 0 0 0 0 0 0 0 0 0 0 0 0 0 0 0 0 0 0 0 0 0 0 0 0 0 0 0 0 0 0 0 0 0 0 0 0 0 0 0 0 0 0 0 0 0 0 0 0 0 0 0 0 0 0 0 0 0 0 0 0 0 0 0 0 0 0 0 0 0 0 0 0 0 0 0 0 0 0 0 0 0 0 0 0 0 0 0 0 0 0 0 0 0 0 0 0 0 0 0 0 0 0 0 0 0 0 0 0 0 0 0 0 0 0 0 0 0 0 0 0 0 0 0 0 0 0 0 0 0 0 0 0 0 0 0 0 0 0 0 0 0 0 0 0 0 0 0 0 0 0 0 0 0 0 0 0 0 0 0 0 0 0 0 0 0 0 0 0 0 0 0 0 0 0 1 1 3 1 1 3 1 1 3 1 1 3 1 1 3 1 1 3 1 1 3 1 1 3 0 0 2 0 0 2 0 0 2 0 0 2 0 0 2 0 0 2 0 0 2 0 0 2 0 1 5 0 2 5 0 1 5 0 2 5 0 1 5 0 2 5 0 1 5 0 2 5 0 0 4 0 1 4 0 0 4 0 1 4 0 0 4 0 1 4 0 0 4 0 1 4 16 20 21 16 20 21 16 20 21 16 20 21 16 20 21 16 20 21 16 20 21 16 20 21 12 16 17 10 14 15 8 12 13 5 9 10 1 5 6 0 2 3 0 1 2 0 1 0 18 14 15 23 14 15 28 19 20 35 26 27 41 32 33 48 39 40 53 44 45 55 46 47 66 57 58 68 59 60 70 61 62 73 64 65 77 68 69 80 71 72 82 73 74 86 74 74 92 74 74 96 75 74 98 77 76 101 80 79 105 84 83 108 87 86 110 89 88 112 91 90 121 100 99 123 102 101 125 104 103 128 107 106 132 111 110 135 114 113 137 116 115 138 118 117 136 118 114 136 121 116 138 123 118 141 126 121 145 130 125 148 133 128 150 135 130 152 137 132 156 141 136 156 141 136 156 141 136 156 141 136 156 141 136 156 141 136 156 141 136 156 141 136 157 139 137 155 137 135 153 135 133 150 132 130 146 128 126 143 125 123 141 123 121 139 121 119 122 104 102 111 93 91 94 76 74 75 57 55 61 43 41 54 36 34 53 35 33 50 36 35
0 0 0 0 0 0 0 0 0 0 0 0 0 0 0 0 0 0 0 0 0 0 0 0 0 0 0 0 0 0 0 0 0 0 0 0 0 0 0 0 0 0 0 0 0 0 0 0 0 0 0 0 0 0 0 0 0 0 0 0 0 0 0 0 0 0 0 0 0 0 0 0 0 0 0 0 0 0 0 0 0 0 0 0 0 0 0 0 0 0 0 0 0 0 0 0 0 0 0 0 0 0 0 0 0 0 0 0 0 0 0 0 0 0 0 0 0 0 0 0 0 0 0 0 0 0 0 0 0 0 0 0 0 0 0 0 0 0 0 0 0 0 0 0 0 0 0 0 0 0 0 0 0 0 0 0 0 0 0 0 0 0 0 0 0 0 0 0 0 0 0 0 0 0 0 0 0 0 0 0 1 1 3 1 1 3 1 1 3 1 1 3 1 1 3 1 1 3 1 1 3 1 1 3 0 0 2 0 0 2 0 0 2 0 0 2 0 0 2 0 0 2 0 0 2 0 0 2 0 1 5 0 2 5 0 2 5 0 2 5 0 2 5 0 2 5 0 2 5 0 2 5 0 2 5 0 2 5 0 2 5 0 2 5 0 2 5 0 2 5 0 2 5 0 2 5 15 21 21 15 21 21 15 21 21 15 21 21 15 21 21 15 21 21 15 21 21 15 21 21 11 17 17 9 15 15 7 13 13 4 10 10 0 6 6 0 3 3 0 2 2 0 1 0 18 14 15 23 14 15 28 19 20 35 26 27 41 32 33 48 39 40 53 44 45 55 46 47 66 57 58 68 59 60 70 61 62 73 64 65 77 68 69 80 71 72 82 73 74 86 74 74 92 74 74 96 75 74 98 77 76 101 80 79 105 84 83 108 87 86 110 89 88 112 91 90 121 100 99 123 102 101 125 104 103 128 107 106 132 111 110 135 114 113 137 116 115 138 118 117 136 118 114 136 121 116 138 123 118 141 126 121 145 130 125 148 133 128 150 135 130 152 137 132 156 141 136 156 141 136 156 141 136 156 141 136 156 141 136 156 141 136 156 141 136 156 141 136 157 139 137 155 137 135 153 135 133 150 132 130 146 128 126 143 125 123 141 123 121 139 121 119 122 104 102 111 93 91 94 76 74 75 57 55 61 43 41 54 36 34 53 35 33 51 35 35
0 0 0 0 0 0 0 0 0 0 0 0 0 0 0 0 0 0 0 0 0 0 0 0 0 0 0 0 0 0 0 0 0 0 0 0 0 0 0 0 0 0 0 0 0 0 0 0 0 0 0 0 0 0 0 0 0 0 0 0 0 0 0 0 0 0 0 0 0 0 0 0 0 0 0 0 0 0 0 0 0 0 0 0 0 0 0 0 0 0 0 0 0 0 0 0 0 0 0 0 0 0 0 0 0 0 0 0 0 0 0 0 0 0 0 0 0 0 0 0 0 0 0 0 0 0 0 0 0 0 0 0 0 0 0 0 0 0 0 0 0 0 0 0 0 0 0 0 0 0 0 0 0 0 0 0 0 0 0 0 0 0 0 0 0 0 0 0 0 0 0 0 0 0 0 0 0 0 0 0 1 1 3 1 1 3 1 1 3 1 1 3 1 1 3 1 1 3 1 1 3 1 1 3 0 0 2 0 0 2 0 0 2 0 0 2 0 0 2 0 0 2 0 0 2 0 0 2 0 1 5 0 2 5 0 2 5 0 2 5 0 2 5 0 2 5 0 2 5 0 2 5 0 4 7 0 4 7 0 4 7 0 4 7 0 4 7 0 4 7 0 4 7 0 4 7 15 21 21 15 21 21 15 21 21 15 21 21 15 21 21 15 21 21 15 21 21 15 21 21 11 17 17 9 15 15 7 13 13 4 10 10 0 6 6 0 3 3 0 2 2 0 1 0 18 14 15 23 14 15 28 19 20 35 26 27 41 32 33 48 39 40 53 44 45 55 46 47 66 57 58 68 59 60 70 61 62 73 64 65 77 68 69 80 71 72 82 73 74 86 74 74 92 74 74 96 75 74 98 77 76 101 80 79 105 84 83 108 87 86 110 89 88 112 91 90 121 100 99 123 102 101 125 104 103 128 107 106 132 111 110 135 114 113 137 116 115 138 118 117 136 118 114 136 121 116 138 123 118 141 126 121 145 130 125 148 133 128 150 135 130 152 137 132 156 141 136 156 141 136 156 141 136 156 141 136 156 141 136 156 141 136 156 141 136 156 141 136 157 139 137 155 137 135 153 135 133 150 132 130 146 128 126 143 125 123 141 123 121 139 121 119 122 104 102 111 93 91 94 76 74 75 57 55 61 43 41 54 36 34 53 35 33 51 35 35
0 0 0 0 0 0 0 0 0 0 0 0 0 0 0 0 0 0 0 0 0 0 0 0 0 0 0 0 0 0 0 0 0 0 0 0 0 0 0 0 0 0 0 0 0 0 0 0 0 0 0 0 0 0 0 0 0 0 0 0 0 0 0 0 0 0 0 0 0 0 0 0 0 0 0 0 0 0 0 0 0 0 0 0 0 0 0 0 0 0 0 0 0 0 0 0 0 0 0 0 0 0 0 0 0 0 0 0 0 0 0 0 0 0 0 0 0 0 0 0 0 0 0 0 0 0 0 0 0 0 0 0 0 0 0 0 0 0 0 0 0 0 0 0 0 0 0 0 0 0 0 0 0 0 0 0 0 0 0 0 0 0 0 0 0 0 0 0 0 0 0 0 0 0 0 0 0 0 0 0 1 1 3 1 1 3 1 1 3 1 1 3 1 1 3 1 1 3 1 1 3 1 1 3 0 0 2 0 0 2 0 0 2 0 0 2 0 0 2 0 0 2 0 0 2 0 0 2 0 1 5 0 2 5 0 2 5 0 2 5 0 2 5 0 2 5 0 2 5 0 2 5 3 7 10 3 7 10 3 7 10 3 7 10 3 7 10 3 7 10 3 7 10 3 7 10 15 21 21 15 21 21 15 21 21 15 21 21 15 21 21 15 21 21 15 21 21 15 21 21 11 17 17 9 15 15 7 13 13 4 10 10 0 6 6 0 3 3 0 2 2 0 1 0 18 14 15 23 14 15 28 19 20 35 26 27 41 32 33 48 39 40 53 44 45 55 46 47 66 57 58 68 59 60 70 61 62 73 64 65 77 68 69 80 71 72 82 73 74 86 74 74 92 74 74 96 75 74 98 77 76 101 80 79 105 84 83 108 87 86 110 89 88 112 91 90 121 100 99 123 102 101 125 104 103 128 107 106 132 111 110 135 114 113 137 116 115 138 118 117 136 118 114 136 121 116 138 123 118 141 126 121 145 130 125 148 133 128 150 135 130 152 137 132 156 141 136 156 141 136 156 141 136 156 141 136 156 141 136 156 141 136 156 141 136 156 141 136 157 139 137 155 137 135 153 135 133 150 132 130 146 128 126 143 125 123 141 123 121 139 121 119 122 104 102 111 93 91 94 76 74 75 57 55 61 43 41 54 36 34 53 35 33 51 35 35
0 0 0 0 0 0 0 0 0 0 0 0 0 0 0 0 0 0 0 0 0 0 0 0 0 0 0 0 0 0 0 0 0 0 0 0 0 0 0 0 0 0 0 0 0 0 0 0 0 0 0 0 0 0 0 0 0 0 0 0 0 0 0 0 0 0 0 0 0 0 0 0 0 0 0 0 0 0 0 0 0 0 0 0 0 0 0 0 0 0 0 0 0 0 0 0 0 0 0 0 0 0 0 0 0 0 0 0 0 0 0 0 0 0 0 0 0 0 0 0 0 0 0 0 0 0 0 0 0 0 0 0 0 0 0 0 0 0 0 0 0 0 0 0 0 0 0 0 0 0 0 0 0 0 0 0 0 0 0 0 0 0 0 0 0 0 0 0 0 0 0 0 0 0 0 0 0 0 0 0 1 1 3 1 1 3 1 1 3 1 1 3 1 1 3 1 1 3 1 1 3 1 1 3 0 0 2 0 0 2 0 0 2 0 0 2 0 0 2 0 0 2 0 0 2 0 0 2 0 1 5 0 2 5 0 2 5 0 2 5 0 2 5 0 2 5 0 2 5 0 2 5 7 11 14 7 11 14 7 11 14 7 11 14 7 11 14 7 11 14 7 11 14 7 11 14 15 21 21 15 21 21 15 21 21 15 21 21 15 21 21 15 21 21 15 21 21 15 21 21 11 17 17 9 15 15 7 13 13 4 10 10 0 6 6 0 3 3 0 2 2 0 1 0 18 14 15 23 14 15 28 19 20 35 26 27 41 32 33 48 39 40 53 44 45 55 46 47 66 57 58 68 59 60 70 61 62 73 64 65 77 68 69 80 71 72 82 73 74 86 74 74 92 74 74 96 75 74 98 77 76 101 80 79 105 84 83 108 87 86 110 89 88 112 91 90 121 100 99 123 102 101 125 104 103 128 107 106 132 111 110 135 114 113 137 116 115 138 118 117 136 118 114 136 121 116 138 123 118 141 126 121 145 130 125 148 133 128 150 135 130 152 137 132 156 141 136 156 141 136 156 141 136 156 141 136 156 141 136 156 141 136 156 141 136 156 141 136 157 139 137 155 137 135 153 135 133 150 132 130 146 128 126 143 125 123 141 123 121 139 121 119 122 104 102 111 93 91 94 76 74 75 57 55 61 43 41 54 36 34 53 35 33 51 35 35
0 0 0 0 0 0 0 0 0 0 0 0 0 0 0 0 0 0 0 0 0 0 0 0 0 0 0 0 0 0 0 0 0 0 0 0 0 0 0 0 0 0 0 0 0 0 0 0 0 0 0 0 0 0 0 0 0 0 0 0 0 0 0 0 0 0 0 0 0 0 0 0 0 0 0 0 0 0 0 0 0 0 0 0 0 0 0 0 0 0 0 0 0 0 0 0 0 0 0 0 0 0 0 0 0 0 0 0 0 0 0 0 0 0 0 0 0 0 0 0 0 0 0 0 0 0 0 0 0 0 0 0 0 0 0 0 0 0 0 0 0 0 0 0 0 0 0 0 0 0 0 0 0 0 0 0 0 0 0 0 0 0 0 0 0 0 0 0 0 0 0 0 0 0 0 0 0 0 0 0 1 1 3 1 1 3 1 1 3 1 1 3 1 1 3 1 1 3 1 1 3 1 1 3 0 0 2 0 0 2 0 0 2 0 0 2 0 0 2 0 0 2 0 0 2 0 0 2 0 1 5 0 2 5 0 2 5 0 2 5 0 2 5 0 2 5 0 2 5 0 2 5 10 14 17 10 14 17 10 14 17 10 14 17 10 14 17 10 14 17 10 14 17 10 14 17 15 21 21 15 21 21 15 21 21 15 21 21 15 21 21 15 21 21 15 21 21 15 21 21 11 17 17 9 15 15 7 13 13 4 10 10 0 6 6 0 3 3 0 2 2 0 1 0 18 14 15 23 14 15 28 19 20 35 26 27 41 32 33 48 39 40 53 44 45 55 46 47 66 57 58 68 59 60 70 61 62 73 64 65 77 68 69 80 71 72 82 73 74 86 74 74 92 74 74 96 75 74 98 77 76 101 80 79 105 84 83 108 87 86 110 89 88 112 91 90 121 100 99 123 102 101 125 104 103 128 107 106 132 111 110 135 114 113 137 116 115 138 118 117 136 118 114 136 121 116 138 123 118 141 126 121 145 130 125 148 133 128 150 135 130 152 137 132 156 141 136 156 141 136 156 141 136 156 141 136 156 141 136 156 141 136 156 141 136 156 141 136 157 139 137 155 137 135 153 135 133 150 132 130 146 128 126 143 125 123 141 123 121 139 121 119 122 104 102 111 93 91 94 76 74 75 57 55 61 43 41 54 36 34 53 35 33 51 35 35
0 0 0 0 0 0 0 0 0 0 0 0 0 0 0 0 0 0 0 0 0 0 0 0 0 0 0 0 0 0 0 0 0 0 0 0 0 0 0 0 0 0 0 0 0 0 0 0 0 0 0 0 0 0 0 0 0 0 0 0 0 0 0 0 0 0 0 0 0 0 0 0 0 0 0 0 0 0 0 0 0 0 0 0 0 0 0 0 0 0 0 0 0 0 0 0 0 0 0 0 0 0 0 0 0 0 0 0 0 0 0 0 0 0 0 0 0 0 0 0 0 0 0 0 0 0 0 0 0 0 0 0 0 0 0 0 0 0 0 0 0 0 0 0 0 0 0 0 0 0 0 0 0 0 0 0 0 0 0 0 0 0 0 0 0 0 0 0 0 0 0 0 0 0 0 0 0 0 0 0 1 1 3 1 1 3 1 1 3 1 1 3 1 1 3 1 1 3 1 1 3 1 1 3 0 0 2 0 0 2 0 0 2 0 0 2 0 0 2 0 0 2 0 0 2 0 0 2 0 1 5 0 2 5 0 2 5 0 2 5 0 2 5 0 2 5 0 2 5 0 2 5 12 16 19 12 16 19 12 16 19 12 16 19 12 16 19 12 16 19 12 16 19 12 16 19 15 21 21 15 21 21 15 21 21 15 21 21 15 21 21 15 21 21 15 21 21 15 21 21 11 17 17 9 15 15 7 13 13 4 10 10 0 6 6 0 3 3 0 2 2 0 1 0 18 14 15 23 14 15 28 19 20 35 26 27 41 32 33 48 39 40 53 44 45 55 46 47 66 57 58 68 59 60 70 61 62 73 64 65 77 68 69 80 71 72 82 73 74 86 74 74 92 74 74 96 75 74 98 77 76 101 80 79 105 84 83 108 87 86 110 89 88 112 91 90 121 100 99 123 102 101 125 104 103 128 107 106 132 111 110 135 114 113 137 116 115 138 118 117 136 118 114 136 121 116 138 123 118 141 126 121 145 130 125 148 133 128 150 135 130 152 137 132 156 141 136 156 141 136 156 141 136 156 141 136 156 141 136 156 141 136 156 141 136 156 141 136 157 139 137 155 137 135 153 135 133 150 132 130 146 128 126 143 125 123 141 123 121 139 121 119 122 104 102 111 93 91 94 76 74 75 57 55 61 43 41 54 36 34 53 35 33 51 35 35
0 0 0 0 0 0 0 0 0 0 0 0 0 0 0 0 0 0 0 0 0 0 0 0 0 0 0 0 0 0 0 0 0 0 0 0 0 0 0 0 0 0 0 0 0 0 0 0 0 0 0 0 0 0 0 0 0 0 0 0 0 0 0 0 0 0 0 0 0 0 0 0 0 0 0 0 0 0 0 0 0 0 0 0 0 0 0 0 0 0 0 0 0 0 0 0 0 0 0 0 0 0 0 0 0 0 0 0 0 0 0 0 0 0 0 0 0 0 0 0 0 0 0 0 0 0 0 0 0 0 0 0 0 0 0 0 0 0 0 0 0 0 0 0 0 0 0 0 0 0 0 0 0 0 0 0 0 0 0 0 0 0 0 0 0 0 0 0 0 0 0 0 0 0 0 0 0 0 0 0 1 1 3 1 1 3 1 1 3 1 1 3 1 1 3 1 1 3 1 1 3 1 1 3 0 0 2 0 0 2 0 0 2 0 0 2 0 0 2 0 0 2 0 0 2 0 0 2 0 1 5 0 2 5 0 2 5 0 2 5 0 2 5 0 2 5 0 2 5 0 2 5 14 18 21 14 18 21 14 18 21 14 18 21 14 18 21 14 18 21 14 18 21 14 18 21 15 21 21 15 21 21 15 21 21 15 21 21 15 21 21 15 21 21 15 21 21 15 21 21 11 17 17 9 15 15 7 13 13 4 10 10 0 6 6 0 3 3 0 2 2 0 1 0 18 14 15 23 14 15 28 19 20 35 26 27 41 32 33 48 39 40 53 44 45 55 46 47 66 57 58 68 59 60 70 61 62 73 64 65 77 68 69 80 71 72 82 73 74 86 74 74 92 74 74 96 75 74 98 77 76 101 80 79 105 84 83 108 87 86 110 89 88 112 91 90 121 100 99 123 102 101 125 104 103 128 107 106 132 111 110 135 114 113 137 116 115 138 118 117 136 118 114 136 121 116 138 123 118 141 126 121 145 130 125 148 133 128 150 135 130 152 137 132 156 141 136 156 141 136 156 141 136 156 141 136 156 141 136 156 141 136 156 141 136 156 141 136 157 139 137 155 137 135 153 135 133 150 132 130 146 128 126 143 125 123 141 123 121 139 121 119 122 104 102 111 93 91 94 76 74 75 57 55 61 43 41 54 36 34 53 35 33 51 35 35
0 0 0 0 0 0 0 0 0 0 0 0 0 0 0 0 0 0 0 0 0 0 0 0 0 0 0 0 0 0 0 0 0 0 0 0 0 0 0 0 0 0 0 0 0 0 0 0 0 0 0 0 0 0 0 0 0 0 0 0 0 0 0 0 0 0 0 0 0 0 0 0 0 0 0 0 0 0 0 0 0 0 0 0 0 0 0 0 0 0 0 0 0 0 0 0 0 0 0 0 0 0 0 0 0 0 0 0 0 0 0 0 0 0 0 0 0 0 0 0 0 0 0 0 0 0 0 0 0 0 0 0 0 0 0 0 0 0 0 0 0 0 0 0 0 0 0 0 0 0 0 0 0 0 0 0 0 0 0 0 0 0 0 0 0 0 0 0 0 0 0 0 0 0 0 0 0 0 0 0 0 0 2 0 0 2 0 0 2 0 0 2 0 0 2 0 0 2 0 0 2 0 0 2 3 3 5 3 3 5 3 3 5 3 3 5 3 3 5 3 3 5 3 3 5 2 3 5 0 0 4 0 1 4 0 1 4 0 1 4 0 4 7 4 8 11 6 10 13 7 11 14 21 25 28 21 25 28 21 25 28 21 25 28 21 25 28 21 25 28 21 25 28 21 25 28 21 27 27 21 27 27 21 27 27 21 27 27 21 27 27 21 27 27 21 27 27 21 27 27 4 10 10 4 10 10 4 10 10 4 10 10 4 10 10 4 10 10 4 10 10 7 9 8 16 12 13 21 12 13 26 17 18 33 24 25 39 30 31 46 37 38 51 42 43 53 44 45 67 58 59 69 60 61 71 62 63 74 65 66 78 69 70 81 72 73 83 74 75 87 75 75 108 90 90 110 89 88 110 89 88 110 89 88 110 89 88 110 89 88 110 89 88 110 89 88 118 97 96 120 99 98 122 101 100 125 104 103 129 108 107 132 111 110 134 113 112 135 115 114 131 113 109 131 116 111 133 118 113 136 121 116 140 125 120 143 128 123 145 130 125 147 132 127 149 134 129 149 134 129 149 134 129 149 134 129 149 134 129 149 134 129 149 134 129 149 134 129 156 138 136 154 136 134 152 134 132 149 131 129 145 127 125 142 124 122 140 122 120 138 120 118 106 88 86 96 78 76 81 63 61 66 48 46 55 37 35 51 33 31 52 34 32 52 36 36
0 0 0 0 0 0 0 0 0 0 0 0 0 0 0 0 0 0 0 0 0 0 0 0 0 0 0 0 0 0 0 0 0 0 0 0 0 0 0 0 0 0 0 0 0 0 0 0 0 0 0 0 0 0 0 0 0 0 0 0 0 0 0 0 0 0 0 0 0 0 0 0 0 0 0 0 0 0 0 0 0 0 0 0 0 0 0 0 0 0 0 0 0 0 0 0 0 0 0 0 0 0 0 0 0 0 0 0 0 0 0 0 0 0 0 0 0 0 0 0 0 0 0 0 0 0 0 0 0 0 0 0 0 0 0 0 0 0 0 0 0 0 0 0 0 0 0 0 0 0 0 0 0 0 0 0 0 0 0 0 0 0 0 0 0 0 0 0 0 0 0 0 0 0 0 0 0 0 0 0 0 0 2 0 0 2 0 0 2 0 0 2 0 0 2 0 0 2 0 0 2 0 0 2 3 3 5 3 3 5 3 3 5 3 3 5 3 3 5 3 3 5 3 3 5 2 3 5 0 0 4 0 1 4 0 1 4 0 4 7 3 7 10 6 10 13 9 13 16 10 14 17 23 27 30 23 27 30 23 27 30 23 27 30 23 27 30 23 27 30 23 27 30 23 27 30 21 27 27 21 27 27 21 27 27 21 27 27 21 27 27 21 27 27 21 27 27 21 27 27 4 10 10 4 10 10 4 10 10 4 10 10 4 10 10 4 10 10 4 10 10 7 9 8 16 12 13 21 12 13 26 17 18 33 24 25 39 30 31 46 37 38 51 42 43 53 44 45 67 58 59 69 60 61 71 62 63 74 65 66 78 69 70 81 72 73 83 74 75 87 75 75 108 90 90 110 89 88 110 89 88 110 89 88 110 89 88 110 89 88 110 89 88 110 89 88 118 97 96 120 99 98 122 101 100 125 104 103 129 108 107 132 111 110 134 113 112 135 115 114 131 113 109 131 116 111 133 118 113 136 121 116 140 125 120 143 128 123 145 130 125 147 132 127 149 134 129 149 134 129 149 134 129 149 134 129 149 134 129 149 134 129 149 134 129 149 134 129 156 138 136 154 136 134 152 134 132 149 131 129 145 127 125 142 124 122 140 122 120 138 120 118 106 88 86 96 78 76 81 63 61 66 48 46 55 37 35 51 33 31 52 34 32 52 36 36
0 0 0 0 0 0 0 0 0 0 0 0 0 0 0 0 0 0 0 0 0 0 0 0 0 0 0 0 0 0 0 0 0 0 0 0 0 0 0 0 0 0 0 0 0 0 0 0 0 0 0 0 0 0 0 0 0 0 0 0 0 0 0 0 0 0 0 0 0 0 0 0 0 0 0 0 0 0 0 0 0 0 0 0 0 0 0 0 0 0 0 0 0 0 0 0 0 0 0 0 0 0 0 0 0 0 0 0 0 0 0 0 0 0 0 0 0 0 0 0 0 0 0 0 0 0 0 0 0 0 0 0 0 0 0 0 0 0 0 0 0 0 0 0 0 0 0 0 0 0 0 0 0 0 0 0 0 0 0 0 0 0 0 0 0 0 0 0 0 0 0 0 0 0 0 0 0 0 0 0 0 0 2 0 0 2 0 0 2 0 0 2 0 0 2 0 0 2 0 0 2 0 0 2 3 3 5 3 3 5 3 3 5 3 3 5 3 3 5 3 3 5 3 3 5 2 3 5 0 1 5 0 3 6 1 5 8 4 8 11 8 12 15 11 15 18 14 18 21 15 19 22 25 29 32 25 29 32 25 29 32 25 29 32 25 29 32 25 29 32 25 29 32 25 29 32 21 27 27 21 27 27 21 27 27 21 27 27 21 27 27 21 27 27 21 27 27 21 27 27 4 10 10 4 10 10 4 10 10 4 10 10 4 10 10 4 10 10 4 10 10 7 9 8 16 12 13 21 12 13 26 17 18 33 24 25 39 30 31 46 37 38 51 42 43 53 44 45 67 58 59 69 60 61 71 62 63 74 65 66 78 69 70 81 72 73 83 74 75 87 75 75 108 90 90 110 89 88 110 89 88 110 89 88 110 89 88 110 89 88 110 89 88 110 89 88 118 97 96 120 99 98 122 101 100 125 104 103 129 108 107 132 111 110 134 113 112 135 115 114 131 113 109 131 116 111 133 118 113 136 121 116 140 125 120 143 128 123 145 130 125 147 132 127 149 134 129 149 134 129 149 134 129 149 134 129 149 134 129 149 134 129 149 134 129 149 134 129 156 138 136 154 136 134 152 134 132 149 131 129 145 127 125 142 124 122 140 122 120 138 120 118 106 88 86 96 78 76 81 63 61 66 48 46 55 37 35 51 33 31 52 34 32 52 36 36
0 0 0 0 0 0 0 0 0 0 0 0 0 0 0 0 0 0 0 0 0 0 0 0 0 0 0 0 0 0 0 0 0 0 0 0 0 0 0 0 0 0 0 0 0 0 0 0 0 0 0 0 0 0 0 0 0 0 0 0 0 0 0 0 0 0 0 0 0 0 0 0 0 0 0 0 0 0 0 0 0 0 0 0 0 0 0 0 0 0 0 0 0 0 0 0 0 0 0 0 0 0 0 0 0 0 0 0 0 0 0 0 0 0 0 0 0 0 0 0 0 0 0 0 0 0 0 0 0 0 0 0 0 0 0 0 0 0 0 0 0 0 0 0 0 0 0 0 0 0 0 0 0 0 0 0 0 0 0 0 0 0 0 0 0 0 0 0 0 0 0 0 0 0 0 0 0 0 0 0 0 0 2 0 0 2 0 0 2 0 0 2 0 0 2 0 0 2 0 0 2 0 0 2 3 3 5 3 3 5 3 3 5 3 3 5 3 3 5 3 3 5 3 3 5 2 3 5 6 7 11 5 9 12 8 12 15 11 15 18 14 18 21 17 21 24 20 24 27 21 25 28 28 32 35 28 32 35 28 32 35 28 32 35 28 32 35 28 32 35 28 32 35 28 32 35 21 27 27 21 27 27 21 27 27 21 27 27 21 27 27 21 27 27 21 27 27 21 27 27 4 10 10 4 10 10 4 10 10 4 10 10 4 10 10 4 10 10 4 10 10 7 9 8 16 12 13 21 12 13 26 17 18 33 24 25 39 30 31 46 37 38 51 42 43 53 44 45 67 58 59 69 60 61 71 62 63 74 65 66 78 69 70 81 72 73 83 74 75 87 75 75 108 90 90 110 89 88 110 89 88 110 89 88 110 89 88 110 89 88 110 89 88 110 89 88 118 97 96 120 99 98 122 101 100 125 104 103 129 108 107 132 111 110 134 113 112 135 115 114 131 113 109 131 116 111 133 118 113 136 121 116 140 125 120 143 128 123 145 130 125 147 132 127 149 134 129 149 134 129 149 134 129 149 134 129 149 134 129 149 134 129 149 134 129 149 134 129 156 138 136 154 136 134 152 134 132 149 131 129 145 127 125 142 124 122 140 122 120 138 120 118 106 88 86 96 78 76 81 63 61 66 48 46 55 37 35 51 33 31 52 34 32 52 36 36
0 0 0 0 0 0 0 0 0 0 0 0 0 0 0 0 0 0 0 0 0 0 0 0 0 0 0 0 0 0 0 0 0 0 0 0 0 0 0 0 0 0 0 0 0 0 0 0 0 0 0 0 0 0 0 0 0 0 0 0 0 0 0 0 0 0 0 0 0 0 0 0 0 0 0 0 0 0 0 0 0 0 0 0 0 0 0 0 0 0 0 0 0 0 0 0 0 0 0 0 0 0 0 0 0 0 0 0 0 0 0 0 0 0 0 0 0 0 0 0 0 0 0 0 0 0 0 0 0 0 0 0 0 0 0 0 0 0 0 0 0 0 0 0 0 0 0 0 0 0 0 0 0 0 0 0 0 0 0 0 0 0 0 0 0 0 0 0 0 0 0 0 0 0 0 0 0 0 0 0 0 0 2 0 0 2 0 0 2 0 0 2 0 0 2 0 0 2 0 0 2 0 0 2 3 3 5 3 3 5 3 3 5 3 3 5 3 3 5 3 3 5 3 3 5 2 3 5 13 14 18 12 16 19 15 19 22 18 22 25 21 25 28 24 28 31 27 31 34 28 32 35 32 36 39 32 36 39 32 36 39 32 36 39 32 36 39 32 36 39 32 36 39 32 36 39 21 27 27 21 27 27 21 27 27 21 27 27 21 27 27 21 27 27 21 27 27 21 27 27 4 10 10 4 10 10 4 10 10 4 10 10 4 10 10 4 10 10 4 10 10 7 9 8 16 12 13 21 12 13 26 17 18 33 24 25 39 30 31 46 37 38 51 42 43 53 44 45 67 58 59 69 60 61 71 62 63 74 65 66 78 69 70 81 72 73 83 74 75 87 75 75 108 90 90 110 89 88 110 89 88 110 89 88 110 89 88 110 89 88 110 89 88 110 89 88 118 97 96 120 99 98 122 101 100 125 104 103 129 108 107 132 111 110 134 113 112 135 115 114 131 113 109 131 116 111 133 118 113 136 121 116 140 125 120 143 128 123 145 130 125 147 132 127 149 134 129 149 134 129 149 134 129 149 134 129 149 134 129 149 134 129 149 134 129 149 134 129 156 138 136 154 136 134 152 134 132 149 131 129 145 127 125 142 124 122 140 122 120 138 120 118 106 88 86 96 78 76 81 63 61 66 48 46 55 37 35 51 33 31 52 34 32 52 36 36
0 0 0 0 0 0 0 0 0 0 0 0 0 0 0 0 0 0 0 0 0 0 0 0 0 0 0 0 0 0 0 0 0 0 0 0 0 0 0 0 0 0 0 0 0 0 0 0 0 0 0 0 0 0 0 0 0 0 0 0 0 0 0 0 0 0 0 0 0 0 0 0 0 0 0 0 0 0 0 0 0 0 0 0 0 0 0 0 0 0 0 0 0 0 0 0 0 0 0 0 0 0 0 0 0 0 0 0 0 0 0 0 0 0 0 0 0 0 0 0 0 0 0 0 0 0 0 0 0 0 0 0 0 0 0 0 0 0 0 0 0 0 0 0 0 0 0 0 0 0 0 0 0 0 0 0 0 0 0 0 0 0 0 0 0 0 0 0 0 0 0 0 0 0 0 0 0 0 0 0 0 0 2 0 0 2 0 0 2 0 0 2 0 0 2 0 0 2 0 0 2 0 0 2 3 3 5 3 3 5 3 3 5 3 3 5 3 3 5 3 3 5 3 3 5 2 3 5 19 20 24 18 22 25 21 25 28 24 28 31 28 32 35 31 35 38 33 37 40 34 38 41 35 39 42 35 39 42 35 39 42 35 39 42 35 39 42 35 39 42 35 39 42 35 39 42 21 27 27 21 27 27 21 27 27 21 27 27 21 27 27 21 27 27 21 27 27 21 27 27 4 10 10 4 10 10 4 10 10 4 10 10 4 10 10 4 10 10 4 10 10 7 9 8 16 12 13 21 12 13 26 17 18 33 24 25 39 30 31 46 37 38 51 42 43 53 44 45 67 58 59 69 60 61 71 62 63 74 65 66 78 69 70 81 72 73 83 74 75 87 75 75 108 90 90 110 89 88 110 89 88 110 89 88 110 89 88 110 89 88 110 89 88 110 89 88 118 97 96 120 99 98 122 101 100 125 104 103 129 108 107 132 111 110 134 113 112 135 115 114 131 113 109 131 116 111 133 118 113 136 121 116 140 125 120 143 128 123 145 130 125 147 132 127 149 134 129 149 134 129 149 134 129 149 134 129 149 134 129 149 134 129 149 134 129 149 134 129 156 138 136 154 136 134 152 134 132 149 131 129 145 127 125 142 124 122 140 122 120 138 120 118 106 88 86 96 78 76 81 63 61 66 48 46 55 37 35 51 33 31 52 34 32 52 36 36
0 0 0 0 0 0 0 0 0 0 0 0 0 0 0 0 0 0 0 0 0 0 0 0 0 0 0 0 0 0 0 0 0 0 0 0 0 0 0 0 0 0 0 0 0 0 0 0 0 0 0 0 0 0 0 0 0 0 0 0 0 0 0 0 0 0 0 0 0 0 0 0 0 0 0 0 0 0 0 0 0 0 0 0 0 0 0 0 0 0 0 0 0 0 0 0 0 0 0 0 0 0 0 0 0 0 0 0 0 0 0 0 0 0 0 0 0 0 0 0 0 0 0 0 0 0 0 0 0 0 0 0 0 0 0 0 0 0 0 0 0 0 0 0 0 0 0 0 0 0 0 0 0 0 0 0 0 0 0 0 0 0 0 0 0 0 0 0 0 0 0 0 0 0 0 0 0 0 0 0 0 0 2 0 0 2 0 0 2 0 0 2 0 0 2 0 0 2 0 0 2 0 0 2 3 3 5 3 3 5 3 3 5 3 3 5 3 3 5 3 3 5 3 3 5 2 3 5 24 25 29 23 27 30 26 30 33 29 33 36 32 36 39 36 40 43 38 42 45 39 43 46 37 41 44 37 41 44 37 41 44 37 41 44 37 41 44 37 41 44 37 41 44 37 41 44 21 27 27 21 27 27 21 27 27 21 27 27 21 27 27 21 27 27 21 27 27 21 27 27 4 10 10 4 10 10 4 10 10 4 10 10 4 10 10 4 10 10 4 10 10 7 9 8 16 12 13 21 12 13 26 17 18 33 24 25 39 30 31 46 37 38 51 42 43 53 44 45 67 58 59 69 60 61 71 62 63 74 65 66 78 69 70 81 72 73 83 74 75 87 75 75 108 90 90 110 89 88 110 89 88 110 89 88 110 89 88 110 89 88 110 89 88 110 89 88 118 97 96 120 99 98 122 101 100 125 104 103 129 108 107 132 111 110 134 113 112 135 115 114 131 113 109 131 116 111 133 118 113 136 121 116 140 125 120 143 128 123 145 130 125 147 132 127 149 134 129 149 134 129 149 134 129 149 134 129 149 134 129 149 134 129 149 134 129 149 134 129 156 138 136 154 136 134 152 134 132 149 131 129 145 127 125 142 124 122 140 122 120 138 120 118 106 88 86 96 78 76 81 63 61 66 48 46 55 37 35 51 33 31 52 34 32 52 36 36
0 0 0 0 0 0 0 0 0 0 0 0 0 0 0 0 0 0 0 0 0 0 0 0 0 0 0 0 0 0 0 0 0 0 0 0 0 0 0 0 0 0 0 0 0 0 0 0 0 0 0 0 0 0 0 0 0 0 0 0 0 0 0 0 0 0 0 0 0 0 0 0 0 0 0 0 0 0 0 0 0 0 0 0 0 0 0 0 0 0 0 0 0 0 0 0 0 0 0 0 0 0 0 0 0 0 0 0 0 0 0 0 0 0 0 0 0 0 0 0 0 0 0 0 0 0 0 0 0 0 0 0 0 0 2 0 0 2 0 0 2 0 0 2 0 0 2 0 0 2 0 0 2 0 0 2 0 0 2 0 0 2 0 0 2 0 0 2 0 0 2 0 0 2 0 0 2 0 0 2 0 0 4 0 0 4 0 0 4 0 0 4 0 0 4 0 0 4 0 0 4 0 0 4 2 3 7 2 3 7 2 3 7 2 3 7 2 3 7 2 3 7 2 3 7 2 3 7 25 29 32 25 30 33 28 31 36 31 36 39 35 38 43 37 42 45 41 44 49 41 46 49 39 42 47 38 43 46 39 42 47 38 43 46 39 42 47 38 43 46 39 42 47 38 43 46 21 26 29 21 27 27 21 27 27 21 27 27 21 27 27 21 27 27 21 27 27 21 27 27 4 10 10 4 10 10 4 10 10 4 10 10 4 10 10 4 10 10 4 10 10 5 9 10 14 13 11 18 14 13 23 19 18 31 25 25 37 31 31 44 38 38 51 42 43 53 44 45 68 58 59 70 60 61 72 62 63 76 64 66 80 68 70 83 71 73 85 73 75 90 74 75 109 89 90 110 89 88 110 89 88 110 89 88 110 89 88 110 89 88 110 89 88 110 89 88 118 97 96 120 99 98 122 101 100 125 104 103 129 108 107 132 111 110 134 113 112 135 115 114 131 113 111 131 116 111 133 118 113 136 121 116 140 125 120 143 128 123 145 130 125 147 132 127 149 134 129 149 134 129 149 134 129 149 134 129 149 134 129 149 134 129 149 134 129 149 134 129 156 138 136 154 136 134 152 134 132 149 131 129 145 127 125 142 124 122 140 122 120 138 120 118 106 88 86 96 78 76 81 63 61 66 48 46 55 37 35 51 33 31 52 34 32 52 36 36
0 0 0 0 0 0 0 0 0 0 0 0 0 0 0 0 0 0 0 0 0 0 0 0 0 0 0 0 0 0 0 0 0 0 0 0 0 0 0 0 0 0 0 0 0 0 0 0 0 0 0 0 0 0 0 0 0 0 0 0 0 0 0 0 0 0 0 0 0 0 0 0 0 0 0 0 0 0 0 0 0 0 0 0 0 0 2 0 0 2 0 0 2 0 0 2 0 0 2 0 0 2 0 0 2 0 0 2 0 0 2 0 0 2 0 0 2 0 0 2 0 0 2 0 0 2 0 0 2 0 0 2 0 1 5 0 2 5 0 1 5 0 2 5 0 1 5 0 2 5 0 1 5 0 2 5 1 2 6 0 3 6 1 2 6 0 3 6 1 2 6 0 3 6 1 2 6 0 3 6 0 1 5 0 1 5 0 1 5 0 1 5 0 1 5 0 5 9 2 7 11 3 8 12 9 14 18 10 15 19 13 18 22 16 21 25 19 24 28 23 28 32 25 30 34 26 31 35 43 48 52 41 49 52 43 48 54 41 49 52 43 48 54 41 49 52 43 48 54 41 49 52 38 43 49 36 44 47 38 43 49 36 44 47 38 43 49 36 44 47 38 43 49 36 44 47 31 39 41 29 37 39 27 35 37 24 32 34 20 28 30 17 25 27 15 23 25 13 21 23 0 8 10 0 8 10 0 8 10 0 8 10 0 8 10 0 8 10 0 8 10 2 8 8 8 13 9 10 15 9 17 19 14 25 26 21 32 31 27 41 37 34 47 42 39 51 43 41 63 51 51 67 53 53 73 57 58 82 63 65 89 69 71 96 76 78 102 80 83 104 82 85 109 87 89 108 88 89 108 88 89 108 88 89 108 88 89 108 88 89 108 88 89 108 88 89 120 100 101 120 100 101 120 100 101 120 100 101 120 100 101 120 100 101 120 100 101 120 100 99 120 102 100 122 104 102 124 106 104 127 109 107 131 113 111 134 116 114 136 118 116 138 120 118 145 127 125 145 127 125 145 127 125 145 127 125 145 127 125 145 127 125 145 127 125 145 127 125 146 128 126 150 132 130 156 138 136 158 140 138 155 137 135 146 128 126 136 118 116 129 111 109 88 70 68 80 62 60 67 49 47 55 37 35 48 30 28 47 29 27 50 32 30 51 36 33
0 0 0 0 0 0 0 0 0 0 0 0 0 0 0 0 0 0 0 0 0 0 0 0 0 0 0 0 0 0 0 0 0 0 0 0 0 0 0 0 0 0 0 0 0 0 0 0 0 0 0 0 0 0 0 0 0 0 0 0 0 0 0 0 0 0 0 0 0 0 0 0 0 0 0 0 0 0 0 0 0 0 0 0 0 0 2 0 0 2 0 0 2 0 0 2 0 0 2 0 0 2 0 0 2 0 0 2 0 0 2 0 0 2 0 0 2 0 0 2 0 0 2 0 0 2 0 0 2 0 0 2 0 1 6 0 1 6 0 1 6 0 1 6 0 1 6 0 1 6 0 1 6 0 1 6 0 2 7 0 2 7 0 2 7 0 2 7 0 2 7 0 2 7 0 2 7 0 3 7 0 1 7 0 1 7 0 1 7 0 1 7 0 4 10 0 7 13 3 10 16 4 11 17 10 17 23 11 18 24 13 20 26 17 24 30 20 27 33 23 30 36 26 33 39 27 34 40 41 48 54 41 48 54 41 48 54 41 48 54 41 48 54 41 48 54 41 48 54 41 48 54 36 43 49 36 43 49 36 43 49 36 43 49 36 43 49 36 43 49 36 43 49 36 44 47 31 39 42 29 37 39 27 35 37 24 32 34 20 28 30 17 25 27 15 23 25 13 21 23 0 8 10 0 8 10 0 8 10 0 8 10 0 8 10 0 8 10 0 8 10 0 9 8 5 14 9 7 17 9 15 20 14 22 27 21 31 32 27 39 38 34 46 42 39 51 43 41 63 51 51 68 52 53 75 56 58 83 63 65 92 67 71 99 74 78 107 78 83 107 80 85 109 87 89 108 88 89 108 88 89 108 88 89 108 88 89 108 88 89 108 88 89 108 88 89 120 100 101 120 100 101 120 100 101 120 100 101 120 100 101 120 100 101 120 100 101 120 100 101 120 102 100 122 104 102 124 106 104 127 109 107 131 113 111 134 116 114 136 118 116 138 120 118 145 127 125 145 127 125 145 127 125 145 127 125 145 127 125 145 127 125 145 127 125 145 127 125 146 128 126 150 132 130 156 138 136 158 140 138 155 137 135 146 128 126 136 118 116 129 111 109 88 70 68 80 62 60 67 49 47 55 37 35 48 30 28 47 29 27 50 32 30 51 36 33
0 0 0 0 0 0 0 0 0 0 0 0 0 0 0 0 0 0 0 0 0 0 0 0 0 0 0 0 0 0 0 0 0 0 0 0 0 0 0 0 0 0 0 0 0 0 0 0 0 0 0 0 0 0 0 0 0 0 0 0 0 0 0 0 0 0 0 0 0 0 0 0 0 0 0 0 0 0 0 0 0 0 0 0 0 0 2 0 0 2 0 0 2 0 0 2 0 0 2 0 0 2 0 0 2 0 0 2 0 0 2 0 0 2 0 0 2 0 0 2 0 0 2 0 0 2 0 0 2 0 0 2 0 1 6 0 1 6 0 1 6 0 1 6 0 1 6 0 1 6 0 1 6 0 1 6 0 2 7 0 2 7 0 2 7 0 2 7 0 2 7 0 2 7 0 2 7 0 3 7 0 1 7 0 1 7 0 2 8 0 5 11 2 9 15 5 12 18 8 15 21 9 16 22 15 22 28 16 23 29 18 25 31 21 28 34 25 32 38 28 35 41 31 38 44 32 39 45 41 48 54 41 48 54 41 48 54 41 48 54 41 48 54 41 48 54 41 48 54 41 48 54 36 43 49 36 43 49 36 43 49 36 43 49 36 43 49 36 43 49 36 43 49 36 44 47 31 39 42 29 37 39 27 35 37 24 32 34 20 28 30 17 25 27 15 23 25 13 21 23 0 8 10 0 8 10 0 8 10 0 8 10 0 8 10 0 8 10 0 8 10 0 9 8 5 14 9 7 17 9 15 20 14 22 27 21 31 32 27 39 38 34 46 42 39 51 43 41 63 51 51 68 52 53 75 56 58 83 63 65 92 67 71 99 74 78 107 78 83 107 80 85 109 87 89 108 88 89 108 88 89 108 88 89 108 88 89 108 88 89 108 88 89 108 88 89 120 100 101 120 100 101 120 100 101 120 100 101 120 100 101 120 100 101 120 100 101 120 100 101 120 102 100 122 104 102 124 106 104 127 109 107 131 113 111 134 116 114 136 118 116 138 120 118 145 127 125 145 127 125 145 127 125 145 127 125 145 127 125 145 127 125 145 127 125 145 127 125 146 128 126 150 132 130 156 138 136 158 140 138 155 137 135 146 128 126 136 118 116 129 111 109 88 70 68 80 62 60 67 49 47 55 37 35 48 30 28 47 29 27 50 32 30 51 36 33
