P3
172 37
255
0 9 0 0 9 0 0 9 0 0 9 0 0 9 0 0 9 0 0 9 0 0 9 0 0 9 0 0 9 0 0 9 0 0 9 0 0 9 0 0 9 0 0 9 0 0 9 0 0 9 0 0 9 0 0 9 0 0 9 0 0 9 0 0 9 0 0 9 0 0 9 0 0 9 0 0 9 0 0 9 0 0 9 0 0 9 0 0 9 0 0 9 0 0 9 0 0 9 0 0 9 0 0 9 0 0 9 0 0 9 0 0 9 0 0 9 0 0 9 0 0 9 0 0 9 0 0 9 0 0 9 0 0 9 0 0 9 0 0 9 0 0 9 0 0 9 0 0 9 0 0 9 0 0 9 0 0 9 0 0 9 0 0 9 0 0 9 0 0 9 0 0 9 0 0 9 0 0 9 0 0 9 0 0 9 0 0 9 0 0 9 0 0 9 0 0 9 0 0 9 0 0 9 0 0 9 0 0 9 0 0 9 0 0 9 0 0 9 0 0 9 0 0 9 0 0 9 0 0 14 2 0 14 2 0 14 2 0 14 2 0 14 2 0 14 2 0 14 2 0 14 2 0 24 12 0 24 12 0 24 12 0 24 12 0 24 12 0 24 12 0 24 12 0 24 12 2 30 18 2 30 18 2 30 18 2 30 18 2 30 18 2 30 18 2 30 18 2 30 18 5 33 21 3 31 19 1 29 17 0 26 14 0 22 10 0 19 7 0 17 5 0 15 3 0 11 0 0 11 0 0 11 0 0 11 0 0 11 0 0 11 0 0 11 0 0 11 0 0 17 3 0 19 5 0 24 10 3 31 17 9 37 23 16 44 30 21 49 35 23 51 37 35 63 49 36 64 50 39 67 53 42 70 56 45 73 59 49 77 63 51 79 65 52 80 66 68 96 82 69 97 83 72 100 86 75 103 89 78 106 92 82 110 96 84 112 98 88 112 99 110 123 114 106 116 108 97 107 99 84 94 86 70 80 72 57 67 59 48 58 50 42 52 44 31 41 33 31 41 33 31 41 33 31 41 33 31 41 33 31 41 33 31 41 33 34 39 33 38 33 30 41 31 30 42 30 30 41 31 30 42 30 30 41 31 30 42 30 30 41 31 30 46 34 34 45 35 34 46 34 34 45 35 34 46 34 34 45 35 34 46 34 34 46 34 34
0 8 0 0 9 0 0 8 0 0 9 0 0 8 0 0 9 0 0 8 0 0 9 0 0 8 0 0 9 0 0 8 0 0 9 0 0 8 0 0 9 0 0 8 0 0 9 0 0 8 0 0 9 0 0 8 0 0 9 0 0 8 0 0 9 0 0 8 0 0 9 0 0 8 0 0 9 0 0 8 0 0 9 0 0 8 0 0 9 0 0 8 0 0 9 0 0 8 0 0 9 0 0 8 0 0 9 0 0 8 0 0 9 0 0 8 0 0 9 0 0 8 0 0 9 0 0 8 0 0 9 0 0 8 0 0 9 0 0 8 0 0 9 0 0 8 0 0 9 0 0 8 0 0 9 0 0 8 0 0 9 0 0 8 0 0 9 0 0 8 0 0 9 0 0 8 0 0 9 0 0 8 0 0 9 0 0 8 0 0 9 0 0 8 0 0 9 0 0 8 0 0 9 0 0 8 0 0 9 0 0 8 0 0 9 0 0 8 0 0 9 0 0 8 0 0 9 0 0 13 2 0 14 2 0 13 2 0 14 2 0 13 2 0 14 2 0 13 2 0 14 2 0 23 12 0 24 12 0 23 12 0 24 12 0 23 12 0 24 12 0 23 12 0 24 12 2 29 20 2 29 20 2 29 20 2 29 20 2 29 20 2 29 20 2 29 20 2 29 20 5 32 23 3 30 21 1 28 19 0 25 16 0 21 12 0 18 9 0 16 7 0 15 3 0 10 0 0 10 0 0 10 0 0 10 0 0 10 0 0 10 0 0 10 0 0 10 0 0 16 5 0 18 5 0 23 12 4 30 17 10 36 25 17 43 30 22 48 37 24 50 37 34 62 48 35 63 49 37 65 51 41 69 55 44 72 58 47 75 61 50 78 64 51 79 65 67 95 81 68 96 82 70 98 84 74 102 88 77 105 91 80 108 94 83 111 97 88 110 98 111 122 114 108 115 108 99 106 99 86 93 86 72 79 72 59 66 59 50 57 50 44 51 44 33 40 33 33 40 33 33 40 33 33 40 33 33 40 33 33 40 33 33 40 33 36 38 33 38 33 30 41 31 30 41 31 30 41 31 30 41 31 30 41 31 30 41 31 30 41 31 30 45 35 34 45 35 34 45 35 34 45 35 34 45 35 34 45 35 34 45 35 34 45 35 34
0 3 0 0 3 0 0 3 0 0 3 0 0 3 0 0 3 0 0 3 0 0 3 0 0 3 0 0 3 0 0 3 0 0 3 0 0 3 0 0 3 0 0 3 0 0 3 0 0 3 0 0 3 0 0 3 0 0 3 0 0 3 0 0 3 0 0 3 0 0 3 0 0 3 0 0 3 0 0 3 0 0 3 0 0 3 0 0 3 0 0 3 0 0 3 0 0 3 0 0 3 0 0 3 0 0 3 0 0 3 0 0 3 0 0 3 0 0 3 0 0 3 0 0 3 0 0 3 0 0 3 0 0 3 0 0 3 0 0 3 0 0 3 0 0 3 0 0 3 0 0 3 0 0 3 0 0 3 0 0 3 0 0 3 0 0 3 0 0 3 0 0 3 0 0 3 0 0 3 0 0 3 0 0 3 0 0 3 0 0 3 0 0 3 0 0 3 0 0 3 0 0 3 0 0 3 0 0 3 0 0 3 0 0 3 0 0 3 0 0 3 0 0 3 0 0 3 0 0 4 0 0 4 0 0 4 0 0 7 3 0 11 7 2 14 10 5 16 12 6 18 14 7 18 14 6 18 14 7 18 14 6 18 14 7 18 14 6 18 14 7 18 14 6 18 14 8 23 20 8 23 20 8 23 20 8 23 20 8 23 20 8 23 20 8 23 20 8 23 20 5 20 17 9 24 21 15 30 27 17 32 29 14 29 26 5 20 17 0 10 7 0 4 2 0 4 0 0 4 0 0 4 0 0 4 0 0 4 0 0 4 0 0 4 0 0 4 0 0 4 0 0 5 0 0 10 6 6 17 11 12 23 19 19 30 24 24 35 31 26 37 31 37 50 41 39 52 42 41 54 44 44 57 47 48 61 51 51 64 54 53 66 56 55 68 58 70 83 73 71 84 74 74 87 77 77 90 80 80 93 83 84 97 87 86 99 89 88 100 90 78 83 77 84 85 80 87 88 83 86 87 82 79 80 75 67 68 63 54 55 50 46 47 42 36 37 32 36 37 32 36 37 32 36 37 32 36 37 32 36 37 32 36 37 32 36 37 32 37 33 30 37 33 30 37 33 30 37 33 30 37 33 30 37 33 30 37 33 30 37 33 30 37 33 30 37 33 30 37 33 30 37 33 30 37 33 30 37 33 30 37 33 30 38 33 30
0 0 0 0 0 0 0 0 0 0 0 0 0 0 0 0 0 0 0 0 0 0 0 0 0 0 0 0 0 0 0 0 0 0 0 0 0 0 0 0 0 0 0 0 0 0 0 0 0 0 0 0 0 0 0 0 0 0 0 0 0 0 0 0 0 0 0 0 0 0 0 0 0 0 0 0 0 0 0 0 0 0 0 0 0 0 0 0 0 0 0 0 0 0 0 0 0 0 0 0 0 0 0 0 0 0 0 0 0 0 0 0 0 0 0 0 0 0 0 0 0 0 0 0 0 0 0 0 0 0 0 0 0 0 0 0 0 0 0 0 0 0 0 0 0 0 0 0 0 0 0 0 0 0 0 0 0 0 0 0 0 0 0 0 0 0 0 0 0 0 0 0 0 0 0 0 0 0 0 0 0 0 0 0 0 0 0 0 0 0 0 0 0 0 0 0 0 0 0 0 0 0 0 0 0 0 0 0 0 0 0 0 0 0 0 0 0 0 0 0 0 0 0 0 0 0 1 0 0 1 0 0 1 0 0 1 0 0 4 3 4 8 7 7 11 10 9 13 12 11 15 14 11 15 14 11 15 14 11 15 14 11 15 14 11 15 14 11 15 14 11 15 14 10 16 14 14 19 22 12 20 22 12 20 22 12 20 22 12 20 22 12 20 22 12 20 22 12 20 22 9 17 19 13 21 23 19 27 29 21 29 31 18 26 28 9 17 19 0 7 9 0 2 2 0 1 2 0 1 0 0 1 0 0 1 0 0 1 0 0 1 0 0 1 0 0 1 0 0 1 0 0 2 1 5 7 6 12 14 13 18 20 19 25 27 26 30 32 31 30 35 31 42 47 41 43 50 42 45 52 44 48 55 47 52 59 51 55 62 54 57 64 56 59 66 58 73 80 72 74 81 73 76 83 75 80 87 79 83 90 82 86 93 85 89 96 88 91 96 89 81 82 77 85 84 80 88 87 83 87 86 82 80 79 75 68 67 63 55 54 50 47 46 42 37 36 32 37 36 32 37 36 32 37 36 32 37 36 32 37 36 32 37 36 32 37 36 32 35 34 30 35 34 30 35 34 30 35 34 30 35 34 30 35 34 30 35 34 30 35 34 30 35 34 30 35 34 30 35 34 30 35 34 30 35 34 30 35 34 30 35 34 30 35 34 30
0 0 0 0 0 0 0 0 0 0 0 0 0 0 0 0 0 0 0 0 0 0 0 0 0 0 0 0 0 0 0 0 0 0 0 0 0 0 0 0 0 0 0 0 0 0 0 0 0 0 0 0 0 0 0 0 0 0 0 0 0 0 0 0 0 0 0 0 0 0 0 0 0 0 0 0 0 0 0 0 0 0 0 0 0 0 0 0 0 0 0 0 0 0 0 0 0 0 0 0 0 0 0 0 0 0 0 0 0 0 0 0 0 0 0 0 0 0 0 0 0 0 0 0 0 0 0 0 0 0 0 0 0 0 0 0 0 0 0 0 0 0 0 0 0 0 0 0 0 0 0 0 0 0 0 0 0 0 0 0 0 0 0 0 0 0 0 0 0 0 0 0 0 0 0 0 0 0 0 0 0 0 0 0 0 0 0 0 0 0 0 0 0 0 0 0 0 0 0 0 0 0 0 0 0 0 0 0 0 0 0 0 0 0 0 0 0 0 0 0 0 0 0 0 0 0 1 0 0 1 0 0 1 0 0 1 0 0 4 3 4 8 7 7 11 10 9 13 12 11 15 14 11 15 14 11 15 14 11 15 14 11 15 14 11 15 14 11 15 14 11 15 14 10 16 14 14 19 22 12 20 22 12 20 22 12 20 22 12 20 22 12 20 22 12 20 22 12 20 22 9 17 19 13 21 23 19 27 29 21 29 31 18 26 28 9 17 19 0 7 9 0 2 2 0 1 2 0 1 0 0 1 0 0 1 0 0 1 0 0 1 0 0 1 0 0 1 0 0 1 0 0 2 1 5 7 6 12 14 13 18 20 19 25 27 26 30 32 31 30 35 31 42 47 41 43 50 42 45 52 44 48 55 47 52 59 51 55 62 54 57 64 56 59 66 58 70 77 69 72 79 71 74 81 73 77 84 76 81 88 80 84 91 83 86 93 85 89 94 87 81 82 77 85 84 80 88 87 83 87 86 82 80 79 75 68 67 63 55 54 50 47 46 42 37 36 32 37 36 32 37 36 32 37 36 32 37 36 32 37 36 32 37 36 32 37 36 32 35 34 30 35 34 30 35 34 30 35 34 30 35 34 30 35 34 30 35 34 30 35 34 30 35 34 30 35 34 30 35 34 30 35 34 30 35 34 30 35 34 30 35 34 30 35 34 30
0 0 0 0 0 0 0 0 0 0 0 0 0 0 0 0 0 0 0 0 0 0 0 0 0 0 0 0 0 0 0 0 0 0 0 0 0 0 0 0 0 0 0 0 0 0 0 0 0 0 0 0 0 0 0 0 0 0 0 0 0 0 0 0 0 0 0 0 0 0 0 0 0 0 0 0 0 0 0 0 0 0 0 0 0 0 0 0 0 0 0 0 0 0 0 0 0 0 0 0 0 0 0 0 0 0 0 0 0 0 0 0 0 0 0 0 0 0 0 0 0 0 0 0 0 0 0 0 0 0 0 0 0 0 0 0 0 0 0 0 0 0 0 0 0 0 0 0 0 0 0 0 0 0 0 0 0 0 0 0 0 0 0 0 0 0 0 0 0 0 0 0 0 0 0 0 0 0 0 0 0 0 0 0 0 0 0 0 0 0 0 0 0 0 0 0 0 0 0 0 0 0 0 0 0 0 0 0 0 0 0 0 0 0 0 0 0 0 0 0 0 0 0 0 0 0 1 0 0 1 0 0 1 0 0 1 0 0 4 3 4 8 7 7 11 10 9 13 12 11 15 14 11 15 14 11 15 14 11 15 14 11 15 14 11 15 14 11 15 14 11 15 14 10 16 14 14 19 22 12 20 22 12 20 22 12 20 22 12 20 22 12 20 22 12 20 22 12 20 22 9 17 19 13 21 23 19 27 29 21 29 31 18 26 28 9 17 19 0 7 9 0 2 2 0 1 2 0 1 0 0 1 0 0 1 0 0 1 0 0 1 0 0 1 0 0 1 0 0 1 0 0 2 1 5 7 6 12 14 13 18 20 19 25 27 26 30 32 31 30 35 31 42 47 41 43 50 42 45 52 44 48 55 47 52 59 51 55 62 54 57 64 56 59 66 58 67 74 66 68 75 67 71 78 70 74 81 73 77 84 76 81 88 80 83 90 82 85 90 83 81 82 77 85 84 80 88 87 83 87 86 82 80 79 75 68 67 63 55 54 50 47 46 42 37 36 32 37 36 32 37 36 32 37 36 32 37 36 32 37 36 32 37 36 32 37 36 32 35 34 30 35 34 30 35 34 30 35 34 30 35 34 30 35 34 30 35 34 30 35 34 30 35 34 30 35 34 30 35 34 30 35 34 30 35 34 30 35 34 30 35 34 30 35 34 30
0 0 0 0 0 0 0 0 0 0 0 0 0 0 0 0 0 0 0 0 0 0 0 0 0 0 0 0 0 0 0 0 0 0 0 0 0 0 0 0 0 0 0 0 0 0 0 0 0 0 0 0 0 0 0 0 0 0 0 0 0 0 0 0 0 0 0 0 0 0 0 0 0 0 0 0 0 0 0 0 0 0 0 0 0 0 0 0 0 0 0 0 0 0 0 0 0 0 0 0 0 0 0 0 0 0 0 0 0 0 0 0 0 0 0 0 0 0 0 0 0 0 0 0 0 0 0 0 0 0 0 0 0 0 0 0 0 0 0 0 0 0 0 0 0 0 0 0 0 0 0 0 0 0 0 0 0 0 0 0 0 0 0 0 0 0 0 0 0 0 0 0 0 0 0 0 0 0 0 0 0 0 0 0 0 0 0 0 0 0 0 0 0 0 0 0 0 0 0 0 0 0 0 0 0 0 0 0 0 0 0 0 0 0 0 0 0 0 0 0 0 0 0 0 0 0 1 0 0 1 0 0 1 0 0 1 0 0 4 3 4 8 7 7 11 10 9 13 12 11 15 14 11 15 14 11 15 14 11 15 14 11 15 14 11 15 14 11 15 14 11 15 14 10 16 14 14 19 22 12 20 22 12 20 22 12 20 22 12 20 22 12 20 22 12 20 22 12 20 22 9 17 19 13 21 23 19 27 29 21 29 31 18 26 28 9 17 19 0 7 9 0 2 2 0 1 2 0 1 0 0 1 0 0 1 0 0 1 0 0 1 0 0 1 0 0 1 0 0 1 0 0 2 1 5 7 6 12 14 13 18 20 19 25 27 26 30 32 31 30 35 31 42 47 41 43 50 42 45 52 44 48 55 47 52 59 51 55 62 54 57 64 56 59 66 58 64 71 63 65 72 64 67 74 66 71 78 70 74 81 73 77 84 76 80 87 79 82 87 80 81 82 77 85 84 80 88 87 83 87 86 82 80 79 75 68 67 63 55 54 50 47 46 42 37 36 32 37 36 32 37 36 32 37 36 32 37 36 32 37 36 32 37 36 32 37 36 32 35 34 30 35 34 30 35 34 30 35 34 30 35 34 30 35 34 30 35 34 30 35 34 30 35 34 30 35 34 30 35 34 30 35 34 30 35 34 30 35 34 30 35 34 30 35 34 30
0 0 0 0 0 0 0 0 0 0 0 0 0 0 0 0 0 0 0 0 0 0 0 0 0 0 0 0 0 0 0 0 0 0 0 0 0 0 0 0 0 0 0 0 0 0 0 0 0 0 0 0 0 0 0 0 0 0 0 0 0 0 0 0 0 0 0 0 0 0 0 0 0 0 0 0 0 0 0 0 0 0 0 0 0 0 0 0 0 0 0 0 0 0 0 0 0 0 0 0 0 0 0 0 0 0 0 0 0 0 0 0 0 0 0 0 0 0 0 0 0 0 0 0 0 0 0 0 0 0 0 0 0 0 0 0 0 0 0 0 0 0 0 0 0 0 0 0 0 0 0 0 0 0 0 0 0 0 0 0 0 0 0 0 0 0 0 0 0 0 0 0 0 0 0 0 0 0 0 0 0 0 0 0 0 0 0 0 0 0 0 0 0 0 0 0 0 0 0 0 0 0 0 0 0 0 0 0 0 0 0 0 0 0 0 0 0 0 0 0 0 0 0 0 0 0 1 0 0 1 0 0 1 0 0 1 0 0 4 3 4 8 7 7 11 10 9 13 12 11 15 14 11 15 14 11 15 14 11 15 14 11 15 14 11 15 14 11 15 14 11 15 14 10 16 14 14 19 22 12 20 22 12 20 22 12 20 22 12 20 22 12 20 22 12 20 22 12 20 22 9 17 19 13 21 23 19 27 29 21 29 31 18 26 28 9 17 19 0 7 9 0 2 2 0 1 2 0 1 0 0 1 0 0 1 0 0 1 0 0 1 0 0 1 0 0 1 0 0 1 0 0 2 1 5 7 6 12 14 13 18 20 19 25 27 26 30 32 31 30 35 31 42 47 41 43 50 42 45 52 44 48 55 47 52 59 51 55 62 54 57 64 56 59 66 58 60 67 59 62 69 61 64 71 63 67 74 66 71 78 70 74 81 73 76 83 75 79 84 77 81 82 77 85 84 80 88 87 83 87 86 82 80 79 75 68 67 63 55 54 50 47 46 42 37 36 32 37 36 32 37 36 32 37 36 32 37 36 32 37 36 32 37 36 32 37 36 32 35 34 30 35 34 30 35 34 30 35 34 30 35 34 30 35 34 30 35 34 30 35 34 30 35 34 30 35 34 30 35 34 30 35 34 30 35 34 30 35 34 30 35 34 30 35 34 30
0 0 0 0 0 0 0 0 0 0 0 0 0 0 0 0 0 0 0 0 0 0 0 0 0 0 0 0 0 0 0 0 0 0 0 0 0 0 0 0 0 0 0 0 0 0 0 0 0 0 0 0 0 0 0 0 0 0 0 0 0 0 0 0 0 0 0 0 0 0 0 0 0 0 0 0 0 0 0 0 0 0 0 0 0 0 0 0 0 0 0 0 0 0 0 0 0 0 0 0 0 0 0 0 0 0 0 0 0 0 0 0 0 0 0 0 0 0 0 0 0 0 0 0 0 0 0 0 0 0 0 0 0 0 0 0 0 0 0 0 0 0 0 0 0 0 0 0 0 0 0 0 0 0 0 0 0 0 0 0 0 0 0 0 0 0 0 0 0 0 0 0 0 0 0 0 0 0 0 0 0 0 0 0 0 0 0 0 0 0 0 0 0 0 0 0 0 0 0 0 0 0 0 0 0 0 0 0 0 0 0 0 0 0 0 0 0 0 0 0 0 0 0 0 0 0 1 0 0 1 0 0 1 0 0 1 0 0 4 3 4 8 7 7 11 10 9 13 12 11 15 14 11 15 14 11 15 14 11 15 14 11 15 14 11 15 14 11 15 14 11 15 14 10 16 14 14 19 22 12 20 22 12 20 22 12 20 22 12 20 22 12 20 22 12 20 22 12 20 22 9 17 19 13 21 23 19 27 29 21 29 31 18 26 28 9 17 19 0 7 9 0 2 2 0 1 2 0 1 0 0 1 0 0 1 0 0 1 0 0 1 0 0 1 0 0 1 0 0 1 0 0 2 1 5 7 6 12 14 13 18 20 19 25 27 26 30 32 31 30 35 31 42 47 41 43 50 42 45 52 44 48 55 47 52 59 51 55 62 54 57 64 56 59 66 58 58 65 57 59 66 58 62 69 61 65 72 64 68 75 67 72 79 71 74 81 73 76 81 74 81 82 77 85 84 80 88 87 83 87 86 82 80 79 75 68 67 63 55 54 50 47 46 42 37 36 32 37 36 32 37 36 32 37 36 32 37 36 32 37 36 32 37 36 32 37 36 32 35 34 30 35 34 30 35 34 30 35 34 30 35 34 30 35 34 30 35 34 30 35 34 30 35 34 30 35 34 30 35 34 30 35 34 30 35 34 30 35 34 30 35 34 30 35 34 30
0 0 0 0 0 0 0 0 0 0 0 0 0 0 0 0 0 0 0 0 0 0 0 0 0 0 0 0 0 0 0 0 0 0 0 0 0 0 0 0 0 0 0 0 0 0 0 0 0 0 0 0 0 0 0 0 0 0 0 0 0 0 0 0 0 0 0 0 0 0 0 0 0 0 0 0 0 0 0 0 0 0 0 0 0 0 0 0 0 0 0 0 0 0 0 0 0 0 0 0 0 0 0 0 0 0 0 0 0 0 0 0 0 0 0 0 0 0 0 0 0 0 0 0 0 0 0 0 0 0 0 0 0 0 0 0 0 0 0 0 0 0 0 0 0 0 0 0 0 0 0 0 0 0 0 0 0 0 0 0 0 0 0 0 0 0 0 0 0 0 0 0 0 0 0 0 0 0 0 0 0 0 0 0 0 0 0 0 0 0 0 0 0 0 0 0 0 0 0 0 0 0 0 0 0 0 0 0 0 0 0 0 0 0 0 0 0 0 0 0 0 0 0 0 0 0 1 0 0 1 0 0 1 0 0 1 0 0 4 3 4 8 7 7 11 10 9 13 12 11 15 14 11 15 14 11 15 14 11 15 14 11 15 14 11 15 14 11 15 14 11 15 14 10 16 14 14 19 22 12 20 22 12 20 22 12 20 22 12 20 22 12 20 22 12 20 22 12 20 22 9 17 19 13 21 23 19 27 29 21 29 31 18 26 28 9 17 19 0 7 9 0 2 2 0 1 2 0 1 0 0 1 0 0 1 0 0 1 0 0 1 0 0 1 0 0 1 0 0 1 0 0 2 1 5 7 6 12 14 13 18 20 19 25 27 26 30 32 31 30 35 31 42 47 41 43 50 42 45 52 44 48 55 47 52 59 51 55 62 54 57 64 56 59 66 58 57 64 56 58 65 57 60 67 59 64 71 63 67 74 66 70 77 69 73 80 72 75 80 73 81 82 77 85 84 80 88 87 83 87 86 82 80 79 75 68 67 63 55 54 50 47 46 42 37 36 32 37 36 32 37 36 32 37 36 32 37 36 32 37 36 32 37 36 32 37 36 32 35 34 30 35 34 30 35 34 30 35 34 30 35 34 30 35 34 30 35 34 30 35 34 30 35 34 30 35 34 30 35 34 30 35 34 30 35 34 30 35 34 30 35 34 30 35 34 30
0 0 0 0 0 0 0 0 0 0 0 0 0 0 0 0 0 0 0 0 0 0 0 0 0 0 0 0 0 0 0 0 0 0 0 0 0 0 0 0 0 0 0 0 0 0 0 0 0 0 0 0 0 0 0 0 0 0 0 0 0 0 0 0 0 0 0 0 0 0 0 0 0 0 0 0 0 0 0 0 0 0 0 0 0 0 0 0 0 0 0 0 0 0 0 0 0 0 0 0 0 0 0 0 0 0 0 0 0 0 0 0 0 0 0 0 0 0 0 0 0 0 0 0 0 0 0 0 0 0 0 0 0 0 0 0 0 0 0 0 0 0 0 0 0 0 0 0 0 0 0 0 0 0 0 0 0 0 0 0 0 0 0 0 0 0 0 0 0 0 0 0 0 0 0 0 0 0 0 0 0 0 0 0 0 0 0 0 0 0 0 0 0 0 0 0 0 0 0 0 0 0 0 0 0 0 0 0 0 0 0 0 0 0 0 0 0 0 0 0 0 0 0 0 0 0 1 0 3 5 4 1 5 4 1 5 4 1 5 4 1 5 4 1 5 4 1 5 4 1 5 4 9 13 12 9 13 12 9 13 12 9 13 12 9 13 12 9 13 12 9 13 12 8 14 12 23 28 31 21 29 31 21 29 31 21 29 31 21 29 31 21 29 31 21 29 31 21 29 31 15 23 25 13 21 23 11 19 21 8 16 18 4 12 14 1 9 11 0 7 9 0 5 5 0 1 2 0 1 0 0 1 0 0 1 0 0 1 0 0 1 0 0 1 0 0 1 0 0 1 0 0 2 1 2 4 3 5 7 6 9 11 10 12 14 13 14 16 15 14 19 15 39 44 38 39 46 38 42 49 41 45 52 44 48 55 47 52 59 51 54 61 53 55 62 54 64 71 63 64 71 63 64 71 63 64 71 63 64 71 63 64 71 63 64 71 63 65 70 63 76 77 72 76 75 71 74 73 69 70 69 65 67 66 62 64 63 59 61 60 56 60 59 55 31 30 26 31 30 26 31 30 26 31 30 26 31 30 26 31 30 26 31 30 26 31 30 26 30 29 25 30 29 25 30 29 25 30 29 25 30 29 25 30 29 25 30 29 25 30 29 25 31 30 26 31 30 26 31 30 26 31 30 26 31 30 26 31 30 26 31 30 26 31 30 26
0 0 0 0 0 0 0 0 0 0 0 0 0 0 0 0 0 0 0 0 0 0 0 0 0 0 0 0 0 0 0 0 0 0 0 0 0 0 0 0 0 0 0 0 0 0 0 0 0 0 0 0 0 0 0 0 0 0 0 0 0 0 0 0 0 0 0 0 0 0 0 0 0 0 0 0 0 0 0 0 0 0 0 0 0 0 0 0 0 0 0 0 0 0 0 0 0 0 0 0 0 0 0 0 0 0 0 0 0 0 0 0 0 0 0 0 0 0 0 0 0 0 0 0 0 0 0 0 0 0 0 0 0 0 0 0 0 0 0 0 0 0 0 0 0 0 0 0 0 0 0 0 0 0 0 0 0 0 0 0 0 0 0 0 0 0 0 0 0 0 0 0 0 0 0 0 0 0 0 0 0 0 0 0 0 0 0 0 0 0 0 0 0 0 0 0 0 0 0 0 0 0 0 0 0 0 0 0 0 0 0 0 0 0 0 0 0 0 0 0 0 0 0 0 0 0 1 0 3 5 4 1 5 4 1 5 4 1 5 4 1 5 4 1 5 4 1 5 4 1 5 4 9 13 12 9 13 12 9 13 12 9 13 12 9 13 12 9 13 12 9 13 12 8 14 12 23 28 31 21 29 31 21 29 31 21 29 31 21 29 31 21 29 31 21 29 31 21 29 31 15 23 25 13 21 23 11 19 21 8 16 18 4 12 14 1 9 11 0 7 9 0 5 5 0 1 2 0 1 0 0 1 0 0 1 0 0 1 0 0 1 0 0 1 0 0 1 0 0 1 0 0 2 1 2 4 3 5 7 6 9 11 10 12 14 13 14 16 15 14 19 15 38 43 37 38 45 37 40 47 39 44 51 43 47 54 46 50 57 49 53 60 52 54 61 53 62 69 61 62 69 61 62 69 61 62 69 61 62 69 61 62 69 61 62 69 61 63 68 61 75 76 71 75 74 70 72 71 67 69 68 64 66 65 61 62 61 57 60 59 55 59 58 54 31 30 26 31 30 26 31 30 26 31 30 26 31 30 26 31 30 26 31 30 26 31 30 26 30 29 25 30 29 25 30 29 25 30 29 25 30 29 25 30 29 25 30 29 25 30 29 25 31 30 26 31 30 26 31 30 26 31 30 26 31 30 26 31 30 26 31 30 26 31 30 26
0 0 0 0 0 0 0 0 0 0 0 0 0 0 0 0 0 0 0 0 0 0 0 0 0 0 0 0 0 0 0 0 0 0 0 0 0 0 0 0 0 0 0 0 0 0 0 0 0 0 0 0 0 0 0 0 0 0 0 0 0 0 0 0 0 0 0 0 0 0 0 0 0 0 0 0 0 0 0 0 0 0 0 0 0 0 0 0 0 0 0 0 0 0 0 0 0 0 0 0 0 0 0 0 0 0 0 0 0 0 0 0 0 0 0 0 0 0 0 0 0 0 0 0 0 0 0 0 0 0 0 0 0 0 0 0 0 0 0 0 0 0 0 0 0 0 0 0 0 0 0 0 0 0 0 0 0 0 0 0 0 0 0 0 0 0 0 0 0 0 0 0 0 0 0 0 0 0 0 0 0 0 0 0 0 0 0 0 0 0 0 0 0 0 0 0 0 0 0 0 0 0 0 0 0 0 0 0 0 0 0 0 0 0 0 0 0 0 0 0 0 0 0 0 0 0 1 0 3 5 4 1 5 4 1 5 4 1 5 4 1 5 4 1 5 4 1 5 4 1 5 4 9 13 12 9 13 12 9 13 12 9 13 12 9 13 12 9 13 12 9 13 12 8 14 12 23 28 31 21 29 31 21 29 31 21 29 31 21 29 31 21 29 31 21 29 31 21 29 31 15 23 25 13 21 23 11 19 21 8 16 18 4 12 14 1 9 11 0 7 9 0 5 5 0 1 2 0 1 0 0 1 0 0 1 0 0 1 0 0 1 0 0 1 0 0 1 0 0 1 0 0 2 1 2 4 3 5 7 6 9 11 10 12 14 13 14 16 15 14 19 15 35 40 34 36 43 35 38 45 37 41 48 40 45 52 44 48 55 47 50 57 49 52 59 51 60 67 59 60 67 59 60 67 59 60 67 59 60 67 59 60 67 59 60 67 59 61 66 59 73 74 69 72 71 67 70 69 65 67 66 62 63 62 58 60 59 55 58 57 53 56 55 51 31 30 26 31 30 26 31 30 26 31 30 26 31 30 26 31 30 26 31 30 26 31 30 26 30 29 25 30 29 25 30 29 25 30 29 25 30 29 25 30 29 25 30 29 25 30 29 25 31 30 26 31 30 26 31 30 26 31 30 26 31 30 26 31 30 26 31 30 26 31 30 26
0 0 0 0 0 0 0 0 0 0 0 0 0 0 0 0 0 0 0 0 0 0 0 0 0 0 0 0 0 0 0 0 0 0 0 0 0 0 0 0 0 0 0 0 0 0 0 0 0 0 0 0 0 0 0 0 0 0 0 0 0 0 0 0 0 0 0 0 0 0 0 0 0 0 0 0 0 0 0 0 0 0 0 0 0 0 0 0 0 0 0 0 0 0 0 0 0 0 0 0 0 0 0 0 0 0 0 0 0 0 0 0 0 0 0 0 0 0 0 0 0 0 0 0 0 0 0 0 0 0 0 0 0 0 0 0 0 0 0 0 0 0 0 0 0 0 0 0 0 0 0 0 0 0 0 0 0 0 0 0 0 0 0 0 0 0 0 0 0 0 0 0 0 0 0 0 0 0 0 0 0 0 0 0 0 0 0 0 0 0 0 0 0 0 0 0 0 0 0 0 0 0 0 0 0 0 0 0 0 0 0 0 0 0 0 0 0 0 0 0 0 0 0 0 0 0 1 0 3 5 4 1 5 4 1 5 4 1 5 4 1 5 4 1 5 4 1 5 4 1 5 4 9 13 12 9 13 12 9 13 12 9 13 12 9 13 12 9 13 12 9 13 12 8 14 12 23 28 31 21 29 31 21 29 31 21 29 31 21 29 31 21 29 31 21 29 31 21 29 31 15 23 25 13 21 23 11 19 21 8 16 18 4 12 14 1 9 11 0 7 9 0 5 5 0 1 2 0 1 0 0 1 0 0 1 0 0 1 0 0 1 0 0 1 0 0 1 0 0 1 0 0 2 1 2 4 3 5 7 6 9 11 10 12 14 13 14 16 15 14 19 15 32 37 31 32 39 31 35 42 34 38 45 37 41 48 40 45 52 44 47 54 46 48 55 47 57 64 56 57 64 56 57 64 56 57 64 56 57 64 56 57 64 56 57 64 56 58 63 56 69 70 65 69 68 64 67 66 62 63 62 58 60 59 55 57 56 52 54 53 49 53 52 48 31 30 26 31 30 26 31 30 26 31 30 26 31 30 26 31 30 26 31 30 26 31 30 26 30 29 25 30 29 25 30 29 25 30 29 25 30 29 25 30 29 25 30 29 25 30 29 25 31 30 26 31 30 26 31 30 26 31 30 26 31 30 26 31 30 26 31 30 26 31 30 26
0 0 0 0 0 0 0 0 0 0 0 0 0 0 0 0 0 0 0 0 0 0 0 0 0 0 0 0 0 0 0 0 0 0 0 0 0 0 0 0 0 0 0 0 0 0 0 0 0 0 0 0 0 0 0 0 0 0 0 0 0 0 0 0 0 0 0 0 0 0 0 0 0 0 0 0 0 0 0 0 0 0 0 0 0 0 0 0 0 0 0 0 0 0 0 0 0 0 0 0 0 0 0 0 0 0 0 0 0 0 0 0 0 0 0 0 0 0 0 0 0 0 0 0 0 0 0 0 0 0 0 0 0 0 0 0 0 0 0 0 0 0 0 0 0 0 0 0 0 0 0 0 0 0 0 0 0 0 0 0 0 0 0 0 0 0 0 0 0 0 0 0 0 0 0 0 0 0 0 0 0 0 0 0 0 0 0 0 0 0 0 0 0 0 0 0 0 0 0 0 0 0 0 0 0 0 0 0 0 0 0 0 0 0 0 0 0 0 0 0 0 0 0 0 0 0 1 0 3 5 4 1 5 4 1 5 4 1 5 4 1 5 4 1 5 4 1 5 4 1 5 4 9 13 12 9 13 12 9 13 12 9 13 12 9 13 12 9 13 12 9 13 12 8 14 12 23 28 31 21 29 31 21 29 31 21 29 31 21 29 31 21 29 31 21 29 31 21 29 31 15 23 25 13 21 23 11 19 21 8 16 18 4 12 14 1 9 11 0 7 9 0 5 5 0 1 2 0 1 0 0 1 0 0 1 0 0 1 0 0 1 0 0 1 0 0 1 0 0 1 0 0 2 1 2 4 3 5 7 6 9 11 10 12 14 13 14 16 15 14 19 15 29 34 28 29 36 28 31 38 30 35 42 34 38 45 37 41 48 40 44 51 43 45 52 44 53 60 52 53 60 52 53 60 52 53 60 52 53 60 52 53 60 52 53 60 52 54 59 52 66 67 62 66 65 61 63 62 58 60 59 55 57 56 52 53 52 48 51 50 46 50 49 45 31 30 26 31 30 26 31 30 26 31 30 26 31 30 26 31 30 26 31 30 26 31 30 26 30 29 25 30 29 25 30 29 25 30 29 25 30 29 25 30 29 25 30 29 25 30 29 25 31 30 26 31 30 26 31 30 26 31 30 26 31 30 26 31 30 26 31 30 26 31 30 26
0 0 0 0 0 0 0 0 0 0 0 0 0 0 0 0 0 0 0 0 0 0 0 0 0 0 0 0 0 0 0 0 0 0 0 0 0 0 0 0 0 0 0 0 0 0 0 0 0 0 0 0 0 0 0 0 0 0 0 0 0 0 0 0 0 0 0 0 0 0 0 0 0 0 0 0 0 0 0 0 0 0 0 0 0 0 0 0 0 0 0 0 0 0 0 0 0 0 0 0 0 0 0 0 0 0 0 0 0 0 0 0 0 0 0 0 0 0 0 0 0 0 0 0 0 0 0 0 0 0 0 0 0 0 0 0 0 0 0 0 0 0 0 0 0 0 0 0 0 0 0 0 0 0 0 0 0 0 0 0 0 0 0 0 0 0 0 0 0 0 0 0 0 0 0 0 0 0 0 0 0 0 0 0 0 0 0 0 0 0 0 0 0 0 0 0 0 0 0 0 0 0 0 0 0 0 0 0 0 0 0 0 0 0 0 0 0 0 0 0 0 0 0 0 0 0 1 0 3 5 4 1 5 4 1 5 4 1 5 4 1 5 4 1 5 4 1 5 4 1 5 4 9 13 12 9 13 12 9 13 12 9 13 12 9 13 12 9 13 12 9 13 12 8 14 12 23 28 31 21 29 31 21 29 31 21 29 31 21 29 31 21 29 31 21 29 31 21 29 31 15 23 25 13 21 23 11 19 21 8 16 18 4 12 14 1 9 11 0 7 9 0 5 5 0 1 2 0 1 0 0 1 0 0 1 0 0 1 0 0 1 0 0 1 0 0 1 0 0 1 0 0 2 1 2 4 3 5 7 6 9 11 10 12 14 13 14 16 15 14 19 15 25 30 24 26 33 25 28 35 27 31 38 30 35 42 34 38 45 37 40 47 39 42 49 41 50 57 49 50 57 49 50 57 49 50 57 49 50 57 49 50 57 49 50 57 49 51 56 49 63 64 59 62 61 57 60 59 55 57 56 52 53 52 48 50 49 45 48 47 43 46 45 41 31 30 26 31 30 26 31 30 26 31 30 26 31 30 26 31 30 26 31 30 26 31 30 26 30 29 25 30 29 25 30 29 25 30 29 25 30 29 25 30 29 25 30 29 25 30 29 25 31 30 26 31 30 26 31 30 26 31 30 26 31 30 26 31 30 26 31 30 26 31 30 26
0 0 0 0 0 0 0 0 0 0 0 0 0 0 0 0 0 0 0 0 0 0 0 0 0 0 0 0 0 0 0 0 0 0 0 0 0 0 0 0 0 0 0 0 0 0 0 0 0 0 0 0 0 0 0 0 0 0 0 0 0 0 0 0 0 0 0 0 0 0 0 0 0 0 0 0 0 0 0 0 0 0 0 0 0 0 0 0 0 0 0 0 0 0 0 0 0 0 0 0 0 0 0 0 0 0 0 0 0 0 0 0 0 0 0 0 0 0 0 0 0 0 0 0 0 0 0 0 0 0 0 0 0 0 0 0 0 0 0 0 0 0 0 0 0 0 0 0 0 0 0 0 0 0 0 0 0 0 0 0 0 0 0 0 0 0 0 0 0 0 0 0 0 0 0 0 0 0 0 0 0 0 0 0 0 0 0 0 0 0 0 0 0 0 0 0 0 0 0 0 0 0 0 0 0 0 0 0 0 0 0 0 0 0 0 0 0 0 0 0 0 0 0 0 0 0 1 0 3 5 4 1 5 4 1 5 4 1 5 4 1 5 4 1 5 4 1 5 4 1 5 4 9 13 12 9 13 12 9 13 12 9 13 12 9 13 12 9 13 12 9 13 12 8 14 12 23 28 31 21 29 31 21 29 31 21 29 31 21 29 31 21 29 31 21 29 31 21 29 31 15 23 25 13 21 23 11 19 21 8 16 18 4 12 14 1 9 11 0 7 9 0 5 5 0 1 2 0 1 0 0 1 0 0 1 0 0 1 0 0 1 0 0 1 0 0 1 0 0 1 0 0 2 1 2 4 3 5 7 6 9 11 10 12 14 13 14 16 15 14 19 15 23 28 22 23 30 22 26 33 25 29 36 28 32 39 31 36 43 35 38 45 37 39 46 38 48 55 47 48 55 47 48 55 47 48 55 47 48 55 47 48 55 47 48 55 47 49 54 47 60 61 56 60 59 55 58 57 53 54 53 49 51 50 46 48 47 43 45 44 40 44 43 39 31 30 26 31 30 26 31 30 26 31 30 26 31 30 26 31 30 26 31 30 26 31 30 26 30 29 25 30 29 25 30 29 25 30 29 25 30 29 25 30 29 25 30 29 25 30 29 25 31 30 26 31 30 26 31 30 26 31 30 26 31 30 26 31 30 26 31 30 26 31 30 26
0 0 0 0 0 0 0 0 0 0 0 0 0 0 0 0 0 0 0 0 0 0 0 0 0 0 0 0 0 0 0 0 0 0 0 0 0 0 0 0 0 0 0 0 0 0 0 0 0 0 0 0 0 0 0 0 0 0 0 0 0 0 0 0 0 0 0 0 0 0 0 0 0 0 0 0 0 0 0 0 0 0 0 0 0 0 0 0 0 0 0 0 0 0 0 0 0 0 0 0 0 0 0 0 0 0 0 0 0 0 0 0 0 0 0 0 0 0 0 0 0 0 0 0 0 0 0 0 0 0 0 0 0 0 0 0 0 0 0 0 0 0 0 0 0 0 0 0 0 0 0 0 0 0 0 0 0 0 0 0 0 0 0 0 0 0 0 0 0 0 0 0 0 0 0 0 0 0 0 0 0 0 0 0 0 0 0 0 0 0 0 0 0 0 0 0 0 0 0 0 0 0 0 0 0 0 0 0 0 0 0 0 0 0 0 0 0 0 0 0 0 0 0 0 0 0 0 0 3 5 4 1 5 4 3 5 4 1 5 4 3 5 4 1 5 4 3 5 4 1 5 4 11 13 12 9 13 12 11 13 12 9 13 12 11 13 12 9 13 12 11 13 12 9 13 12 23 29 29 21 29 31 21 29 31 21 29 31 21 29 31 21 29 31 21 29 31 21 29 31 15 23 25 13 21 23 11 19 21 8 16 18 4 12 14 1 9 11 0 7 9 0 5 5 0 1 0 0 1 0 0 1 0 0 1 0 0 1 0 0 1 0 0 1 0 0 1 0 0 1 0 0 2 1 2 4 3 5 7 6 9 11 10 12 14 13 14 16 15 14 19 15 21 28 21 22 29 21 24 31 23 28 35 27 31 38 30 34 41 33 37 44 36 38 45 37 46 53 45 46 53 45 46 53 45 46 53 45 46 53 45 46 53 45 46 53 45 47 52 45 59 60 55 58 59 54 56 55 51 52 53 48 50 49 45 45 46 41 44 43 39 42 43 38 31 30 26 30 31 26 31 30 26 30 31 26 31 30 26 30 31 26 31 30 26 31 30 26 30 29 25 30 29 25 32 28 25 30 29 25 32 28 25 30 29 25 32 28 25 30 29 25 33 29 26 31 30 26 33 29 26 31 30 26 33 29 26 31 30 26 33 29 26 33 29 26
0 0 0 0 0 0 0 0 0 0 0 0 0 0 0 0 0 0 0 0 0 0 0 0 0 0 0 0 0 0 0 0 0 0 0 0 0 0 0 0 0 0 0 0 0 0 0 0 0 0 0 0 0 0 0 0 0 0 0 0 0 0 0 0 0 0 0 0 0 0 0 0 0 0 0 0 0 0 0 0 0 0 0 0 0 0 0 0 0 0 0 0 0 0 0 0 0 0 0 0 0 0 0 0 0 0 0 0 0 0 0 0 0 0 0 0 0 0 0 0 0 0 0 0 0 0 0 0 0 0 0 0 0 0 0 0 0 0 0 0 0 0 0 0 0 0 0 0 0 0 0 0 0 0 0 0 0 0 0 0 0 0 0 0 0 0 0 0 0 0 0 0 0 0 0 0 0 0 0 0 0 0 0 0 0 0 0 0 0 0 0 0 0 0 0 0 0 0 0 0 0 0 0 0 0 0 0 0 0 0 0 0 0 0 0 0 0 0 0 0 0 0 0 0 0 0 0 0 4 4 4 3 5 4 4 4 4 3 5 4 4 4 4 3 5 4 4 4 4 3 5 4 35 35 35 26 28 27 17 17 17 9 11 10 13 13 13 24 26 25 40 40 40 49 51 50 77 83 83 67 73 73 52 58 58 37 43 43 27 33 33 23 29 29 23 29 29 25 31 31 31 37 37 29 35 35 24 30 30 17 23 23 11 17 17 4 10 10 0 5 5 0 3 3 0 1 0 0 2 0 0 2 0 0 2 0 0 2 0 0 2 0 0 2 0 0 2 0 0 2 0 0 2 0 0 3 0 1 6 2 5 10 6 8 13 9 10 15 11 12 17 13 18 25 18 20 27 20 22 29 22 25 32 25 29 36 29 32 39 32 34 41 34 36 43 36 50 57 50 50 57 50 50 57 50 50 57 50 50 57 50 50 57 50 50 57 50 51 56 50 53 55 50 53 55 50 54 55 50 53 55 50 54 55 50 53 55 50 54 55 50 53 55 50 29 30 25 28 30 25 29 30 25 28 30 25 29 30 25 28 30 25 29 30 25 29 30 25 31 27 24 31 27 24 32 27 24 31 27 24 32 27 24 31 27 24 32 27 24 31 27 24 33 28 25 32 28 25 33 28 25 32 28 25 33 28 25 32 28 25 33 28 25 33 28 25
0 0 0 0 0 0 0 0 0 0 0 0 0 0 0 0 0 0 0 0 0 0 0 0 0 0 0 0 0 0 0 0 0 0 0 0 0 0 0 0 0 0 0 0 0 0 0 0 0 0 0 0 0 0 0 0 0 0 0 0 0 0 0 0 0 0 0 0 0 0 0 0 0 0 0 0 0 0 0 0 0 0 0 0 0 0 0 0 0 0 0 0 0 0 0 0 0 0 0 0 0 0 0 0 0 0 0 0 0 0 0 0 0 0 0 0 0 0 0 0 0 0 0 0 0 0 0 0 0 0 0 0 0 0 0 0 0 0 0 0 0 0 0 0 0 0 0 0 0 0 0 0 0 0 0 0 0 0 0 0 0 0 0 0 0 0 0 0 0 0 0 0 0 0 0 0 0 0 0 0 0 0 0 0 0 0 0 0 0 0 0 0 0 0 0 0 0 0 0 0 0 0 0 0 0 0 0 0 0 0 0 0 0 0 0 0 0 0 0 0 0 0 0 0 0 0 0 0 4 4 4 4 4 4 4 4 4 4 4 4 4 4 4 4 4 4 4 4 4 4 4 4 26 26 26 21 21 21 15 15 15 14 14 14 21 21 21 36 36 36 52 52 52 61 63 62 79 83 84 69 75 75 53 59 59 38 44 44 28 34 34 24 30 30 25 31 31 26 32 32 31 37 37 29 35 35 24 30 30 17 23 23 11 17 17 4 10 10 0 5 5 0 3 1 0 1 0 0 2 0 0 2 0 0 2 0 0 2 0 0 2 0 0 2 0 0 2 0 0 2 0 0 2 0 0 3 0 1 6 2 5 10 6 8 13 9 10 15 11 12 17 13 18 25 18 20 27 20 22 29 22 25 32 25 29 36 29 32 39 32 34 41 34 36 43 36 48 55 48 48 55 48 48 55 48 48 55 48 48 55 48 48 55 48 48 55 48 48 55 48 51 53 48 51 53 48 51 53 48 51 53 48 51 53 48 51 53 48 51 53 48 51 53 48 28 30 25 28 30 25 28 30 25 28 30 25 28 30 25 28 30 25 28 30 25 29 30 25 31 27 24 32 27 24 32 27 24 32 27 24 32 27 24 32 27 24 32 27 24 32 27 24 33 28 25 33 28 25 33 28 25 33 28 25 33 28 25 33 28 25 33 28 25 33 28 25
0 0 0 0 0 0 0 0 0 0 0 0 0 0 0 0 0 0 0 0 0 0 0 0 0 0 0 0 0 0 0 0 0 0 0 0 0 0 0 0 0 0 0 0 0 0 0 0 0 0 0 0 0 0 0 0 0 0 0 0 0 0 0 0 0 0 0 0 0 0 0 0 0 0 0 0 0 0 0 0 0 0 0 0 0 0 0 0 0 0 0 0 0 0 0 0 0 0 0 0 0 0 0 0 0 0 0 0 0 0 0 0 0 0 0 0 0 0 0 0 0 0 0 0 0 0 0 0 0 0 0 0 0 0 0 0 0 0 0 0 0 0 0 0 0 0 0 0 0 0 0 0 0 0 0 0 0 0 0 0 0 0 0 0 0 0 0 0 0 0 0 0 0 0 0 0 0 0 0 0 0 0 0 0 0 0 0 0 0 0 0 0 0 0 0 0 0 0 0 0 0 0 0 0 0 0 0 0 0 0 0 0 0 0 0 0 0 0 0 0 0 0 0 0 0 0 0 0 4 4 4 4 4 4 4 4 4 4 4 4 4 4 4 4 4 4 4 4 4 4 4 4 13 13 13 13 13 13 15 15 15 23 23 23 36 36 36 54 54 54 71 71 71 80 82 81 82 86 87 71 77 77 56 62 62 41 47 47 30 36 36 26 32 32 27 33 33 29 35 35 31 37 37 29 35 35 24 30 30 17 23 23 11 17 17 4 10 10 0 5 5 0 3 1 0 1 0 0 2 0 0 2 0 0 2 0 0 2 0 0 2 0 0 2 0 0 2 0 0 2 0 0 2 0 0 3 0 1 6 2 5 10 6 8 13 9 10 15 11 12 17 13 18 25 18 20 27 20 22 29 22 25 32 25 29 36 29 32 39 32 34 41 34 36 43 36 46 53 46 46 53 46 46 53 46 46 53 46 46 53 46 46 53 46 46 53 46 46 53 46 49 51 46 49 51 46 49 51 46 49 51 46 49 51 46 49 51 46 49 51 46 49 51 46 28 30 25 28 30 25 28 30 25 28 30 25 28 30 25 28 30 25 28 30 25 29 30 25 31 27 24 32 27 24 32 27 24 32 27 24 32 27 24 32 27 24 32 27 24 32 27 24 33 28 25 33 28 25 33 28 25 33 28 25 33 28 25 33 28 25 33 28 25 33 28 25
0 0 0 0 0 0 0 0 0 0 0 0 0 0 0 0 0 0 0 0 0 0 0 0 0 0 0 0 0 0 0 0 0 0 0 0 0 0 0 0 0 0 0 0 0 0 0 0 0 0 0 0 0 0 0 0 0 0 0 0 0 0 0 0 0 0 0 0 0 0 0 0 0 0 0 0 0 0 0 0 0 0 0 0 0 0 0 0 0 0 0 0 0 0 0 0 0 0 0 0 0 0 0 0 0 0 0 0 0 0 0 0 0 0 0 0 0 0 0 0 0 0 0 0 0 0 0 0 0 0 0 0 0 0 0 0 0 0 0 0 0 0 0 0 0 0 0 0 0 0 0 0 0 0 0 0 0 0 0 0 0 0 0 0 0 0 0 0 0 0 0 0 0 0 0 0 0 0 0 0 0 0 0 0 0 0 0 0 0 0 0 0 0 0 0 0 0 0 0 0 0 0 0 0 0 0 0 0 0 0 0 0 0 0 0 0 0 0 0 0 0 0 0 0 0 0 0 0 4 4 4 4 4 4 4 4 4 4 4 4 4 4 4 4 4 4 4 4 4 4 4 4 3 3 3 9 9 9 20 20 20 35 35 35 54 54 54 74 74 74 90 90 90 98 100 99 85 89 90 74 80 80 59 65 65 44 50 50 33 39 39 30 36 36 30 36 36 32 38 38 31 37 37 29 35 35 24 30 30 17 23 23 11 17 17 4 10 10 0 5 5 0 3 1 0 1 0 0 2 0 0 2 0 0 2 0 0 2 0 0 2 0 0 2 0 0 2 0 0 2 0 0 2 0 0 3 0 1 6 2 5 10 6 8 13 9 10 15 11 12 17 13 18 25 18 20 27 20 22 29 22 25 32 25 29 36 29 32 39 32 34 41 34 36 43 36 43 50 43 43 50 43 43 50 43 43 50 43 43 50 43 43 50 43 43 50 43 43 50 43 46 48 43 46 48 43 46 48 43 46 48 43 46 48 43 46 48 43 46 48 43 46 48 43 28 30 25 28 30 25 28 30 25 28 30 25 28 30 25 28 30 25 28 30 25 29 30 25 31 27 24 32 27 24 32 27 24 32 27 24 32 27 24 32 27 24 32 27 24 32 27 24 33 28 25 33 28 25 33 28 25 33 28 25 33 28 25 33 28 25 33 28 25 33 28 25
0 0 0 0 0 0 0 0 0 0 0 0 0 0 0 0 0 0 0 0 0 0 0 0 0 0 0 0 0 0 0 0 0 0 0 0 0 0 0 0 0 0 0 0 0 0 0 0 0 0 0 0 0 0 0 0 0 0 0 0 0 0 0 0 0 0 0 0 0 0 0 0 0 0 0 0 0 0 0 0 0 0 0 0 0 0 0 0 0 0 0 0 0 0 0 0 0 0 0 0 0 0 0 0 0 0 0 0 0 0 0 0 0 0 0 0 0 0 0 0 0 0 0 0 0 0 0 0 0 0 0 0 0 0 0 0 0 0 0 0 0 0 0 0 0 0 0 0 0 0 0 0 0 0 0 0 0 0 0 0 0 0 0 0 0 0 0 0 0 0 0 0 0 0 0 0 0 0 0 0 0 0 0 0 0 0 0 0 0 0 0 0 0 0 0 0 0 0 0 0 0 0 0 0 0 0 0 0 0 0 0 0 0 0 0 0 0 0 0 0 0 0 0 0 0 0 0 0 4 4 4 4 4 4 4 4 4 4 4 4 4 4 4 4 4 4 4 4 4 4 4 4 3 3 3 12 12 12 30 30 30 51 51 51 72 72 72 89 89 89 101 101 101 107 109 108 88 92 93 78 84 84 62 68 68 47 53 53 37 43 43 33 39 39 34 40 40 35 41 41 31 37 37 29 35 35 24 30 30 17 23 23 11 17 17 4 10 10 0 5 5 0 3 1 0 1 0 0 2 0 0 2 0 0 2 0 0 2 0 0 2 0 0 2 0 0 2 0 0 2 0 0 2 0 0 3 0 1 6 2 5 10 6 8 13 9 10 15 11 12 17 13 18 25 18 20 27 20 22 29 22 25 32 25 29 36 29 32 39 32 34 41 34 36 43 36 39 46 39 39 46 39 39 46 39 39 46 39 39 46 39 39 46 39 39 46 39 39 46 39 42 44 39 42 44 39 42 44 39 42 44 39 42 44 39 42 44 39 42 44 39 42 44 39 28 30 25 28 30 25 28 30 25 28 30 25 28 30 25 28 30 25 28 30 25 29 30 25 31 27 24 32 27 24 32 27 24 32 27 24 32 27 24 32 27 24 32 27 24 32 27 24 33 28 25 33 28 25 33 28 25 33 28 25 33 28 25 33 28 25 33 28 25 33 28 25
0 0 0 0 0 0 0 0 0 0 0 0 0 0 0 0 0 0 0 0 0 0 0 0 0 0 0 0 0 0 0 0 0 0 0 0 0 0 0 0 0 0 0 0 0 0 0 0 0 0 0 0 0 0 0 0 0 0 0 0 0 0 0 0 0 0 0 0 0 0 0 0 0 0 0 0 0 0 0 0 0 0 0 0 0 0 0 0 0 0 0 0 0 0 0 0 0 0 0 0 0 0 0 0 0 0 0 0 0 0 0 0 0 0 0 0 0 0 0 0 0 0 0 0 0 0 0 0 0 0 0 0 0 0 0 0 0 0 0 0 0 0 0 0 0 0 0 0 0 0 0 0 0 0 0 0 0 0 0 0 0 0 0 0 0 0 0 0 0 0 0 0 0 0 0 0 0 0 0 0 0 0 0 0 0 0 0 0 0 0 0 0 0 0 0 0 0 0 0 0 0 0 0 0 0 0 0 0 0 0 0 0 0 0 0 0 0 0 0 0 0 0 0 0 0 0 0 0 4 4 4 4 4 4 4 4 4 4 4 4 4 4 4 4 4 4 4 4 4 4 4 4 11 11 11 24 24 24 44 44 44 67 67 67 86 86 86 98 98 98 105 105 105 106 108 107 92 96 97 81 87 87 66 72 72 50 56 56 40 46 46 36 42 42 37 43 43 39 45 45 31 37 37 29 35 35 24 30 30 17 23 23 11 17 17 4 10 10 0 5 5 0 3 1 0 1 0 0 2 0 0 2 0 0 2 0 0 2 0 0 2 0 0 2 0 0 2 0 0 2 0 0 2 0 0 3 0 1 6 2 5 10 6 8 13 9 10 15 11 12 17 13 18 25 18 20 27 20 22 29 22 25 32 25 29 36 29 32 39 32 34 41 34 36 43 36 36 43 36 36 43 36 36 43 36 36 43 36 36 43 36 36 43 36 36 43 36 36 43 36 39 41 36 39 41 36 39 41 36 39 41 36 39 41 36 39 41 36 39 41 36 39 41 36 28 30 25 28 30 25 28 30 25 28 30 25 28 30 25 28 30 25 28 30 25 29 30 25 31 27 24 32 27 24 32 27 24 32 27 24 32 27 24 32 27 24 32 27 24 32 27 24 33 28 25 33 28 25 33 28 25 33 28 25 33 28 25 33 28 25 33 28 25 33 28 25
0 0 0 0 0 0 0 0 0 0 0 0 0 0 0 0 0 0 0 0 0 0 0 0 0 0 0 0 0 0 0 0 0 0 0 0 0 0 0 0 0 0 0 0 0 0 0 0 0 0 0 0 0 0 0 0 0 0 0 0 0 0 0 0 0 0 0 0 0 0 0 0 0 0 0 0 0 0 0 0 0 0 0 0 0 0 0 0 0 0 0 0 0 0 0 0 0 0 0 0 0 0 0 0 0 0 0 0 0 0 0 0 0 0 0 0 0 0 0 0 0 0 0 0 0 0 0 0 0 0 0 0 0 0 0 0 0 0 0 0 0 0 0 0 0 0 0 0 0 0 0 0 0 0 0 0 0 0 0 0 0 0 0 0 0 0 0 0 0 0 0 0 0 0 0 0 0 0 0 0 0 0 0 0 0 0 0 0 0 0 0 0 0 0 0 0 0 0 0 0 0 0 0 0 0 0 0 0 0 0 0 0 0 0 0 0 0 0 0 0 0 0 0 0 0 0 0 0 4 4 4 4 4 4 4 4 4 4 4 4 4 4 4 4 4 4 4 4 4 4 4 4 24 24 24 37 37 37 59 59 59 80 80 80 96 96 96 102 102 102 102 102 102 99 101 100 94 98 99 83 89 89 68 74 74 53 59 59 43 49 49 39 45 45 39 45 45 41 47 47 31 37 37 29 35 35 24 30 30 17 23 23 11 17 17 4 10 10 0 5 5 0 3 1 0 1 0 0 2 0 0 2 0 0 2 0 0 2 0 0 2 0 0 2 0 0 2 0 0 2 0 0 2 0 0 3 0 1 6 2 5 10 6 8 13 9 10 15 11 12 17 13 18 25 18 20 27 20 22 29 22 25 32 25 29 36 29 32 39 32 34 41 34 36 43 36 34 41 34 34 41 34 34 41 34 34 41 34 34 41 34 34 41 34 34 41 34 34 41 34 37 39 34 37 39 34 37 39 34 37 39 34 37 39 34 37 39 34 37 39 34 37 39 34 28 30 25 28 30 25 28 30 25 28 30 25 28 30 25 28 30 25 28 30 25 29 30 25 31 27 24 32 27 24 32 27 24 32 27 24 32 27 24 32 27 24 32 27 24 32 27 24 33 28 25 33 28 25 33 28 25 33 28 25 33 28 25 33 28 25 33 28 25 33 28 25
0 0 0 0 0 0 0 0 0 0 0 0 0 0 0 0 0 0 0 0 0 0 0 0 0 0 0 0 0 0 0 0 0 0 0 0 0 0 0 0 0 0 0 0 0 0 0 0 0 0 0 0 0 0 0 0 0 0 0 0 0 0 0 0 0 0 0 0 0 0 0 0 0 0 0 0 0 0 0 0 0 0 0 0 0 0 0 0 0 0 0 0 0 0 0 0 0 0 0 0 0 0 0 0 0 0 0 0 0 0 0 0 0 0 0 0 0 0 0 0 0 0 0 0 0 0 0 0 0 0 0 0 0 0 0 0 0 0 0 0 0 0 0 0 0 0 0 0 0 0 0 0 0 0 0 0 0 0 0 0 0 0 0 0 0 0 0 0 0 0 0 0 0 0 0 0 0 0 0 0 0 0 0 0 0 0 0 0 0 0 0 0 0 0 0 0 0 0 0 0 0 0 0 0 0 0 0 0 0 0 0 0 0 0 0 0 0 0 0 0 0 0 0 0 0 0 0 0 4 4 4 4 4 4 4 4 4 4 4 4 4 4 4 4 4 4 4 4 4 4 4 4 32 32 32 46 46 46 68 68 68 88 88 88 101 101 101 103 103 103 99 99 99 94 96 95 95 99 100 85 91 91 69 75 75 54 60 60 44 50 50 40 46 46 41 47 47 42 48 48 31 37 37 29 35 35 24 30 30 17 23 23 11 17 17 4 10 10 0 5 5 0 3 1 0 1 0 0 2 0 0 2 0 0 2 0 0 2 0 0 2 0 0 2 0 0 2 0 0 2 0 0 2 0 0 3 0 1 6 2 5 10 6 8 13 9 10 15 11 12 17 13 18 25 18 20 27 20 22 29 22 25 32 25 29 36 29 32 39 32 34 41 34 36 43 36 32 39 32 32 39 32 32 39 32 32 39 32 32 39 32 32 39 32 32 39 32 32 39 32 35 37 32 35 37 32 35 37 32 35 37 32 35 37 32 35 37 32 35 37 32 35 37 32 28 30 25 28 30 25 28 30 25 28 30 25 28 30 25 28 30 25 28 30 25 29 30 25 31 27 24 32 27 24 32 27 24 32 27 24 32 27 24 32 27 24 32 27 24 32 27 24 33 28 25 33 28 25 33 28 25 33 28 25 33 28 25 33 28 25 33 28 25 33 28 25
0 0 0 0 0 0 0 0 0 0 0 0 0 0 0 0 0 0 0 0 0 0 0 0 0 0 0 0 0 0 0 0 0 0 0 0 0 0 0 0 0 0 0 0 0 0 0 0 0 0 0 0 0 0 0 0 0 0 0 0 0 0 0 0 0 0 0 0 0 0 0 0 0 0 0 0 0 0 0 0 0 0 0 0 0 0 0 0 0 0 0 0 0 0 0 0 0 0 0 0 0 0 0 0 0 0 0 0 0 0 0 0 0 0 0 0 0 0 0 0 0 0 0 0 0 0 0 0 0 0 0 0 0 0 0 0 0 0 0 0 0 0 0 0 0 0 0 0 0 0 0 0 0 0 0 0 0 0 0 0 0 0 0 0 0 0 0 0 0 0 0 0 0 0 0 0 0 0 0 0 0 0 0 0 0 0 0 0 0 0 0 0 0 0 0 0 0 0 0 0 0 0 0 0 0 0 0 0 0 0 0 0 0 0 0 0 0 0 0 0 0 0 0 0 0 0 0 0 18 18 18 13 13 13 6 6 6 1 1 1 1 1 1 8 8 8 16 16 16 22 22 22 45 45 45 57 57 57 77 77 77 97 97 97 114 114 114 123 123 123 127 127 127 127 129 128 119 123 124 105 111 111 84 90 90 61 67 67 42 48 48 31 37 37 26 32 32 24 30 30 34 40 40 32 38 38 27 33 33 20 26 26 14 20 20 7 13 13 2 8 8 0 6 4 0 2 1 0 3 0 0 3 0 0 3 0 0 3 0 0 3 0 0 3 0 0 3 0 0 2 0 0 4 0 1 6 2 4 9 5 8 13 9 11 16 12 13 18 14 15 20 16 17 24 17 17 24 17 17 24 17 17 24 17 17 24 17 17 24 17 17 24 17 17 24 17 36 43 36 36 43 36 36 43 36 36 43 36 36 43 36 36 43 36 36 43 36 36 43 36 31 33 28 31 33 28 31 33 28 31 33 28 31 33 28 31 33 28 31 33 28 31 33 28 26 28 23 26 28 23 26 28 23 26 28 23 26 28 23 26 28 23 26 28 23 27 28 23 31 27 24 32 27 24 32 27 24 32 27 24 32 27 24 32 27 24 32 27 24 32 27 24 33 28 25 33 28 25 33 28 25 33 28 25 33 28 25 33 28 25 33 28 25 33 28 25
0 0 0 0 0 0 0 0 0 0 0 0 0 0 0 0 0 0 0 0 0 0 0 0 0 0 0 0 0 0 0 0 0 0 0 0 0 0 0 0 0 0 0 0 0 0 0 0 0 0 0 0 0 0 0 0 0 0 0 0 0 0 0 0 0 0 0 0 0 0 0 0 0 0 0 0 0 0 0 0 0 0 0 0 0 0 0 0 0 0 0 0 0 0 0 0 0 0 0 0 0 0 0 0 0 0 0 0 0 0 0 0 0 0 0 0 0 0 0 0 0 0 0 0 0 0 0 0 0 0 0 0 0 0 0 0 0 0 0 0 0 0 0 0 0 0 0 0 0 0 0 0 0 0 0 0 0 0 0 0 0 0 0 0 0 0 0 0 0 0 0 0 0 0 0 0 0 0 0 0 0 0 0 0 0 0 0 0 0 0 0 0 0 0 0 0 0 0 0 0 0 0 0 0 0 0 0 0 0 0 0 0 0 0 0 0 0 0 0 0 0 0 0 0 0 0 0 0 17 17 17 13 13 13 6 6 6 3 3 3 5 5 5 13 13 13 22 22 22 29 29 29 57 57 57 68 68 68 87 87 87 106 106 106 121 121 121 130 130 130 132 132 132 131 133 132 118 122 123 105 111 111 84 90 90 62 68 68 44 50 50 33 39 39 29 35 35 27 33 33 34 40 40 32 38 38 27 33 33 20 26 26 14 20 20 7 13 13 2 8 8 0 6 4 0 2 1 0 3 0 0 3 0 0 3 0 0 3 0 0 3 0 0 3 0 0 3 0 0 2 0 0 4 0 1 6 2 4 9 5 8 13 9 11 16 12 13 18 14 15 20 16 17 24 17 17 24 17 17 24 17 17 24 17 17 24 17 17 24 17 17 24 17 17 24 17 34 41 34 34 41 34 34 41 34 34 41 34 34 41 34 34 41 34 34 41 34 34 41 34 31 33 28 31 33 28 31 33 28 31 33 28 31 33 28 31 33 28 31 33 28 31 33 28 26 28 23 26 28 23 26 28 23 26 28 23 26 28 23 26 28 23 26 28 23 27 28 23 31 27 24 32 27 24 32 27 24 32 27 24 32 27 24 32 27 24 32 27 24 32 27 24 33 28 25 33 28 25 33 28 25 33 28 25 33 28 25 33 28 25 33 28 25 33 28 25
0 0 0 0 0 0 0 0 0 0 0 0 0 0 0 0 0 0 0 0 0 0 0 0 0 0 0 0 0 0 0 0 0 0 0 0 0 0 0 0 0 0 0 0 0 0 0 0 0 0 0 0 0 0 0 0 0 0 0 0 0 0 0 0 0 0 0 0 0 0 0 0 0 0 0 0 0 0 0 0 0 0 0 0 0 0 0 0 0 0 0 0 0 0 0 0 0 0 0 0 0 0 0 0 0 0 0 0 0 0 0 0 0 0 0 0 0 0 0 0 0 0 0 0 0 0 0 0 0 0 0 0 0 0 0 0 0 0 0 0 0 0 0 0 0 0 0 0 0 0 0 0 0 0 0 0 0 0 0 0 0 0 0 0 0 0 0 0 0 0 0 0 0 0 0 0 0 0 0 0 0 0 0 0 0 0 0 0 0 0 0 0 0 0 0 0 0 0 0 0 0 0 0 0 0 0 0 0 0 0 0 0 0 0 0 0 0 0 0 0 0 0 0 0 0 0 0 0 15 15 15 12 12 12 7 7 7 6 6 6 11 11 11 21 21 21 33 33 33 40 40 40 77 77 77 87 87 87 104 104 104 121 121 121 133 133 133 139 139 139 139 139 139 137 139 138 117 121 122 104 110 110 85 91 91 64 70 70 47 53 53 38 44 44 34 40 40 33 39 39 34 40 40 32 38 38 27 33 33 20 26 26 14 20 20 7 13 13 2 8 8 0 6 4 0 2 1 0 3 0 0 3 0 0 3 0 0 3 0 0 3 0 0 3 0 0 3 0 0 2 0 0 4 0 1 6 2 4 9 5 8 13 9 11 16 12 13 18 14 15 20 16 17 24 17 17 24 17 17 24 17 17 24 17 17 24 17 17 24 17 17 24 17 17 24 17 32 39 32 32 39 32 32 39 32 32 39 32 32 39 32 32 39 32 32 39 32 32 39 32 31 33 28 31 33 28 31 33 28 31 33 28 31 33 28 31 33 28 31 33 28 31 33 28 26 28 23 26 28 23 26 28 23 26 28 23 26 28 23 26 28 23 26 28 23 27 28 23 31 27 24 32 27 24 32 27 24 32 27 24 32 27 24 32 27 24 32 27 24 32 27 24 33 28 25 33 28 25 33 28 25 33 28 25 33 28 25 33 28 25 33 28 25 33 28 25
0 0 0 0 0 0 0 0 0 0 0 0 0 0 0 0 0 0 0 0 0 0 0 0 0 0 0 0 0 0 0 0 0 0 0 0 0 0 0 0 0 0 0 0 0 0 0 0 0 0 0 0 0 0 0 0 0 0 0 0 0 0 0 0 0 0 0 0 0 0 0 0 0 0 0 0 0 0 0 0 0 0 0 0 0 0 0 0 0 0 0 0 0 0 0 0 0 0 0 0 0 0 0 0 0 0 0 0 0 0 0 0 0 0 0 0 0 0 0 0 0 0 0 0 0 0 0 0 0 0 0 0 0 0 0 0 0 0 0 0 0 0 0 0 0 0 0 0 0 0 0 0 0 0 0 0 0 0 0 0 0 0 0 0 0 0 0 0 0 0 0 0 0 0 0 0 0 0 0 0 0 0 0 0 0 0 0 0 0 0 0 0 0 0 0 0 0 0 0 0 0 0 0 0 0 0 0 0 0 0 0 0 0 0 0 0 0 0 0 0 0 0 0 0 0 0 0 0 13 13 13 11 11 11 9 9 9 11 11 11 19 19 19 33 33 33 47 47 47 55 55 55 97 97 97 106 106 106 121 121 121 134 134 134 143 143 143 146 146 146 144 144 144 141 143 142 116 120 121 104 110 110 85 91 91 66 72 72 51 57 57 43 49 49 41 47 47 41 47 47 34 40 40 32 38 38 27 33 33 20 26 26 14 20 20 7 13 13 2 8 8 0 6 4 0 2 1 0 3 0 0 3 0 0 3 0 0 3 0 0 3 0 0 3 0 0 3 0 0 2 0 0 4 0 1 6 2 4 9 5 8 13 9 11 16 12 13 18 14 15 20 16 17 24 17 17 24 17 17 24 17 17 24 17 17 24 17 17 24 17 17 24 17 17 24 17 29 36 29 29 36 29 29 36 29 29 36 29 29 36 29 29 36 29 29 36 29 29 36 29 31 33 28 31 33 28 31 33 28 31 33 28 31 33 28 31 33 28 31 33 28 31 33 28 26 28 23 26 28 23 26 28 23 26 28 23 26 28 23 26 28 23 26 28 23 27 28 23 31 27 24 32 27 24 32 27 24 32 27 24 32 27 24 32 27 24 32 27 24 32 27 24 33 28 25 33 28 25 33 28 25 33 28 25 33 28 25 33 28 25 33 28 25 33 28 25
0 0 0 0 0 0 0 0 0 0 0 0 0 0 0 0 0 0 0 0 0 0 0 0 0 0 0 0 0 0 0 0 0 0 0 0 0 0 0 0 0 0 0 0 0 0 0 0 0 0 0 0 0 0 0 0 0 0 0 0 0 0 0 0 0 0 0 0 0 0 0 0 0 0 0 0 0 0 0 0 0 0 0 0 0 0 0 0 0 0 0 0 0 0 0 0 0 0 0 0 0 0 0 0 0 0 0 0 0 0 0 0 0 0 0 0 0 0 0 0 0 0 0 0 0 0 0 0 0 0 0 0 0 0 0 0 0 0 0 0 0 0 0 0 0 0 0 0 0 0 0 0 0 0 0 0 0 0 0 0 0 0 0 0 0 0 0 0 0 0 0 0 0 0 0 0 0 0 0 0 0 0 0 0 0 0 0 0 0 0 0 0 0 0 0 0 0 0 0 0 0 0 0 0 0 0 0 0 0 0 0 0 0 0 0 0 0 0 0 0 0 0 0 0 0 0 0 0 10 10 10 9 9 9 10 10 10 16 16 16 28 28 28 45 45 45 62 62 62 72 72 72 114 114 114 121 121 121 133 133 133 143 143 143 148 148 148 147 147 147 143 143 143 138 140 139 115 119 120 103 109 109 86 92 92 69 75 75 56 62 62 49 55 55 48 54 54 49 55 55 34 40 40 32 38 38 27 33 33 20 26 26 14 20 20 7 13 13 2 8 8 0 6 4 0 2 1 0 3 0 0 3 0 0 3 0 0 3 0 0 3 0 0 3 0 0 3 0 0 2 0 0 4 0 1 6 2 4 9 5 8 13 9 11 16 12 13 18 14 15 20 16 17 24 17 17 24 17 17 24 17 17 24 17 17 24 17 17 24 17 17 24 17 17 24 17 25 32 25 25 32 25 25 32 25 25 32 25 25 32 25 25 32 25 25 32 25 25 32 25 31 33 28 31 33 28 31 33 28 31 33 28 31 33 28 31 33 28 31 33 28 31 33 28 26 28 23 26 28 23 26 28 23 26 28 23 26 28 23 26 28 23 26 28 23 27 28 23 31 27 24 32 27 24 32 27 24 32 27 24 32 27 24 32 27 24 32 27 24 32 27 24 33 28 25 33 28 25 33 28 25 33 28 25 33 28 25 33 28 25 33 28 25 33 28 25
0 0 0 0 0 0 0 0 0 0 0 0 0 0 0 0 0 0 0 0 0 0 0 0 0 0 0 0 0 0 0 0 0 0 0 0 0 0 0 0 0 0 0 0 0 0 0 0 0 0 0 0 0 0 0 0 0 0 0 0 0 0 0 0 0 0 0 0 0 0 0 0 0 0 0 0 0 0 0 0 0 0 0 0 0 0 0 0 0 0 0 0 0 0 0 0 0 0 0 0 0 0 0 0 0 0 0 0 0 0 0 0 0 0 0 0 0 0 0 0 0 0 0 0 0 0 0 0 0 0 0 0 0 0 0 0 0 0 0 0 0 0 0 0 0 0 0 0 0 0 0 0 0 0 0 0 0 0 0 0 0 0 0 0 0 0 0 0 0 0 0 0 0 0 0 0 0 0 0 0 0 0 0 0 0 0 0 0 0 0 0 0 0 0 0 0 0 0 0 0 0 0 0 0 0 0 0 0 0 0 0 0 0 0 0 0 0 0 0 0 0 0 0 0 0 0 0 0 8 8 8 8 8 8 11 11 11 20 20 20 36 36 36 56 56 56 75 75 75 87 87 87 123 123 123 130 130 130 139 139 139 146 146 146 147 147 147 143 143 143 136 136 136 130 132 131 113 117 118 103 109 109 87 93 93 71 77 77 60 66 66 55 61 61 55 61 61 57 63 63 34 40 40 32 38 38 27 33 33 20 26 26 14 20 20 7 13 13 2 8 8 0 6 4 0 2 1 0 3 0 0 3 0 0 3 0 0 3 0 0 3 0 0 3 0 0 3 0 0 2 0 0 4 0 1 6 2 4 9 5 8 13 9 11 16 12 13 18 14 15 20 16 17 24 17 17 24 17 17 24 17 17 24 17 17 24 17 17 24 17 17 24 17 17 24 17 22 29 22 22 29 22 22 29 22 22 29 22 22 29 22 22 29 22 22 29 22 22 29 22 31 33 28 31 33 28 31 33 28 31 33 28 31 33 28 31 33 28 31 33 28 31 33 28 26 28 23 26 28 23 26 28 23 26 28 23 26 28 23 26 28 23 26 28 23 27 28 23 31 27 24 32 27 24 32 27 24 32 27 24 32 27 24 32 27 24 32 27 24 32 27 24 33 28 25 33 28 25 33 28 25 33 28 25 33 28 25 33 28 25 33 28 25 33 28 25
0 0 0 0 0 0 0 0 0 0 0 0 0 0 0 0 0 0 0 0 0 0 0 0 0 0 0 0 0 0 0 0 0 0 0 0 0 0 0 0 0 0 0 0 0 0 0 0 0 0 0 0 0 0 0 0 0 0 0 0 0 0 0 0 0 0 0 0 0 0 0 0 0 0 0 0 0 0 0 0 0 0 0 0 0 0 0 0 0 0 0 0 0 0 0 0 0 0 0 0 0 0 0 0 0 0 0 0 0 0 0 0 0 0 0 0 0 0 0 0 0 0 0 0 0 0 0 0 0 0 0 0 0 0 0 0 0 0 0 0 0 0 0 0 0 0 0 0 0 0 0 0 0 0 0 0 0 0 0 0 0 0 0 0 0 0 0 0 0 0 0 0 0 0 0 0 0 0 0 0 0 0 0 0 0 0 0 0 0 0 0 0 0 0 0 0 0 0 0 0 0 0 0 0 0 0 0 0 0 0 0 0 0 0 0 0 0 0 0 0 0 0 0 0 0 0 0 0 6 6 6 7 7 7 12 12 12 24 24 24 42 42 42 65 65 65 86 86 86 99 99 99 127 127 127 132 132 132 139 139 139 144 144 144 143 143 143 136 136 136 127 127 127 120 122 121 112 116 117 102 108 108 87 93 93 73 79 79 63 69 69 59 65 65 61 67 67 62 68 68 34 40 40 32 38 38 27 33 33 20 26 26 14 20 20 7 13 13 2 8 8 0 6 4 0 2 1 0 3 0 0 3 0 0 3 0 0 3 0 0 3 0 0 3 0 0 3 0 0 2 0 0 4 0 1 6 2 4 9 5 8 13 9 11 16 12 13 18 14 15 20 16 17 24 17 17 24 17 17 24 17 17 24 17 17 24 17 17 24 17 17 24 17 17 24 17 20 27 20 20 27 20 20 27 20 20 27 20 20 27 20 20 27 20 20 27 20 20 27 20 31 33 28 31 33 28 31 33 28 31 33 28 31 33 28 31 33 28 31 33 28 31 33 28 26 28 23 26 28 23 26 28 23 26 28 23 26 28 23 26 28 23 26 28 23 27 28 23 31 27 24 32 27 24 32 27 24 32 27 24 32 27 24 32 27 24 32 27 24 32 27 24 33 28 25 33 28 25 33 28 25 33 28 25 33 28 25 33 28 25 33 28 25 33 28 25
0 0 0 0 0 0 0 0 0 0 0 0 0 0 0 0 0 0 0 0 0 0 0 0 0 0 0 0 0 0 0 0 0 0 0 0 0 0 0 0 0 0 0 0 0 0 0 0 0 0 0 0 0 0 0 0 0 0 0 0 0 0 0 0 0 0 0 0 0 0 0 0 0 0 0 0 0 0 0 0 0 0 0 0 0 0 0 0 0 0 0 0 0 0 0 0 0 0 0 0 0 0 0 0 0 0 0 0 0 0 0 0 0 0 0 0 0 0 0 0 0 0 0 0 0 0 0 0 0 0 0 0 0 0 0 0 0 0 0 0 0 0 0 0 0 0 0 0 0 0 0 0 0 0 0 0 0 0 0 0 0 0 0 0 0 0 0 0 0 0 0 0 0 0 0 0 0 0 0 0 0 0 0 0 1 0 0 0 0 0 1 0 0 0 0 0 1 0 0 0 0 0 1 0 0 0 0 0 1 0 0 0 0 0 1 0 0 0 0 0 1 0 0 0 0 0 0 0 5 5 5 7 7 5 13 13 13 26 26 24 46 46 46 70 70 68 92 92 92 105 105 103 128 128 128 132 132 130 138 138 138 142 142 140 139 139 139 131 131 129 121 121 121 113 115 114 112 116 115 102 108 108 88 94 94 74 80 80 65 71 71 62 68 68 63 69 69 66 72 72 34 40 40 32 38 38 27 33 33 20 26 26 14 20 20 7 13 13 2 8 8 0 6 4 0 3 1 0 3 0 0 2 1 0 3 0 0 2 1 0 3 0 0 2 1 0 3 0 0 1 0 0 4 0 1 5 4 3 9 5 8 12 11 10 16 12 13 17 16 14 20 16 17 23 19 17 23 19 17 23 19 17 23 19 17 23 19 17 23 19 17 23 19 17 23 19 18 24 20 18 24 20 18 24 20 18 24 20 18 24 20 18 24 20 18 24 20 18 24 20 31 33 28 31 33 28 32 33 28 31 33 28 32 33 28 31 33 28 32 33 28 31 33 28 27 28 23 26 28 23 27 28 23 26 28 23 27 28 23 26 28 23 27 28 23 27 28 23 32 27 24 32 27 24 34 26 24 32 27 24 34 26 24 32 27 24 34 26 24 32 27 24 35 27 25 33 28 25 35 27 25 33 28 25 35 27 25 33 28 25 35 27 25 33 28 25
0 0 0 0 0 0 0 0 0 0 0 0 0 0 0 0 0 0 0 0 0 0 0 0 0 0 0 0 0 0 0 0 0 0 0 0 0 0 0 0 0 0 0 0 0 0 0 0 0 0 0 0 0 0 0 0 0 0 0 0 0 0 0 0 0 0 0 0 0 0 0 0 0 0 0 0 0 0 0 0 0 0 0 0 0 0 0 0 0 0 0 0 0 0 0 0 0 0 0 0 0 0 0 0 0 0 0 0 0 0 0 0 0 0 0 0 0 0 0 0 0 0 0 0 0 0 0 0 0 0 0 0 0 0 0 0 0 0 0 0 0 0 0 0 0 0 0 0 0 0 0 0 0 0 0 0 0 0 0 0 0 0 0 0 0 0 0 0 0 0 0 0 0 0 0 0 0 0 0 0 0 1 0 0 2 0 0 1 0 0 2 0 0 1 0 0 2 0 0 1 0 0 2 0 0 2 0 0 4 0 2 4 1 2 7 3 6 8 5 6 11 7 10 12 9 11 13 10 20 22 19 29 31 26 44 46 43 65 67 62 87 89 86 107 109 104 123 125 122 131 133 128 132 134 131 132 134 129 132 134 131 132 134 129 132 134 131 132 134 129 132 134 131 132 134 131 146 150 149 141 145 144 133 137 136 122 126 125 111 115 114 100 104 103 91 95 94 87 91 90 58 62 61 49 53 52 35 39 38 21 25 24 12 16 15 9 13 12 10 14 13 12 18 16 0 6 4 0 7 4 0 6 6 0 7 4 0 6 6 0 7 4 0 6 6 0 7 4 7 13 13 5 14 11 7 13 13 5 14 11 7 13 13 5 14 11 7 13 13 5 14 11 14 23 20 14 23 20 14 23 20 14 23 20 14 23 20 14 23 20 14 23 20 14 23 20 14 23 20 14 23 20 14 23 20 14 23 20 14 23 20 14 23 20 14 23 20 16 22 20 21 23 20 22 22 20 23 22 20 22 22 20 23 22 20 22 22 20 23 22 20 22 22 20 28 27 25 27 27 25 28 27 25 27 27 25 28 27 25 27 27 25 28 27 25 28 27 25 34 26 24 34 26 24 35 25 24 34 26 24 35 25 24 34 26 24 35 25 24 34 26 24 36 26 25 35 27 25 36 26 25 35 27 25 36 26 25 35 27 25 36 26 25 35 27 25
0 0 0 0 0 0 0 0 0 0 0 0 0 0 0 0 0 0 0 0 0 0 0 0 0 0 0 0 0 0 0 0 0 0 0 0 0 0 0 0 0 0 0 0 0 0 0 0 0 0 0 0 0 0 0 0 0 0 0 0 0 0 0 0 0 0 0 0 0 0 0 0 0 0 0 0 0 0 0 0 0 0 0 0 0 0 0 0 0 0 0 0 0 0 0 0 0 0 0 0 0 0 0 0 0 0 0 0 0 0 0 0 0 0 0 0 0 0 0 0 0 0 0 0 0 0 0 0 0 0 0 0 0 0 0 0 0 0 0 0 0 0 0 0 0 0 0 0 0 0 0 0 0 0 0 0 0 0 0 0 0 0 0 0 0 0 0 0 0 0 0 0 0 0 0 0 0 0 1 0 0 1 0 0 2 0 0 2 0 0 2 0 0 2 0 0 2 0 0 2 0 0 2 0 0 3 0 0 4 0 1 6 2 3 8 4 6 11 7 9 14 10 11 16 12 12 17 13 25 27 22 33 35 30 48 50 45 68 70 65 89 91 86 109 111 106 124 126 121 132 134 129 134 136 131 134 136 131 134 136 131 134 136 131 134 136 131 134 136 131 134 136 131 134 136 131 145 149 148 141 145 144 133 137 136 123 127 126 112 116 115 102 106 105 94 98 97 90 94 93 62 66 65 53 57 56 38 42 41 24 28 27 14 18 17 10 14 13 12 16 15 12 18 16 2 8 8 0 9 8 0 9 8 0 9 8 0 9 8 0 9 8 0 9 8 0 9 8 5 14 13 5 14 13 5 14 13 5 14 13 5 14 13 5 14 13 5 14 13 5 14 13 14 23 22 14 23 22 14 23 22 14 23 22 14 23 22 14 23 22 14 23 22 14 23 22 14 23 22 14 23 22 14 23 22 14 23 22 14 23 22 14 23 22 14 23 22 16 22 20 22 22 22 23 22 20 23 22 20 23 22 20 23 22 20 23 22 20 23 22 20 23 22 20 28 27 25 28 27 25 28 27 25 28 27 25 28 27 25 28 27 25 28 27 25 30 26 25 34 26 24 35 25 24 35 25 24 35 25 24 35 25 24 35 25 24 35 25 24 35 25 24 36 26 25 36 26 25 36 26 25 36 26 25 36 26 25 36 26 25 36 26 25 36 26 25
0 0 0 0 0 0 0 0 0 0 0 0 0 0 0 0 0 0 0 0 0 0 0 0 0 0 0 0 0 0 0 0 0 0 0 0 0 0 0 0 0 0 0 0 0 0 0 0 0 0 0 0 0 0 0 0 0 0 0 0 0 0 0 0 0 0 0 0 0 0 0 0 0 0 0 0 0 0 0 0 0 0 0 0 0 0 0 0 0 0 0 0 0 0 0 0 0 0 0 0 0 0 0 0 0 0 0 0 0 0 0 0 0 0 0 0 0 0 0 0 0 0 0 0 0 0 0 0 0 0 0 0 0 0 0 0 0 0 0 0 0 0 0 0 0 0 0 0 0 0 0 0 0 0 0 0 0 0 0 0 0 0 0 0 0 0 0 0 0 0 0 0 0 0 0 0 0 0 1 0 0 1 0 0 2 0 0 2 0 0 2 0 0 2 0 0 2 0 0 2 0 0 2 0 0 2 0 0 3 0 1 6 2 5 10 6 9 14 10 13 18 14 16 21 17 18 23 19 33 35 30 41 43 38 55 57 52 73 75 70 93 95 90 112 114 109 126 128 123 133 135 130 136 138 133 136 138 133 136 138 133 136 138 133 136 138 133 136 138 133 136 138 133 136 138 133 144 148 147 141 145 144 134 138 137 125 129 128 115 119 118 106 110 109 100 104 103 96 100 99 71 75 74 61 65 64 45 49 48 29 33 32 18 22 21 13 17 16 14 18 17 14 20 18 4 10 10 2 11 10 2 11 10 2 11 10 2 11 10 2 11 10 2 11 10 2 11 10 5 14 13 5 14 13 5 14 13 5 14 13 5 14 13 5 14 13 5 14 13 5 14 13 14 23 22 14 23 22 14 23 22 14 23 22 14 23 22 14 23 22 14 23 22 14 23 22 14 23 22 14 23 22 14 23 22 14 23 22 14 23 22 14 23 22 14 23 22 16 22 20 22 22 22 23 22 20 23 22 20 23 22 20 23 22 20 23 22 20 23 22 20 23 22 20 28 27 25 28 27 25 28 27 25 28 27 25 28 27 25 28 27 25 28 27 25 30 26 25 34 26 24 35 25 24 35 25 24 35 25 24 35 25 24 35 25 24 35 25 24 35 25 24 36 26 25 36 26 25 36 26 25 36 26 25 36 26 25 36 26 25 36 26 25 36 26 25
