P3
172 37
255
0 0 0 0 0 0 0 0 0 0 0 0 0 0 0 0 0 0 0 0 0 0 0 0 0 0 0 0 0 0 0 0 0 0 0 0 0 0 0 0 0 0 0 0 0 0 0 0 0 0 0 0 0 0 0 0 0 0 0 0 0 0 0 0 0 0 0 0 0 0 0 0 0 0 0 0 0 0 0 0 0 0 0 0 0 0 0 0 0 0 0 0 0 0 0 0 0 0 0 0 0 0 0 0 0 0 0 0 0 0 0 0 0 0 0 0 0 0 0 0 0 0 0 0 0 0 0 0 0 0 0 0 0 0 0 0 0 0 0 0 0 0 0 0 0 0 0 0 0 0 0 0 0 0 0 0 0 0 0 0 0 0 0 0 0 0 0 0 0 0 0 0 0 0 0 0 0 0 0 0 0 0 0 0 0 0 0 0 0 0 0 0 0 0 0 0 0 0 0 0 0 0 0 0 0 0 0 0 0 0 0 0 0 0 0 0 0 0 0 0 0 0 0 0 0 0 0 0 0 0 0 0 0 0 0 0 0 0 0 0 0 0 0 0 0 0 0 0 0 0 0 0 0 0 0 0 0 0 0 0 0 0 0 0 0 0 0 0 0 0 0 0 0 0 1 0 0 0 2 0 1 2 0 2 3 1 5 6 5 9 10 8 12 13 10 14 15 12 16 17 21 25 26 19 23 24 17 21 22 14 18 19 10 14 15 7 11 12 5 9 10 3 7 6 0 1 0 0 1 0 0 1 0 0 1 0 0 1 0 0 1 0 0 1 0 0 1 0 3 5 2 5 7 4 10 12 9 17 19 16 23 25 22 30 32 29 35 37 34 37 39 34 38 43 37 41 46 39 46 51 44 52 57 50 59 64 57 65 70 63 70 75 68 73 78 71 79 84 77 80 85 78 83 88 81 86 91 84 89 94 87 93 98 91 95 100 93 98 100 95 111 111 109 112 110 111 111 109 110 104 102 103 90 88 89 71 69 70 54 52 53 43 41 42 33 31 32 34 32 33 37 35 36 40 38 39 43 41 42 47 45 46 49 47 48 52 48 49 74 64 72 75 64 72 75 64 72 75 64 72 75 64 72 75 64 72 75 64 72 75 64 72 83 72 80 83 72 80 83 72 80 83 72 80 83 72 80 83 72 80 83 72 80 83 72 80
0 0 0 0 0 0 0 0 0 0 0 0 0 0 0 0 0 0 0 0 0 0 0 0 0 0 0 0 0 0 0 0 0 0 0 0 0 0 0 0 0 0 0 0 0 0 0 0 0 0 0 0 0 0 0 0 0 0 0 0 0 0 0 0 0 0 0 0 0 0 0 0 0 0 0 0 0 0 0 0 0 0 0 0 0 0 0 0 0 0 0 0 0 0 0 0 0 0 0 0 0 0 0 0 0 0 0 0 0 0 0 0 0 0 0 0 0 0 0 0 0 0 0 0 0 0 0 0 0 0 0 0 0 0 0 0 0 0 0 0 0 0 0 0 0 0 0 0 0 0 0 0 0 0 0 0 0 0 0 0 0 0 0 0 0 0 0 0 0 0 0 0 0 0 0 0 0 0 0 0 0 0 0 0 0 0 0 0 0 0 0 0 0 0 0 0 0 0 0 0 0 0 0 0 0 0 0 0 0 0 0 0 0 0 0 0 0 0 0 0 0 0 0 0 0 0 0 0 0 0 0 0 0 0 0 0 0 0 0 0 0 0 0 0 0 0 0 0 0 0 0 0 0 0 0 0 0 0 0 0 0 0 0 0 0 0 0 0 0 0 0 0 0 0 1 0 0 1 2 0 2 2 0 2 3 0 6 6 5 9 10 7 13 13 10 14 15 11 17 17 21 25 26 18 24 24 17 21 22 13 19 19 10 14 15 6 12 12 5 9 10 3 7 6 0 1 0 0 1 0 0 1 0 0 1 0 0 1 0 0 1 0 0 1 0 0 1 0 3 5 2 5 7 4 10 12 9 17 19 16 23 25 22 30 32 29 35 37 34 37 39 36 37 42 36 40 45 38 45 50 43 51 56 49 58 63 56 64 69 62 69 74 67 72 77 70 78 83 76 79 84 77 81 86 79 85 90 83 88 93 86 91 96 89 94 99 92 97 99 94 111 111 109 112 111 109 111 110 108 104 103 101 90 89 87 71 70 68 54 53 51 43 42 40 32 31 29 33 32 30 35 34 32 39 38 36 42 41 39 45 44 42 48 47 45 51 47 48 74 65 70 75 64 72 75 64 72 75 64 72 75 64 72 75 64 72 75 64 72 75 64 72 83 72 80 83 72 80 83 72 80 83 72 80 83 72 80 83 72 80 83 72 80 83 72 80
0 0 0 0 0 0 0 0 0 0 0 0 0 0 0 0 0 0 0 0 0 0 0 0 0 0 0 0 0 0 0 0 0 0 0 0 0 0 0 0 0 0 0 0 0 0 0 0 0 0 0 0 0 0 0 0 0 0 0 0 0 0 0 0 0 0 0 0 0 0 0 0 0 0 0 0 0 0 0 0 0 0 0 0 0 0 0 0 0 0 0 0 0 0 0 0 0 0 0 0 0 0 0 0 0 0 0 0 0 0 0 0 0 0 0 0 0 0 0 0 0 0 0 0 0 0 0 0 0 0 0 0 0 0 0 0 0 0 0 0 0 0 0 0 0 0 0 0 0 0 0 0 0 0 0 0 0 0 0 0 0 0 0 0 0 0 0 0 0 0 0 0 0 0 0 0 0 0 0 0 0 0 0 0 0 0 0 0 0 0 0 0 0 0 0 0 0 0 0 0 0 0 0 0 0 0 0 0 0 0 0 0 0 0 0 0 0 0 0 0 0 0 0 0 0 0 0 0 0 0 0 0 0 0 0 0 0 0 0 0 0 0 0 0 0 0 0 0 0 0 0 0 0 0 0 0 0 0 0 0 0 0 0 0 0 0 0 0 0 0 0 0 0 0 1 0 0 2 0 0 4 1 0 5 3 0 9 6 6 12 10 7 16 13 11 17 15 11 20 17 12 18 16 14 23 20 22 28 26 22 31 28 21 27 25 10 19 16 2 8 6 0 2 0 0 1 0 0 0 0 0 0 0 0 0 0 0 0 0 0 0 0 0 0 0 0 0 0 0 0 0 0 0 0 2 2 2 9 9 9 15 15 15 22 22 22 27 27 27 28 30 27 39 44 38 41 46 39 43 48 41 46 51 44 50 55 48 53 58 51 55 60 53 57 62 55 72 77 70 73 78 71 76 81 74 79 84 77 82 87 80 86 91 84 88 93 86 91 94 87 91 92 87 95 94 90 98 97 93 98 97 93 91 90 86 79 78 74 66 65 61 58 57 53 48 47 43 48 47 43 48 47 43 48 47 43 48 47 43 48 47 43 48 47 43 50 46 45 55 46 49 58 47 53 60 49 55 63 52 58 67 56 62 70 59 65 72 61 67 74 63 69 78 67 73 78 67 73 78 67 73 78 67 73 78 67 73 78 67 73 78 67 73 78 67 73
0 0 0 0 0 0 0 0 0 0 0 0 0 0 0 0 0 0 0 0 0 0 0 0 0 0 0 0 0 0 0 0 0 0 0 0 0 0 0 0 0 0 0 0 0 0 0 0 0 0 0 0 0 0 0 0 0 0 0 0 0 0 0 0 0 0 0 0 0 0 0 0 0 0 0 0 0 0 0 0 0 0 0 0 0 0 0 0 0 0 0 0 0 0 0 0 0 0 0 0 0 0 0 0 0 0 0 0 0 0 0 0 0 0 0 0 0 0 0 0 0 0 0 0 0 0 0 0 0 0 0 0 0 0 0 0 0 0 0 0 0 0 0 0 0 0 0 0 0 0 0 0 0 0 0 0 0 0 0 0 0 0 0 0 0 0 0 0 0 0 0 0 0 0 0 0 0 0 0 0 0 0 0 0 0 0 0 0 0 0 0 0 0 0 0 0 0 0 0 0 0 0 0 0 0 0 0 0 0 0 0 0 0 0 0 0 0 0 0 0 0 0 0 0 0 0 0 0 0 0 0 0 0 0 0 0 0 0 0 0 0 0 0 0 0 0 0 0 0 0 0 0 0 0 0 0 0 0 0 0 0 0 0 0 0 0 0 0 0 0 0 0 0 0 1 0 0 2 0 0 4 1 0 6 3 0 9 6 4 13 10 7 16 13 9 18 15 11 20 17 10 19 16 14 23 20 20 29 26 22 31 28 19 28 25 10 19 16 0 9 6 0 2 0 0 1 0 0 0 0 0 0 0 0 0 0 0 0 0 0 0 0 0 0 0 0 0 0 0 0 0 0 0 0 2 2 2 9 9 9 15 15 15 22 22 22 27 27 27 28 30 27 41 43 38 41 46 39 43 48 41 46 51 44 50 55 48 53 58 51 55 60 53 57 62 55 71 76 69 72 77 70 74 79 72 78 83 76 81 86 79 84 89 82 87 92 85 90 93 86 90 91 85 94 93 88 97 96 91 96 95 90 90 89 84 78 77 72 65 64 59 56 55 50 46 45 40 46 45 40 46 45 40 46 45 40 46 45 40 46 45 40 46 45 40 48 44 41 55 46 49 58 47 53 60 49 55 63 52 58 67 56 62 70 59 65 72 61 67 74 63 69 78 67 73 78 67 73 78 67 73 78 67 73 78 67 73 78 67 73 78 67 73 78 67 73
0 0 0 0 0 0 0 0 0 0 0 0 0 0 0 0 0 0 0 0 0 0 0 0 0 0 0 0 0 0 0 0 0 0 0 0 0 0 0 0 0 0 0 0 0 0 0 0 0 0 0 0 0 0 0 0 0 0 0 0 0 0 0 0 0 0 0 0 0 0 0 0 0 0 0 0 0 0 0 0 0 0 0 0 0 0 0 0 0 0 0 0 0 0 0 0 0 0 0 0 0 0 0 0 0 0 0 0 0 0 0 0 0 0 0 0 0 0 0 0 0 0 0 0 0 0 0 0 0 0 0 0 0 0 0 0 0 0 0 0 0 0 0 0 0 0 0 0 0 0 0 0 0 0 0 0 0 0 0 0 0 0 0 0 0 0 0 0 0 0 0 0 0 0 0 0 0 0 0 0 0 0 0 0 0 0 0 0 0 0 0 0 0 0 0 0 0 0 0 0 0 0 0 0 0 0 0 0 0 0 0 0 0 0 0 0 0 0 0 0 0 0 0 0 0 0 0 0 0 0 0 0 0 0 0 0 0 0 0 0 0 0 0 0 0 0 0 0 0 0 0 0 0 0 0 0 0 0 0 0 0 0 0 0 0 0 0 0 0 0 0 0 0 0 1 0 0 2 0 0 4 1 0 6 3 0 9 6 4 13 10 7 16 13 9 18 15 11 20 17 10 19 16 14 23 20 20 29 26 22 31 28 19 28 25 10 19 16 0 9 6 0 2 0 0 1 0 0 0 0 0 0 0 0 0 0 0 0 0 0 0 0 0 0 0 0 0 0 0 0 0 0 0 0 2 2 2 9 9 9 15 15 15 22 22 22 27 27 27 28 30 27 41 43 38 41 46 39 43 48 41 46 51 44 50 55 48 53 58 51 55 60 53 57 62 55 68 73 66 70 75 68 72 77 70 75 80 73 79 84 77 82 87 80 84 89 82 88 91 84 88 89 83 92 91 86 95 94 89 94 93 88 87 86 81 75 74 69 62 61 56 54 53 48 44 43 38 44 43 38 44 43 38 44 43 38 44 43 38 44 43 38 44 43 38 46 42 39 55 46 49 58 47 53 60 49 55 63 52 58 67 56 62 70 59 65 72 61 67 74 63 69 78 67 73 78 67 73 78 67 73 78 67 73 78 67 73 78 67 73 78 67 73 78 67 73
0 0 0 0 0 0 0 0 0 0 0 0 0 0 0 0 0 0 0 0 0 0 0 0 0 0 0 0 0 0 0 0 0 0 0 0 0 0 0 0 0 0 0 0 0 0 0 0 0 0 0 0 0 0 0 0 0 0 0 0 0 0 0 0 0 0 0 0 0 0 0 0 0 0 0 0 0 0 0 0 0 0 0 0 0 0 0 0 0 0 0 0 0 0 0 0 0 0 0 0 0 0 0 0 0 0 0 0 0 0 0 0 0 0 0 0 0 0 0 0 0 0 0 0 0 0 0 0 0 0 0 0 0 0 0 0 0 0 0 0 0 0 0 0 0 0 0 0 0 0 0 0 0 0 0 0 0 0 0 0 0 0 0 0 0 0 0 0 0 0 0 0 0 0 0 0 0 0 0 0 0 0 0 0 0 0 0 0 0 0 0 0 0 0 0 0 0 0 0 0 0 0 0 0 0 0 0 0 0 0 0 0 0 0 0 0 0 0 0 0 0 0 0 0 0 0 0 0 0 0 0 0 0 0 0 0 0 0 0 0 0 0 0 0 0 0 0 0 0 0 0 0 0 0 0 0 0 0 0 0 0 0 0 0 0 0 0 0 0 0 0 0 0 0 1 0 0 2 0 0 4 1 0 6 3 0 9 6 4 13 10 7 16 13 9 18 15 11 20 17 10 19 16 14 23 20 20 29 26 22 31 28 19 28 25 10 19 16 0 9 6 0 2 0 0 1 0 0 0 0 0 0 0 0 0 0 0 0 0 0 0 0 0 0 0 0 0 0 0 0 0 0 0 0 2 2 2 9 9 9 15 15 15 22 22 22 27 27 27 28 30 27 41 43 38 41 46 39 43 48 41 46 51 44 50 55 48 53 58 51 55 60 53 57 62 55 65 70 63 66 71 64 69 74 67 72 77 70 75 80 73 79 84 77 81 86 79 84 87 80 84 85 79 88 87 82 92 91 86 91 90 85 84 83 78 72 71 66 59 58 53 51 50 45 41 40 35 41 40 35 41 40 35 41 40 35 41 40 35 41 40 35 41 40 35 43 39 36 55 46 49 58 47 53 60 49 55 63 52 58 67 56 62 70 59 65 72 61 67 74 63 69 78 67 73 78 67 73 78 67 73 78 67 73 78 67 73 78 67 73 78 67 73 78 67 73
0 0 0 0 0 0 0 0 0 0 0 0 0 0 0 0 0 0 0 0 0 0 0 0 0 0 0 0 0 0 0 0 0 0 0 0 0 0 0 0 0 0 0 0 0 0 0 0 0 0 0 0 0 0 0 0 0 0 0 0 0 0 0 0 0 0 0 0 0 0 0 0 0 0 0 0 0 0 0 0 0 0 0 0 0 0 0 0 0 0 0 0 0 0 0 0 0 0 0 0 0 0 0 0 0 0 0 0 0 0 0 0 0 0 0 0 0 0 0 0 0 0 0 0 0 0 0 0 0 0 0 0 0 0 0 0 0 0 0 0 0 0 0 0 0 0 0 0 0 0 0 0 0 0 0 0 0 0 0 0 0 0 0 0 0 0 0 0 0 0 0 0 0 0 0 0 0 0 0 0 0 0 0 0 0 0 0 0 0 0 0 0 0 0 0 0 0 0 0 0 0 0 0 0 0 0 0 0 0 0 0 0 0 0 0 0 0 0 0 0 0 0 0 0 0 0 0 0 0 0 0 0 0 0 0 0 0 0 0 0 0 0 0 0 0 0 0 0 0 0 0 0 0 0 0 0 0 0 0 0 0 0 0 0 0 0 0 0 0 0 0 0 0 0 1 0 0 2 0 0 4 1 0 6 3 0 9 6 4 13 10 7 16 13 9 18 15 11 20 17 10 19 16 14 23 20 20 29 26 22 31 28 19 28 25 10 19 16 0 9 6 0 2 0 0 1 0 0 0 0 0 0 0 0 0 0 0 0 0 0 0 0 0 0 0 0 0 0 0 0 0 0 0 0 2 2 2 9 9 9 15 15 15 22 22 22 27 27 27 28 30 27 41 43 38 41 46 39 43 48 41 46 51 44 50 55 48 53 58 51 55 60 53 57 62 55 62 67 60 63 68 61 65 70 63 69 74 67 72 77 70 75 80 73 78 83 76 81 84 77 81 82 76 85 84 79 88 87 82 87 86 81 80 79 74 68 67 62 56 55 50 47 46 41 37 36 31 37 36 31 37 36 31 37 36 31 37 36 31 37 36 31 37 36 31 39 35 32 55 46 49 58 47 53 60 49 55 63 52 58 67 56 62 70 59 65 72 61 67 74 63 69 78 67 73 78 67 73 78 67 73 78 67 73 78 67 73 78 67 73 78 67 73 78 67 73
0 0 0 0 0 0 0 0 0 0 0 0 0 0 0 0 0 0 0 0 0 0 0 0 0 0 0 0 0 0 0 0 0 0 0 0 0 0 0 0 0 0 0 0 0 0 0 0 0 0 0 0 0 0 0 0 0 0 0 0 0 0 0 0 0 0 0 0 0 0 0 0 0 0 0 0 0 0 0 0 0 0 0 0 0 0 0 0 0 0 0 0 0 0 0 0 0 0 0 0 0 0 0 0 0 0 0 0 0 0 0 0 0 0 0 0 0 0 0 0 0 0 0 0 0 0 0 0 0 0 0 0 0 0 0 0 0 0 0 0 0 0 0 0 0 0 0 0 0 0 0 0 0 0 0 0 0 0 0 0 0 0 0 0 0 0 0 0 0 0 0 0 0 0 0 0 0 0 0 0 0 0 0 0 0 0 0 0 0 0 0 0 0 0 0 0 0 0 0 0 0 0 0 0 0 0 0 0 0 0 0 0 0 0 0 0 0 0 0 0 0 0 0 0 0 0 0 0 0 0 0 0 0 0 0 0 0 0 0 0 0 0 0 0 0 0 0 0 0 0 0 0 0 0 0 0 0 0 0 0 0 0 0 0 0 0 0 0 0 0 0 0 0 0 1 0 0 2 0 0 4 1 0 6 3 0 9 6 4 13 10 7 16 13 9 18 15 11 20 17 10 19 16 14 23 20 20 29 26 22 31 28 19 28 25 10 19 16 0 9 6 0 2 0 0 1 0 0 0 0 0 0 0 0 0 0 0 0 0 0 0 0 0 0 0 0 0 0 0 0 0 0 0 0 2 2 2 9 9 9 15 15 15 22 22 22 27 27 27 28 30 27 41 43 38 41 46 39 43 48 41 46 51 44 50 55 48 53 58 51 55 60 53 57 62 55 58 63 56 60 65 58 62 67 60 65 70 63 69 74 67 72 77 70 74 79 72 78 81 74 78 79 73 82 81 76 85 84 79 84 83 78 77 76 71 65 64 59 52 51 46 44 43 38 34 33 28 34 33 28 34 33 28 34 33 28 34 33 28 34 33 28 34 33 28 36 32 29 55 46 49 58 47 53 60 49 55 63 52 58 67 56 62 70 59 65 72 61 67 74 63 69 78 67 73 78 67 73 78 67 73 78 67 73 78 67 73 78 67 73 78 67 73 78 67 73
0 0 0 0 0 0 0 0 0 0 0 0 0 0 0 0 0 0 0 0 0 0 0 0 0 0 0 0 0 0 0 0 0 0 0 0 0 0 0 0 0 0 0 0 0 0 0 0 0 0 0 0 0 0 0 0 0 0 0 0 0 0 0 0 0 0 0 0 0 0 0 0 0 0 0 0 0 0 0 0 0 0 0 0 0 0 0 0 0 0 0 0 0 0 0 0 0 0 0 0 0 0 0 0 0 0 0 0 0 0 0 0 0 0 0 0 0 0 0 0 0 0 0 0 0 0 0 0 0 0 0 0 0 0 0 0 0 0 0 0 0 0 0 0 0 0 0 0 0 0 0 0 0 0 0 0 0 0 0 0 0 0 0 0 0 0 0 0 0 0 0 0 0 0 0 0 0 0 0 0 0 0 0 0 0 0 0 0 0 0 0 0 0 0 0 0 0 0 0 0 0 0 0 0 0 0 0 0 0 0 0 0 0 0 0 0 0 0 0 0 0 0 0 0 0 0 0 0 0 0 0 0 0 0 0 0 0 0 0 0 0 0 0 0 0 0 0 0 0 0 0 0 0 0 0 0 0 0 0 0 0 0 0 0 0 0 0 0 0 0 0 0 0 0 1 0 0 2 0 0 4 1 0 6 3 0 9 6 4 13 10 7 16 13 9 18 15 11 20 17 10 19 16 14 23 20 20 29 26 22 31 28 19 28 25 10 19 16 0 9 6 0 2 0 0 1 0 0 0 0 0 0 0 0 0 0 0 0 0 0 0 0 0 0 0 0 0 0 0 0 0 0 0 0 2 2 2 9 9 9 15 15 15 22 22 22 27 27 27 28 30 27 41 43 38 41 46 39 43 48 41 46 51 44 50 55 48 53 58 51 55 60 53 57 62 55 56 61 54 57 62 55 60 65 58 63 68 61 66 71 64 70 75 68 72 77 70 75 78 71 75 76 70 79 78 73 82 81 76 82 81 76 75 74 69 63 62 57 50 49 44 42 41 36 32 31 26 32 31 26 32 31 26 32 31 26 32 31 26 32 31 26 32 31 26 34 30 27 55 46 49 58 47 53 60 49 55 63 52 58 67 56 62 70 59 65 72 61 67 74 63 69 78 67 73 78 67 73 78 67 73 78 67 73 78 67 73 78 67 73 78 67 73 78 67 73
0 0 0 0 0 0 0 0 0 0 0 0 0 0 0 0 0 0 0 0 0 0 0 0 0 0 0 0 0 0 0 0 0 0 0 0 0 0 0 0 0 0 0 0 0 0 0 0 0 0 0 0 0 0 0 0 0 0 0 0 0 0 0 0 0 0 0 0 0 0 0 0 0 0 0 0 0 0 0 0 0 0 0 0 0 0 0 0 0 0 0 0 0 0 0 0 0 0 0 0 0 0 0 0 0 0 0 0 0 0 0 0 0 0 0 0 0 0 0 0 0 0 0 0 0 0 0 0 0 0 0 0 0 0 0 0 0 0 0 0 0 0 0 0 0 0 0 0 0 0 0 0 0 0 0 0 0 0 0 0 0 0 0 0 0 0 0 0 0 0 0 0 0 0 0 0 0 0 0 0 0 0 0 0 0 0 0 0 0 0 0 0 0 0 0 0 0 0 0 0 0 0 0 0 0 0 0 0 0 0 0 0 0 0 0 0 0 0 0 0 0 0 0 0 0 0 0 0 0 0 0 0 0 0 0 0 0 0 0 0 0 0 0 0 0 0 0 0 0 0 0 0 0 0 0 0 0 0 0 0 0 0 0 0 0 0 0 0 0 0 0 0 0 0 1 0 0 2 0 0 4 1 0 6 3 0 9 6 4 13 10 7 16 13 9 18 15 11 20 17 10 19 16 14 23 20 20 29 26 22 31 28 19 28 25 10 19 16 0 9 6 0 2 0 0 1 0 0 0 0 0 0 0 0 0 0 0 0 0 0 0 0 0 0 0 0 0 0 0 0 0 0 0 0 2 2 2 9 9 9 15 15 15 22 22 22 27 27 27 28 30 27 41 43 38 41 46 39 43 48 41 46 51 44 50 55 48 53 58 51 55 60 53 57 62 55 55 60 53 56 61 54 58 63 56 62 67 60 65 70 63 68 73 66 71 76 69 74 77 70 74 75 69 78 77 72 81 80 75 80 79 74 74 73 68 62 61 56 49 48 43 40 39 34 30 29 24 30 29 24 30 29 24 30 29 24 30 29 24 30 29 24 30 29 24 32 28 25 55 46 49 58 47 53 60 49 55 63 52 58 67 56 62 70 59 65 72 61 67 74 63 69 78 67 73 78 67 73 78 67 73 78 67 73 78 67 73 78 67 73 78 67 73 78 67 73
0 0 0 0 0 0 0 0 0 0 0 0 0 0 0 0 0 0 0 0 0 0 0 0 0 0 0 0 0 0 0 0 0 0 0 0 0 0 0 0 0 0 0 0 0 0 0 0 0 0 0 0 0 0 0 0 0 0 0 0 0 0 0 0 0 0 0 0 0 0 0 0 0 0 0 0 0 0 0 0 0 0 0 0 0 0 0 0 0 0 0 0 0 0 0 0 0 0 0 0 0 0 0 0 0 0 0 0 0 0 0 0 0 0 0 0 0 0 0 0 0 0 0 0 0 0 0 0 0 0 0 0 0 0 0 0 0 0 0 0 0 0 0 0 0 0 0 0 0 0 0 0 0 0 0 0 0 0 0 0 0 0 0 0 0 0 0 0 0 0 0 0 0 0 0 0 0 0 0 0 0 0 0 0 0 0 0 0 0 0 0 0 0 0 0 0 0 0 0 0 0 0 0 0 0 0 0 0 0 0 0 0 0 0 0 0 0 0 0 0 0 0 0 0 0 0 0 0 0 0 0 0 0 0 0 0 0 0 0 0 0 0 0 0 0 0 0 0 0 0 0 0 2 2 2 2 2 2 2 2 2 2 2 2 2 2 2 2 2 2 2 2 2 1 3 2 1 7 5 1 10 7 3 12 9 6 15 12 10 19 16 13 22 19 15 24 21 17 26 23 15 24 21 13 22 19 11 20 17 8 17 14 4 13 10 1 10 7 0 8 5 0 5 3 0 1 0 0 0 0 0 0 0 0 0 0 0 0 0 0 0 0 0 0 0 0 0 0 0 0 0 0 0 0 1 1 1 4 4 4 8 8 8 11 11 11 13 13 13 14 16 13 30 32 27 30 35 28 32 37 30 35 40 33 39 44 37 42 47 40 44 49 42 46 51 44 63 68 61 63 68 61 63 68 61 63 68 61 63 68 61 63 68 61 63 68 61 65 68 61 78 79 73 78 77 72 76 75 70 72 71 66 69 68 63 66 65 60 63 62 57 62 61 56 32 31 26 32 31 26 32 31 26 32 31 26 32 31 26 32 31 26 32 31 26 34 30 27 50 41 44 52 41 47 55 44 50 58 47 53 61 50 56 65 54 60 67 56 62 68 57 63 70 59 65 70 59 65 70 59 65 70 59 65 70 59 65 70 59 65 70 59 65 70 59 65
0 0 0 0 0 0 0 0 0 0 0 0 0 0 0 0 0 0 0 0 0 0 0 0 0 0 0 0 0 0 0 0 0 0 0 0 0 0 0 0 0 0 0 0 0 0 0 0 0 0 0 0 0 0 0 0 0 0 0 0 0 0 0 0 0 0 0 0 0 0 0 0 0 0 0 0 0 0 0 0 0 0 0 0 0 0 0 0 0 0 0 0 0 0 0 0 0 0 0 0 0 0 0 0 0 0 0 0 0 0 0 0 0 0 0 0 0 0 0 0 0 0 0 0 0 0 0 0 0 0 0 0 0 0 0 0 0 0 0 0 0 0 0 0 0 0 0 0 0 0 0 0 0 0 0 0 0 0 0 0 0 0 0 0 0 0 0 0 0 0 0 0 0 0 0 0 0 0 0 0 0 0 0 0 0 0 0 0 0 0 0 0 0 0 0 0 0 0 0 0 0 0 0 0 0 0 0 0 0 0 0 0 0 0 0 0 0 0 0 0 0 0 0 0 0 0 0 0 0 0 0 0 0 0 0 0 0 0 0 0 0 0 0 0 0 0 0 0 0 0 0 0 2 2 2 2 2 2 2 2 2 2 2 2 2 2 2 2 2 2 2 2 2 1 3 2 1 7 5 1 10 7 3 12 9 6 15 12 10 19 16 13 22 19 15 24 21 17 26 23 15 24 21 13 22 19 11 20 17 8 17 14 4 13 10 1 10 7 0 8 5 0 5 3 0 1 0 0 0 0 0 0 0 0 0 0 0 0 0 0 0 0 0 0 0 0 0 0 0 0 0 0 0 0 1 1 1 4 4 4 8 8 8 11 11 11 13 13 13 14 16 13 30 32 27 30 35 28 32 37 30 35 40 33 39 44 37 42 47 40 44 49 42 46 51 44 61 66 59 61 66 59 61 66 59 61 66 59 61 66 59 61 66 59 61 66 59 63 66 59 77 78 72 77 76 71 74 73 68 71 70 65 68 67 62 64 63 58 62 61 56 61 60 55 32 31 26 32 31 26 32 31 26 32 31 26 32 31 26 32 31 26 32 31 26 34 30 27 49 40 43 51 40 46 53 42 48 57 46 52 60 49 55 63 52 58 66 55 61 67 56 62 70 59 65 70 59 65 70 59 65 70 59 65 70 59 65 70 59 65 70 59 65 70 59 65
0 0 0 0 0 0 0 0 0 0 0 0 0 0 0 0 0 0 0 0 0 0 0 0 0 0 0 0 0 0 0 0 0 0 0 0 0 0 0 0 0 0 0 0 0 0 0 0 0 0 0 0 0 0 0 0 0 0 0 0 0 0 0 0 0 0 0 0 0 0 0 0 0 0 0 0 0 0 0 0 0 0 0 0 0 0 0 0 0 0 0 0 0 0 0 0 0 0 0 0 0 0 0 0 0 0 0 0 0 0 0 0 0 0 0 0 0 0 0 0 0 0 0 0 0 0 0 0 0 0 0 0 0 0 0 0 0 0 0 0 0 0 0 0 0 0 0 0 0 0 0 0 0 0 0 0 0 0 0 0 0 0 0 0 0 0 0 0 0 0 0 0 0 0 0 0 0 0 0 0 0 0 0 0 0 0 0 0 0 0 0 0 0 0 0 0 0 0 0 0 0 0 0 0 0 0 0 0 0 0 0 0 0 0 0 0 0 0 0 0 0 0 0 0 0 0 0 0 0 0 0 0 0 0 0 0 0 0 0 0 0 0 0 0 0 0 0 0 0 0 0 0 2 2 2 2 2 2 2 2 2 2 2 2 2 2 2 2 2 2 2 2 2 1 3 2 1 7 5 1 10 7 3 12 9 6 15 12 10 19 16 13 22 19 15 24 21 17 26 23 15 24 21 13 22 19 11 20 17 8 17 14 4 13 10 1 10 7 0 8 5 0 5 3 0 1 0 0 0 0 0 0 0 0 0 0 0 0 0 0 0 0 0 0 0 0 0 0 0 0 0 0 0 0 1 1 1 4 4 4 8 8 8 11 11 11 13 13 13 14 16 13 30 32 27 30 35 28 32 37 30 35 40 33 39 44 37 42 47 40 44 49 42 46 51 44 59 64 57 59 64 57 59 64 57 59 64 57 59 64 57 59 64 57 59 64 57 61 64 57 75 76 70 74 73 68 72 71 66 69 68 63 65 64 59 62 61 56 60 59 54 58 57 52 32 31 26 32 31 26 32 31 26 32 31 26 32 31 26 32 31 26 32 31 26 34 30 27 46 37 40 49 38 44 51 40 46 54 43 49 58 47 53 61 50 56 63 52 58 65 54 60 70 59 65 70 59 65 70 59 65 70 59 65 70 59 65 70 59 65 70 59 65 70 59 65
0 0 0 0 0 0 0 0 0 0 0 0 0 0 0 0 0 0 0 0 0 0 0 0 0 0 0 0 0 0 0 0 0 0 0 0 0 0 0 0 0 0 0 0 0 0 0 0 0 0 0 0 0 0 0 0 0 0 0 0 0 0 0 0 0 0 0 0 0 0 0 0 0 0 0 0 0 0 0 0 0 0 0 0 0 0 0 0 0 0 0 0 0 0 0 0 0 0 0 0 0 0 0 0 0 0 0 0 0 0 0 0 0 0 0 0 0 0 0 0 0 0 0 0 0 0 0 0 0 0 0 0 0 0 0 0 0 0 0 0 0 0 0 0 0 0 0 0 0 0 0 0 0 0 0 0 0 0 0 0 0 0 0 0 0 0 0 0 0 0 0 0 0 0 0 0 0 0 0 0 0 0 0 0 0 0 0 0 0 0 0 0 0 0 0 0 0 0 0 0 0 0 0 0 0 0 0 0 0 0 0 0 0 0 0 0 0 0 0 0 0 0 0 0 0 0 0 0 0 0 0 0 0 0 0 0 0 0 0 0 0 0 0 0 0 0 0 0 0 0 0 0 2 2 2 2 2 2 2 2 2 2 2 2 2 2 2 2 2 2 2 2 2 1 3 2 1 7 5 1 10 7 3 12 9 6 15 12 10 19 16 13 22 19 15 24 21 17 26 23 15 24 21 13 22 19 11 20 17 8 17 14 4 13 10 1 10 7 0 8 5 0 5 3 0 1 0 0 0 0 0 0 0 0 0 0 0 0 0 0 0 0 0 0 0 0 0 0 0 0 0 0 0 0 1 1 1 4 4 4 8 8 8 11 11 11 13 13 13 14 16 13 30 32 27 30 35 28 32 37 30 35 40 33 39 44 37 42 47 40 44 49 42 46 51 44 56 61 54 56 61 54 56 61 54 56 61 54 56 61 54 56 61 54 56 61 54 58 61 54 71 72 66 71 70 65 69 68 63 65 64 59 62 61 56 59 58 53 56 55 50 55 54 49 32 31 26 32 31 26 32 31 26 32 31 26 32 31 26 32 31 26 32 31 26 34 30 27 43 34 37 45 34 40 48 37 43 51 40 46 54 43 49 58 47 53 60 49 55 61 50 56 70 59 65 70 59 65 70 59 65 70 59 65 70 59 65 70 59 65 70 59 65 70 59 65
0 0 0 0 0 0 0 0 0 0 0 0 0 0 0 0 0 0 0 0 0 0 0 0 0 0 0 0 0 0 0 0 0 0 0 0 0 0 0 0 0 0 0 0 0 0 0 0 0 0 0 0 0 0 0 0 0 0 0 0 0 0 0 0 0 0 0 0 0 0 0 0 0 0 0 0 0 0 0 0 0 0 0 0 0 0 0 0 0 0 0 0 0 0 0 0 0 0 0 0 0 0 0 0 0 0 0 0 0 0 0 0 0 0 0 0 0 0 0 0 0 0 0 0 0 0 0 0 0 0 0 0 0 0 0 0 0 0 0 0 0 0 0 0 0 0 0 0 0 0 0 0 0 0 0 0 0 0 0 0 0 0 0 0 0 0 0 0 0 0 0 0 0 0 0 0 0 0 0 0 0 0 0 0 0 0 0 0 0 0 0 0 0 0 0 0 0 0 0 0 0 0 0 0 0 0 0 0 0 0 0 0 0 0 0 0 0 0 0 0 0 0 0 0 0 0 0 0 0 0 0 0 0 0 0 0 0 0 0 0 0 0 0 0 0 0 0 0 0 0 0 0 2 2 2 2 2 2 2 2 2 2 2 2 2 2 2 2 2 2 2 2 2 1 3 2 1 7 5 1 10 7 3 12 9 6 15 12 10 19 16 13 22 19 15 24 21 17 26 23 15 24 21 13 22 19 11 20 17 8 17 14 4 13 10 1 10 7 0 8 5 0 5 3 0 1 0 0 0 0 0 0 0 0 0 0 0 0 0 0 0 0 0 0 0 0 0 0 0 0 0 0 0 0 1 1 1 4 4 4 8 8 8 11 11 11 13 13 13 14 16 13 30 32 27 30 35 28 32 37 30 35 40 33 39 44 37 42 47 40 44 49 42 46 51 44 52 57 50 52 57 50 52 57 50 52 57 50 52 57 50 52 57 50 52 57 50 54 57 50 68 69 63 68 67 62 65 64 59 62 61 56 59 58 53 55 54 49 53 52 47 52 51 46 32 31 26 32 31 26 32 31 26 32 31 26 32 31 26 32 31 26 32 31 26 34 30 27 40 31 34 42 31 37 44 33 39 48 37 43 51 40 46 54 43 49 57 46 52 58 47 53 70 59 65 70 59 65 70 59 65 70 59 65 70 59 65 70 59 65 70 59 65 70 59 65
0 0 0 0 0 0 0 0 0 0 0 0 0 0 0 0 0 0 0 0 0 0 0 0 0 0 0 0 0 0 0 0 0 0 0 0 0 0 0 0 0 0 0 0 0 0 0 0 0 0 0 0 0 0 0 0 0 0 0 0 0 0 0 0 0 0 0 0 0 0 0 0 0 0 0 0 0 0 0 0 0 0 0 0 0 0 0 0 0 0 0 0 0 0 0 0 0 0 0 0 0 0 0 0 0 0 0 0 0 0 0 0 0 0 0 0 0 0 0 0 0 0 0 0 0 0 0 0 0 0 0 0 0 0 0 0 0 0 0 0 0 0 0 0 0 0 0 0 0 0 0 0 0 0 0 0 0 0 0 0 0 0 0 0 0 0 0 0 0 0 0 0 0 0 0 0 0 0 0 0 0 0 0 0 0 0 0 0 0 0 0 0 0 0 0 0 0 0 0 0 0 0 0 0 0 0 0 0 0 0 0 0 0 0 0 0 0 0 0 0 0 0 0 0 0 0 0 0 0 0 0 0 0 0 0 0 0 0 0 0 0 0 0 0 0 0 0 0 0 0 0 0 2 2 2 2 2 2 2 2 2 2 2 2 2 2 2 2 2 2 2 2 2 1 3 2 1 7 5 1 10 7 3 12 9 6 15 12 10 19 16 13 22 19 15 24 21 17 26 23 15 24 21 13 22 19 11 20 17 8 17 14 4 13 10 1 10 7 0 8 5 0 5 3 0 1 0 0 0 0 0 0 0 0 0 0 0 0 0 0 0 0 0 0 0 0 0 0 0 0 0 0 0 0 1 1 1 4 4 4 8 8 8 11 11 11 13 13 13 14 16 13 30 32 27 30 35 28 32 37 30 35 40 33 39 44 37 42 47 40 44 49 42 46 51 44 49 54 47 49 54 47 49 54 47 49 54 47 49 54 47 49 54 47 49 54 47 51 54 47 65 66 60 64 63 58 62 61 56 59 58 53 55 54 49 52 51 46 50 49 44 48 47 42 32 31 26 32 31 26 32 31 26 32 31 26 32 31 26 32 31 26 32 31 26 34 30 27 36 27 30 39 28 34 41 30 36 44 33 39 48 37 43 51 40 46 53 42 48 55 44 50 70 59 65 70 59 65 70 59 65 70 59 65 70 59 65 70 59 65 70 59 65 70 59 65
0 0 0 0 0 0 0 0 0 0 0 0 0 0 0 0 0 0 0 0 0 0 0 0 0 0 0 0 0 0 0 0 0 0 0 0 0 0 0 0 0 0 0 0 0 0 0 0 0 0 0 0 0 0 0 0 0 0 0 0 0 0 0 0 0 0 0 0 0 0 0 0 0 0 0 0 0 0 0 0 0 0 0 0 0 0 0 0 0 0 0 0 0 0 0 0 0 0 0 0 0 0 0 0 0 0 0 0 0 0 0 0 0 0 0 0 0 0 0 0 0 0 0 0 0 0 0 0 0 0 0 0 0 0 0 0 0 0 0 0 0 0 0 0 0 0 0 0 0 0 0 0 0 0 0 0 0 0 0 0 0 0 0 0 0 0 0 0 0 0 0 0 0 0 0 0 0 0 0 0 0 0 0 0 0 0 0 0 0 0 0 0 0 0 0 0 0 0 0 0 0 0 0 0 0 0 0 0 0 0 0 0 0 0 0 0 0 0 0 0 0 0 0 0 0 0 0 0 0 0 0 0 0 0 0 0 0 0 0 0 0 0 0 0 0 0 0 0 0 0 0 0 2 2 2 2 2 2 2 2 2 2 2 2 2 2 2 2 2 2 2 2 2 1 3 2 1 7 5 1 10 7 3 12 9 6 15 12 10 19 16 13 22 19 15 24 21 17 26 23 15 24 21 13 22 19 11 20 17 8 17 14 4 13 10 1 10 7 0 8 5 0 5 3 0 1 0 0 0 0 0 0 0 0 0 0 0 0 0 0 0 0 0 0 0 0 0 0 0 0 0 0 0 0 1 1 1 4 4 4 8 8 8 11 11 11 13 13 13 14 16 13 30 32 27 30 35 28 32 37 30 35 40 33 39 44 37 42 47 40 44 49 42 46 51 44 47 52 45 47 52 45 47 52 45 47 52 45 47 52 45 47 52 45 47 52 45 49 52 45 62 63 57 62 61 56 60 59 54 56 55 50 53 52 47 50 49 44 47 46 41 46 45 40 32 31 26 32 31 26 32 31 26 32 31 26 32 31 26 32 31 26 32 31 26 34 30 27 34 25 28 36 25 31 39 28 34 42 31 37 45 34 40 49 38 44 51 40 46 52 41 47 70 59 65 70 59 65 70 59 65 70 59 65 70 59 65 70 59 65 70 59 65 70 59 65
0 0 0 0 0 0 0 0 0 0 0 0 0 0 0 0 0 0 0 0 0 0 0 0 0 0 0 0 0 0 0 0 0 0 0 0 0 0 0 0 0 0 0 0 0 0 0 0 0 0 0 0 0 0 0 0 0 0 0 0 0 0 0 0 0 0 0 0 0 0 0 0 0 0 0 0 0 0 0 0 0 0 0 0 0 0 0 0 0 0 0 0 0 0 0 0 0 0 0 0 0 0 0 0 0 0 0 0 0 0 0 0 0 0 0 0 0 0 0 0 0 0 0 0 0 0 0 0 0 0 0 0 0 0 0 0 0 0 0 0 0 0 0 0 0 0 0 0 0 0 0 0 0 0 0 0 0 0 0 0 0 0 0 0 0 0 0 0 0 0 0 0 0 0 0 0 0 0 0 0 0 0 0 0 0 0 0 0 0 0 0 0 0 0 0 0 0 0 0 0 0 0 0 0 0 0 0 0 0 0 0 0 0 0 0 0 0 0 0 0 0 0 0 0 0 0 0 0 0 0 0 0 0 0 0 0 0 0 0 0 0 0 0 0 0 0 0 0 0 0 0 0 2 2 2 2 2 2 2 2 2 2 2 2 2 2 2 2 2 2 2 2 2 1 3 2 1 7 5 1 10 7 3 12 9 6 15 12 10 19 16 13 22 19 15 24 21 17 26 23 15 24 21 13 22 19 11 20 17 8 17 14 4 13 10 1 10 7 0 8 5 0 5 3 0 1 0 0 0 0 0 0 0 0 0 0 0 0 0 0 0 0 0 0 0 0 0 0 0 0 0 0 0 0 1 1 1 4 4 4 8 8 8 11 11 11 13 13 13 14 16 13 28 33 27 30 35 28 32 37 30 35 40 33 39 44 37 42 47 40 44 49 42 46 51 44 45 50 43 45 50 43 45 50 43 45 50 43 45 50 43 45 50 43 45 50 43 45 50 43 61 62 56 61 60 55 58 57 52 55 54 49 52 51 46 48 47 42 46 45 40 45 44 39 32 31 26 32 31 26 32 31 26 32 31 26 32 31 26 32 31 26 32 31 26 34 30 27 33 24 25 35 24 28 37 26 30 41 30 34 44 33 37 47 36 40 50 39 43 51 40 44 70 59 63 70 59 63 70 59 63 70 59 63 70 59 63 70 59 63 70 59 63 70 59 63
0 0 0 0 0 0 0 0 0 0 0 0 0 0 0 0 0 0 0 0 0 0 0 0 0 0 0 0 0 0 0 0 0 0 0 0 0 0 0 0 0 0 0 0 0 0 0 0 0 0 0 0 0 0 0 0 0 0 0 0 0 0 0 0 0 0 0 0 0 0 0 0 0 0 0 0 0 0 0 0 0 0 0 0 0 0 0 0 0 0 0 0 0 0 0 0 0 0 0 0 0 0 0 0 0 0 0 0 0 0 0 0 0 0 0 0 0 0 0 0 0 0 0 0 0 0 0 0 0 0 0 0 0 0 0 0 0 0 0 0 0 0 0 0 0 0 0 0 0 0 0 0 0 0 0 0 0 0 0 0 0 0 0 0 0 0 0 0 0 0 0 0 0 0 0 0 0 0 0 0 0 0 0 0 0 0 0 0 0 0 0 0 0 0 0 0 0 0 0 0 0 0 0 0 0 0 0 0 0 0 0 0 0 0 0 0 0 0 0 0 0 0 0 0 0 0 0 0 0 0 2 0 0 2 0 0 2 0 0 2 0 0 2 0 0 2 0 0 2 0 0 2 0 0 2 0 0 2 1 2 4 4 5 7 8 9 11 11 12 14 13 14 16 13 17 18 7 13 13 7 16 15 11 20 19 15 24 23 20 29 28 24 33 32 28 37 36 29 38 37 28 37 36 26 35 34 21 30 29 14 23 22 8 17 16 1 10 9 0 5 4 0 2 0 0 1 0 0 1 0 0 1 0 0 1 0 0 1 0 0 1 0 0 1 0 0 1 0 0 1 0 0 1 0 0 1 0 1 3 0 5 7 4 8 10 7 10 12 9 12 14 11 16 21 15 17 24 17 19 26 19 22 29 22 26 33 26 29 36 29 31 38 31 33 40 33 47 54 47 47 54 47 47 54 47 47 54 47 47 54 47 47 54 47 47 54 47 48 53 47 55 56 50 55 56 50 55 56 50 55 56 50 55 56 50 55 56 50 55 56 50 55 56 50 30 31 25 30 31 25 30 31 25 30 31 25 30 31 25 30 31 25 30 31 25 31 30 25 29 24 21 33 24 25 35 26 27 38 29 30 42 33 34 45 36 37 47 38 39 49 40 41 57 48 49 59 50 51 61 52 53 64 55 56 68 59 60 71 62 63 73 64 65 76 66 67
0 0 0 0 0 0 0 0 0 0 0 0 0 0 0 0 0 0 0 0 0 0 0 0 0 0 0 0 0 0 0 0 0 0 0 0 0 0 0 0 0 0 0 0 0 0 0 0 0 0 0 0 0 0 0 0 0 0 0 0 0 0 0 0 0 0 0 0 0 0 0 0 0 0 0 0 0 0 0 0 0 0 0 0 0 0 0 0 0 0 0 0 0 0 0 0 0 0 0 0 0 0 0 0 0 0 0 0 0 0 0 0 0 0 0 0 0 0 0 0 0 0 0 0 0 0 0 0 0 0 0 0 0 0 0 0 0 0 0 0 0 0 0 0 0 0 0 0 0 0 0 0 0 0 0 0 0 0 0 0 0 0 0 0 0 0 0 0 0 0 0 0 0 0 0 0 0 0 0 0 0 0 0 0 0 0 0 0 0 0 0 0 0 0 0 0 0 0 0 0 0 0 0 0 0 0 0 0 0 0 0 0 0 0 0 0 0 0 0 0 0 0 0 0 0 0 0 0 0 0 2 0 0 2 0 0 2 0 0 2 0 0 2 0 0 2 0 0 2 0 0 2 0 0 2 0 0 2 1 2 4 4 5 7 8 9 11 11 12 14 13 14 16 13 17 18 10 16 16 10 19 18 13 22 21 17 26 25 21 30 29 24 33 32 27 36 35 29 38 37 28 37 36 26 35 34 21 30 29 14 23 22 8 17 16 1 10 9 0 5 4 0 2 0 0 1 0 0 1 0 0 1 0 0 1 0 0 1 0 0 1 0 0 1 0 0 1 0 0 1 0 0 1 0 0 1 0 1 3 0 5 7 4 8 10 7 10 12 9 10 15 11 16 21 15 17 24 17 19 26 19 22 29 22 26 33 26 29 36 29 31 38 31 33 40 33 45 52 45 45 52 45 45 52 45 45 52 45 45 52 45 45 52 45 45 52 45 46 51 45 52 55 48 53 54 48 53 54 48 53 54 48 53 54 48 53 54 48 53 54 48 53 54 48 30 31 25 30 31 25 30 31 25 30 31 25 30 31 25 30 31 25 30 31 25 31 30 25 29 24 21 33 25 23 35 27 25 38 30 28 42 34 32 45 37 35 47 39 37 49 41 39 57 49 47 59 51 49 61 53 51 64 56 54 68 60 58 71 63 61 73 65 63 75 66 67
0 0 0 0 0 0 0 0 0 0 0 0 0 0 0 0 0 0 0 0 0 0 0 0 0 0 0 0 0 0 0 0 0 0 0 0 0 0 0 0 0 0 0 0 0 0 0 0 0 0 0 0 0 0 0 0 0 0 0 0 0 0 0 0 0 0 0 0 0 0 0 0 0 0 0 0 0 0 0 0 0 0 0 0 0 0 0 0 0 0 0 0 0 0 0 0 0 0 0 0 0 0 0 0 0 0 0 0 0 0 0 0 0 0 0 0 0 0 0 0 0 0 0 0 0 0 0 0 0 0 0 0 0 0 0 0 0 0 0 0 0 0 0 0 0 0 0 0 0 0 0 0 0 0 0 0 0 0 0 0 0 0 0 0 0 0 0 0 0 0 0 0 0 0 0 0 0 0 0 0 0 0 0 0 0 0 0 0 0 0 0 0 0 0 0 0 0 0 0 0 0 0 0 0 0 0 0 0 0 0 0 0 0 0 0 0 0 0 0 0 0 0 0 0 0 0 0 0 0 0 2 0 0 2 0 0 2 0 0 2 0 0 2 0 0 2 0 0 2 0 0 2 0 0 2 0 0 2 1 2 4 4 5 7 8 9 11 11 12 14 13 14 16 13 17 18 16 22 22 15 24 23 17 26 25 20 29 28 22 31 30 25 34 33 27 36 35 28 37 36 28 37 36 26 35 34 21 30 29 14 23 22 8 17 16 1 10 9 0 5 4 0 2 0 0 1 0 0 1 0 0 1 0 0 1 0 0 1 0 0 1 0 0 1 0 0 1 0 0 1 0 0 1 0 0 1 0 1 3 0 5 7 4 8 10 7 10 12 9 10 15 11 16 21 15 17 24 17 19 26 19 22 29 22 26 33 26 29 36 29 31 38 31 33 40 33 43 50 43 43 50 43 43 50 43 43 50 43 43 50 43 43 50 43 43 50 43 44 49 43 50 53 46 51 52 46 51 52 46 51 52 46 51 52 46 51 52 46 51 52 46 51 52 46 30 31 25 30 31 25 30 31 25 30 31 25 30 31 25 30 31 25 30 31 25 31 30 25 29 24 21 33 25 23 35 27 25 38 30 28 42 34 32 45 37 35 47 39 37 49 41 39 57 49 47 59 51 49 61 53 51 64 56 54 68 60 58 71 63 61 73 65 63 75 66 67
0 0 0 0 0 0 0 0 0 0 0 0 0 0 0 0 0 0 0 0 0 0 0 0 0 0 0 0 0 0 0 0 0 0 0 0 0 0 0 0 0 0 0 0 0 0 0 0 0 0 0 0 0 0 0 0 0 0 0 0 0 0 0 0 0 0 0 0 0 0 0 0 0 0 0 0 0 0 0 0 0 0 0 0 0 0 0 0 0 0 0 0 0 0 0 0 0 0 0 0 0 0 0 0 0 0 0 0 0 0 0 0 0 0 0 0 0 0 0 0 0 0 0 0 0 0 0 0 0 0 0 0 0 0 0 0 0 0 0 0 0 0 0 0 0 0 0 0 0 0 0 0 0 0 0 0 0 0 0 0 0 0 0 0 0 0 0 0 0 0 0 0 0 0 0 0 0 0 0 0 0 0 0 0 0 0 0 0 0 0 0 0 0 0 0 0 0 0 0 0 0 0 0 0 0 0 0 0 0 0 0 0 0 0 0 0 0 0 0 0 0 0 0 0 0 0 0 0 0 0 2 0 0 2 0 0 2 0 0 2 0 0 2 0 0 2 0 0 2 0 0 2 0 0 2 0 0 2 1 2 4 4 5 7 8 9 11 11 12 14 13 14 16 13 17 18 24 30 30 22 31 30 23 32 31 24 33 32 25 34 33 26 35 34 26 35 34 27 36 35 28 37 36 26 35 34 21 30 29 14 23 22 8 17 16 1 10 9 0 5 4 0 2 0 0 1 0 0 1 0 0 1 0 0 1 0 0 1 0 0 1 0 0 1 0 0 1 0 0 1 0 0 1 0 0 1 0 1 3 0 5 7 4 8 10 7 10 12 9 10 15 11 16 21 15 17 24 17 19 26 19 22 29 22 26 33 26 29 36 29 31 38 31 33 40 33 40 47 40 40 47 40 40 47 40 40 47 40 40 47 40 40 47 40 40 47 40 41 46 40 47 50 43 48 49 43 48 49 43 48 49 43 48 49 43 48 49 43 48 49 43 48 49 43 30 31 25 30 31 25 30 31 25 30 31 25 30 31 25 30 31 25 30 31 25 31 30 25 29 24 21 33 25 23 35 27 25 38 30 28 42 34 32 45 37 35 47 39 37 49 41 39 57 49 47 59 51 49 61 53 51 64 56 54 68 60 58 71 63 61 73 65 63 75 66 67
0 0 0 0 0 0 0 0 0 0 0 0 0 0 0 0 0 0 0 0 0 0 0 0 0 0 0 0 0 0 0 0 0 0 0 0 0 0 0 0 0 0 0 0 0 0 0 0 0 0 0 0 0 0 0 0 0 0 0 0 0 0 0 0 0 0 0 0 0 0 0 0 0 0 0 0 0 0 0 0 0 0 0 0 0 0 0 0 0 0 0 0 0 0 0 0 0 0 0 0 0 0 0 0 0 0 0 0 0 0 0 0 0 0 0 0 0 0 0 0 0 0 0 0 0 0 0 0 0 0 0 0 0 0 0 0 0 0 0 0 0 0 0 0 0 0 0 0 0 0 0 0 0 0 0 0 0 0 0 0 0 0 0 0 0 0 0 0 0 0 0 0 0 0 0 0 0 0 0 0 0 0 0 0 0 0 0 0 0 0 0 0 0 0 0 0 0 0 0 0 0 0 0 0 0 0 0 0 0 0 0 0 0 0 0 0 0 0 0 0 0 0 0 0 0 0 0 0 0 0 2 0 0 2 0 0 2 0 0 2 0 0 2 0 0 2 0 0 2 0 0 2 0 0 2 0 0 2 1 2 4 4 5 7 8 9 11 11 12 14 13 14 16 13 17 18 32 38 38 30 39 38 29 38 37 28 37 36 27 36 35 26 35 34 26 35 34 25 34 33 28 37 36 26 35 34 21 30 29 14 23 22 8 17 16 1 10 9 0 5 4 0 2 0 0 1 0 0 1 0 0 1 0 0 1 0 0 1 0 0 1 0 0 1 0 0 1 0 0 1 0 0 1 0 0 1 0 1 3 0 5 7 4 8 10 7 10 12 9 10 15 11 16 21 15 17 24 17 19 26 19 22 29 22 26 33 26 29 36 29 31 38 31 33 40 33 36 43 36 36 43 36 36 43 36 36 43 36 36 43 36 36 43 36 36 43 36 37 42 36 43 46 39 44 45 39 44 45 39 44 45 39 44 45 39 44 45 39 44 45 39 44 45 39 30 31 25 30 31 25 30 31 25 30 31 25 30 31 25 30 31 25 30 31 25 31 30 25 29 24 21 33 25 23 35 27 25 38 30 28 42 34 32 45 37 35 47 39 37 49 41 39 57 49 47 59 51 49 61 53 51 64 56 54 68 60 58 71 63 61 73 65 63 75 66 67
0 0 0 0 0 0 0 0 0 0 0 0 0 0 0 0 0 0 0 0 0 0 0 0 0 0 0 0 0 0 0 0 0 0 0 0 0 0 0 0 0 0 0 0 0 0 0 0 0 0 0 0 0 0 0 0 0 0 0 0 0 0 0 0 0 0 0 0 0 0 0 0 0 0 0 0 0 0 0 0 0 0 0 0 0 0 0 0 0 0 0 0 0 0 0 0 0 0 0 0 0 0 0 0 0 0 0 0 0 0 0 0 0 0 0 0 0 0 0 0 0 0 0 0 0 0 0 0 0 0 0 0 0 0 0 0 0 0 0 0 0 0 0 0 0 0 0 0 0 0 0 0 0 0 0 0 0 0 0 0 0 0 0 0 0 0 0 0 0 0 0 0 0 0 0 0 0 0 0 0 0 0 0 0 0 0 0 0 0 0 0 0 0 0 0 0 0 0 0 0 0 0 0 0 0 0 0 0 0 0 0 0 0 0 0 0 0 0 0 0 0 0 0 0 0 0 0 0 0 0 2 0 0 2 0 0 2 0 0 2 0 0 2 0 0 2 0 0 2 0 0 2 0 0 2 0 0 2 1 2 4 4 5 7 8 9 11 11 12 14 13 14 16 13 17 18 40 46 46 37 46 45 35 44 43 32 41 40 30 39 38 27 36 35 25 34 33 24 33 32 28 37 36 26 35 34 21 30 29 14 23 22 8 17 16 1 10 9 0 5 4 0 2 0 0 1 0 0 1 0 0 1 0 0 1 0 0 1 0 0 1 0 0 1 0 0 1 0 0 1 0 0 1 0 0 1 0 1 3 0 5 7 4 8 10 7 10 12 9 10 15 11 16 21 15 17 24 17 19 26 19 22 29 22 26 33 26 29 36 29 31 38 31 33 40 33 33 40 33 33 40 33 33 40 33 33 40 33 33 40 33 33 40 33 33 40 33 34 39 33 40 43 36 41 42 36 41 42 36 41 42 36 41 42 36 41 42 36 41 42 36 41 42 36 30 31 25 30 31 25 30 31 25 30 31 25 30 31 25 30 31 25 30 31 25 31 30 25 29 24 21 33 25 23 35 27 25 38 30 28 42 34 32 45 37 35 47 39 37 49 41 39 57 49 47 59 51 49 61 53 51 64 56 54 68 60 58 71 63 61 73 65 63 75 66 67
0 0 0 0 0 0 0 0 0 0 0 0 0 0 0 0 0 0 0 0 0 0 0 0 0 0 0 0 0 0 0 0 0 0 0 0 0 0 0 0 0 0 0 0 0 0 0 0 0 0 0 0 0 0 0 0 0 0 0 0 0 0 0 0 0 0 0 0 0 0 0 0 0 0 0 0 0 0 0 0 0 0 0 0 0 0 0 0 0 0 0 0 0 0 0 0 0 0 0 0 0 0 0 0 0 0 0 0 0 0 0 0 0 0 0 0 0 0 0 0 0 0 0 0 0 0 0 0 0 0 0 0 0 0 0 0 0 0 0 0 0 0 0 0 0 0 0 0 0 0 0 0 0 0 0 0 0 0 0 0 0 0 0 0 0 0 0 0 0 0 0 0 0 0 0 0 0 0 0 0 0 0 0 0 0 0 0 0 0 0 0 0 0 0 0 0 0 0 0 0 0 0 0 0 0 0 0 0 0 0 0 0 0 0 0 0 0 0 0 0 0 0 0 0 0 0 0 0 0 0 2 0 0 2 0 0 2 0 0 2 0 0 2 0 0 2 0 0 2 0 0 2 0 0 2 0 0 2 1 2 4 4 5 7 8 9 11 11 12 14 13 14 16 13 17 18 46 52 52 42 51 50 39 48 47 35 44 43 31 40 39 28 37 36 25 34 33 23 32 31 28 37 36 26 35 34 21 30 29 14 23 22 8 17 16 1 10 9 0 5 4 0 2 0 0 1 0 0 1 0 0 1 0 0 1 0 0 1 0 0 1 0 0 1 0 0 1 0 0 1 0 0 1 0 0 1 0 1 3 0 5 7 4 8 10 7 10 12 9 10 15 11 16 21 15 17 24 17 19 26 19 22 29 22 26 33 26 29 36 29 31 38 31 33 40 33 31 38 31 31 38 31 31 38 31 31 38 31 31 38 31 31 38 31 31 38 31 32 37 31 38 41 34 39 40 34 39 40 34 39 40 34 39 40 34 39 40 34 39 40 34 39 40 34 30 31 25 30 31 25 30 31 25 30 31 25 30 31 25 30 31 25 30 31 25 31 30 25 29 24 21 33 25 23 35 27 25 38 30 28 42 34 32 45 37 35 47 39 37 49 41 39 57 49 47 59 51 49 61 53 51 64 56 54 68 60 58 71 63 61 73 65 63 75 66 67
0 0 0 0 0 0 0 0 0 0 0 0 0 0 0 0 0 0 0 0 0 0 0 0 0 0 0 0 0 0 0 0 0 0 0 0 0 0 0 0 0 0 0 0 0 0 0 0 0 0 0 0 0 0 0 0 0 0 0 0 0 0 0 0 0 0 0 0 0 0 0 0 0 0 0 0 0 0 0 0 0 0 0 0 0 0 0 0 0 0 0 0 0 0 0 0 0 0 0 0 0 0 0 0 0 0 0 0 0 0 0 0 0 0 0 0 0 0 0 0 0 0 0 0 0 0 0 0 0 0 0 0 0 0 0 0 0 0 0 0 0 0 0 0 0 0 0 0 0 0 0 0 0 0 0 0 0 0 0 0 0 0 0 0 0 0 0 0 0 0 0 0 0 0 0 0 0 0 0 0 0 0 0 0 0 0 0 0 0 0 0 0 0 0 0 0 0 0 0 0 0 0 0 0 0 0 0 0 0 0 0 0 0 0 0 0 0 0 0 0 0 0 0 0 0 0 0 0 0 0 2 0 0 2 0 0 2 0 0 2 0 0 2 0 0 2 0 0 2 0 0 2 0 0 2 0 0 2 1 2 4 4 5 7 8 9 11 11 12 14 13 14 16 13 17 18 49 55 55 45 54 53 41 50 49 37 46 45 32 41 40 28 37 36 24 33 32 23 32 31 28 37 36 26 35 34 21 30 29 14 23 22 8 17 16 1 10 9 0 5 4 0 2 0 0 1 0 0 1 0 0 1 0 0 1 0 0 1 0 0 1 0 0 1 0 0 1 0 0 1 0 0 1 0 0 1 0 1 3 0 5 7 4 8 10 7 10 12 9 10 15 11 16 21 15 17 24 17 19 26 19 22 29 22 26 33 26 29 36 29 31 38 31 33 40 33 29 36 29 29 36 29 29 36 29 29 36 29 29 36 29 29 36 29 29 36 29 30 35 29 36 39 32 37 38 32 37 38 32 37 38 32 37 38 32 37 38 32 37 38 32 37 38 32 30 31 25 30 31 25 30 31 25 30 31 25 30 31 25 30 31 25 30 31 25 31 30 25 29 24 21 33 25 23 35 27 25 38 30 28 42 34 32 45 37 35 47 39 37 49 41 39 57 49 47 59 51 49 61 53 51 64 56 54 68 60 58 71 63 61 73 65 63 75 66 67
0 0 0 0 0 0 0 0 0 0 0 0 0 0 0 0 0 0 0 0 0 0 0 0 0 0 0 0 0 0 0 0 0 0 0 0 0 0 0 0 0 0 0 0 0 0 0 0 0 0 0 0 0 0 0 0 0 0 0 0 0 0 0 0 0 0 0 0 0 0 0 0 0 0 0 0 0 0 0 0 0 0 0 0 0 0 0 0 0 0 0 0 0 0 0 0 0 0 0 0 0 0 0 0 0 0 0 0 0 0 0 0 0 0 0 0 0 0 0 0 0 0 0 0 0 0 0 0 0 0 0 0 0 0 0 0 0 0 0 0 0 0 0 0 0 0 0 0 0 0 0 0 0 0 0 0 0 0 0 0 0 0 0 0 0 0 0 0 0 0 0 0 0 0 0 0 0 0 0 0 0 0 0 0 0 0 0 0 0 0 0 0 0 0 0 0 0 0 0 0 0 0 0 0 0 0 0 0 0 0 0 0 0 0 0 0 0 0 0 0 0 0 0 0 0 0 0 0 2 3 5 2 3 5 2 3 5 2 3 5 2 3 5 2 3 5 2 3 5 2 3 5 16 17 19 11 12 14 6 7 9 7 8 10 18 19 21 38 39 41 58 59 61 70 74 75 78 84 84 72 81 80 65 74 73 56 65 64 45 54 53 36 45 44 28 37 36 24 33 32 32 41 40 30 39 38 25 34 33 18 27 26 12 21 20 5 14 13 0 9 8 0 6 4 0 1 0 0 1 0 0 1 0 0 1 0 0 1 0 0 1 0 0 1 0 0 1 0 0 1 0 0 1 0 0 1 0 1 3 0 5 7 4 8 10 7 10 12 9 10 15 11 16 21 15 15 22 15 15 22 15 15 22 15 15 22 15 15 22 15 15 22 15 15 22 15 33 40 33 33 40 33 33 40 33 33 40 33 33 40 33 33 40 33 33 40 33 34 39 33 30 33 26 31 32 26 31 32 26 31 32 26 31 32 26 31 32 26 31 32 26 31 32 26 28 29 23 28 29 23 28 29 23 28 29 23 28 29 23 28 29 23 28 29 23 29 28 23 34 29 26 36 28 26 36 28 26 36 28 26 36 28 26 36 28 26 36 28 26 36 28 26 52 44 42 54 46 44 56 48 46 59 51 49 63 55 53 66 58 56 68 60 58 70 61 62
0 0 0 0 0 0 0 0 0 0 0 0 0 0 0 0 0 0 0 0 0 0 0 0 0 0 0 0 0 0 0 0 0 0 0 0 0 0 0 0 0 0 0 0 0 0 0 0 0 0 0 0 0 0 0 0 0 0 0 0 0 0 0 0 0 0 0 0 0 0 0 0 0 0 0 0 0 0 0 0 0 0 0 0 0 0 0 0 0 0 0 0 0 0 0 0 0 0 0 0 0 0 0 0 0 0 0 0 0 0 0 0 0 0 0 0 0 0 0 0 0 0 0 0 0 0 0 0 0 0 0 0 0 0 0 0 0 0 0 0 0 0 0 0 0 0 0 0 0 0 0 0 0 0 0 0 0 0 0 0 0 0 0 0 0 0 0 0 0 0 0 0 0 0 0 0 0 0 0 0 0 0 0 0 0 0 0 0 0 0 0 0 0 0 0 0 0 0 0 0 0 0 0 0 0 0 0 0 0 0 0 0 0 0 0 0 0 0 0 0 0 0 0 0 0 0 0 0 2 3 5 2 3 5 2 3 5 2 3 5 2 3 5 2 3 5 2 3 5 2 3 5 10 11 13 8 9 11 7 8 10 13 14 16 28 29 31 49 50 52 70 71 73 82 86 87 80 86 86 74 83 82 66 75 74 57 66 65 46 55 54 37 46 45 30 39 38 26 35 34 32 41 40 30 39 38 25 34 33 18 27 26 12 21 20 5 14 13 0 9 8 0 6 4 0 1 0 0 1 0 0 1 0 0 1 0 0 1 0 0 1 0 0 1 0 0 1 0 0 1 0 0 1 0 0 1 0 1 3 0 5 7 4 8 10 7 10 12 9 10 15 11 16 21 15 15 22 15 15 22 15 15 22 15 15 22 15 15 22 15 15 22 15 15 22 15 31 38 31 31 38 31 31 38 31 31 38 31 31 38 31 31 38 31 31 38 31 32 37 31 30 33 26 31 32 26 31 32 26 31 32 26 31 32 26 31 32 26 31 32 26 31 32 26 28 29 23 28 29 23 28 29 23 28 29 23 28 29 23 28 29 23 28 29 23 29 28 23 34 29 26 36 28 26 36 28 26 36 28 26 36 28 26 36 28 26 36 28 26 36 28 26 52 44 42 54 46 44 56 48 46 59 51 49 63 55 53 66 58 56 68 60 58 70 61 62
0 0 0 0 0 0 0 0 0 0 0 0 0 0 0 0 0 0 0 0 0 0 0 0 0 0 0 0 0 0 0 0 0 0 0 0 0 0 0 0 0 0 0 0 0 0 0 0 0 0 0 0 0 0 0 0 0 0 0 0 0 0 0 0 0 0 0 0 0 0 0 0 0 0 0 0 0 0 0 0 0 0 0 0 0 0 0 0 0 0 0 0 0 0 0 0 0 0 0 0 0 0 0 0 0 0 0 0 0 0 0 0 0 0 0 0 0 0 0 0 0 0 0 0 0 0 0 0 0 0 0 0 0 0 0 0 0 0 0 0 0 0 0 0 0 0 0 0 0 0 0 0 0 0 0 0 0 0 0 0 0 0 0 0 0 0 0 0 0 0 0 0 0 0 0 0 0 0 0 0 0 0 0 0 0 0 0 0 0 0 0 0 0 0 0 0 0 0 0 0 0 0 0 0 0 0 0 0 0 0 0 0 0 0 0 0 0 0 0 0 0 0 0 0 0 0 0 0 2 3 5 2 3 5 2 3 5 2 3 5 2 3 5 2 3 5 2 3 5 2 3 5 2 3 5 5 6 8 12 13 15 25 26 28 44 45 47 68 69 71 89 90 92 100 104 105 82 88 88 76 85 84 69 78 77 59 68 67 49 58 57 39 48 47 32 41 40 28 37 36 32 41 40 30 39 38 25 34 33 18 27 26 12 21 20 5 14 13 0 9 8 0 6 4 0 1 0 0 1 0 0 1 0 0 1 0 0 1 0 0 1 0 0 1 0 0 1 0 0 1 0 0 1 0 0 1 0 1 3 0 5 7 4 8 10 7 10 12 9 10 15 11 16 21 15 15 22 15 15 22 15 15 22 15 15 22 15 15 22 15 15 22 15 15 22 15 29 36 29 29 36 29 29 36 29 29 36 29 29 36 29 29 36 29 29 36 29 30 35 29 30 33 26 31 32 26 31 32 26 31 32 26 31 32 26 31 32 26 31 32 26 31 32 26 28 29 23 28 29 23 28 29 23 28 29 23 28 29 23 28 29 23 28 29 23 29 28 23 34 29 26 36 28 26 36 28 26 36 28 26 36 28 26 36 28 26 36 28 26 36 28 26 52 44 42 54 46 44 56 48 46 59 51 49 63 55 53 66 58 56 68 60 58 70 61 62
0 0 0 0 0 0 0 0 0 0 0 0 0 0 0 0 0 0 0 0 0 0 0 0 0 0 0 0 0 0 0 0 0 0 0 0 0 0 0 0 0 0 0 0 0 0 0 0 0 0 0 0 0 0 0 0 0 0 0 0 0 0 0 0 0 0 0 0 0 0 0 0 0 0 0 0 0 0 0 0 0 0 0 0 0 0 0 0 0 0 0 0 0 0 0 0 0 0 0 0 0 0 0 0 0 0 0 0 0 0 0 0 0 0 0 0 0 0 0 0 0 0 0 0 0 0 0 0 0 0 0 0 0 0 0 0 0 0 0 0 0 0 0 0 0 0 0 0 0 0 0 0 0 0 0 0 0 0 0 0 0 0 0 0 0 0 0 0 0 0 0 0 0 0 0 0 0 0 0 0 0 0 0 0 0 0 0 0 0 0 0 0 0 0 0 0 0 0 0 0 0 0 0 0 0 0 0 0 0 0 0 0 0 0 0 0 0 0 0 0 0 0 0 0 0 0 0 0 2 3 5 2 3 5 2 3 5 2 3 5 2 3 5 2 3 5 2 3 5 2 3 5 0 1 3 8 9 11 22 23 25 41 42 44 65 66 68 88 89 91 107 108 110 116 120 121 85 91 91 79 88 87 72 81 80 62 71 70 52 61 60 43 52 51 35 44 43 31 40 39 32 41 40 30 39 38 25 34 33 18 27 26 12 21 20 5 14 13 0 9 8 0 6 4 0 1 0 0 1 0 0 1 0 0 1 0 0 1 0 0 1 0 0 1 0 0 1 0 0 1 0 0 1 0 0 1 0 1 3 0 5 7 4 8 10 7 10 12 9 10 15 11 16 21 15 15 22 15 15 22 15 15 22 15 15 22 15 15 22 15 15 22 15 15 22 15 26 33 26 26 33 26 26 33 26 26 33 26 26 33 26 26 33 26 26 33 26 27 32 26 30 33 26 31 32 26 31 32 26 31 32 26 31 32 26 31 32 26 31 32 26 31 32 26 28 29 23 28 29 23 28 29 23 28 29 23 28 29 23 28 29 23 28 29 23 29 28 23 34 29 26 36 28 26 36 28 26 36 28 26 36 28 26 36 28 26 36 28 26 36 28 26 52 44 42 54 46 44 56 48 46 59 51 49 63 55 53 66 58 56 68 60 58 70 61 62
0 0 0 0 0 0 0 0 0 0 0 0 0 0 0 0 0 0 0 0 0 0 0 0 0 0 0 0 0 0 0 0 0 0 0 0 0 0 0 0 0 0 0 0 0 0 0 0 0 0 0 0 0 0 0 0 0 0 0 0 0 0 0 0 0 0 0 0 0 0 0 0 0 0 0 0 0 0 0 0 0 0 0 0 0 0 0 0 0 0 0 0 0 0 0 0 0 0 0 0 0 0 0 0 0 0 0 0 0 0 0 0 0 0 0 0 0 0 0 0 0 0 0 0 0 0 0 0 0 0 0 0 0 0 0 0 0 0 0 0 0 0 0 0 0 0 0 0 0 0 0 0 0 0 0 0 0 0 0 0 0 0 0 0 0 0 0 0 0 0 0 0 0 0 0 0 0 0 0 0 0 0 0 0 0 0 0 0 0 0 0 0 0 0 0 0 0 0 0 0 0 0 0 0 0 0 0 0 0 0 0 0 0 0 0 0 0 0 0 0 0 0 0 0 0 0 0 0 2 3 5 2 3 5 2 3 5 2 3 5 2 3 5 2 3 5 2 3 5 2 3 5 8 9 11 19 20 22 38 39 41 61 62 64 85 86 88 104 105 107 118 119 121 124 128 129 89 95 95 83 92 91 75 84 83 66 75 74 56 65 64 46 55 54 39 48 47 35 44 43 32 41 40 30 39 38 25 34 33 18 27 26 12 21 20 5 14 13 0 9 8 0 6 4 0 1 0 0 1 0 0 1 0 0 1 0 0 1 0 0 1 0 0 1 0 0 1 0 0 1 0 0 1 0 0 1 0 1 3 0 5 7 4 8 10 7 10 12 9 10 15 11 16 21 15 15 22 15 15 22 15 15 22 15 15 22 15 15 22 15 15 22 15 15 22 15 22 29 22 22 29 22 22 29 22 22 29 22 22 29 22 22 29 22 22 29 22 23 28 22 30 33 26 31 32 26 31 32 26 31 32 26 31 32 26 31 32 26 31 32 26 31 32 26 28 29 23 28 29 23 28 29 23 28 29 23 28 29 23 28 29 23 28 29 23 29 28 23 34 29 26 36 28 26 36 28 26 36 28 26 36 28 26 36 28 26 36 28 26 36 28 26 52 44 42 54 46 44 56 48 46 59 51 49 63 55 53 66 58 56 68 60 58 70 61 62
0 0 0 0 0 0 0 0 0 0 0 0 0 0 0 0 0 0 0 0 0 0 0 0 0 0 0 0 0 0 0 0 0 0 0 0 0 0 0 0 0 0 0 0 0 0 0 0 0 0 0 0 0 0 0 0 0 0 0 0 0 0 0 0 0 0 0 0 0 0 0 0 0 0 0 0 0 0 0 0 0 0 0 0 0 0 0 0 0 0 0 0 0 0 0 0 0 0 0 0 0 0 0 0 0 0 0 0 0 0 0 0 0 0 0 0 0 0 0 0 0 0 0 0 0 0 0 0 0 0 0 0 0 0 0 0 0 0 0 0 0 0 0 0 0 0 0 0 0 0 0 0 0 0 0 0 0 0 0 0 0 0 0 0 0 0 0 0 0 0 0 0 0 0 0 0 0 0 0 0 0 0 0 0 0 0 0 0 0 0 0 0 0 0 0 0 0 0 0 0 0 0 0 0 0 0 0 0 0 0 0 0 0 0 0 0 0 0 0 0 0 0 0 0 0 0 0 0 2 3 5 2 3 5 2 3 5 2 3 5 2 3 5 2 3 5 2 3 5 2 3 5 24 25 27 37 38 40 58 59 61 82 83 85 101 102 104 114 115 117 121 122 124 122 126 127 92 98 98 86 95 94 79 88 87 69 78 77 59 68 67 49 58 57 42 51 50 38 47 46 32 41 40 30 39 38 25 34 33 18 27 26 12 21 20 5 14 13 0 9 8 0 6 4 0 1 0 0 1 0 0 1 0 0 1 0 0 1 0 0 1 0 0 1 0 0 1 0 0 1 0 0 1 0 0 1 0 1 3 0 5 7 4 8 10 7 10 12 9 10 15 11 16 21 15 15 22 15 15 22 15 15 22 15 15 22 15 15 22 15 15 22 15 15 22 15 19 26 19 19 26 19 19 26 19 19 26 19 19 26 19 19 26 19 19 26 19 20 25 19 30 33 26 31 32 26 31 32 26 31 32 26 31 32 26 31 32 26 31 32 26 31 32 26 28 29 23 28 29 23 28 29 23 28 29 23 28 29 23 28 29 23 28 29 23 29 28 23 34 29 26 36 28 26 36 28 26 36 28 26 36 28 26 36 28 26 36 28 26 36 28 26 52 44 42 54 46 44 56 48 46 59 51 49 63 55 53 66 58 56 68 60 58 70 61 62
0 0 0 0 0 0 0 0 0 0 0 0 0 0 0 0 0 0 0 0 0 0 0 0 0 0 0 0 0 0 0 0 0 0 0 0 0 0 0 0 0 0 0 0 0 0 0 0 0 0 0 0 0 0 0 0 0 0 0 0 0 0 0 0 0 0 0 0 0 0 0 0 0 0 0 0 0 0 0 0 0 0 0 0 0 0 0 0 0 0 0 0 0 0 0 0 0 0 0 0 0 0 0 0 0 0 0 0 0 0 0 0 0 0 0 0 0 0 0 0 0 0 0 0 0 0 0 0 0 0 0 0 0 0 0 0 0 0 0 0 0 0 0 0 0 0 0 0 0 0 0 0 0 0 0 0 0 0 0 0 0 0 0 0 0 0 0 0 0 0 0 0 0 0 0 0 0 0 0 0 0 0 0 0 0 0 0 0 0 0 0 0 0 0 0 0 0 0 0 0 0 0 0 0 0 0 0 0 0 0 0 0 0 0 0 0 0 0 0 0 0 0 0 0 0 0 0 0 2 3 5 2 3 5 2 3 5 2 3 5 2 3 5 2 3 5 2 3 5 2 3 5 42 43 45 56 57 59 77 78 80 98 99 101 113 114 116 119 120 122 118 119 121 114 118 119 94 100 100 88 97 96 81 90 89 72 81 80 61 70 69 52 61 60 44 53 52 40 49 48 32 41 40 30 39 38 25 34 33 18 27 26 12 21 20 5 14 13 0 9 8 0 6 4 0 1 0 0 1 0 0 1 0 0 1 0 0 1 0 0 1 0 0 1 0 0 1 0 0 1 0 0 1 0 0 1 0 1 3 0 5 7 4 8 10 7 10 12 9 10 15 11 16 21 15 15 22 15 15 22 15 15 22 15 15 22 15 15 22 15 15 22 15 15 22 15 17 24 17 17 24 17 17 24 17 17 24 17 17 24 17 17 24 17 17 24 17 18 23 17 30 33 26 31 32 26 31 32 26 31 32 26 31 32 26 31 32 26 31 32 26 31 32 26 28 29 23 28 29 23 28 29 23 28 29 23 28 29 23 28 29 23 28 29 23 29 28 23 34 29 26 36 28 26 36 28 26 36 28 26 36 28 26 36 28 26 36 28 26 36 28 26 52 44 42 54 46 44 56 48 46 59 51 49 63 55 53 66 58 56 68 60 58 70 61 62
0 0 0 0 0 0 0 0 0 0 0 0 0 0 0 0 0 0 0 0 0 0 0 0 0 0 0 0 0 0 0 0 0 0 0 0 0 0 0 0 0 0 0 0 0 0 0 0 0 0 0 0 0 0 0 0 0 0 0 0 0 0 0 0 0 0 0 0 0 0 0 0 0 0 0 0 0 0 0 0 0 0 0 0 0 0 0 0 0 0 0 0 0 0 0 0 0 0 0 0 0 0 0 0 0 0 0 0 0 0 0 0 0 0 0 0 0 0 0 0 0 0 0 0 0 0 0 0 0 0 0 0 0 0 0 0 0 0 0 0 0 0 0 0 0 0 0 0 0 0 0 0 0 0 0 0 0 0 0 0 0 0 0 0 0 0 0 0 0 0 0 0 0 0 0 0 0 0 0 0 0 0 0 0 0 0 0 0 0 0 0 0 0 0 0 0 0 0 0 0 0 0 0 0 0 0 0 0 0 0 0 0 0 0 0 0 0 0 0 0 0 0 0 0 0 0 0 0 2 3 5 2 3 5 2 3 5 2 3 5 2 3 5 2 3 5 2 3 5 2 3 5 54 55 57 68 69 71 88 89 91 108 109 111 119 120 122 120 121 123 115 116 118 108 112 113 96 102 102 90 99 98 82 91 90 73 82 81 62 71 70 53 62 61 46 55 54 42 51 50 32 41 40 30 39 38 25 34 33 18 27 26 12 21 20 5 14 13 0 9 8 0 6 4 0 1 0 0 2 0 0 1 0 0 2 0 0 1 0 0 2 0 0 1 0 0 2 0 0 1 0 0 2 0 0 1 0 0 4 0 5 7 4 6 11 7 10 12 9 10 15 11 15 21 17 15 22 15 15 21 17 15 22 15 15 21 17 15 22 15 15 21 17 15 22 15 15 21 17 15 22 15 15 21 17 15 22 15 15 21 17 15 22 15 15 21 17 16 21 15 30 32 27 31 32 26 31 32 27 31 32 26 31 32 27 31 32 26 31 32 27 31 32 26 28 29 24 28 29 23 28 29 24 28 29 23 28 29 24 28 29 23 28 29 24 29 28 24 34 29 26 36 28 26 36 28 26 36 28 26 36 28 26 36 28 26 36 28 26 36 28 26 52 44 42 54 46 44 56 48 46 59 51 49 63 55 53 66 58 56 68 60 58 70 62 60
0 0 0 0 0 0 0 0 0 0 0 0 0 0 0 0 0 0 0 0 0 0 0 0 0 0 0 0 0 0 0 0 0 0 0 0 0 0 0 0 0 0 0 0 0 0 0 0 0 0 0 0 0 0 0 0 0 0 0 0 0 0 0 0 0 0 0 0 0 0 0 0 0 0 0 0 0 0 0 0 0 0 0 0 0 0 0 0 0 0 0 0 0 0 0 0 0 0 0 0 0 0 0 0 0 0 0 0 0 0 0 0 0 0 0 0 0 0 0 0 0 0 0 0 0 0 0 0 0 0 0 0 0 0 0 0 0 0 0 0 0 0 0 0 0 0 0 0 0 0 0 0 0 0 0 0 0 0 0 0 0 0 0 0 0 0 0 0 0 0 0 0 0 0 0 0 0 0 0 0 0 0 0 0 0 0 0 0 0 0 0 0 0 0 0 0 0 0 0 0 0 0 0 0 1 1 1 1 1 1 1 1 1 1 1 1 1 1 1 1 1 1 1 1 1 1 1 1 9 11 10 3 7 6 0 2 1 0 1 0 0 4 3 10 14 13 21 25 24 28 32 31 81 85 84 91 95 94 108 112 111 124 128 127 136 140 139 141 145 144 141 145 144 140 144 143 141 147 145 136 142 140 128 134 132 117 123 121 106 112 110 95 101 99 86 92 90 82 88 86 57 63 61 48 54 52 34 40 38 20 26 24 11 17 15 8 14 12 9 15 13 12 18 16 0 2 0 0 2 0 0 1 0 0 2 0 0 1 0 0 2 0 0 1 0 0 2 0 0 1 0 0 2 0 0 2 1 0 6 4 5 9 8 7 13 11 10 14 13 11 17 15 13 19 17 11 20 15 11 20 17 11 20 15 11 20 17 11 20 15 11 20 17 11 20 15 10 19 16 10 19 14 10 19 16 10 19 14 10 19 16 10 19 14 10 19 16 12 18 14 19 19 17 20 19 15 20 19 17 20 19 15 20 19 17 20 19 15 20 19 17 20 19 15 27 26 24 27 26 22 27 26 24 27 26 22 27 26 24 27 26 22 27 26 24 29 25 22 33 28 25 35 27 24 35 27 24 35 27 24 35 27 24 35 27 24 35 27 24 35 27 24 34 26 23 36 28 25 41 33 30 48 40 37 54 46 43 61 53 50 66 58 55 68 60 58
0 0 0 0 0 0 0 0 0 0 0 0 0 0 0 0 0 0 0 0 0 0 0 0 0 0 0 0 0 0 0 0 0 0 0 0 0 0 0 0 0 0 0 0 0 0 0 0 0 0 0 0 0 0 0 0 0 0 0 0 0 0 0 0 0 0 0 0 0 0 0 0 0 0 0 0 0 0 0 0 0 0 0 0 0 0 0 0 0 0 0 0 0 0 0 0 0 0 0 0 0 0 0 0 0 0 0 0 0 0 0 0 0 0 0 0 0 0 0 0 0 0 0 0 0 0 0 0 0 0 0 0 0 0 0 0 0 0 0 0 0 0 0 0 0 0 0 0 0 0 0 0 0 0 0 0 0 0 0 0 0 0 0 0 0 0 0 0 0 0 0 0 0 0 0 0 0 0 0 0 0 0 0 0 0 0 0 0 0 0 0 0 0 0 0 0 0 0 0 0 0 0 0 0 1 1 1 1 1 1 1 1 1 1 1 1 1 1 1 1 1 1 1 1 1 0 2 1 9 11 10 4 8 7 0 4 3 0 3 2 5 9 8 16 20 19 28 32 31 36 40 39 84 88 87 94 98 97 110 114 113 126 130 129 137 141 140 141 145 144 141 145 144 140 144 143 140 146 144 136 142 140 128 134 132 118 124 122 107 113 111 97 103 101 89 95 93 85 91 89 61 67 65 52 58 56 37 43 41 23 29 27 13 19 17 9 15 13 11 17 15 12 18 16 0 4 2 0 4 2 0 4 2 0 4 2 0 4 2 0 4 2 0 4 2 0 4 2 0 2 0 0 2 0 0 3 1 0 6 4 4 10 8 7 13 11 9 15 13 11 17 15 11 20 17 11 20 17 11 20 17 11 20 17 11 20 17 11 20 17 11 20 17 11 20 17 10 19 16 10 19 16 10 19 16 10 19 16 10 19 16 10 19 16 10 19 16 12 18 16 19 19 17 20 19 17 20 19 17 20 19 17 20 19 17 20 19 17 20 19 17 20 19 17 27 26 24 27 26 24 27 26 24 27 26 24 27 26 24 27 26 24 27 26 24 29 25 22 33 28 25 35 27 24 35 27 24 35 27 24 35 27 24 35 27 24 35 27 24 35 27 24 34 26 23 36 28 25 41 33 30 48 40 37 54 46 43 61 53 50 66 58 55 68 60 57
0 0 0 0 0 0 0 0 0 0 0 0 0 0 0 0 0 0 0 0 0 0 0 0 0 0 0 0 0 0 0 0 0 0 0 0 0 0 0 0 0 0 0 0 0 0 0 0 0 0 0 0 0 0 0 0 0 0 0 0 0 0 0 0 0 0 0 0 0 0 0 0 0 0 0 0 0 0 0 0 0 0 0 0 0 0 0 0 0 0 0 0 0 0 0 0 0 0 0 0 0 0 0 0 0 0 0 0 0 0 0 0 0 0 0 0 0 0 0 0 0 0 0 0 0 0 0 0 0 0 0 0 0 0 0 0 0 0 0 0 0 0 0 0 0 0 0 0 0 0 0 0 0 0 0 0 0 0 0 0 0 0 0 0 0 0 0 0 0 0 0 0 0 0 0 0 0 0 0 0 0 0 0 0 0 0 0 0 0 0 0 0 0 0 0 0 0 0 0 0 0 0 0 0 1 1 1 1 1 1 1 1 1 1 1 1 1 1 1 1 1 1 1 1 1 0 2 1 10 12 11 5 9 8 3 7 6 5 9 8 14 18 17 27 31 30 41 45 44 50 54 53 90 94 93 100 104 103 114 118 117 129 133 132 139 143 142 142 146 145 141 145 144 139 143 142 139 145 143 136 142 140 129 135 133 120 126 124 110 116 114 101 107 105 95 101 99 91 97 95 70 76 74 60 66 64 44 50 48 28 34 32 17 23 21 12 18 16 13 19 17 14 20 18 0 6 4 0 6 4 0 6 4 0 6 4 0 6 4 0 6 4 0 6 4 0 6 4 0 2 0 0 2 0 0 3 1 0 6 4 4 10 8 7 13 11 9 15 13 11 17 15 11 20 17 11 20 17 11 20 17 11 20 17 11 20 17 11 20 17 11 20 17 11 20 17 10 19 16 10 19 16 10 19 16 10 19 16 10 19 16 10 19 16 10 19 16 12 18 16 19 19 17 20 19 17 20 19 17 20 19 17 20 19 17 20 19 17 20 19 17 20 19 17 27 26 24 27 26 24 27 26 24 27 26 24 27 26 24 27 26 24 27 26 24 29 25 22 33 28 25 35 27 24 35 27 24 35 27 24 35 27 24 35 27 24 35 27 24 35 27 24 34 26 23 36 28 25 41 33 30 48 40 37 54 46 43 61 53 50 66 58 55 68 60 57
