P3
172 37
255
7 1 11 8 2 12 8 2 12 8 2 12 6 0 10 6 0 10 6 0 10 6 0 10 6 0 10 6 0 10 6 0 10 4 1 10 5 2 13 4 2 13 4 2 13 4 2 13 4 2 13 4 2 13 4 2 13 4 2 13 5 3 14 5 3 14 5 3 14 5 3 14 5 3 14 5 3 14 5 3 14 5 3 14 5 3 14 5 3 14 5 3 14 5 3 14 5 3 14 5 3 14 5 3 14 5 3 14 6 4 15 6 4 15 6 4 15 6 4 15 6 4 15 6 4 15 6 4 15 5 5 15 9 9 17 7 10 17 7 10 17 7 10 17 7 10 17 7 10 17 7 10 17 7 10 17 10 13 20 10 13 20 10 13 20 10 13 20 10 13 20 10 13 20 10 13 20 10 13 20 9 14 18 9 14 18 9 14 18 9 14 18 9 14 18 9 14 18 9 14 18 9 14 18 11 16 20 11 16 20 11 16 20 11 16 20 11 16 20 11 16 20 11 16 20 11 16 20 11 16 19 11 16 19 11 16 19 11 16 19 11 16 19 11 16 19 11 16 19 11 16 19 15 20 23 15 20 23 15 20 23 15 20 23 15 20 23 15 20 23 15 20 23 15 20 23 16 20 23 16 20 23 16 20 23 16 20 23 16 20 23 16 20 23 16 20 23 16 20 23 5 9 12 5 9 12 5 9 12 5 9 12 5 9 12 5 9 12 5 9 12 5 9 10 11 15 16 13 17 16 15 19 18 18 22 21 22 26 25 25 29 28 27 31 30 29 33 32 40 44 43 42 46 45 47 51 50 54 58 57 60 64 63 67 71 70 72 76 75 74 78 77 79 79 77 80 80 78 83 83 81 86 86 84 89 89 87 93 93 91 95 95 93 96 96 94 104 104 102 108 108 106 114 114 112 117 117 115 114 114 112 106 106 104 96 96 94 89 89 87 45 43 44 45 43 44 45 43 44 45 43 44 45 43 44 45 43 44 45 43 44 45 43 44 43 41 42 43 41 42 43 41 42 43 41 42 43 41 42 43 41 42 43 41 42 43 41 42 39 39 39 39 39 39 39 39 39 39 39 39 39 39 39 39 39 39 39 39 39 39 39 39 43 43 43 43 43 43 43 43 43 43 43 43 43 43 43 43 43 43 43 43 43 43 43 43
6 0 10 7 1 11 8 2 12 9 3 13 6 0 10 6 0 10 6 0 10 6 0 10 6 0 10 6 0 10 6 0 10 4 1 10 4 2 13 4 2 13 4 2 13 4 2 13 4 2 13 4 2 13 4 2 13 4 2 13 5 3 14 5 3 14 5 3 14 5 3 14 5 3 14 5 3 14 5 3 14 5 3 14 5 3 14 4 4 14 5 3 14 4 4 14 5 3 14 4 4 14 5 3 14 4 4 14 6 4 15 5 5 15 6 4 15 5 5 15 6 4 15 5 5 15 6 4 15 5 5 15 7 10 19 7 10 17 7 10 17 7 10 17 7 10 17 7 10 17 7 10 17 7 10 17 10 13 20 10 13 20 10 13 20 10 13 20 10 13 20 10 13 20 10 13 20 9 14 20 9 14 18 7 15 18 9 14 18 7 15 18 9 14 18 7 15 18 9 14 18 7 15 18 11 16 20 9 17 20 11 16 20 9 17 20 11 16 20 9 17 20 11 16 20 9 17 20 11 16 19 9 17 19 11 16 19 9 17 19 11 16 19 9 17 19 11 16 19 9 17 19 15 20 23 13 21 23 15 20 23 13 21 23 15 20 23 13 21 23 15 20 23 15 20 23 15 20 23 15 20 23 16 20 23 15 20 23 16 20 23 15 20 23 16 20 23 15 20 23 5 9 12 4 9 12 5 9 12 4 9 12 5 9 12 4 9 12 5 9 12 5 9 12 11 15 16 13 17 16 15 19 18 18 22 21 22 26 25 25 29 28 27 31 30 29 33 32 40 44 43 42 46 45 47 51 50 54 58 57 60 64 63 67 71 70 72 76 75 74 78 77 77 79 76 78 80 77 81 81 79 84 86 83 88 88 86 90 92 89 94 94 92 94 96 93 102 102 100 106 108 105 113 113 111 116 118 115 115 115 113 106 108 105 97 97 95 91 91 89 45 44 42 45 44 42 45 43 44 45 44 42 45 43 44 45 44 42 45 43 44 45 44 42 43 41 42 43 42 40 43 41 42 43 42 40 43 41 42 43 42 40 43 41 42 43 41 42 39 39 39 39 39 39 39 39 39 39 39 39 39 39 39 39 39 39 39 39 39 39 39 39 43 43 43 43 43 43 43 43 43 43 43 43 43 43 43 43 43 43 43 43 43 43 43 43
4 1 12 4 1 12 4 1 12 4 1 12 4 1 12 4 1 12 4 1 12 4 1 12 4 1 12 4 1 12 4 1 12 4 1 12 4 2 15 4 2 15 4 2 15 4 2 15 4 2 15 4 2 15 4 2 15 4 2 15 5 3 16 5 3 16 5 3 16 5 3 16 5 3 16 5 3 16 5 3 16 5 3 16 5 5 17 3 5 17 5 5 17 3 5 17 5 5 17 3 5 17 5 5 17 3 5 17 8 8 20 6 8 20 8 8 20 6 8 20 8 8 20 6 8 20 8 8 20 6 9 18 9 12 21 8 12 21 8 12 21 8 12 21 8 12 21 8 12 21 8 12 21 8 12 21 9 13 22 9 13 22 9 13 22 9 13 22 9 13 22 9 13 22 9 13 22 9 14 20 8 16 19 7 17 18 8 16 18 7 17 18 8 16 18 7 17 18 8 16 18 7 17 18 9 17 19 8 18 19 9 17 19 8 18 19 9 17 19 8 18 19 9 17 19 8 18 19 10 18 21 9 19 21 10 18 21 9 19 21 10 18 21 9 19 21 10 18 21 9 19 21 14 22 25 13 23 25 14 22 25 13 23 25 14 22 25 13 23 25 14 22 25 14 22 25 11 19 21 11 19 21 13 18 21 11 19 21 13 18 21 11 19 21 13 18 21 11 19 21 4 9 12 2 10 12 4 9 12 2 10 12 4 9 12 2 10 12 4 9 12 4 9 12 6 12 12 8 14 14 10 16 16 13 19 19 17 23 23 20 26 26 22 28 28 24 30 30 38 44 44 40 46 46 42 48 48 45 51 51 49 55 55 52 58 58 54 60 60 57 61 60 73 78 74 74 79 73 79 81 76 80 85 79 85 87 82 87 92 86 91 93 88 90 95 89 96 98 93 98 103 97 106 108 103 106 111 105 105 107 102 94 99 93 85 87 82 78 80 75 42 43 38 43 42 38 43 42 40 43 42 38 43 42 40 43 42 38 43 42 40 43 42 38 41 40 38 41 40 36 41 40 38 41 40 36 41 40 38 41 40 36 41 40 38 41 40 38 40 39 37 40 39 37 40 39 37 40 39 37 40 39 37 40 39 37 40 39 37 40 39 37 39 38 36 39 38 36 39 38 36 39 38 36 39 38 36 39 38 36 39 38 36 39 38 36
4 1 12 4 1 12 4 1 12 4 1 12 4 1 12 4 1 12 4 1 12 4 1 12 4 1 12 4 1 12 4 1 12 4 1 12 4 2 15 4 2 15 4 2 15 4 2 15 4 2 15 4 2 15 4 2 15 4 2 15 5 3 16 5 3 16 5 3 16 5 3 16 5 3 16 5 3 16 5 3 16 4 4 16 5 5 17 3 5 17 3 5 17 3 5 17 3 5 17 3 5 17 3 5 17 3 5 17 6 8 20 6 8 20 6 8 20 6 8 20 6 8 20 6 8 20 6 8 20 6 8 20 8 12 21 8 12 21 8 12 21 8 12 21 8 12 21 8 12 21 8 12 21 8 12 21 9 13 22 9 13 22 9 13 22 9 13 22 9 13 22 9 13 22 9 13 22 7 14 20 8 16 19 7 17 18 7 17 18 7 17 18 7 17 18 7 17 18 7 17 18 7 17 18 8 18 19 8 18 19 8 18 19 8 18 19 8 18 19 8 18 19 8 18 19 8 18 19 9 19 21 9 19 21 9 19 21 9 19 21 9 19 21 9 19 21 9 19 21 9 19 21 13 23 25 13 23 25 13 23 25 13 23 25 13 23 25 13 23 25 13 23 25 13 23 25 11 19 21 11 19 21 11 19 21 11 19 21 11 19 21 11 19 21 11 19 21 11 19 21 2 10 12 2 10 12 2 10 12 2 10 12 2 10 12 2 10 12 2 10 12 2 10 12 6 12 12 8 14 14 10 16 16 13 19 19 17 23 23 20 26 26 22 28 28 24 30 30 38 44 44 40 46 46 42 48 48 45 51 51 49 55 55 52 58 58 54 60 60 56 62 60 72 77 73 73 78 72 75 80 74 79 84 78 82 87 81 85 90 84 88 93 87 89 94 88 92 97 91 97 102 96 102 107 101 105 110 104 101 106 100 92 97 91 82 87 81 77 79 74 42 43 38 43 42 38 43 42 38 43 42 38 43 42 38 43 42 38 43 42 38 43 42 38 41 40 36 41 40 36 41 40 36 41 40 36 41 40 36 41 40 36 41 40 36 41 40 36 40 39 37 40 39 37 40 39 37 40 39 37 40 39 37 40 39 37 40 39 37 40 39 37 39 38 36 39 38 36 39 38 36 39 38 36 39 38 36 39 38 36 39 38 36 39 38 36
4 1 12 4 1 12 4 1 12 4 1 12 4 1 12 4 1 12 4 1 12 4 1 12 4 1 12 4 1 12 4 1 12 4 1 12 4 2 15 4 2 15 4 2 15 4 2 15 4 2 15 4 2 15 4 2 15 4 2 15 5 3 16 5 3 16 5 3 16 5 3 16 5 3 16 5 3 16 5 3 16 4 4 16 5 5 17 3 5 17 3 5 17 3 5 17 3 5 17 3 5 17 3 5 17 3 5 17 6 8 20 6 8 20 6 8 20 6 8 20 6 8 20 6 8 20 6 8 20 6 8 20 8 12 21 8 12 21 8 12 21 8 12 21 8 12 21 8 12 21 8 12 21 8 12 21 9 13 22 9 13 22 9 13 22 9 13 22 9 13 22 9 13 22 9 13 22 7 14 20 8 16 19 7 17 18 7 17 18 7 17 18 7 17 18 7 17 18 7 17 18 7 17 18 8 18 19 8 18 19 8 18 19 8 18 19 8 18 19 8 18 19 8 18 19 8 18 19 9 19 21 9 19 21 9 19 21 9 19 21 9 19 21 9 19 21 9 19 21 9 19 21 13 23 25 13 23 25 13 23 25 13 23 25 13 23 25 13 23 25 13 23 25 13 23 25 11 19 21 11 19 21 11 19 21 11 19 21 11 19 21 11 19 21 11 19 21 11 19 21 2 10 12 2 10 12 2 10 12 2 10 12 2 10 12 2 10 12 2 10 12 2 10 12 6 12 12 8 14 14 10 16 16 13 19 19 17 23 23 20 26 26 22 28 28 24 30 30 38 44 44 40 46 46 42 48 48 45 51 51 49 55 55 52 58 58 54 60 60 56 62 60 69 74 70 71 76 70 73 78 72 76 81 75 80 85 79 83 88 82 85 90 84 87 92 86 90 95 89 94 99 93 100 105 99 102 107 101 99 104 98 90 95 89 80 85 79 75 77 72 42 43 38 43 42 38 43 42 38 43 42 38 43 42 38 43 42 38 43 42 38 43 42 38 41 40 36 41 40 36 41 40 36 41 40 36 41 40 36 41 40 36 41 40 36 41 40 36 40 39 37 40 39 37 40 39 37 40 39 37 40 39 37 40 39 37 40 39 37 40 39 37 39 38 36 39 38 36 39 38 36 39 38 36 39 38 36 39 38 36 39 38 36 39 38 36
4 1 12 4 1 12 4 1 12 4 1 12 4 1 12 4 1 12 4 1 12 4 1 12 4 1 12 4 1 12 4 1 12 4 1 12 4 2 15 4 2 15 4 2 15 4 2 15 4 2 15 4 2 15 4 2 15 4 2 15 5 3 16 5 3 16 5 3 16 5 3 16 5 3 16 5 3 16 5 3 16 4 4 16 5 5 17 3 5 17 3 5 17 3 5 17 3 5 17 3 5 17 3 5 17 3 5 17 6 8 20 6 8 20 6 8 20 6 8 20 6 8 20 6 8 20 6 8 20 6 8 20 8 12 21 8 12 21 8 12 21 8 12 21 8 12 21 8 12 21 8 12 21 8 12 21 9 13 22 9 13 22 9 13 22 9 13 22 9 13 22 9 13 22 9 13 22 7 14 20 8 16 19 7 17 18 7 17 18 7 17 18 7 17 18 7 17 18 7 17 18 7 17 18 8 18 19 8 18 19 8 18 19 8 18 19 8 18 19 8 18 19 8 18 19 8 18 19 9 19 21 9 19 21 9 19 21 9 19 21 9 19 21 9 19 21 9 19 21 9 19 21 13 23 25 13 23 25 13 23 25 13 23 25 13 23 25 13 23 25 13 23 25 13 23 25 11 19 21 11 19 21 11 19 21 11 19 21 11 19 21 11 19 21 11 19 21 11 19 21 2 10 12 2 10 12 2 10 12 2 10 12 2 10 12 2 10 12 2 10 12 2 10 12 6 12 12 8 14 14 10 16 16 13 19 19 17 23 23 20 26 26 22 28 28 24 30 30 38 44 44 40 46 46 42 48 48 45 51 51 49 55 55 52 58 58 54 60 60 56 62 60 66 71 67 67 72 66 70 75 69 73 78 72 76 81 75 80 85 79 82 87 81 83 88 82 87 92 86 91 96 90 97 102 96 99 104 98 96 101 95 87 92 86 76 81 75 71 73 68 42 43 38 43 42 38 43 42 38 43 42 38 43 42 38 43 42 38 43 42 38 43 42 38 41 40 36 41 40 36 41 40 36 41 40 36 41 40 36 41 40 36 41 40 36 41 40 36 40 39 37 40 39 37 40 39 37 40 39 37 40 39 37 40 39 37 40 39 37 40 39 37 39 38 36 39 38 36 39 38 36 39 38 36 39 38 36 39 38 36 39 38 36 39 38 36
4 1 12 4 1 12 4 1 12 4 1 12 4 1 12 4 1 12 4 1 12 4 1 12 4 1 12 4 1 12 4 1 12 4 1 12 4 2 15 4 2 15 4 2 15 4 2 15 4 2 15 4 2 15 4 2 15 4 2 15 5 3 16 5 3 16 5 3 16 5 3 16 5 3 16 5 3 16 5 3 16 4 4 16 5 5 17 3 5 17 3 5 17 3 5 17 3 5 17 3 5 17 3 5 17 3 5 17 6 8 20 6 8 20 6 8 20 6 8 20 6 8 20 6 8 20 6 8 20 6 8 20 8 12 21 8 12 21 8 12 21 8 12 21 8 12 21 8 12 21 8 12 21 8 12 21 9 13 22 9 13 22 9 13 22 9 13 22 9 13 22 9 13 22 9 13 22 7 14 20 8 16 19 7 17 18 7 17 18 7 17 18 7 17 18 7 17 18 7 17 18 7 17 18 8 18 19 8 18 19 8 18 19 8 18 19 8 18 19 8 18 19 8 18 19 8 18 19 9 19 21 9 19 21 9 19 21 9 19 21 9 19 21 9 19 21 9 19 21 9 19 21 13 23 25 13 23 25 13 23 25 13 23 25 13 23 25 13 23 25 13 23 25 13 23 25 11 19 21 11 19 21 11 19 21 11 19 21 11 19 21 11 19 21 11 19 21 11 19 21 2 10 12 2 10 12 2 10 12 2 10 12 2 10 12 2 10 12 2 10 12 2 10 12 6 12 12 8 14 14 10 16 16 13 19 19 17 23 23 20 26 26 22 28 28 24 30 30 38 44 44 40 46 46 42 48 48 45 51 51 49 55 55 52 58 58 54 60 60 56 62 60 63 68 64 64 69 63 66 71 65 70 75 69 73 78 72 76 81 75 79 84 78 80 85 79 83 88 82 88 93 87 93 98 92 96 101 95 92 97 91 83 88 82 73 78 72 68 70 65 42 43 38 43 42 38 43 42 38 43 42 38 43 42 38 43 42 38 43 42 38 43 42 38 41 40 36 41 40 36 41 40 36 41 40 36 41 40 36 41 40 36 41 40 36 41 40 36 40 39 37 40 39 37 40 39 37 40 39 37 40 39 37 40 39 37 40 39 37 40 39 37 39 38 36 39 38 36 39 38 36 39 38 36 39 38 36 39 38 36 39 38 36 39 38 36
4 1 12 4 1 12 4 1 12 4 1 12 4 1 12 4 1 12 4 1 12 4 1 12 4 1 12 4 1 12 4 1 12 4 1 12 4 2 15 4 2 15 4 2 15 4 2 15 4 2 15 4 2 15 4 2 15 4 2 15 5 3 16 5 3 16 5 3 16 5 3 16 5 3 16 5 3 16 5 3 16 4 4 16 5 5 17 3 5 17 3 5 17 3 5 17 3 5 17 3 5 17 3 5 17 3 5 17 6 8 20 6 8 20 6 8 20 6 8 20 6 8 20 6 8 20 6 8 20 6 8 20 8 12 21 8 12 21 8 12 21 8 12 21 8 12 21 8 12 21 8 12 21 8 12 21 9 13 22 9 13 22 9 13 22 9 13 22 9 13 22 9 13 22 9 13 22 7 14 20 8 16 19 7 17 18 7 17 18 7 17 18 7 17 18 7 17 18 7 17 18 7 17 18 8 18 19 8 18 19 8 18 19 8 18 19 8 18 19 8 18 19 8 18 19 8 18 19 9 19 21 9 19 21 9 19 21 9 19 21 9 19 21 9 19 21 9 19 21 9 19 21 13 23 25 13 23 25 13 23 25 13 23 25 13 23 25 13 23 25 13 23 25 13 23 25 11 19 21 11 19 21 11 19 21 11 19 21 11 19 21 11 19 21 11 19 21 11 19 21 2 10 12 2 10 12 2 10 12 2 10 12 2 10 12 2 10 12 2 10 12 2 10 12 6 12 12 8 14 14 10 16 16 13 19 19 17 23 23 20 26 26 22 28 28 24 30 30 38 44 44 40 46 46 42 48 48 45 51 51 49 55 55 52 58 58 54 60 60 56 62 60 59 64 60 61 66 60 63 68 62 66 71 65 70 75 69 73 78 72 75 80 74 77 82 76 80 85 79 84 89 83 90 95 89 92 97 91 89 94 88 80 85 79 70 75 69 65 67 62 42 43 38 43 42 38 43 42 38 43 42 38 43 42 38 43 42 38 43 42 38 43 42 38 41 40 36 41 40 36 41 40 36 41 40 36 41 40 36 41 40 36 41 40 36 41 40 36 40 39 37 40 39 37 40 39 37 40 39 37 40 39 37 40 39 37 40 39 37 40 39 37 39 38 36 39 38 36 39 38 36 39 38 36 39 38 36 39 38 36 39 38 36 39 38 36
4 1 12 4 1 12 4 1 12 4 1 12 4 1 12 4 1 12 4 1 12 4 1 12 4 1 12 4 1 12 4 1 12 4 1 12 4 2 15 4 2 15 4 2 15 4 2 15 4 2 15 4 2 15 4 2 15 4 2 15 5 3 16 5 3 16 5 3 16 5 3 16 5 3 16 5 3 16 5 3 16 4 4 16 5 5 17 3 5 17 3 5 17 3 5 17 3 5 17 3 5 17 3 5 17 3 5 17 6 8 20 6 8 20 6 8 20 6 8 20 6 8 20 6 8 20 6 8 20 6 8 20 8 12 21 8 12 21 8 12 21 8 12 21 8 12 21 8 12 21 8 12 21 8 12 21 9 13 22 9 13 22 9 13 22 9 13 22 9 13 22 9 13 22 9 13 22 7 14 20 8 16 19 7 17 18 7 17 18 7 17 18 7 17 18 7 17 18 7 17 18 7 17 18 8 18 19 8 18 19 8 18 19 8 18 19 8 18 19 8 18 19 8 18 19 8 18 19 9 19 21 9 19 21 9 19 21 9 19 21 9 19 21 9 19 21 9 19 21 9 19 21 13 23 25 13 23 25 13 23 25 13 23 25 13 23 25 13 23 25 13 23 25 13 23 25 11 19 21 11 19 21 11 19 21 11 19 21 11 19 21 11 19 21 11 19 21 11 19 21 2 10 12 2 10 12 2 10 12 2 10 12 2 10 12 2 10 12 2 10 12 2 10 12 6 12 12 8 14 14 10 16 16 13 19 19 17 23 23 20 26 26 22 28 28 24 30 30 38 44 44 40 46 46 42 48 48 45 51 51 49 55 55 52 58 58 54 60 60 56 62 60 57 62 58 58 63 57 61 66 60 64 69 63 67 72 66 71 76 70 73 78 72 74 79 73 78 83 77 82 87 81 88 93 87 90 95 89 87 92 86 78 83 77 67 72 66 62 64 59 42 43 38 43 42 38 43 42 38 43 42 38 43 42 38 43 42 38 43 42 38 43 42 38 41 40 36 41 40 36 41 40 36 41 40 36 41 40 36 41 40 36 41 40 36 41 40 36 40 39 37 40 39 37 40 39 37 40 39 37 40 39 37 40 39 37 40 39 37 40 39 37 39 38 36 39 38 36 39 38 36 39 38 36 39 38 36 39 38 36 39 38 36 39 38 36
4 1 12 4 1 12 4 1 12 4 1 12 4 1 12 4 1 12 4 1 12 4 1 12 4 1 12 4 1 12 4 1 12 4 1 12 4 2 15 4 2 15 4 2 15 4 2 15 4 2 15 4 2 15 4 2 15 4 2 15 5 3 16 5 3 16 5 3 16 5 3 16 5 3 16 5 3 16 5 3 16 4 4 16 5 5 17 3 5 17 3 5 17 3 5 17 3 5 17 3 5 17 3 5 17 3 5 17 6 8 20 6 8 20 6 8 20 6 8 20 6 8 20 6 8 20 6 8 20 6 8 20 8 12 21 8 12 21 8 12 21 8 12 21 8 12 21 8 12 21 8 12 21 8 12 21 9 13 22 9 13 22 9 13 22 9 13 22 9 13 22 9 13 22 9 13 22 7 14 20 8 16 19 7 17 18 7 17 18 7 17 18 7 17 18 7 17 18 7 17 18 7 17 18 8 18 19 8 18 19 8 18 19 8 18 19 8 18 19 8 18 19 8 18 19 8 18 19 9 19 21 9 19 21 9 19 21 9 19 21 9 19 21 9 19 21 9 19 21 9 19 21 13 23 25 13 23 25 13 23 25 13 23 25 13 23 25 13 23 25 13 23 25 13 23 25 11 19 21 11 19 21 11 19 21 11 19 21 11 19 21 11 19 21 11 19 21 11 19 21 2 10 12 2 10 12 2 10 12 2 10 12 2 10 12 2 10 12 2 10 12 2 10 12 6 12 12 8 14 14 10 16 16 13 19 19 17 23 23 20 26 26 22 28 28 24 30 30 38 44 44 40 46 46 42 48 48 45 51 51 49 55 55 52 58 58 54 60 60 56 62 60 56 61 57 57 62 56 59 64 58 63 68 62 66 71 65 69 74 68 72 77 71 73 78 72 76 81 75 81 86 80 86 91 85 89 94 88 85 90 84 76 81 75 66 71 65 61 63 58 42 43 38 43 42 38 43 42 38 43 42 38 43 42 38 43 42 38 43 42 38 43 42 38 41 40 36 41 40 36 41 40 36 41 40 36 41 40 36 41 40 36 41 40 36 41 40 36 40 39 37 40 39 37 40 39 37 40 39 37 40 39 37 40 39 37 40 39 37 40 39 37 39 38 36 39 38 36 39 38 36 39 38 36 39 38 36 39 38 36 39 38 36 39 38 36
4 1 12 4 1 12 4 1 12 4 1 12 4 1 12 4 1 12 4 1 12 4 1 12 4 1 12 4 1 12 4 1 12 4 1 12 6 4 17 6 4 17 6 4 17 6 4 17 6 4 17 6 4 17 6 4 17 6 4 17 8 6 19 8 6 19 8 6 19 8 6 19 8 6 19 8 6 19 8 6 19 7 7 19 6 6 18 4 6 18 4 6 18 4 6 18 4 6 18 4 6 18 4 6 18 4 6 18 5 7 19 5 7 19 5 7 19 5 7 19 5 7 19 5 7 19 5 7 19 5 7 19 8 12 21 8 12 21 8 12 21 8 12 21 8 12 21 8 12 21 8 12 21 8 12 21 7 11 20 7 11 20 7 11 20 7 11 20 7 11 20 7 11 20 7 11 20 5 12 18 9 17 20 8 18 19 8 18 19 8 18 19 8 18 19 8 18 19 8 18 19 8 18 19 9 19 20 9 19 20 9 19 20 9 19 20 9 19 20 9 19 20 9 19 20 9 19 20 10 20 22 10 20 22 10 20 22 10 20 22 10 20 22 10 20 22 10 20 22 10 20 22 10 20 22 10 20 22 10 20 22 10 20 22 10 20 22 10 20 22 10 20 22 10 20 22 11 19 21 11 19 21 11 19 21 11 19 21 11 19 21 11 19 21 11 19 21 11 19 21 0 7 9 0 7 9 0 7 9 0 7 9 0 7 9 0 7 9 0 7 9 0 7 9 3 9 9 5 11 11 7 13 13 10 16 16 14 20 20 17 23 23 19 25 25 21 27 27 29 35 35 31 37 37 33 39 39 36 42 42 40 46 46 43 49 49 45 51 51 47 53 51 66 71 67 66 71 65 66 71 65 66 71 65 66 71 65 66 71 65 66 71 65 66 71 65 73 78 72 73 78 72 73 78 72 73 78 72 73 78 72 73 78 72 73 78 72 75 77 72 47 48 43 46 45 41 44 43 39 41 40 36 37 36 32 34 33 29 32 31 27 30 29 25 35 34 30 35 34 30 35 34 30 35 34 30 35 34 30 35 34 30 35 34 30 35 34 30 36 35 33 36 35 33 36 35 33 36 35 33 36 35 33 36 35 33 36 35 33 36 35 33 38 37 35 38 37 35 38 37 35 38 37 35 38 37 35 38 37 35 38 37 35 38 37 35
4 1 12 4 1 12 4 1 12 4 1 12 4 1 12 4 1 12 4 1 12 4 1 12 4 1 12 4 1 12 4 1 12 4 1 12 6 4 17 6 4 17 6 4 17 6 4 17 6 4 17 6 4 17 6 4 17 6 4 17 8 6 19 8 6 19 8 6 19 8 6 19 8 6 19 8 6 19 8 6 19 7 7 19 6 6 18 4 6 18 4 6 18 4 6 18 4 6 18 4 6 18 4 6 18 4 6 18 5 7 19 5 7 19 5 7 19 5 7 19 5 7 19 5 7 19 5 7 19 5 7 19 8 12 21 8 12 21 8 12 21 8 12 21 8 12 21 8 12 21 8 12 21 8 12 21 7 11 20 7 11 20 7 11 20 7 11 20 7 11 20 7 11 20 7 11 20 5 12 18 9 17 20 8 18 19 8 18 19 8 18 19 8 18 19 8 18 19 8 18 19 8 18 19 9 19 20 9 19 20 9 19 20 9 19 20 9 19 20 9 19 20 9 19 20 9 19 20 10 20 22 10 20 22 10 20 22 10 20 22 10 20 22 10 20 22 10 20 22 10 20 22 10 20 22 10 20 22 10 20 22 10 20 22 10 20 22 10 20 22 10 20 22 10 20 22 11 19 21 11 19 21 11 19 21 11 19 21 11 19 21 11 19 21 11 19 21 11 19 21 0 7 9 0 7 9 0 7 9 0 7 9 0 7 9 0 7 9 0 7 9 0 7 9 3 9 9 5 11 11 7 13 13 10 16 16 14 20 20 17 23 23 19 25 25 21 27 27 29 35 35 31 37 37 33 39 39 36 42 42 40 46 46 43 49 49 45 51 51 47 53 51 64 69 65 64 69 63 64 69 63 64 69 63 64 69 63 64 69 63 64 69 63 64 69 63 71 76 70 71 76 70 71 76 70 71 76 70 71 76 70 71 76 70 71 76 70 73 75 70 47 48 43 46 45 41 44 43 39 41 40 36 37 36 32 34 33 29 32 31 27 30 29 25 35 34 30 35 34 30 35 34 30 35 34 30 35 34 30 35 34 30 35 34 30 35 34 30 36 35 33 36 35 33 36 35 33 36 35 33 36 35 33 36 35 33 36 35 33 36 35 33 38 37 35 38 37 35 38 37 35 38 37 35 38 37 35 38 37 35 38 37 35 38 37 35
4 1 12 4 1 12 4 1 12 4 1 12 4 1 12 4 1 12 4 1 12 4 1 12 4 1 12 4 1 12 4 1 12 4 1 12 6 4 17 6 4 17 6 4 17 6 4 17 6 4 17 6 4 17 6 4 17 6 4 17 8 6 19 8 6 19 8 6 19 8 6 19 8 6 19 8 6 19 8 6 19 7 7 19 6 6 18 4 6 18 4 6 18 4 6 18 4 6 18 4 6 18 4 6 18 4 6 18 5 7 19 5 7 19 5 7 19 5 7 19 5 7 19 5 7 19 5 7 19 5 7 19 8 12 21 8 12 21 8 12 21 8 12 21 8 12 21 8 12 21 8 12 21 8 12 21 7 11 20 7 11 20 7 11 20 7 11 20 7 11 20 7 11 20 7 11 20 5 12 18 9 17 20 8 18 19 8 18 19 8 18 19 8 18 19 8 18 19 8 18 19 8 18 19 9 19 20 9 19 20 9 19 20 9 19 20 9 19 20 9 19 20 9 19 20 9 19 20 10 20 22 10 20 22 10 20 22 10 20 22 10 20 22 10 20 22 10 20 22 10 20 22 10 20 22 10 20 22 10 20 22 10 20 22 10 20 22 10 20 22 10 20 22 10 20 22 11 19 21 11 19 21 11 19 21 11 19 21 11 19 21 11 19 21 11 19 21 11 19 21 0 7 9 0 7 9 0 7 9 0 7 9 0 7 9 0 7 9 0 7 9 0 7 9 3 9 9 5 11 11 7 13 13 10 16 16 14 20 20 17 23 23 19 25 25 21 27 27 29 35 35 31 37 37 33 39 39 36 42 42 40 46 46 43 49 49 45 51 51 47 53 51 62 67 63 62 67 61 62 67 61 62 67 61 62 67 61 62 67 61 62 67 61 62 67 61 69 74 68 69 74 68 69 74 68 69 74 68 69 74 68 69 74 68 69 74 68 71 73 68 47 48 43 46 45 41 44 43 39 41 40 36 37 36 32 34 33 29 32 31 27 30 29 25 35 34 30 35 34 30 35 34 30 35 34 30 35 34 30 35 34 30 35 34 30 35 34 30 36 35 33 36 35 33 36 35 33 36 35 33 36 35 33 36 35 33 36 35 33 36 35 33 38 37 35 38 37 35 38 37 35 38 37 35 38 37 35 38 37 35 38 37 35 38 37 35
4 1 12 4 1 12 4 1 12 4 1 12 4 1 12 4 1 12 4 1 12 4 1 12 4 1 12 4 1 12 4 1 12 4 1 12 6 4 17 6 4 17 6 4 17 6 4 17 6 4 17 6 4 17 6 4 17 6 4 17 8 6 19 8 6 19 8 6 19 8 6 19 8 6 19 8 6 19 8 6 19 7 7 19 6 6 18 4 6 18 4 6 18 4 6 18 4 6 18 4 6 18 4 6 18 4 6 18 5 7 19 5 7 19 5 7 19 5 7 19 5 7 19 5 7 19 5 7 19 5 7 19 8 12 21 8 12 21 8 12 21 8 12 21 8 12 21 8 12 21 8 12 21 8 12 21 7 11 20 7 11 20 7 11 20 7 11 20 7 11 20 7 11 20 7 11 20 5 12 18 9 17 20 8 18 19 8 18 19 8 18 19 8 18 19 8 18 19 8 18 19 8 18 19 9 19 20 9 19 20 9 19 20 9 19 20 9 19 20 9 19 20 9 19 20 9 19 20 10 20 22 10 20 22 10 20 22 10 20 22 10 20 22 10 20 22 10 20 22 10 20 22 10 20 22 10 20 22 10 20 22 10 20 22 10 20 22 10 20 22 10 20 22 10 20 22 11 19 21 11 19 21 11 19 21 11 19 21 11 19 21 11 19 21 11 19 21 11 19 21 0 7 9 0 7 9 0 7 9 0 7 9 0 7 9 0 7 9 0 7 9 0 7 9 3 9 9 5 11 11 7 13 13 10 16 16 14 20 20 17 23 23 19 25 25 21 27 27 29 35 35 31 37 37 33 39 39 36 42 42 40 46 46 43 49 49 45 51 51 47 53 51 59 64 60 59 64 58 59 64 58 59 64 58 59 64 58 59 64 58 59 64 58 59 64 58 66 71 65 66 71 65 66 71 65 66 71 65 66 71 65 66 71 65 66 71 65 68 70 65 47 48 43 46 45 41 44 43 39 41 40 36 37 36 32 34 33 29 32 31 27 30 29 25 35 34 30 35 34 30 35 34 30 35 34 30 35 34 30 35 34 30 35 34 30 35 34 30 36 35 33 36 35 33 36 35 33 36 35 33 36 35 33 36 35 33 36 35 33 36 35 33 38 37 35 38 37 35 38 37 35 38 37 35 38 37 35 38 37 35 38 37 35 38 37 35
4 1 12 4 1 12 4 1 12 4 1 12 4 1 12 4 1 12 4 1 12 4 1 12 4 1 12 4 1 12 4 1 12 4 1 12 6 4 17 6 4 17 6 4 17 6 4 17 6 4 17 6 4 17 6 4 17 6 4 17 8 6 19 8 6 19 8 6 19 8 6 19 8 6 19 8 6 19 8 6 19 7 7 19 6 6 18 4 6 18 4 6 18 4 6 18 4 6 18 4 6 18 4 6 18 4 6 18 5 7 19 5 7 19 5 7 19 5 7 19 5 7 19 5 7 19 5 7 19 5 7 19 8 12 21 8 12 21 8 12 21 8 12 21 8 12 21 8 12 21 8 12 21 8 12 21 7 11 20 7 11 20 7 11 20 7 11 20 7 11 20 7 11 20 7 11 20 5 12 18 9 17 20 8 18 19 8 18 19 8 18 19 8 18 19 8 18 19 8 18 19 8 18 19 9 19 20 9 19 20 9 19 20 9 19 20 9 19 20 9 19 20 9 19 20 9 19 20 10 20 22 10 20 22 10 20 22 10 20 22 10 20 22 10 20 22 10 20 22 10 20 22 10 20 22 10 20 22 10 20 22 10 20 22 10 20 22 10 20 22 10 20 22 10 20 22 11 19 21 11 19 21 11 19 21 11 19 21 11 19 21 11 19 21 11 19 21 11 19 21 0 7 9 0 7 9 0 7 9 0 7 9 0 7 9 0 7 9 0 7 9 0 7 9 3 9 9 5 11 11 7 13 13 10 16 16 14 20 20 17 23 23 19 25 25 21 27 27 29 35 35 31 37 37 33 39 39 36 42 42 40 46 46 43 49 49 45 51 51 47 53 51 55 60 56 55 60 54 55 60 54 55 60 54 55 60 54 55 60 54 55 60 54 55 60 54 62 67 61 62 67 61 62 67 61 62 67 61 62 67 61 62 67 61 62 67 61 64 66 61 47 48 43 46 45 41 44 43 39 41 40 36 37 36 32 34 33 29 32 31 27 30 29 25 35 34 30 35 34 30 35 34 30 35 34 30 35 34 30 35 34 30 35 34 30 35 34 30 36 35 33 36 35 33 36 35 33 36 35 33 36 35 33 36 35 33 36 35 33 36 35 33 38 37 35 38 37 35 38 37 35 38 37 35 38 37 35 38 37 35 38 37 35 38 37 35
4 1 12 4 1 12 4 1 12 4 1 12 4 1 12 4 1 12 4 1 12 4 1 12 4 1 12 4 1 12 4 1 12 4 1 12 6 4 17 6 4 17 6 4 17 6 4 17 6 4 17 6 4 17 6 4 17 6 4 17 8 6 19 8 6 19 8 6 19 8 6 19 8 6 19 8 6 19 8 6 19 7 7 19 6 6 18 4 6 18 4 6 18 4 6 18 4 6 18 4 6 18 4 6 18 4 6 18 5 7 19 5 7 19 5 7 19 5 7 19 5 7 19 5 7 19 5 7 19 5 7 19 8 12 21 8 12 21 8 12 21 8 12 21 8 12 21 8 12 21 8 12 21 8 12 21 7 11 20 7 11 20 7 11 20 7 11 20 7 11 20 7 11 20 7 11 20 5 12 18 9 17 20 8 18 19 8 18 19 8 18 19 8 18 19 8 18 19 8 18 19 8 18 19 9 19 20 9 19 20 9 19 20 9 19 20 9 19 20 9 19 20 9 19 20 9 19 20 10 20 22 10 20 22 10 20 22 10 20 22 10 20 22 10 20 22 10 20 22 10 20 22 10 20 22 10 20 22 10 20 22 10 20 22 10 20 22 10 20 22 10 20 22 10 20 22 11 19 21 11 19 21 11 19 21 11 19 21 11 19 21 11 19 21 11 19 21 11 19 21 0 7 9 0 7 9 0 7 9 0 7 9 0 7 9 0 7 9 0 7 9 0 7 9 3 9 9 5 11 11 7 13 13 10 16 16 14 20 20 17 23 23 19 25 25 21 27 27 29 35 35 31 37 37 33 39 39 36 42 42 40 46 46 43 49 49 45 51 51 47 53 51 52 57 53 52 57 51 52 57 51 52 57 51 52 57 51 52 57 51 52 57 51 52 57 51 59 64 58 59 64 58 59 64 58 59 64 58 59 64 58 59 64 58 59 64 58 61 63 58 47 48 43 46 45 41 44 43 39 41 40 36 37 36 32 34 33 29 32 31 27 30 29 25 35 34 30 35 34 30 35 34 30 35 34 30 35 34 30 35 34 30 35 34 30 35 34 30 36 35 33 36 35 33 36 35 33 36 35 33 36 35 33 36 35 33 36 35 33 36 35 33 38 37 35 38 37 35 38 37 35 38 37 35 38 37 35 38 37 35 38 37 35 38 37 35
4 1 12 4 1 12 4 1 12 4 1 12 4 1 12 4 1 12 4 1 12 4 1 12 4 1 12 4 1 12 4 1 12 4 1 12 6 4 17 6 4 17 6 4 17 6 4 17 6 4 17 6 4 17 6 4 17 6 4 17 8 6 19 8 6 19 8 6 19 8 6 19 8 6 19 8 6 19 8 6 19 7 7 19 6 6 18 4 6 18 4 6 18 4 6 18 4 6 18 4 6 18 4 6 18 4 6 18 5 7 19 5 7 19 5 7 19 5 7 19 5 7 19 5 7 19 5 7 19 5 7 19 8 12 21 8 12 21 8 12 21 8 12 21 8 12 21 8 12 21 8 12 21 8 12 21 7 11 20 7 11 20 7 11 20 7 11 20 7 11 20 7 11 20 7 11 20 5 12 18 9 17 20 8 18 19 8 18 19 8 18 19 8 18 19 8 18 19 8 18 19 8 18 19 9 19 20 9 19 20 9 19 20 9 19 20 9 19 20 9 19 20 9 19 20 9 19 20 10 20 22 10 20 22 10 20 22 10 20 22 10 20 22 10 20 22 10 20 22 10 20 22 10 20 22 10 20 22 10 20 22 10 20 22 10 20 22 10 20 22 10 20 22 10 20 22 11 19 21 11 19 21 11 19 21 11 19 21 11 19 21 11 19 21 11 19 21 11 19 21 0 7 9 0 7 9 0 7 9 0 7 9 0 7 9 0 7 9 0 7 9 0 7 9 3 9 9 5 11 11 7 13 13 10 16 16 14 20 20 17 23 23 19 25 25 21 27 27 29 35 35 31 37 37 33 39 39 36 42 42 40 46 46 43 49 49 45 51 51 47 53 51 50 55 51 50 55 49 50 55 49 50 55 49 50 55 49 50 55 49 50 55 49 50 55 49 57 62 56 57 62 56 57 62 56 57 62 56 57 62 56 57 62 56 57 62 56 59 61 56 47 48 43 46 45 41 44 43 39 41 40 36 37 36 32 34 33 29 32 31 27 30 29 25 35 34 30 35 34 30 35 34 30 35 34 30 35 34 30 35 34 30 35 34 30 35 34 30 36 35 33 36 35 33 36 35 33 36 35 33 36 35 33 36 35 33 36 35 33 36 35 33 38 37 35 38 37 35 38 37 35 38 37 35 38 37 35 38 37 35 38 37 35 38 37 35
4 1 12 3 1 12 4 1 12 3 1 12 4 1 12 3 1 12 4 1 12 3 1 12 4 1 12 3 1 12 4 1 12 3 1 12 6 4 17 6 4 17 6 4 17 6 4 17 6 4 17 6 4 17 6 4 17 6 4 17 8 6 19 8 6 19 8 6 19 8 6 19 8 6 19 8 6 19 8 6 19 7 7 19 4 6 18 4 6 18 4 6 18 4 6 18 4 6 18 4 6 18 4 6 18 4 6 18 5 7 19 5 7 19 5 7 19 5 7 19 5 7 19 5 7 19 5 7 19 5 7 19 8 12 21 8 12 21 8 12 21 8 12 21 8 12 21 8 12 21 8 12 21 8 12 21 7 11 20 7 11 20 7 11 20 7 11 20 7 11 20 7 11 20 7 11 20 5 12 18 9 17 20 8 18 19 8 18 19 8 18 19 8 18 19 8 18 19 8 18 19 8 18 19 9 19 20 9 19 20 9 19 20 9 19 20 9 19 20 9 19 20 9 19 20 9 19 20 10 20 22 10 20 22 11 19 22 10 20 22 11 19 22 10 20 22 11 19 22 10 20 22 11 19 22 10 20 22 11 19 22 10 20 22 11 19 22 10 20 22 11 19 22 11 19 22 11 19 21 11 19 21 11 19 21 11 19 21 11 19 21 11 19 21 11 19 21 11 19 21 0 7 9 0 7 9 0 7 9 0 7 9 0 7 9 0 7 9 0 7 9 0 7 9 3 8 11 5 11 11 7 13 13 10 16 16 14 20 20 17 23 23 19 25 25 21 27 27 29 35 35 31 37 37 33 39 39 36 42 42 40 46 46 43 49 49 45 51 51 47 53 53 48 53 49 48 53 47 48 53 49 48 53 47 48 53 49 48 53 47 48 53 49 48 53 47 55 60 56 55 60 54 55 60 56 55 60 54 55 60 56 55 60 54 55 60 56 57 59 54 48 47 43 46 45 41 46 42 39 41 40 36 39 35 32 34 33 29 34 30 27 30 29 25 37 33 30 35 34 30 37 33 30 35 34 30 37 33 30 35 34 30 37 33 30 35 34 30 38 34 33 36 35 33 38 34 33 36 35 33 38 34 33 36 35 33 38 34 33 36 35 33 40 36 35 38 37 35 40 36 35 38 37 35 40 36 35 38 37 35 40 36 35 38 37 35
4 3 11 3 3 11 4 3 11 3 3 11 3 2 10 2 2 10 3 2 10 2 2 10 3 2 10 2 2 10 3 2 10 2 2 10 6 6 16 6 6 16 6 6 16 6 6 16 6 6 16 6 6 16 6 6 16 6 6 16 7 7 17 7 7 17 7 7 17 7 7 17 7 7 17 7 7 17 7 7 17 7 7 17 6 9 18 5 9 18 5 9 18 5 9 18 5 9 18 5 9 18 5 9 18 5 9 18 4 8 17 4 8 17 4 8 17 4 8 17 4 8 17 4 8 17 4 8 17 4 8 17 4 8 17 4 8 17 4 8 17 4 8 17 4 8 17 4 8 17 4 8 17 4 8 17 7 11 20 7 11 20 7 11 20 7 11 20 7 11 20 7 11 20 7 11 20 5 12 18 10 18 21 9 19 20 9 19 20 9 19 20 9 19 20 9 19 20 9 19 20 9 19 20 12 22 23 12 22 23 12 22 23 12 22 23 12 22 23 12 22 23 12 22 23 12 22 23 0 2 4 0 3 5 2 7 10 5 13 15 14 19 22 18 26 28 24 29 32 24 32 34 7 12 15 6 14 16 10 15 18 11 19 21 15 20 23 16 24 26 20 25 28 19 27 29 24 32 35 25 33 36 25 33 36 27 35 38 28 36 39 29 37 40 30 38 41 31 39 42 8 16 19 8 16 19 8 16 19 8 16 19 8 16 19 8 16 19 8 16 19 8 16 18 0 8 10 2 10 12 4 12 14 7 15 17 11 19 21 14 22 24 16 24 26 18 26 28 28 36 38 28 36 38 28 36 38 28 36 38 28 36 38 28 36 38 28 36 38 30 36 36 51 55 54 51 56 52 51 55 54 51 56 52 51 55 54 51 56 52 51 55 54 51 56 52 53 57 56 53 58 54 53 57 56 53 58 54 53 57 56 53 58 54 53 57 56 55 57 54 35 34 32 37 33 32 38 32 32 37 33 32 38 32 32 37 33 32 38 32 32 37 33 32 37 31 31 36 32 31 37 31 31 36 32 31 37 31 31 36 32 31 37 31 31 36 32 31 38 33 30 37 33 30 38 33 30 37 33 30 38 33 30 37 33 30 38 33 30 37 33 30 39 34 31 38 34 31 39 34 31 38 34 31 39 34 31 38 34 31 39 34 31 38 34 31
3 3 11 3 3 11 3 3 11 3 3 11 2 2 10 2 2 10 2 2 10 2 2 10 2 2 10 2 2 10 2 2 10 2 2 10 6 6 16 6 6 16 6 6 16 6 6 16 6 6 16 6 6 16 6 6 16 6 6 16 7 7 17 7 7 17 7 7 17 7 7 17 7 7 17 7 7 17 7 7 17 5 8 17 6 9 18 5 9 18 5 9 18 5 9 18 5 9 18 5 9 18 5 9 18 5 9 18 4 8 17 4 8 17 4 8 17 4 8 17 4 8 17 4 8 17 4 8 17 4 8 17 4 8 17 4 8 17 4 8 17 4 8 17 4 8 17 4 8 17 4 8 17 4 8 17 7 11 20 7 11 20 7 11 20 7 11 20 7 11 20 7 11 20 7 11 20 5 12 18 10 18 21 9 19 20 9 19 20 9 19 20 9 19 20 9 19 20 9 19 20 9 19 20 12 22 23 12 22 23 12 22 23 12 22 23 12 22 23 12 22 23 12 22 23 12 22 23 11 16 19 11 16 19 12 17 20 12 17 20 13 18 21 14 19 22 15 20 23 15 20 23 23 28 31 24 29 32 25 30 33 26 31 34 27 32 35 28 33 36 29 34 37 29 34 37 27 35 38 27 35 38 28 36 39 28 36 39 29 37 40 30 38 41 30 38 41 30 38 41 8 16 19 8 16 19 8 16 19 8 16 19 8 16 19 8 16 19 8 16 19 8 16 19 0 8 10 2 10 12 4 12 14 7 15 17 11 19 21 14 22 24 16 24 26 18 26 28 28 36 38 28 36 38 28 36 38 28 36 38 28 36 38 28 36 38 28 36 38 28 37 36 49 53 54 49 53 52 49 53 52 49 53 52 49 53 52 49 53 52 49 53 52 49 53 52 51 55 54 51 55 54 51 55 54 51 55 54 51 55 54 51 55 54 51 55 54 53 55 54 37 33 32 38 32 32 38 32 32 38 32 32 38 32 32 38 32 32 38 32 32 38 32 32 37 31 31 37 31 31 37 31 31 37 31 31 37 31 31 37 31 31 37 31 31 37 31 31 38 33 30 38 33 30 38 33 30 38 33 30 38 33 30 38 33 30 38 33 30 38 33 30 39 34 31 39 34 31 39 34 31 39 34 31 39 34 31 39 34 31 39 34 31 39 34 31
3 3 11 3 3 11 3 3 11 3 3 11 2 2 10 2 2 10 2 2 10 2 2 10 2 2 10 2 2 10 2 2 10 2 2 10 6 6 16 6 6 16 6 6 16 6 6 16 6 6 16 6 6 16 6 6 16 6 6 16 7 7 17 7 7 17 7 7 17 7 7 17 7 7 17 7 7 17 7 7 17 5 8 17 6 9 18 5 9 18 5 9 18 5 9 18 5 9 18 5 9 18 5 9 18 5 9 18 4 8 17 4 8 17 4 8 17 4 8 17 4 8 17 4 8 17 4 8 17 4 8 17 4 8 17 4 8 17 4 8 17 4 8 17 4 8 17 4 8 17 4 8 17 4 8 17 7 11 20 7 11 20 7 11 20 7 11 20 7 11 20 7 11 20 7 11 20 5 12 18 10 18 21 9 19 20 9 19 20 9 19 20 9 19 20 9 19 20 9 19 20 9 19 20 12 22 23 12 22 23 12 22 23 12 22 23 12 22 23 12 22 23 12 22 23 12 22 23 24 29 32 23 28 31 22 27 30 20 25 28 19 24 27 17 22 25 16 21 24 16 21 24 50 55 58 50 55 58 49 54 57 47 52 55 46 51 54 44 49 52 43 48 51 43 48 51 33 41 44 33 41 44 32 40 43 31 39 42 31 39 42 30 38 41 30 38 41 29 37 40 8 16 19 8 16 19 8 16 19 8 16 19 8 16 19 8 16 19 8 16 19 8 16 19 0 8 10 2 10 12 4 12 14 7 15 17 11 19 21 14 22 24 16 24 26 18 26 28 28 36 38 28 36 38 28 36 38 28 36 38 28 36 38 28 36 38 28 36 38 28 37 36 47 51 52 47 51 50 47 51 50 47 51 50 47 51 50 47 51 50 47 51 50 47 51 50 49 53 52 49 53 52 49 53 52 49 53 52 49 53 52 49 53 52 49 53 52 51 53 52 37 33 32 38 32 32 38 32 32 38 32 32 38 32 32 38 32 32 38 32 32 38 32 32 37 31 31 37 31 31 37 31 31 37 31 31 37 31 31 37 31 31 37 31 31 37 31 31 38 33 30 38 33 30 38 33 30 38 33 30 38 33 30 38 33 30 38 33 30 38 33 30 39 34 31 39 34 31 39 34 31 39 34 31 39 34 31 39 34 31 39 34 31 39 34 31
3 3 11 3 3 11 3 3 11 3 3 11 2 2 10 2 2 10 2 2 10 2 2 10 2 2 10 2 2 10 2 2 10 2 2 10 6 6 16 6 6 16 6 6 16 6 6 16 6 6 16 6 6 16 6 6 16 6 6 16 7 7 17 7 7 17 7 7 17 7 7 17 7 7 17 7 7 17 7 7 17 5 8 17 6 9 18 5 9 18 5 9 18 5 9 18 5 9 18 5 9 18 5 9 18 5 9 18 4 8 17 4 8 17 4 8 17 4 8 17 4 8 17 4 8 17 4 8 17 4 8 17 4 8 17 4 8 17 4 8 17 4 8 17 4 8 17 4 8 17 4 8 17 4 8 17 7 11 20 7 11 20 7 11 20 7 11 20 7 11 20 7 11 20 7 11 20 5 12 18 10 18 21 9 19 20 9 19 20 9 19 20 9 19 20 9 19 20 9 19 20 9 19 20 12 22 23 12 22 23 12 22 23 12 22 23 12 22 23 12 22 23 12 22 23 12 22 23 21 26 29 23 28 31 26 31 34 31 36 39 35 40 43 40 45 48 43 48 51 45 50 53 81 86 89 79 84 87 75 80 83 71 76 79 65 70 73 61 66 69 57 62 65 55 60 63 41 49 52 40 48 51 38 46 49 36 44 47 33 41 44 31 39 42 29 37 40 28 36 39 8 16 19 8 16 19 8 16 19 8 16 19 8 16 19 8 16 19 8 16 19 8 16 19 0 8 10 2 10 12 4 12 14 7 15 17 11 19 21 14 22 24 16 24 26 18 26 28 28 36 38 28 36 38 28 36 38 28 36 38 28 36 38 28 36 38 28 36 38 28 37 36 44 48 49 44 48 47 44 48 47 44 48 47 44 48 47 44 48 47 44 48 47 44 48 47 46 50 49 46 50 49 46 50 49 46 50 49 46 50 49 46 50 49 46 50 49 48 50 49 37 33 32 38 32 32 38 32 32 38 32 32 38 32 32 38 32 32 38 32 32 38 32 32 37 31 31 37 31 31 37 31 31 37 31 31 37 31 31 37 31 31 37 31 31 37 31 31 38 33 30 38 33 30 38 33 30 38 33 30 38 33 30 38 33 30 38 33 30 38 33 30 39 34 31 39 34 31 39 34 31 39 34 31 39 34 31 39 34 31 39 34 31 39 34 31
3 3 11 3 3 11 3 3 11 3 3 11 2 2 10 2 2 10 2 2 10 2 2 10 2 2 10 2 2 10 2 2 10 2 2 10 6 6 16 6 6 16 6 6 16 6 6 16 6 6 16 6 6 16 6 6 16 6 6 16 7 7 17 7 7 17 7 7 17 7 7 17 7 7 17 7 7 17 7 7 17 5 8 17 6 9 18 5 9 18 5 9 18 5 9 18 5 9 18 5 9 18 5 9 18 5 9 18 4 8 17 4 8 17 4 8 17 4 8 17 4 8 17 4 8 17 4 8 17 4 8 17 4 8 17 4 8 17 4 8 17 4 8 17 4 8 17 4 8 17 4 8 17 4 8 17 7 11 20 7 11 20 7 11 20 7 11 20 7 11 20 7 11 20 7 11 20 5 12 18 10 18 21 9 19 20 9 19 20 9 19 20 9 19 20 9 19 20 9 19 20 9 19 20 12 22 23 12 22 23 12 22 23 12 22 23 12 22 23 12 22 23 12 22 23 12 22 23 14 19 22 20 25 28 31 36 39 46 51 54 62 67 70 76 81 84 88 93 96 94 99 102 107 112 115 104 109 112 98 103 106 90 95 98 81 86 89 73 78 81 67 72 75 63 68 71 49 57 60 47 55 58 44 52 55 40 48 51 36 44 47 31 39 42 28 36 39 27 35 38 8 16 19 8 16 19 8 16 19 8 16 19 8 16 19 8 16 19 8 16 19 8 16 19 0 8 10 2 10 12 4 12 14 7 15 17 11 19 21 14 22 24 16 24 26 18 26 28 28 36 38 28 36 38 28 36 38 28 36 38 28 36 38 28 36 38 28 36 38 28 37 36 40 44 45 40 44 43 40 44 43 40 44 43 40 44 43 40 44 43 40 44 43 40 44 43 42 46 45 42 46 45 42 46 45 42 46 45 42 46 45 42 46 45 42 46 45 44 46 45 37 33 32 38 32 32 38 32 32 38 32 32 38 32 32 38 32 32 38 32 32 38 32 32 37 31 31 37 31 31 37 31 31 37 31 31 37 31 31 37 31 31 37 31 31 37 31 31 38 33 30 38 33 30 38 33 30 38 33 30 38 33 30 38 33 30 38 33 30 38 33 30 39 34 31 39 34 31 39 34 31 39 34 31 39 34 31 39 34 31 39 34 31 39 34 31
3 3 11 3 3 11 3 3 11 3 3 11 2 2 10 2 2 10 2 2 10 2 2 10 2 2 10 2 2 10 2 2 10 2 2 10 6 6 16 6 6 16 6 6 16 6 6 16 6 6 16 6 6 16 6 6 16 6 6 16 7 7 17 7 7 17 7 7 17 7 7 17 7 7 17 7 7 17 7 7 17 5 8 17 6 9 18 5 9 18 5 9 18 5 9 18 5 9 18 5 9 18 5 9 18 5 9 18 4 8 17 4 8 17 4 8 17 4 8 17 4 8 17 4 8 17 4 8 17 4 8 17 4 8 17 4 8 17 4 8 17 4 8 17 4 8 17 4 8 17 4 8 17 4 8 17 7 11 20 7 11 20 7 11 20 7 11 20 7 11 20 7 11 20 7 11 20 5 12 18 10 18 21 9 19 20 9 19 20 9 19 20 9 19 20 9 19 20 9 19 20 9 19 20 12 22 23 12 22 23 12 22 23 12 22 23 12 22 23 12 22 23 12 22 23 12 22 23 22 27 30 31 36 39 47 52 55 67 72 75 90 95 98 110 115 118 126 131 134 134 139 142 126 131 134 122 127 130 113 118 121 102 107 110 89 94 97 78 83 86 69 74 77 65 70 73 56 64 67 54 62 65 50 58 61 44 52 55 38 46 49 32 40 43 28 36 39 25 33 36 8 16 19 8 16 19 8 16 19 8 16 19 8 16 19 8 16 19 8 16 19 8 16 19 0 8 10 2 10 12 4 12 14 7 15 17 11 19 21 14 22 24 16 24 26 18 26 28 28 36 38 28 36 38 28 36 38 28 36 38 28 36 38 28 36 38 28 36 38 28 37 36 37 41 42 37 41 40 37 41 40 37 41 40 37 41 40 37 41 40 37 41 40 37 41 40 39 43 42 39 43 42 39 43 42 39 43 42 39 43 42 39 43 42 39 43 42 41 43 42 37 33 32 38 32 32 38 32 32 38 32 32 38 32 32 38 32 32 38 32 32 38 32 32 37 31 31 37 31 31 37 31 31 37 31 31 37 31 31 37 31 31 37 31 31 37 31 31 38 33 30 38 33 30 38 33 30 38 33 30 38 33 30 38 33 30 38 33 30 38 33 30 39 34 31 39 34 31 39 34 31 39 34 31 39 34 31 39 34 31 39 34 31 39 34 31
3 3 11 3 3 11 3 3 11 3 3 11 2 2 10 2 2 10 2 2 10 2 2 10 2 2 10 2 2 10 2 2 10 2 2 10 6 6 16 6 6 16 6 6 16 6 6 16 6 6 16 6 6 16 6 6 16 6 6 16 7 7 17 7 7 17 7 7 17 7 7 17 7 7 17 7 7 17 7 7 17 5 8 17 6 9 18 5 9 18 5 9 18 5 9 18 5 9 18 5 9 18 5 9 18 5 9 18 4 8 17 4 8 17 4 8 17 4 8 17 4 8 17 4 8 17 4 8 17 4 8 17 4 8 17 4 8 17 4 8 17 4 8 17 4 8 17 4 8 17 4 8 17 4 8 17 7 11 20 7 11 20 7 11 20 7 11 20 7 11 20 7 11 20 7 11 20 5 12 18 10 18 21 9 19 20 9 19 20 9 19 20 9 19 20 9 19 20 9 19 20 9 19 20 12 22 23 12 22 23 12 22 23 12 22 23 12 22 23 12 22 23 12 22 23 12 22 23 51 56 59 59 64 67 73 78 81 91 96 99 111 116 119 129 134 137 143 148 151 151 156 159 137 142 145 132 137 140 121 126 129 107 112 115 92 97 100 78 83 86 68 73 76 62 67 70 62 70 73 59 67 70 54 62 65 47 55 58 40 48 51 33 41 44 27 35 38 24 32 35 8 16 19 8 16 19 8 16 19 8 16 19 8 16 19 8 16 19 8 16 19 8 16 19 0 8 10 2 10 12 4 12 14 7 15 17 11 19 21 14 22 24 16 24 26 18 26 28 28 36 38 28 36 38 28 36 38 28 36 38 28 36 38 28 36 38 28 36 38 28 37 36 35 39 40 35 39 38 35 39 38 35 39 38 35 39 38 35 39 38 35 39 38 35 39 38 37 41 40 37 41 40 37 41 40 37 41 40 37 41 40 37 41 40 37 41 40 39 41 40 37 33 32 38 32 32 38 32 32 38 32 32 38 32 32 38 32 32 38 32 32 38 32 32 37 31 31 37 31 31 37 31 31 37 31 31 37 31 31 37 31 31 37 31 31 37 31 31 38 33 30 38 33 30 38 33 30 38 33 30 38 33 30 38 33 30 38 33 30 38 33 30 39 34 31 39 34 31 39 34 31 39 34 31 39 34 31 39 34 31 39 34 31 39 34 31
3 3 11 3 3 11 3 3 11 3 3 11 2 2 10 2 2 10 2 2 10 2 2 10 2 2 10 2 2 10 2 2 10 2 2 10 6 6 16 6 6 16 6 6 16 6 6 16 6 6 16 6 6 16 6 6 16 6 6 16 7 7 17 7 7 17 7 7 17 7 7 17 7 7 17 7 7 17 7 7 17 5 8 17 6 9 18 5 9 18 5 9 18 5 9 18 5 9 18 5 9 18 5 9 18 5 9 18 4 8 17 4 8 17 4 8 17 4 8 17 4 8 17 4 8 17 4 8 17 4 8 17 4 8 17 4 8 17 4 8 17 4 8 17 4 8 17 4 8 17 4 8 17 4 8 17 7 11 20 7 11 20 7 11 20 7 11 20 7 11 20 7 11 20 7 11 20 5 12 18 10 18 21 9 19 20 9 19 20 9 19 20 9 19 20 9 19 20 9 19 20 9 19 20 12 22 23 12 22 23 12 22 23 12 22 23 12 22 23 12 22 23 12 22 23 12 22 23 78 83 86 84 89 92 94 99 102 107 112 115 122 127 130 135 140 143 145 150 153 151 156 159 142 147 150 136 141 144 124 129 132 109 114 117 92 97 100 77 82 85 66 71 74 59 64 67 65 73 76 62 70 73 56 64 67 49 57 60 41 49 52 33 41 44 27 35 38 24 32 35 8 16 19 8 16 19 8 16 19 8 16 19 8 16 19 8 16 19 8 16 19 8 16 19 0 8 10 2 10 12 4 12 14 7 15 17 11 19 21 14 22 24 16 24 26 18 26 28 28 36 38 28 36 38 28 36 38 28 36 38 28 36 38 28 36 38 28 36 38 28 37 36 33 37 38 33 37 36 33 37 36 33 37 36 33 37 36 33 37 36 33 37 36 33 37 36 35 39 38 35 39 38 35 39 38 35 39 38 35 39 38 35 39 38 35 39 38 37 39 38 37 33 32 38 32 32 38 32 32 38 32 32 38 32 32 38 32 32 38 32 32 38 32 32 37 31 31 37 31 31 37 31 31 37 31 31 37 31 31 37 31 31 37 31 31 37 31 31 38 33 30 38 33 30 38 33 30 38 33 30 38 33 30 38 33 30 38 33 30 38 33 30 39 34 31 39 34 31 39 34 31 39 34 31 39 34 31 39 34 31 39 34 31 39 34 31
3 3 11 3 3 11 3 3 11 3 3 11 2 2 10 2 2 10 2 2 10 2 2 10 2 2 10 2 2 10 2 2 10 2 2 10 2 2 12 2 2 12 2 2 12 2 2 12 2 2 12 2 2 12 2 2 12 2 2 12 4 4 14 4 4 14 4 4 14 4 4 14 4 4 14 4 4 14 4 4 14 2 5 14 4 7 16 3 7 16 3 7 16 3 7 16 3 7 16 3 7 16 3 7 16 3 7 16 4 8 17 4 8 17 4 8 17 4 8 17 4 8 17 4 8 17 4 8 17 4 8 17 6 10 19 6 10 19 6 10 19 6 10 19 6 10 19 6 10 19 6 10 19 6 10 19 9 13 22 9 13 22 9 13 22 9 13 22 9 13 22 9 13 22 9 13 22 7 14 20 16 24 27 14 24 25 13 23 24 12 22 23 11 21 22 9 19 20 8 18 19 8 18 19 0 3 4 0 6 7 7 17 18 21 31 32 36 46 47 50 60 61 61 71 72 67 77 78 129 134 137 129 134 137 129 134 137 129 134 137 129 134 137 129 134 137 129 134 137 129 134 137 121 126 129 123 128 131 122 127 130 117 122 125 105 110 113 89 94 97 73 78 81 63 68 71 57 65 68 54 62 65 49 57 60 43 51 54 36 44 47 30 38 41 25 33 36 22 30 33 10 18 21 10 18 21 10 18 21 10 18 21 10 18 21 10 18 21 10 18 21 10 18 21 4 12 14 6 14 16 8 16 18 11 19 21 15 23 25 18 26 28 20 28 30 22 30 32 25 33 35 25 33 35 25 33 35 25 33 35 25 33 35 25 33 35 25 33 35 25 34 33 31 35 36 31 35 34 31 35 34 31 35 34 31 35 34 31 35 34 31 35 34 31 35 34 39 43 42 39 43 42 39 43 42 39 43 42 39 43 42 39 43 42 39 43 42 41 43 42 33 29 28 34 28 28 34 28 28 34 28 28 34 28 28 34 28 28 34 28 28 34 28 28 36 30 30 36 30 30 36 30 30 36 30 30 36 30 30 36 30 30 36 30 30 36 30 30 37 32 29 37 32 29 37 32 29 37 32 29 37 32 29 37 32 29 37 32 29 37 32 29 38 33 30 38 33 30 38 33 30 38 33 30 38 33 30 38 33 30 38 33 30 38 33 30
3 3 11 3 3 11 3 3 11 3 3 11 2 2 10 2 2 10 2 2 10 2 2 10 2 2 10 2 2 10 2 2 10 2 2 10 2 2 12 2 2 12 2 2 12 2 2 12 2 2 12 2 2 12 2 2 12 2 2 12 4 4 14 4 4 14 4 4 14 4 4 14 4 4 14 4 4 14 4 4 14 2 5 14 4 7 16 3 7 16 3 7 16 3 7 16 3 7 16 3 7 16 3 7 16 3 7 16 4 8 17 4 8 17 4 8 17 4 8 17 4 8 17 4 8 17 4 8 17 4 8 17 6 10 19 6 10 19 6 10 19 6 10 19 6 10 19 6 10 19 6 10 19 6 10 19 9 13 22 9 13 22 9 13 22 9 13 22 9 13 22 9 13 22 9 13 22 7 14 20 11 19 22 10 20 21 9 19 20 9 19 20 8 18 19 7 17 18 7 17 18 7 17 18 3 13 14 9 19 20 19 29 30 32 42 43 47 57 58 60 70 71 70 80 81 76 86 87 129 134 137 129 134 137 129 134 137 129 134 137 129 134 137 129 134 137 129 134 137 129 134 137 127 132 135 128 133 136 128 133 136 124 129 132 113 118 121 97 102 105 81 86 89 71 76 79 58 66 69 55 63 66 50 58 61 44 52 55 37 45 48 31 39 42 26 34 37 23 31 34 10 18 21 10 18 21 10 18 21 10 18 21 10 18 21 10 18 21 10 18 21 10 18 21 4 12 14 6 14 16 8 16 18 11 19 21 15 23 25 18 26 28 20 28 30 22 30 32 25 33 35 25 33 35 25 33 35 25 33 35 25 33 35 25 33 35 25 33 35 25 34 33 31 35 36 31 35 34 31 35 34 31 35 34 31 35 34 31 35 34 31 35 34 31 35 34 37 41 40 37 41 40 37 41 40 37 41 40 37 41 40 37 41 40 37 41 40 39 41 40 33 29 28 34 28 28 34 28 28 34 28 28 34 28 28 34 28 28 34 28 28 34 28 28 36 30 30 36 30 30 36 30 30 36 30 30 36 30 30 36 30 30 36 30 30 36 30 30 37 32 29 37 32 29 37 32 29 37 32 29 37 32 29 37 32 29 37 32 29 37 32 29 38 33 30 38 33 30 38 33 30 38 33 30 38 33 30 38 33 30 38 33 30 38 33 30
3 3 11 3 3 11 3 3 11 3 3 11 2 2 10 2 2 10 2 2 10 2 2 10 2 2 10 2 2 10 2 2 10 2 2 10 2 2 12 2 2 12 2 2 12 2 2 12 2 2 12 2 2 12 2 2 12 2 2 12 4 4 14 4 4 14 4 4 14 4 4 14 4 4 14 4 4 14 4 4 14 2 5 14 4 7 16 3 7 16 3 7 16 3 7 16 3 7 16 3 7 16 3 7 16 3 7 16 4 8 17 4 8 17 4 8 17 4 8 17 4 8 17 4 8 17 4 8 17 4 8 17 6 10 19 6 10 19 6 10 19 6 10 19 6 10 19 6 10 19 6 10 19 6 10 19 9 13 22 9 13 22 9 13 22 9 13 22 9 13 22 9 13 22 9 13 22 7 14 20 4 12 15 4 14 15 4 14 15 5 15 16 6 16 17 6 16 17 7 17 18 7 17 18 25 35 36 30 40 41 39 49 50 51 61 62 64 74 75 76 86 87 85 95 96 90 100 101 129 134 137 129 134 137 129 134 137 129 134 137 129 134 137 129 134 137 129 134 137 129 134 137 134 139 142 136 141 144 137 142 145 134 139 142 124 129 132 109 114 117 95 100 103 85 90 93 60 68 71 58 66 69 53 61 64 47 55 58 40 48 51 33 41 44 28 36 39 26 34 37 10 18 21 10 18 21 10 18 21 10 18 21 10 18 21 10 18 21 10 18 21 10 18 21 4 12 14 6 14 16 8 16 18 11 19 21 15 23 25 18 26 28 20 28 30 22 30 32 25 33 35 25 33 35 25 33 35 25 33 35 25 33 35 25 33 35 25 33 35 25 34 33 31 35 36 31 35 34 31 35 34 31 35 34 31 35 34 31 35 34 31 35 34 31 35 34 35 39 38 35 39 38 35 39 38 35 39 38 35 39 38 35 39 38 35 39 38 37 39 38 33 29 28 34 28 28 34 28 28 34 28 28 34 28 28 34 28 28 34 28 28 34 28 28 36 30 30 36 30 30 36 30 30 36 30 30 36 30 30 36 30 30 36 30 30 36 30 30 37 32 29 37 32 29 37 32 29 37 32 29 37 32 29 37 32 29 37 32 29 37 32 29 38 33 30 38 33 30 38 33 30 38 33 30 38 33 30 38 33 30 38 33 30 38 33 30
3 3 11 3 3 11 3 3 11 3 3 11 2 2 10 2 2 10 2 2 10 2 2 10 2 2 10 2 2 10 2 2 10 2 2 10 2 2 12 2 2 12 2 2 12 2 2 12 2 2 12 2 2 12 2 2 12 2 2 12 4 4 14 4 4 14 4 4 14 4 4 14 4 4 14 4 4 14 4 4 14 2 5 14 4 7 16 3 7 16 3 7 16 3 7 16 3 7 16 3 7 16 3 7 16 3 7 16 4 8 17 4 8 17 4 8 17 4 8 17 4 8 17 4 8 17 4 8 17 4 8 17 6 10 19 6 10 19 6 10 19 6 10 19 6 10 19 6 10 19 6 10 19 6 10 19 9 13 22 9 13 22 9 13 22 9 13 22 9 13 22 9 13 22 9 13 22 7 14 20 1 9 12 1 11 12 2 12 13 5 15 16 7 17 18 9 19 20 11 21 22 12 22 23 47 57 58 52 62 63 60 70 71 70 80 81 81 91 92 92 102 103 100 110 111 104 114 115 129 134 137 129 134 137 129 134 137 129 134 137 129 134 137 129 134 137 129 134 137 129 134 137 138 143 146 141 146 149 143 148 151 141 146 149 134 139 142 121 126 129 107 112 115 99 104 107 64 72 75 61 69 72 56 64 67 50 58 61 43 51 54 36 44 47 32 40 43 29 37 40 10 18 21 10 18 21 10 18 21 10 18 21 10 18 21 10 18 21 10 18 21 10 18 21 4 12 14 6 14 16 8 16 18 11 19 21 15 23 25 18 26 28 20 28 30 22 30 32 25 33 35 25 33 35 25 33 35 25 33 35 25 33 35 25 33 35 25 33 35 25 34 33 31 35 36 31 35 34 31 35 34 31 35 34 31 35 34 31 35 34 31 35 34 31 35 34 32 36 35 32 36 35 32 36 35 32 36 35 32 36 35 32 36 35 32 36 35 34 36 35 33 29 28 34 28 28 34 28 28 34 28 28 34 28 28 34 28 28 34 28 28 34 28 28 36 30 30 36 30 30 36 30 30 36 30 30 36 30 30 36 30 30 36 30 30 36 30 30 37 32 29 37 32 29 37 32 29 37 32 29 37 32 29 37 32 29 37 32 29 37 32 29 38 33 30 38 33 30 38 33 30 38 33 30 38 33 30 38 33 30 38 33 30 38 33 30
3 3 11 3 3 11 3 3 11 3 3 11 2 2 10 2 2 10 2 2 10 2 2 10 2 2 10 2 2 10 2 2 10 2 2 10 2 2 12 2 2 12 2 2 12 2 2 12 2 2 12 2 2 12 2 2 12 2 2 12 4 4 14 4 4 14 4 4 14 4 4 14 4 4 14 4 4 14 4 4 14 2 5 14 4 7 16 3 7 16 3 7 16 3 7 16 3 7 16 3 7 16 3 7 16 3 7 16 4 8 17 4 8 17 4 8 17 4 8 17 4 8 17 4 8 17 4 8 17 4 8 17 6 10 19 6 10 19 6 10 19 6 10 19 6 10 19 6 10 19 6 10 19 6 10 19 9 13 22 9 13 22 9 13 22 9 13 22 9 13 22 9 13 22 9 13 22 7 14 20 3 11 14 3 13 14 7 17 18 11 21 22 15 25 26 19 29 30 22 32 33 24 34 35 66 76 77 70 80 81 76 86 87 85 95 96 94 104 105 103 113 114 110 120 121 113 123 124 129 134 137 129 134 137 129 134 137 129 134 137 129 134 137 129 134 137 129 134 137 129 134 137 137 142 145 140 145 148 144 149 152 144 149 152 138 143 146 127 132 135 115 120 123 107 112 115 67 75 78 64 72 75 60 68 71 53 61 64 46 54 57 40 48 51 35 43 46 32 40 43 10 18 21 10 18 21 10 18 21 10 18 21 10 18 21 10 18 21 10 18 21 10 18 21 4 12 14 6 14 16 8 16 18 11 19 21 15 23 25 18 26 28 20 28 30 22 30 32 25 33 35 25 33 35 25 33 35 25 33 35 25 33 35 25 33 35 25 33 35 25 34 33 31 35 36 31 35 34 31 35 34 31 35 34 31 35 34 31 35 34 31 35 34 31 35 34 28 32 31 28 32 31 28 32 31 28 32 31 28 32 31 28 32 31 28 32 31 30 32 31 33 29 28 34 28 28 34 28 28 34 28 28 34 28 28 34 28 28 34 28 28 34 28 28 36 30 30 36 30 30 36 30 30 36 30 30 36 30 30 36 30 30 36 30 30 36 30 30 37 32 29 37 32 29 37 32 29 37 32 29 37 32 29 37 32 29 37 32 29 37 32 29 38 33 30 38 33 30 38 33 30 38 33 30 38 33 30 38 33 30 38 33 30 38 33 30
3 3 11 3 3 11 3 3 11 3 3 11 2 2 10 2 2 10 2 2 10 2 2 10 2 2 10 2 2 10 2 2 10 2 2 10 2 2 12 2 2 12 2 2 12 2 2 12 2 2 12 2 2 12 2 2 12 2 2 12 4 4 14 4 4 14 4 4 14 4 4 14 4 4 14 4 4 14 4 4 14 2 5 14 4 7 16 3 7 16 3 7 16 3 7 16 3 7 16 3 7 16 3 7 16 3 7 16 4 8 17 4 8 17 4 8 17 4 8 17 4 8 17 4 8 17 4 8 17 4 8 17 6 10 19 6 10 19 6 10 19 6 10 19 6 10 19 6 10 19 6 10 19 6 10 19 9 13 22 9 13 22 9 13 22 9 13 22 9 13 22 9 13 22 9 13 22 7 14 20 10 18 21 12 22 23 16 26 27 22 32 33 28 38 39 34 44 45 38 48 49 40 50 51 77 87 88 80 90 91 86 96 97 93 103 104 100 110 111 108 118 119 113 123 124 116 126 127 129 134 137 129 134 137 129 134 137 129 134 137 129 134 137 129 134 137 129 134 137 129 134 137 130 135 138 134 139 142 139 144 147 141 146 149 136 141 144 127 132 135 116 121 124 109 114 117 70 78 81 68 76 79 63 71 74 56 64 67 49 57 60 43 51 54 38 46 49 36 44 47 10 18 21 10 18 21 10 18 21 10 18 21 10 18 21 10 18 21 10 18 21 10 18 21 4 12 14 6 14 16 8 16 18 11 19 21 15 23 25 18 26 28 20 28 30 22 30 32 25 33 35 25 33 35 25 33 35 25 33 35 25 33 35 25 33 35 25 33 35 25 34 33 31 35 36 31 35 34 31 35 34 31 35 34 31 35 34 31 35 34 31 35 34 31 35 34 25 29 28 25 29 28 25 29 28 25 29 28 25 29 28 25 29 28 25 29 28 27 29 28 33 29 28 34 28 28 34 28 28 34 28 28 34 28 28 34 28 28 34 28 28 34 28 28 36 30 30 36 30 30 36 30 30 36 30 30 36 30 30 36 30 30 36 30 30 36 30 30 37 32 29 37 32 29 37 32 29 37 32 29 37 32 29 37 32 29 37 32 29 37 32 29 38 33 30 38 33 30 38 33 30 38 33 30 38 33 30 38 33 30 38 33 30 38 33 30
3 3 11 3 3 11 3 3 11 3 3 11 2 2 10 2 2 10 2 2 10 2 2 10 2 2 10 2 2 10 2 2 10 2 2 10 2 2 12 2 2 12 2 2 12 2 2 12 2 2 12 2 2 12 2 2 12 2 2 12 4 4 14 4 4 14 4 4 14 4 4 14 4 4 14 4 4 14 4 4 14 2 5 14 4 7 16 3 7 16 3 7 16 3 7 16 3 7 16 3 7 16 3 7 16 3 7 16 4 8 17 4 8 17 4 8 17 4 8 17 4 8 17 4 8 17 4 8 17 4 8 17 6 10 19 6 10 19 6 10 19 6 10 19 6 10 19 6 10 19 6 10 19 6 10 19 9 13 22 9 13 22 9 13 22 9 13 22 9 13 22 9 13 22 9 13 22 7 14 20 20 28 31 22 32 33 27 37 38 34 44 45 41 51 52 48 58 59 54 64 65 57 67 68 83 93 94 85 95 96 89 99 100 95 105 106 102 112 113 107 117 118 112 122 123 114 124 125 129 134 137 129 134 137 129 134 137 129 134 137 129 134 137 129 134 137 129 134 137 129 134 137 121 126 129 125 130 133 131 136 139 134 139 142 132 137 140 123 128 131 113 118 121 107 112 115 73 81 84 70 78 81 65 73 76 59 67 70 52 60 63 46 54 57 41 49 52 38 46 49 10 18 21 10 18 21 10 18 21 10 18 21 10 18 21 10 18 21 10 18 21 10 18 21 4 12 14 6 14 16 8 16 18 11 19 21 15 23 25 18 26 28 20 28 30 22 30 32 25 33 35 25 33 35 25 33 35 25 33 35 25 33 35 25 33 35 25 33 35 25 34 33 31 35 36 31 35 34 31 35 34 31 35 34 31 35 34 31 35 34 31 35 34 31 35 34 23 27 26 23 27 26 23 27 26 23 27 26 23 27 26 23 27 26 23 27 26 25 27 26 33 29 28 34 28 28 34 28 28 34 28 28 34 28 28 34 28 28 34 28 28 34 28 28 36 30 30 36 30 30 36 30 30 36 30 30 36 30 30 36 30 30 36 30 30 36 30 30 37 32 29 37 32 29 37 32 29 37 32 29 37 32 29 37 32 29 37 32 29 37 32 29 38 33 30 38 33 30 38 33 30 38 33 30 38 33 30 38 33 30 38 33 30 38 33 30
3 3 11 3 3 11 3 3 11 3 3 11 2 2 10 2 2 10 2 2 10 2 2 10 2 2 10 2 2 10 2 2 10 2 2 10 2 2 10 2 2 10 2 2 10 2 2 10 2 2 10 2 2 10 2 2 10 2 2 10 4 4 12 4 4 12 4 4 12 4 4 12 4 4 12 4 4 12 4 4 12 4 4 12 3 8 14 3 8 14 3 7 16 3 8 14 3 7 16 3 8 14 3 7 16 3 8 14 4 8 17 4 9 15 4 8 17 4 9 15 4 8 17 4 9 15 4 8 17 4 9 15 6 10 19 4 11 17 6 10 19 4 11 17 6 10 19 4 11 17 6 10 19 4 11 17 9 13 22 7 14 20 9 13 22 7 14 20 9 13 22 7 14 20 9 13 22 7 14 20 26 34 37 28 38 39 35 43 45 42 52 53 51 59 61 58 68 69 64 72 74 67 77 78 85 93 95 86 96 97 91 99 101 95 105 106 102 110 112 106 116 117 111 119 121 113 121 123 129 134 137 129 135 135 129 134 137 129 135 135 129 134 137 129 135 135 129 134 137 129 135 135 115 120 123 120 126 126 126 131 134 130 136 136 128 133 136 120 126 126 111 116 119 104 109 112 74 82 84 71 79 82 66 74 77 60 68 71 53 61 64 47 55 58 42 50 53 39 47 50 10 18 21 10 18 21 10 18 21 10 18 21 10 18 21 10 18 21 10 18 21 10 18 21 4 12 14 6 14 16 8 16 18 11 19 21 15 23 25 18 26 28 20 28 30 22 30 32 25 33 35 25 33 35 25 33 35 25 33 35 25 33 35 25 33 35 25 33 35 25 33 35 30 36 36 31 35 34 31 35 36 31 35 34 31 35 36 31 35 34 31 35 36 31 35 34 21 25 26 21 25 24 21 25 26 21 25 24 21 25 26 21 25 24 21 25 26 23 25 24 33 29 28 34 29 26 34 28 28 34 29 26 34 28 28 34 29 26 34 28 28 34 29 26 36 30 30 36 31 28 36 30 30 36 31 28 36 30 30 36 31 28 36 30 30 36 31 28 37 32 29 37 32 28 37 32 29 37 32 28 37 32 29 37 32 28 37 32 29 37 32 28 38 33 30 38 33 29 38 33 30 38 33 29 38 33 30 38 33 29 38 33 30 38 33 30
2 1 7 2 1 7 2 1 7 2 1 7 2 1 7 2 1 7 2 1 7 2 1 7 2 1 7 2 1 7 2 1 7 2 1 7 3 2 8 3 2 8 3 2 8 3 2 8 3 2 8 3 2 8 3 2 8 3 2 8 3 2 8 3 2 8 3 2 8 3 2 8 3 2 8 3 2 8 3 2 8 2 3 8 4 9 13 2 10 13 2 9 15 2 10 13 2 9 15 2 10 13 2 9 15 2 10 13 4 11 17 4 12 15 4 11 17 4 12 15 4 11 17 4 12 15 4 11 17 4 12 15 12 19 25 10 20 22 10 17 23 8 18 20 8 15 21 5 15 17 6 13 19 4 14 16 8 15 21 9 19 21 12 19 25 14 24 26 19 26 32 21 31 33 24 31 37 26 34 37 59 67 69 60 68 70 64 69 72 66 74 76 71 76 79 72 80 82 77 82 85 76 84 86 101 106 109 101 109 111 105 110 113 106 114 116 112 117 120 113 121 123 117 122 125 119 124 127 135 141 141 136 140 139 136 140 141 136 140 139 136 140 141 136 140 139 136 140 141 136 140 139 125 129 130 123 127 126 121 125 126 118 122 121 114 118 119 111 115 114 109 113 114 106 112 112 79 87 89 74 84 85 67 77 78 57 67 68 47 57 58 37 47 48 30 40 41 26 36 37 10 20 21 10 20 21 10 20 21 10 20 21 10 20 21 10 20 21 10 20 21 10 20 21 14 24 26 14 24 26 14 24 26 14 24 26 14 24 26 14 24 26 14 24 26 14 24 26 25 35 37 25 35 37 25 35 37 25 35 37 25 35 37 25 35 37 25 35 37 26 34 36 30 35 38 30 36 36 30 35 38 30 36 36 30 35 38 30 36 36 30 35 38 30 36 36 21 26 29 21 27 27 21 26 29 21 27 27 21 26 29 21 27 27 21 26 29 24 26 25 34 30 29 37 29 26 37 29 27 37 29 26 37 29 27 37 29 26 37 29 27 37 29 26 38 30 28 38 30 27 38 30 28 38 30 27 38 30 28 38 30 27 38 30 28 38 30 27 37 32 28 37 32 26 37 32 28 37 32 26 37 32 28 37 32 26 37 32 28 37 32 26 37 32 28 37 32 26 37 32 28 37 32 26 37 32 28 37 32 26 37 32 28 37 32 28
2 1 7 2 1 7 2 1 7 2 1 7 2 1 7 2 1 7 2 1 7 2 1 7 2 1 7 2 1 7 2 1 7 2 1 7 3 2 7 3 2 7 3 2 7 3 2 7 3 2 7 3 2 7 3 2 7 3 2 7 3 2 7 3 2 7 3 2 7 3 2 7 3 2 7 3 2 7 3 2 7 2 3 7 4 9 13 2 10 13 2 10 13 2 10 13 2 10 13 2 10 13 2 10 13 2 10 13 4 12 15 4 12 15 4 12 15 4 12 15 4 12 15 4 12 15 4 12 15 4 12 15 10 20 22 10 20 22 10 20 22 9 19 21 8 18 20 8 18 20 7 17 19 7 17 19 11 21 23 13 23 25 15 25 27 18 28 30 22 32 34 25 35 37 27 37 39 29 39 41 62 67 70 63 68 71 66 71 74 69 74 77 72 77 80 76 81 84 78 83 86 79 84 87 101 106 109 103 108 111 105 110 113 108 113 116 112 117 120 115 120 123 117 122 125 119 125 125 134 138 139 134 138 137 134 138 137 134 138 137 134 138 137 134 138 137 134 138 137 134 138 137 125 129 128 123 127 126 121 125 124 118 122 121 114 118 117 111 115 114 109 113 112 106 112 110 79 87 89 74 84 85 67 77 78 57 67 68 47 57 58 37 47 48 30 40 41 26 36 37 10 20 21 10 20 21 10 20 21 10 20 21 10 20 21 10 20 21 10 20 21 10 20 21 14 24 26 14 24 26 14 24 26 14 24 26 14 24 26 14 24 26 14 24 26 14 24 26 23 33 35 23 33 35 23 33 35 23 33 35 23 33 35 23 33 35 23 33 35 23 33 35 28 33 36 28 33 36 28 33 36 28 33 36 28 33 36 28 33 36 28 33 36 28 33 36 21 26 29 21 26 29 21 26 29 21 26 29 21 26 29 21 26 29 21 26 29 24 25 27 34 30 27 37 29 26 37 29 26 37 29 26 37 29 26 37 29 26 37 29 26 37 29 26 38 30 27 38 30 27 38 30 27 38 30 27 38 30 27 38 30 27 38 30 27 38 30 27 37 32 26 37 32 26 37 32 26 37 32 26 37 32 26 37 32 26 37 32 26 37 32 26 37 32 26 37 32 26 37 32 26 37 32 26 37 32 26 37 32 26 37 32 26 37 32 26
2 1 7 2 1 7 2 1 7 2 1 7 2 1 7 2 1 7 2 1 7 2 1 7 2 1 7 2 1 7 2 1 7 2 1 7 3 2 7 3 2 7 3 2 7 3 2 7 3 2 7 3 2 7 3 2 7 3 2 7 3 2 7 3 2 7 3 2 7 3 2 7 3 2 7 3 2 7 3 2 7 2 3 7 4 9 13 2 10 13 2 10 13 2 10 13 2 10 13 2 10 13 2 10 13 2 10 13 4 12 15 4 12 15 4 12 15 4 12 15 4 12 15 4 12 15 4 12 15 4 12 15 9 19 21 10 20 22 10 20 22 11 21 23 11 21 23 12 22 24 13 23 25 13 23 25 19 29 31 20 30 32 22 32 34 26 36 38 29 39 41 32 42 44 35 45 47 36 46 48 64 69 72 66 71 74 68 73 76 71 76 79 75 80 83 78 83 86 80 85 88 82 87 90 101 106 109 103 108 111 105 110 113 108 113 116 112 117 120 115 120 123 117 122 125 119 125 125 132 136 137 132 136 135 132 136 135 132 136 135 132 136 135 132 136 135 132 136 135 132 136 135 125 129 128 123 127 126 121 125 124 118 122 121 114 118 117 111 115 114 109 113 112 106 112 110 79 87 89 74 84 85 67 77 78 57 67 68 47 57 58 37 47 48 30 40 41 26 36 37 10 20 21 10 20 21 10 20 21 10 20 21 10 20 21 10 20 21 10 20 21 10 20 21 14 24 26 14 24 26 14 24 26 14 24 26 14 24 26 14 24 26 14 24 26 14 24 26 21 31 33 21 31 33 21 31 33 21 31 33 21 31 33 21 31 33 21 31 33 21 31 33 26 31 34 26 31 34 26 31 34 26 31 34 26 31 34 26 31 34 26 31 34 26 31 34 21 26 29 21 26 29 21 26 29 21 26 29 21 26 29 21 26 29 21 26 29 24 25 27 34 30 27 37 29 26 37 29 26 37 29 26 37 29 26 37 29 26 37 29 26 37 29 26 38 30 27 38 30 27 38 30 27 38 30 27 38 30 27 38 30 27 38 30 27 38 30 27 37 32 26 37 32 26 37 32 26 37 32 26 37 32 26 37 32 26 37 32 26 37 32 26 37 32 26 37 32 26 37 32 26 37 32 26 37 32 26 37 32 26 37 32 26 37 32 26
