P3
172 37
255
0 0 2 0 0 2 0 0 2 0 0 2 0 0 2 0 0 2 0 0 2 0 0 2 0 0 2 0 0 2 0 0 2 0 0 2 0 0 2 0 0 2 0 0 2 0 0 2 0 0 2 0 0 2 0 0 2 0 0 2 0 0 2 0 0 2 0 0 2 0 0 2 0 0 2 0 0 2 0 0 2 0 0 2 1 1 3 1 1 3 1 1 3 1 1 3 1 1 3 1 1 3 1 1 3 1 1 3 1 1 3 1 1 3 1 1 3 1 1 3 1 1 3 1 1 3 1 1 3 1 1 3 1 0 5 1 0 5 1 0 5 1 0 5 1 0 5 1 0 5 1 0 5 1 0 5 2 1 6 2 1 6 2 1 6 2 1 6 2 1 6 2 1 6 2 1 6 2 1 6 2 2 4 2 2 4 2 2 4 2 2 4 2 2 4 2 2 4 2 2 4 2 2 4 0 0 2 0 0 2 0 0 2 3 3 5 7 7 9 10 10 12 12 12 14 15 13 16 62 50 60 73 60 70 88 75 85 103 90 100 114 101 111 118 105 115 117 104 114 115 102 112 103 90 100 74 61 71 39 26 36 20 7 17 20 7 17 24 11 21 20 7 17 12 2 11 7 5 10 5 6 10 5 6 10 5 6 10 5 6 10 5 6 10 5 6 10 5 6 10 11 12 16 11 12 16 11 12 16 11 12 16 11 12 16 11 12 16 11 12 16 12 11 16 30 25 29 32 26 30 34 28 32 38 32 36 41 35 39 44 38 42 47 41 45 48 42 46 47 41 45 55 49 53 68 62 66 80 74 78 87 81 85 88 82 86 85 79 83 84 75 80 81 69 73 88 73 78 95 80 85 106 91 96 116 101 106 127 112 117 134 119 124 139 124 129 143 128 133 145 130 135 147 132 137 150 135 140 154 139 144 157 142 147 159 144 149 159 147 151 140 128 130 139 129 130 139 129 130 139 129 130 139 129 130 139 129 130 139 129 130 139 129 130 134 124 125 133 123 124 129 119 120 119 109 110 101 91 92 80 70 71 60 50 51 46 37 38 48 42 44 47 43 44 47 43 44 47 43 44 47 43 44 47 43 44 47 43 44 47 43 44 46 42 43 46 42 43 46 42 43 46 42 43 46 42 43 46 42 43 46 42 43 46 42 43
0 0 2 0 0 2 0 0 2 0 0 2 0 0 2 0 0 2 0 0 2 0 0 2 0 0 2 0 0 2 0 0 2 0 0 2 0 0 2 0 0 2 0 0 2 0 0 2 0 0 2 0 0 2 0 0 2 0 0 2 0 0 2 0 0 2 0 0 2 0 0 2 0 0 2 0 0 2 0 0 2 0 0 2 1 1 3 1 1 3 1 1 3 1 1 3 1 1 3 1 1 3 1 1 3 1 1 3 1 1 3 1 1 3 1 1 3 1 1 3 1 1 3 1 1 3 1 1 3 1 1 3 1 0 5 1 0 5 1 0 5 1 0 5 1 0 5 1 0 5 1 0 5 1 0 5 2 1 6 2 1 6 2 1 6 2 1 6 2 1 6 2 1 6 2 1 6 2 1 6 3 1 4 3 1 4 3 1 4 3 1 4 3 1 4 3 1 4 3 1 4 3 1 4 1 0 2 1 0 2 1 0 2 4 2 5 8 6 9 11 9 12 13 11 14 17 12 18 62 50 60 73 59 72 90 74 87 103 89 102 116 100 113 118 104 117 119 103 116 115 101 114 107 91 104 76 62 75 43 27 40 22 8 21 23 7 20 25 11 24 24 8 21 14 2 12 10 3 11 9 4 10 9 4 11 7 5 10 7 4 11 6 5 10 6 5 11 5 6 10 11 12 17 9 13 16 9 12 17 8 13 16 8 13 17 6 14 16 6 14 17 9 13 16 31 26 32 35 26 31 38 29 34 41 32 37 44 35 40 48 39 44 50 41 46 51 42 47 49 40 45 57 48 53 70 61 66 82 73 78 89 80 85 90 81 86 87 78 83 85 74 80 82 67 74 87 70 76 95 78 86 106 89 95 118 101 109 129 112 118 137 120 128 141 124 130 144 127 135 146 129 135 148 131 139 151 134 140 155 138 146 158 141 147 160 143 151 161 146 151 138 126 130 138 126 128 138 126 130 138 126 128 138 126 130 138 126 128 138 126 130 138 126 128 132 120 124 131 119 121 127 115 119 117 105 107 100 88 92 78 66 68 58 46 50 45 34 38 48 42 44 47 43 44 47 43 44 47 43 44 47 43 44 47 43 44 47 43 44 47 43 44 46 42 43 46 42 43 46 42 43 46 42 43 46 42 43 46 42 43 46 42 43 46 42 43
0 0 0 0 0 0 0 0 0 0 0 0 0 0 0 0 0 0 0 0 0 0 0 0 0 0 0 0 0 0 0 0 0 0 0 0 0 0 0 0 0 0 0 0 0 0 0 0 0 0 0 0 0 0 0 0 0 0 0 0 0 0 0 0 0 0 0 0 0 0 0 0 0 0 0 0 0 0 0 0 0 0 0 0 0 0 2 0 0 2 0 0 2 0 0 2 0 0 2 0 0 2 0 0 2 0 0 2 1 1 3 1 1 3 1 1 3 1 1 3 1 1 3 1 1 3 1 1 3 1 1 3 2 1 6 2 1 6 2 1 6 2 1 6 2 1 6 2 1 6 2 1 6 2 1 6 2 1 6 2 1 6 2 1 6 2 1 6 2 1 6 2 1 6 2 1 6 3 1 6 4 0 5 4 0 5 4 0 5 4 0 5 4 0 5 4 0 5 4 0 5 4 0 5 5 0 6 5 0 6 5 0 6 5 0 6 5 0 6 5 0 6 5 0 6 8 0 7 55 41 54 68 51 67 86 68 84 104 87 103 119 101 117 125 108 124 127 109 125 126 109 125 103 85 101 95 78 94 82 64 80 62 45 61 43 25 41 24 7 23 11 0 9 11 0 9 15 0 11 17 0 11 18 2 15 19 6 16 22 10 22 22 15 23 21 18 27 22 21 27 0 3 10 2 7 11 5 14 19 9 23 24 16 31 34 22 40 40 27 47 48 36 47 49 47 45 50 53 42 50 53 42 50 53 42 50 53 42 50 53 42 50 53 42 50 53 42 50 46 35 43 50 39 47 57 46 54 67 56 64 77 66 74 87 76 84 94 83 91 99 86 95 115 98 108 119 99 108 124 104 115 131 111 120 137 117 128 144 124 133 149 129 140 151 131 140 157 137 148 157 137 146 157 137 148 157 137 146 157 137 148 157 137 146 157 137 148 157 137 146 146 129 137 144 129 134 142 127 134 138 123 128 135 120 127 132 117 122 129 114 121 128 113 118 134 119 126 123 108 113 105 90 97 87 72 77 73 58 65 66 51 56 64 49 56 63 51 55 44 38 40 43 39 40 43 39 40 43 39 40 43 39 40 43 39 40 43 39 40 43 39 40 42 38 39 42 38 39 42 38 39 42 38 39 42 38 39 42 38 39 42 38 39 42 38 39
0 0 0 0 0 0 0 0 0 0 0 0 0 0 0 0 0 0 0 0 0 0 0 0 0 0 0 0 0 0 0 0 0 0 0 0 0 0 0 0 0 0 0 0 0 0 0 0 0 0 0 0 0 0 0 0 0 0 0 0 0 0 0 0 0 0 0 0 0 0 0 0 0 0 0 0 0 0 0 0 0 0 0 0 0 0 2 0 0 2 0 0 2 0 0 2 0 0 2 0 0 2 0 0 2 0 0 2 1 1 3 1 1 3 1 1 3 1 1 3 1 1 3 1 1 3 1 1 3 1 1 3 2 1 6 2 1 6 2 1 6 2 1 6 2 1 6 2 1 6 2 1 6 2 1 6 2 1 6 2 1 6 2 1 6 2 1 6 2 1 6 2 1 6 2 1 6 3 1 6 4 0 5 5 0 5 5 0 5 5 0 5 5 0 5 5 0 5 5 0 5 5 0 5 6 0 6 6 0 6 6 0 6 6 0 6 6 0 6 6 0 6 6 0 6 8 0 7 51 37 52 64 47 65 82 63 82 100 83 101 115 96 115 121 104 122 123 104 123 122 105 123 105 86 105 97 80 98 85 66 85 67 50 68 50 31 50 32 15 33 20 1 20 13 0 11 22 0 17 24 1 17 25 4 19 26 8 22 29 13 26 29 17 29 27 21 31 26 25 33 11 14 21 11 18 24 12 26 29 16 34 36 23 43 44 29 50 51 32 56 56 41 57 57 47 44 51 54 41 50 54 41 50 54 41 50 54 41 50 54 41 50 54 41 50 54 41 50 43 30 39 47 34 43 54 41 50 63 50 59 74 61 70 83 70 79 91 78 87 97 81 91 117 97 108 120 98 110 125 103 115 132 110 122 138 116 128 145 123 135 150 128 140 152 130 142 156 134 146 156 134 146 156 134 146 156 134 146 156 134 146 156 134 146 156 134 146 155 135 146 147 127 136 144 127 135 141 124 132 138 121 129 135 118 126 131 114 122 129 112 120 128 111 119 134 117 125 123 106 114 105 88 96 87 70 78 73 56 64 66 49 57 64 47 55 61 48 55 46 37 40 43 39 40 43 39 40 43 39 40 43 39 40 43 39 40 43 39 40 43 39 40 42 38 39 42 38 39 42 38 39 42 38 39 42 38 39 42 38 39 42 38 39 42 38 39
0 0 0 0 0 0 0 0 0 0 0 0 0 0 0 0 0 0 0 0 0 0 0 0 0 0 0 0 0 0 0 0 0 0 0 0 0 0 0 0 0 0 0 0 0 0 0 0 0 0 0 0 0 0 0 0 0 0 0 0 0 0 0 0 0 0 0 0 0 0 0 0 0 0 0 0 0 0 0 0 0 0 0 0 0 0 2 0 0 2 0 0 2 0 0 2 0 0 2 0 0 2 0 0 2 0 0 2 1 1 3 1 1 3 1 1 3 1 1 3 1 1 3 1 1 3 1 1 3 1 1 3 2 1 6 2 1 6 2 1 6 2 1 6 2 1 6 2 1 6 2 1 6 2 1 6 2 1 6 2 1 6 2 1 6 2 1 6 2 1 6 2 1 6 2 1 6 3 1 6 4 0 5 5 0 5 5 0 5 5 0 5 5 0 5 5 0 5 5 0 5 5 0 5 6 0 6 6 0 6 6 0 6 6 0 6 6 0 6 6 0 6 6 0 6 8 0 7 43 29 44 54 40 57 74 57 75 90 76 93 106 89 107 111 97 114 115 98 116 113 99 116 106 89 107 98 84 101 88 71 89 72 58 75 58 41 59 42 28 45 32 15 33 26 9 25 29 8 25 30 9 24 32 11 26 33 17 30 34 20 33 35 25 36 35 29 39 33 32 40 30 33 40 29 36 42 31 42 46 34 49 52 38 56 58 42 63 64 46 67 68 54 68 69 49 44 51 54 41 50 54 41 50 54 41 50 54 41 50 54 41 50 54 41 50 54 41 50 37 24 33 41 28 37 48 35 44 58 45 54 68 55 64 78 65 74 85 72 81 91 75 85 117 97 108 120 98 110 125 103 115 132 110 122 138 116 128 145 123 135 150 128 140 152 130 142 154 132 144 154 132 144 154 132 144 154 132 144 154 132 144 154 132 144 154 132 144 153 133 144 145 125 134 141 124 132 139 122 130 136 119 127 132 115 123 129 112 120 127 110 118 125 108 116 131 114 122 120 103 111 103 86 94 84 67 75 70 53 61 63 46 54 61 44 52 59 46 53 46 37 40 43 39 40 43 39 40 43 39 40 43 39 40 43 39 40 43 39 40 43 39 40 42 38 39 42 38 39 42 38 39 42 38 39 42 38 39 42 38 39 42 38 39 42 38 39
0 0 0 0 0 0 0 0 0 0 0 0 0 0 0 0 0 0 0 0 0 0 0 0 0 0 0 0 0 0 0 0 0 0 0 0 0 0 0 0 0 0 0 0 0 0 0 0 0 0 0 0 0 0 0 0 0 0 0 0 0 0 0 0 0 0 0 0 0 0 0 0 0 0 0 0 0 0 0 0 0 0 0 0 0 0 2 0 0 2 0 0 2 0 0 2 0 0 2 0 0 2 0 0 2 0 0 2 1 1 3 1 1 3 1 1 3 1 1 3 1 1 3 1 1 3 1 1 3 1 1 3 2 1 6 2 1 6 2 1 6 2 1 6 2 1 6 2 1 6 2 1 6 2 1 6 2 1 6 2 1 6 2 1 6 2 1 6 2 1 6 2 1 6 2 1 6 3 1 6 4 0 5 5 0 5 5 0 5 5 0 5 5 0 5 5 0 5 5 0 5 5 0 5 6 0 6 6 0 6 6 0 6 6 0 6 6 0 6 6 0 6 6 0 6 8 0 7 33 21 35 44 31 48 63 49 66 80 67 84 95 81 98 101 88 105 104 90 107 102 89 106 100 86 103 95 82 99 87 73 90 75 62 79 64 50 67 51 38 55 44 30 47 39 25 40 36 18 34 37 19 33 40 22 36 42 26 39 43 31 43 45 35 46 44 38 48 42 41 49 49 52 59 48 55 61 49 60 64 51 65 68 53 71 73 56 76 77 59 79 80 67 78 80 49 44 51 54 41 50 54 41 50 54 41 50 54 41 50 54 41 50 54 41 50 54 41 50 35 22 31 39 26 35 46 33 42 55 42 51 66 53 62 75 62 71 83 70 79 89 73 83 117 97 108 120 98 110 125 103 115 132 110 122 138 116 128 145 123 135 150 128 140 152 130 142 151 129 141 151 129 141 151 129 141 151 129 141 151 129 141 151 129 141 151 129 141 150 130 141 141 121 130 138 121 129 136 119 127 132 115 123 129 112 120 126 109 117 123 106 114 122 105 113 128 111 119 117 100 108 99 82 90 81 64 72 67 50 58 60 43 51 58 41 49 56 43 50 46 37 40 43 39 40 43 39 40 43 39 40 43 39 40 43 39 40 43 39 40 43 39 40 42 38 39 42 38 39 42 38 39 42 38 39 42 38 39 42 38 39 42 38 39 42 38 39
0 0 0 0 0 0 0 0 0 0 0 0 0 0 0 0 0 0 0 0 0 0 0 0 0 0 0 0 0 0 0 0 0 0 0 0 0 0 0 0 0 0 0 0 0 0 0 0 0 0 0 0 0 0 0 0 0 0 0 0 0 0 0 0 0 0 0 0 0 0 0 0 0 0 0 0 0 0 0 0 0 0 0 0 0 0 2 0 0 2 0 0 2 0 0 2 0 0 2 0 0 2 0 0 2 0 0 2 1 1 3 1 1 3 1 1 3 1 1 3 1 1 3 1 1 3 1 1 3 1 1 3 2 1 6 2 1 6 2 1 6 2 1 6 2 1 6 2 1 6 2 1 6 2 1 6 2 1 6 2 1 6 2 1 6 2 1 6 2 1 6 2 1 6 2 1 6 3 1 6 4 0 5 5 0 5 5 0 5 5 0 5 5 0 5 5 0 5 5 0 5 5 0 5 6 0 6 6 0 6 6 0 6 6 0 6 6 0 6 6 0 6 6 0 6 6 0 7 21 10 24 32 21 37 51 38 55 69 58 74 83 70 87 89 78 94 92 79 96 91 80 96 90 77 94 86 75 91 81 68 85 72 61 77 64 51 68 56 45 61 51 38 55 47 35 49 44 30 45 45 31 44 47 33 46 49 37 49 52 42 53 53 45 56 53 50 59 53 52 60 65 68 75 64 69 75 63 72 77 65 76 80 65 79 82 66 81 84 68 83 86 73 83 85 49 44 51 54 41 50 54 41 50 54 41 50 54 41 50 54 41 50 54 41 50 54 41 50 38 25 34 42 29 38 49 36 45 59 46 55 69 56 65 79 66 75 86 73 82 92 76 86 117 97 108 120 98 110 125 103 115 132 110 122 138 116 128 145 123 135 150 128 140 152 130 142 147 125 137 147 125 137 147 125 137 147 125 137 147 125 137 147 125 137 147 125 137 146 126 137 138 118 127 135 118 126 132 115 123 129 112 120 126 109 117 122 105 113 120 103 111 119 102 110 125 108 116 114 97 105 96 79 87 78 61 69 64 47 55 57 40 48 55 38 46 52 39 46 46 37 40 43 39 40 43 39 40 43 39 40 43 39 40 43 39 40 43 39 40 43 39 40 42 38 39 42 38 39 42 38 39 42 38 39 42 38 39 42 38 39 42 38 39 42 38 39
0 0 0 0 0 0 0 0 0 0 0 0 0 0 0 0 0 0 0 0 0 0 0 0 0 0 0 0 0 0 0 0 0 0 0 0 0 0 0 0 0 0 0 0 0 0 0 0 0 0 0 0 0 0 0 0 0 0 0 0 0 0 0 0 0 0 0 0 0 0 0 0 0 0 0 0 0 0 0 0 0 0 0 0 0 0 2 0 0 2 0 0 2 0 0 2 0 0 2 0 0 2 0 0 2 0 0 2 1 1 3 1 1 3 1 1 3 1 1 3 1 1 3 1 1 3 1 1 3 1 1 3 2 1 6 2 1 6 2 1 6 2 1 6 2 1 6 2 1 6 2 1 6 2 1 6 2 1 6 2 1 6 2 1 6 2 1 6 2 1 6 2 1 6 2 1 6 3 1 6 4 0 5 5 0 5 5 0 5 5 0 5 5 0 5 5 0 5 5 0 5 5 0 5 6 0 6 6 0 6 6 0 6 6 0 6 6 0 6 6 0 6 6 0 6 6 0 7 10 2 15 21 13 28 39 31 46 57 49 64 71 63 78 78 70 85 80 72 87 79 71 86 72 64 79 71 63 78 67 59 74 62 54 69 58 50 65 53 45 60 49 41 56 50 39 53 51 40 54 53 41 53 55 45 56 58 48 59 59 51 62 62 56 66 61 60 68 61 61 69 75 75 83 73 76 83 71 78 84 70 79 84 70 81 85 71 82 86 69 83 86 74 82 85 50 43 51 54 41 50 54 41 50 54 41 50 54 41 50 54 41 50 54 41 50 54 41 50 47 34 43 51 38 47 58 45 54 68 55 64 78 65 74 88 75 84 95 82 91 101 85 95 117 97 108 120 98 110 125 103 115 132 110 122 138 116 128 145 123 135 150 128 140 152 130 142 144 122 134 144 122 134 144 122 134 144 122 134 144 122 134 144 122 134 144 122 134 143 123 134 135 115 124 131 114 122 129 112 120 126 109 117 122 105 113 119 102 110 117 100 108 115 98 106 121 104 112 110 93 101 93 76 84 74 57 65 61 44 52 53 36 44 52 35 43 49 36 43 46 37 40 43 39 40 43 39 40 43 39 40 43 39 40 43 39 40 43 39 40 43 39 40 42 38 39 42 38 39 42 38 39 42 38 39 42 38 39 42 38 39 42 38 39 42 38 39
0 0 0 0 0 0 0 0 0 0 0 0 0 0 0 0 0 0 0 0 0 0 0 0 0 0 0 0 0 0 0 0 0 0 0 0 0 0 0 0 0 0 0 0 0 0 0 0 0 0 0 0 0 0 0 0 0 0 0 0 0 0 0 0 0 0 0 0 0 0 0 0 0 0 0 0 0 0 0 0 0 0 0 0 0 0 2 0 0 2 0 0 2 0 0 2 0 0 2 0 0 2 0 0 2 0 0 2 1 1 3 1 1 3 1 1 3 1 1 3 1 1 3 1 1 3 1 1 3 1 1 3 2 1 6 2 1 6 2 1 6 2 1 6 2 1 6 2 1 6 2 1 6 2 1 6 2 1 6 2 1 6 2 1 6 2 1 6 2 1 6 2 1 6 2 1 6 3 1 6 4 0 5 5 0 5 5 0 5 5 0 5 5 0 5 5 0 5 5 0 5 5 0 5 6 0 6 6 0 6 6 0 6 6 0 6 6 0 6 6 0 6 6 0 6 6 0 7 3 0 9 13 7 21 30 24 38 49 43 57 62 56 70 70 64 78 71 65 79 71 65 79 57 51 65 56 50 64 54 48 62 52 46 60 50 44 58 48 42 56 46 40 54 45 39 51 55 49 61 57 51 61 59 53 63 62 56 66 64 61 70 66 65 73 68 67 75 69 69 77 78 78 86 75 78 85 75 78 85 73 78 84 71 78 84 70 77 83 70 77 83 73 76 81 50 43 51 54 41 50 54 41 50 54 41 50 54 41 50 54 41 50 54 41 50 54 41 50 57 44 53 61 48 57 69 56 65 78 65 74 89 76 85 98 85 94 105 92 101 111 95 105 117 97 108 120 98 110 125 103 115 132 110 122 138 116 128 145 123 135 150 128 140 152 130 142 142 120 132 142 120 132 142 120 132 142 120 132 142 120 132 142 120 132 142 120 132 141 121 132 132 112 121 129 112 120 127 110 118 123 106 114 120 103 111 117 100 108 114 97 105 113 96 104 119 102 110 108 91 99 90 73 81 72 55 63 58 41 49 51 34 42 49 32 40 47 34 41 46 37 40 43 39 40 43 39 40 43 39 40 43 39 40 43 39 40 43 39 40 43 39 40 42 38 39 42 38 39 42 38 39 42 38 39 42 38 39 42 38 39 42 38 39 42 38 39
0 0 0 0 0 0 0 0 0 0 0 0 0 0 0 0 0 0 0 0 0 0 0 0 0 0 0 0 0 0 0 0 0 0 0 0 0 0 0 0 0 0 0 0 0 0 0 0 0 0 0 0 0 0 0 0 0 0 0 0 0 0 0 0 0 0 0 0 0 0 0 0 0 0 0 0 0 0 0 0 0 0 0 0 0 0 2 0 0 2 0 0 2 0 0 2 0 0 2 0 0 2 0 0 2 0 0 2 1 1 3 1 1 3 1 1 3 1 1 3 1 1 3 1 1 3 1 1 3 1 1 3 2 1 6 2 1 6 2 1 6 2 1 6 2 1 6 2 1 6 2 1 6 2 1 6 2 1 6 2 1 6 2 1 6 2 1 6 2 1 6 2 1 6 2 1 6 3 1 6 4 0 5 5 0 5 5 0 5 5 0 5 5 0 5 5 0 5 5 0 5 5 0 5 6 0 6 6 0 6 6 0 6 6 0 6 6 0 6 6 0 6 6 0 6 5 0 7 1 0 9 6 4 17 23 21 34 42 40 53 56 54 67 63 61 74 64 62 75 64 62 75 44 42 55 44 42 55 43 41 54 43 41 54 42 40 53 41 39 52 41 39 52 40 38 49 56 54 65 58 57 65 60 59 67 63 62 70 67 66 74 69 69 77 71 71 79 73 73 81 78 78 86 77 77 85 76 76 84 73 76 83 72 75 82 70 73 80 70 73 80 72 71 77 52 42 51 54 41 50 54 41 50 54 41 50 54 41 50 54 41 50 54 41 50 54 41 50 64 51 60 68 55 64 76 63 72 85 72 81 95 82 91 105 92 101 112 99 108 118 102 112 117 97 108 120 98 110 125 103 115 132 110 122 138 116 128 145 123 135 150 128 140 152 130 142 140 118 130 140 118 130 140 118 130 140 118 130 140 118 130 140 118 130 140 118 130 139 119 130 131 111 120 128 111 119 125 108 116 122 105 113 119 102 110 115 98 106 113 96 104 112 95 103 118 101 109 107 90 98 89 72 80 71 54 62 57 40 48 50 33 41 48 31 39 45 32 39 46 37 40 43 39 40 43 39 40 43 39 40 43 39 40 43 39 40 43 39 40 43 39 40 42 38 39 42 38 39 42 38 39 42 38 39 42 38 39 42 38 39 42 38 39 42 38 39
0 0 0 0 0 0 0 0 0 0 0 0 0 0 0 0 0 0 0 0 0 0 0 0 0 0 0 0 0 0 0 0 0 0 0 0 0 0 0 0 0 0 0 0 0 0 0 0 0 0 0 0 0 0 0 0 0 0 0 0 0 0 0 0 0 0 0 0 0 0 0 0 0 0 0 0 0 0 0 0 0 0 0 0 0 0 2 0 0 2 0 0 2 0 0 2 0 0 2 0 0 2 0 0 2 0 0 2 0 0 2 0 0 2 0 0 2 0 0 2 0 0 2 0 0 2 0 0 2 0 0 2 1 0 5 1 0 5 1 0 5 1 0 5 1 0 5 1 0 5 1 0 5 1 0 5 1 0 5 1 0 5 1 0 5 1 0 5 1 0 5 1 0 5 1 0 5 2 0 5 3 0 4 4 0 4 8 1 8 19 12 19 25 18 25 24 17 24 20 13 20 17 10 17 17 10 17 13 6 13 7 0 7 4 0 4 6 0 6 14 7 14 24 17 24 30 25 32 16 16 26 16 18 30 19 21 33 23 25 37 28 30 42 32 34 46 36 38 50 38 40 52 50 52 64 50 52 64 50 52 64 50 52 64 50 52 64 50 52 64 50 52 64 50 53 62 68 71 80 67 70 77 66 69 76 65 68 75 64 67 74 64 64 72 64 64 72 63 63 71 78 78 86 78 78 86 78 78 86 79 78 86 79 78 86 79 78 86 79 78 86 80 77 84 68 56 66 68 55 64 68 55 64 66 53 62 65 52 61 64 51 60 63 50 59 62 49 58 94 81 90 95 82 91 97 84 93 101 88 97 104 91 100 107 94 103 110 97 106 113 97 107 130 110 121 131 109 121 131 109 121 131 109 121 131 109 121 131 109 121 131 109 121 131 109 121 140 118 130 138 116 128 136 114 126 133 111 123 129 107 119 126 104 116 124 102 114 121 101 112 113 93 102 111 94 102 112 95 103 113 96 104 115 98 106 116 99 107 117 100 108 117 100 108 93 76 84 84 67 75 70 53 61 57 40 48 49 32 40 47 30 38 49 32 40 49 36 43 41 32 35 38 34 35 38 34 35 38 34 35 38 34 35 38 34 35 38 34 35 38 34 35 40 36 37 40 36 37 40 36 37 40 36 37 40 36 37 40 36 37 40 36 37 40 36 37
0 0 0 0 0 0 0 0 0 0 0 0 0 0 0 0 0 0 0 0 0 0 0 0 0 0 0 0 0 0 0 0 0 0 0 0 0 0 0 0 0 0 0 0 0 0 0 0 0 0 0 0 0 0 0 0 0 0 0 0 0 0 0 0 0 0 0 0 0 0 0 0 0 0 0 0 0 0 0 0 0 0 0 0 0 0 2 0 0 2 0 0 2 0 0 2 0 0 2 0 0 2 0 0 2 0 0 2 0 0 2 0 0 2 0 0 2 0 0 2 0 0 2 0 0 2 0 0 2 0 0 2 1 0 5 1 0 5 1 0 5 1 0 5 1 0 5 1 0 5 1 0 5 1 0 5 1 0 5 1 0 5 1 0 5 1 0 5 1 0 5 1 0 5 1 0 5 2 0 5 3 0 4 5 0 5 17 10 17 28 21 28 35 28 35 35 28 35 31 24 31 28 21 28 26 19 26 21 14 21 14 7 14 9 2 9 11 4 11 17 10 17 26 19 26 29 26 33 22 25 34 21 28 38 24 31 41 28 35 45 32 39 49 35 42 52 38 45 55 40 47 57 47 54 64 47 54 64 47 54 64 47 54 64 47 54 64 47 54 64 47 54 64 47 54 62 64 71 79 64 71 77 64 71 77 63 70 76 64 69 75 65 68 75 64 67 74 66 66 74 78 78 86 79 78 86 79 78 86 80 77 86 82 76 86 82 76 86 82 76 86 83 76 84 69 57 67 70 57 66 69 56 65 69 56 65 68 55 64 67 54 63 67 54 63 67 54 63 95 82 91 96 83 92 99 86 95 102 89 98 105 92 101 109 96 105 111 98 107 114 98 108 130 110 121 131 109 121 131 109 121 131 109 121 131 109 121 131 109 121 131 109 121 131 109 121 140 118 130 138 116 128 136 114 126 133 111 123 129 107 119 126 104 116 124 102 114 121 101 112 114 94 103 113 96 104 113 96 104 114 97 105 114 97 105 115 98 106 115 98 106 116 99 107 90 73 81 81 64 72 68 51 59 55 38 46 48 31 39 47 30 38 49 32 40 49 36 43 41 32 35 38 34 35 38 34 35 38 34 35 38 34 35 38 34 35 38 34 35 38 34 35 40 36 37 40 36 37 40 36 37 40 36 37 40 36 37 40 36 37 40 36 37 40 36 37
0 0 0 0 0 0 0 0 0 0 0 0 0 0 0 0 0 0 0 0 0 0 0 0 0 0 0 0 0 0 0 0 0 0 0 0 0 0 0 0 0 0 0 0 0 0 0 0 0 0 0 0 0 0 0 0 0 0 0 0 0 0 0 0 0 0 0 0 0 0 0 0 0 0 0 0 0 0 0 0 0 0 0 0 0 0 2 0 0 2 0 0 2 0 0 2 0 0 2 0 0 2 0 0 2 0 0 2 0 0 2 0 0 2 0 0 2 0 0 2 0 0 2 0 0 2 0 0 2 0 0 2 1 0 5 1 0 5 1 0 5 1 0 5 1 0 5 1 0 5 1 0 5 1 0 5 1 0 5 1 0 5 1 0 5 1 0 5 1 0 5 1 0 5 1 0 5 2 0 5 7 2 8 17 10 17 30 23 30 43 36 43 51 44 51 52 45 52 50 43 50 47 40 47 43 36 43 36 29 36 27 20 27 20 13 20 19 12 19 23 16 23 30 23 30 32 29 36 35 39 48 33 42 51 35 44 53 38 47 56 40 49 58 43 52 61 45 54 63 46 55 64 46 55 64 46 55 64 46 55 64 46 55 64 46 55 64 46 55 64 46 55 64 45 56 62 61 72 78 60 74 77 62 73 77 63 74 78 64 73 78 66 73 79 70 73 80 72 72 80 78 78 86 79 78 86 82 76 86 83 75 86 85 75 86 85 75 86 86 74 86 86 74 84 71 58 68 72 59 68 72 59 68 73 60 69 74 61 70 74 61 70 75 62 71 75 62 71 97 84 93 99 86 95 101 88 97 104 91 100 108 95 104 111 98 107 113 100 109 117 101 111 130 110 121 131 109 121 131 109 121 131 109 121 131 109 121 131 109 121 131 109 121 131 109 121 140 118 130 138 116 128 136 114 126 133 111 123 129 107 119 126 104 116 124 102 114 121 101 112 118 98 107 116 99 107 115 98 106 114 97 105 114 97 105 113 96 104 112 95 103 112 95 103 84 67 75 76 59 67 64 47 55 52 35 43 46 29 37 46 29 37 50 33 41 50 37 44 41 32 35 38 34 35 38 34 35 38 34 35 38 34 35 38 34 35 38 34 35 38 34 35 40 36 37 40 36 37 40 36 37 40 36 37 40 36 37 40 36 37 40 36 37 40 36 37
0 0 0 0 0 0 0 0 0 0 0 0 0 0 0 0 0 0 0 0 0 0 0 0 0 0 0 0 0 0 0 0 0 0 0 0 0 0 0 0 0 0 0 0 0 0 0 0 0 0 0 0 0 0 0 0 0 0 0 0 0 0 0 0 0 0 0 0 0 0 0 0 0 0 0 0 0 0 0 0 0 0 0 0 0 0 2 0 0 2 0 0 2 0 0 2 0 0 2 0 0 2 0 0 2 0 0 2 0 0 2 0 0 2 0 0 2 0 0 2 0 0 2 0 0 2 0 0 2 0 0 2 1 0 5 1 0 5 1 0 5 1 0 5 1 0 5 1 0 5 1 0 5 1 0 5 1 0 5 1 0 5 1 0 5 1 0 5 1 0 5 1 0 5 1 0 5 2 0 5 18 13 19 28 21 28 43 36 43 57 50 57 67 60 67 70 63 70 69 62 69 66 59 66 64 57 64 57 50 57 45 38 45 35 28 35 30 23 30 31 24 31 35 28 35 36 33 40 47 54 62 43 56 64 46 56 65 44 57 65 47 57 66 46 59 67 49 59 68 47 60 68 45 55 64 43 56 64 45 55 64 43 56 64 45 55 64 43 56 64 45 55 64 43 56 62 57 72 77 56 74 76 60 75 78 63 77 80 68 79 83 71 80 85 76 81 87 78 81 88 79 78 86 80 77 86 83 75 86 85 75 86 86 74 86 87 73 86 89 73 86 89 73 84 73 60 70 74 61 70 76 63 72 78 65 74 81 68 77 83 70 79 85 72 81 86 73 82 101 88 97 102 89 98 104 91 100 108 95 104 111 98 107 114 101 110 117 104 113 120 104 114 130 110 121 131 109 121 131 109 121 131 109 121 131 109 121 131 109 121 131 109 121 131 109 121 140 118 130 138 116 128 136 114 126 133 111 123 129 107 119 126 104 116 124 102 114 121 101 112 122 102 111 119 102 110 118 101 109 115 98 106 113 96 104 110 93 101 109 92 100 108 91 99 76 59 67 69 52 60 58 41 49 48 31 39 44 27 35 45 28 36 50 33 41 51 38 45 41 32 35 38 34 35 38 34 35 38 34 35 38 34 35 38 34 35 38 34 35 38 34 35 40 36 37 40 36 37 40 36 37 40 36 37 40 36 37 40 36 37 40 36 37 40 36 37
0 0 0 0 0 0 0 0 0 0 0 0 0 0 0 0 0 0 0 0 0 0 0 0 0 0 0 0 0 0 0 0 0 0 0 0 0 0 0 0 0 0 0 0 0 0 0 0 0 0 0 0 0 0 0 0 0 0 0 0 0 0 0 0 0 0 0 0 0 0 0 0 0 0 0 0 0 0 0 0 0 0 0 0 0 0 2 0 0 2 0 0 2 0 0 2 0 0 2 0 0 2 0 0 2 0 0 2 0 0 2 0 0 2 0 0 2 0 0 2 0 0 2 0 0 2 0 0 2 0 0 2 1 0 5 1 0 5 1 0 5 1 0 5 1 0 5 1 0 5 1 0 5 1 0 5 1 0 5 1 0 5 1 0 5 1 0 5 1 0 5 1 0 5 1 0 5 2 0 5 24 19 25 35 28 35 51 44 51 67 60 67 78 71 78 83 76 83 83 76 83 82 75 82 88 81 88 79 72 79 64 57 64 51 44 51 42 35 42 39 32 39 41 34 41 39 38 44 54 63 70 49 64 71 50 63 71 48 63 70 48 61 69 46 61 68 46 59 67 45 60 67 43 56 64 42 57 64 43 56 64 42 57 64 43 56 64 42 57 64 43 56 64 42 57 62 53 72 76 54 74 75 58 76 78 63 81 83 70 84 87 76 87 91 81 88 94 86 89 96 79 78 86 82 76 86 85 75 86 86 74 86 89 73 86 89 73 86 90 72 86 90 72 84 77 61 72 77 64 73 80 67 76 84 71 80 89 76 85 93 80 89 96 83 92 97 84 93 104 91 100 105 92 101 108 95 104 111 98 107 114 101 110 118 105 114 120 107 116 123 107 117 130 110 121 131 109 121 131 109 121 131 109 121 131 109 121 131 109 121 131 109 121 131 109 121 140 118 130 138 116 128 136 114 126 133 111 123 129 107 119 126 104 116 124 102 114 121 101 112 127 107 116 123 106 114 120 103 111 116 99 107 112 95 103 108 91 99 105 88 96 103 86 94 68 51 59 62 45 53 52 35 43 44 27 35 41 24 32 45 28 36 51 34 42 53 40 47 41 32 35 38 34 35 38 34 35 38 34 35 38 34 35 38 34 35 38 34 35 38 34 35 40 36 37 40 36 37 40 36 37 40 36 37 40 36 37 40 36 37 40 36 37 40 36 37
0 0 0 0 0 0 0 0 0 0 0 0 0 0 0 0 0 0 0 0 0 0 0 0 0 0 0 0 0 0 0 0 0 0 0 0 0 0 0 0 0 0 0 0 0 0 0 0 0 0 0 0 0 0 0 0 0 0 0 0 0 0 0 0 0 0 0 0 0 0 0 0 0 0 0 0 0 0 0 0 0 0 0 0 0 0 2 0 0 2 0 0 2 0 0 2 0 0 2 0 0 2 0 0 2 0 0 2 0 0 2 0 0 2 0 0 2 0 0 2 0 0 2 0 0 2 0 0 2 0 0 2 1 0 5 1 0 5 1 0 5 1 0 5 1 0 5 1 0 5 1 0 5 1 0 5 1 0 5 1 0 5 1 0 5 1 0 5 1 0 5 1 0 5 1 0 5 2 0 5 23 18 24 35 28 35 52 45 52 70 63 70 83 76 83 89 82 89 91 84 91 90 83 90 109 102 109 99 92 99 82 75 82 65 58 65 53 46 53 47 40 47 46 39 46 43 42 48 55 66 72 49 66 73 49 64 71 44 61 68 44 59 66 39 56 63 39 54 61 36 53 60 42 57 64 40 57 64 42 57 64 40 57 64 42 57 64 40 57 64 42 57 64 40 58 62 50 71 74 53 74 75 57 78 79 64 84 85 73 88 91 82 93 97 88 95 101 93 96 103 79 78 86 82 76 86 85 75 86 87 73 86 90 72 86 92 71 86 92 71 86 92 72 84 79 63 74 80 67 76 84 71 80 90 77 86 96 83 92 102 89 98 106 93 102 108 95 104 107 94 103 109 96 105 111 98 107 114 101 110 118 105 114 121 108 117 123 110 119 127 111 121 130 110 121 131 109 121 131 109 121 131 109 121 131 109 121 131 109 121 131 109 121 131 109 121 140 118 130 138 116 128 136 114 126 133 111 123 129 107 119 126 104 116 124 102 114 121 101 112 131 111 120 127 110 118 123 106 114 117 100 108 111 94 102 105 88 96 101 84 92 99 82 90 61 44 52 55 38 46 46 29 37 40 23 31 39 22 30 44 27 35 52 35 43 54 41 48 41 32 35 38 34 35 38 34 35 38 34 35 38 34 35 38 34 35 38 34 35 38 34 35 40 36 37 40 36 37 40 36 37 40 36 37 40 36 37 40 36 37 40 36 37 40 36 37
0 0 0 0 0 0 0 0 0 0 0 0 0 0 0 0 0 0 0 0 0 0 0 0 0 0 0 0 0 0 0 0 0 0 0 0 0 0 0 0 0 0 0 0 0 0 0 0 0 0 0 0 0 0 0 0 0 0 0 0 0 0 0 0 0 0 0 0 0 0 0 0 0 0 0 0 0 0 0 0 0 0 0 0 0 0 2 0 0 2 0 0 2 0 0 2 0 0 2 0 0 2 0 0 2 0 0 2 0 0 2 0 0 2 0 0 2 0 0 2 0 0 2 0 0 2 0 0 2 0 0 2 1 0 5 1 0 5 1 0 5 1 0 5 1 0 5 1 0 5 1 0 5 1 0 5 1 0 5 1 0 5 1 0 5 1 0 5 1 0 5 1 0 5 1 0 5 2 0 5 19 14 20 31 24 31 50 43 50 68 61 68 83 76 83 91 84 91 93 86 93 93 86 93 126 119 126 114 107 114 96 89 96 76 69 76 61 54 61 53 46 53 50 43 50 46 45 51 53 64 70 45 64 70 43 60 67 38 57 63 35 52 59 31 50 56 29 46 53 26 45 51 40 57 64 39 58 64 40 57 64 39 58 64 40 57 64 39 58 64 40 57 64 39 58 62 47 71 73 50 74 74 58 79 80 66 86 87 76 91 94 84 98 101 93 100 106 99 102 109 79 78 86 82 76 86 86 74 86 87 73 86 90 72 86 92 71 86 93 70 86 92 72 84 81 65 76 82 69 78 87 74 83 94 81 90 101 88 97 108 95 104 114 101 110 117 104 113 110 97 106 111 98 107 113 100 109 117 104 113 120 107 116 123 110 119 126 113 122 129 113 123 130 110 121 131 109 121 131 109 121 131 109 121 131 109 121 131 109 121 131 109 121 131 109 121 140 118 130 138 116 128 136 114 126 133 111 123 129 107 119 126 104 116 124 102 114 121 101 112 135 115 124 130 113 121 125 108 116 118 101 109 110 93 101 103 86 94 98 81 89 95 78 86 55 38 46 49 32 40 42 25 33 37 20 28 37 20 28 44 27 35 52 35 43 55 42 49 41 32 35 38 34 35 38 34 35 38 34 35 38 34 35 38 34 35 38 34 35 38 34 35 40 36 37 40 36 37 40 36 37 40 36 37 40 36 37 40 36 37 40 36 37 40 36 37
0 0 0 0 0 0 0 0 0 0 0 0 0 0 0 0 0 0 0 0 0 0 0 0 0 0 0 0 0 0 0 0 0 0 0 0 0 0 0 0 0 0 0 0 0 0 0 0 0 0 0 0 0 0 0 0 0 0 0 0 0 0 0 0 0 0 0 0 0 0 0 0 0 0 0 0 0 0 0 0 0 0 0 0 0 0 2 0 0 2 0 0 2 0 0 2 0 0 2 0 0 2 0 0 2 0 0 2 0 0 2 0 0 2 0 0 2 0 0 2 0 0 2 0 0 2 0 0 2 0 0 2 1 0 5 1 0 5 1 0 5 1 0 5 1 0 5 1 0 5 1 0 5 1 0 5 1 0 5 1 0 5 1 0 5 1 0 5 1 0 5 1 0 5 1 0 5 2 0 5 16 11 17 28 21 28 47 40 47 66 59 66 84 74 82 92 82 90 95 85 93 96 85 93 138 127 135 127 114 123 107 94 103 86 73 82 72 56 66 62 46 56 59 43 53 52 45 53 50 60 69 41 61 68 38 58 65 33 53 60 29 49 56 24 44 51 21 41 48 19 39 46 38 58 65 38 58 65 38 58 65 38 58 65 38 58 65 38 58 65 38 58 65 39 58 64 50 69 73 54 72 76 62 77 82 71 84 90 82 91 98 92 96 105 101 101 111 106 103 114 83 75 88 86 74 88 89 72 88 92 71 88 94 69 88 96 69 88 97 68 88 94 70 86 85 65 77 85 69 79 91 75 86 98 82 92 106 90 101 114 98 108 120 104 115 123 107 117 113 97 108 114 98 108 117 101 112 120 104 114 123 107 118 127 111 121 129 113 124 131 114 124 130 110 122 130 110 121 130 110 122 130 110 121 130 110 122 130 110 121 130 110 122 130 110 121 139 119 131 137 117 128 135 115 127 132 112 123 128 108 120 125 105 116 123 103 115 121 101 112 135 118 126 131 116 123 126 109 117 117 102 109 110 93 101 101 86 93 96 79 87 92 77 84 52 35 43 46 31 38 39 22 30 34 19 26 36 19 27 42 27 34 52 35 43 55 43 47 41 32 35 38 34 33 39 33 33 38 34 33 39 33 33 38 34 33 39 33 33 38 34 33 41 35 35 40 36 35 41 35 35 40 36 35 41 35 35 40 36 35 41 35 35 40 36 35
0 0 0 0 0 0 0 0 0 0 0 0 0 0 0 0 0 0 0 0 0 0 0 0 0 0 0 0 0 0 0 0 0 0 0 0 0 0 0 0 0 0 0 0 0 0 0 0 0 0 0 0 0 0 0 0 0 0 0 0 0 0 0 0 0 0 0 0 0 0 0 0 0 0 0 0 0 0 0 0 0 0 0 0 0 0 2 0 0 2 0 0 2 0 0 2 0 0 2 0 0 2 0 0 2 0 0 2 0 0 2 0 0 2 0 0 2 0 0 2 0 0 2 0 0 2 0 0 2 0 0 2 0 0 2 0 0 2 0 0 2 0 0 2 0 0 2 0 0 2 0 0 2 0 0 2 0 0 2 0 0 2 0 0 2 0 0 2 0 0 2 0 0 2 0 0 2 1 0 2 24 19 23 32 26 30 44 38 42 62 53 58 80 69 75 97 84 91 111 96 103 119 102 110 113 92 101 116 93 103 119 93 104 116 88 100 107 77 89 93 61 74 78 46 59 60 40 52 41 49 60 31 53 64 31 53 64 31 53 64 31 53 64 31 53 64 31 53 64 31 53 64 28 50 61 30 52 63 32 54 65 35 57 68 39 61 72 42 64 75 44 66 77 49 67 77 53 59 71 58 58 70 67 67 79 90 88 101 114 108 122 119 111 126 105 92 109 90 73 91 87 68 87 89 66 86 89 61 83 89 57 80 87 53 77 84 49 73 84 46 71 80 46 70 91 67 83 96 76 88 106 85 100 115 95 107 119 98 113 116 96 108 111 90 105 106 86 98 123 102 117 123 103 115 123 102 117 123 103 115 123 102 117 123 103 115 123 102 117 123 103 115 124 106 120 123 105 117 121 103 117 117 99 111 114 96 110 111 93 105 108 90 104 107 89 101 119 101 115 119 101 113 119 101 115 119 101 113 119 101 115 119 101 113 119 101 115 118 102 113 125 110 117 119 107 111 114 99 104 103 91 95 94 79 84 83 71 75 77 62 67 71 59 63 44 29 34 42 30 34 44 29 34 42 30 34 44 29 34 42 30 34 44 29 34 42 30 34 41 33 31 39 34 31 41 33 31 39 34 31 41 33 31 39 34 31 41 33 31 39 34 31 41 33 31 39 34 31 41 33 31 39 34 31 41 33 31 39 34 31 41 33 31 39 34 31
0 0 0 0 0 0 0 0 0 0 0 0 0 0 0 0 0 0 0 0 0 0 0 0 0 0 0 0 0 0 0 0 0 0 0 0 0 0 0 0 0 0 0 0 0 0 0 0 0 0 0 0 0 0 0 0 0 0 0 0 0 0 0 0 0 0 0 0 0 0 0 0 0 0 0 0 0 0 0 0 0 0 0 0 0 0 2 0 0 2 0 0 2 0 0 2 0 0 2 0 0 2 0 0 2 0 0 2 0 0 2 0 0 2 0 0 2 0 0 2 0 0 2 0 0 2 0 0 2 0 0 2 0 0 2 0 0 2 0 0 2 0 0 2 0 0 2 0 0 2 0 0 2 0 0 2 0 0 2 0 0 2 0 0 2 0 0 2 0 0 2 0 0 2 0 0 2 0 0 2 17 12 16 24 19 23 39 30 35 55 46 51 74 61 68 92 77 84 105 88 96 115 94 103 116 90 101 121 91 103 123 91 104 120 86 100 112 74 89 97 59 74 85 42 59 64 37 52 43 51 64 32 56 68 32 56 68 32 56 68 32 56 68 32 56 68 32 56 68 32 56 68 31 55 67 33 57 69 35 59 71 38 62 74 42 66 78 45 69 81 47 71 83 54 70 83 60 62 77 64 57 73 72 63 80 92 83 100 115 102 120 121 106 125 109 90 110 94 72 93 92 67 89 94 64 88 95 61 86 92 56 82 91 52 79 89 49 76 88 45 73 84 46 71 94 67 86 98 75 91 109 86 102 118 95 111 121 98 114 119 96 112 113 90 106 109 86 102 124 101 117 124 101 117 124 101 117 124 101 117 124 101 117 124 101 117 124 101 117 123 102 117 127 109 123 125 109 122 123 107 120 119 103 116 116 100 113 113 97 110 110 94 107 109 93 106 118 102 115 118 102 115 118 102 115 118 102 115 118 102 115 118 102 115 118 102 115 118 102 113 121 108 115 117 105 109 109 97 101 100 88 92 90 78 82 80 68 72 73 61 65 69 57 61 42 30 34 42 30 34 42 30 34 42 30 34 42 30 34 42 30 34 42 30 34 41 31 32 42 32 31 41 33 30 41 33 30 41 33 30 41 33 30 41 33 30 41 33 30 41 33 30 41 33 30 41 33 30 41 33 30 41 33 30 41 33 30 41 33 30 41 33 30 41 33 30
0 0 0 0 0 0 0 0 0 0 0 0 0 0 0 0 0 0 0 0 0 0 0 0 0 0 0 0 0 0 0 0 0 0 0 0 0 0 0 0 0 0 0 0 0 0 0 0 0 0 0 0 0 0 0 0 0 0 0 0 0 0 0 0 0 0 0 0 0 0 0 0 0 0 0 0 0 0 0 0 0 0 0 0 0 0 2 0 0 2 0 0 2 0 0 2 0 0 2 0 0 2 0 0 2 0 0 2 0 0 2 0 0 2 0 0 2 0 0 2 0 0 2 0 0 2 0 0 2 0 0 2 0 0 2 0 0 2 0 0 2 0 0 2 0 0 2 0 0 2 0 0 2 0 0 2 0 0 2 0 0 2 0 0 2 0 0 2 0 0 2 0 0 2 0 0 2 0 0 2 7 2 6 13 8 12 28 19 24 44 35 40 64 51 58 81 66 73 95 78 86 104 83 92 116 90 101 121 91 103 123 91 104 120 86 100 112 74 89 97 59 74 85 42 59 64 37 52 48 56 69 37 61 73 37 61 73 37 61 73 37 61 73 37 61 73 37 61 73 37 61 73 39 63 75 40 64 76 42 66 78 46 70 82 49 73 85 52 76 88 55 79 91 61 77 90 68 70 85 67 63 78 71 64 80 88 79 96 109 98 115 116 103 121 107 90 109 95 73 94 95 70 92 95 67 90 96 64 88 94 60 85 93 54 81 90 51 78 89 49 76 84 49 73 97 70 89 101 78 94 111 88 104 120 97 113 123 100 116 121 98 114 115 92 108 111 88 104 124 101 117 124 101 117 124 101 117 124 101 117 124 101 117 124 101 117 124 101 117 123 102 117 130 112 126 128 112 125 126 110 123 123 107 120 119 103 116 116 100 113 113 97 110 112 96 109 118 102 115 118 102 115 118 102 115 118 102 115 118 102 115 118 102 115 118 102 115 118 102 113 116 103 110 112 100 104 105 93 97 95 83 87 85 73 77 75 63 67 68 56 60 64 52 56 42 30 34 42 30 34 42 30 34 42 30 34 42 30 34 42 30 34 42 30 34 41 31 32 42 32 31 41 33 30 41 33 30 41 33 30 41 33 30 41 33 30 41 33 30 41 33 30 41 33 30 41 33 30 41 33 30 41 33 30 41 33 30 41 33 30 41 33 30 41 33 30
0 0 0 0 0 0 0 0 0 0 0 0 0 0 0 0 0 0 0 0 0 0 0 0 0 0 0 0 0 0 0 0 0 0 0 0 0 0 0 0 0 0 0 0 0 0 0 0 0 0 0 0 0 0 0 0 0 0 0 0 0 0 0 0 0 0 0 0 0 0 0 0 0 0 0 0 0 0 0 0 0 0 0 0 0 0 2 0 0 2 0 0 2 0 0 2 0 0 2 0 0 2 0 0 2 0 0 2 0 0 2 0 0 2 0 0 2 0 0 2 0 0 2 0 0 2 0 0 2 0 0 2 0 0 2 0 0 2 0 0 2 0 0 2 0 0 2 0 0 2 0 0 2 0 0 2 0 0 2 0 0 2 0 0 2 0 0 2 0 0 2 0 0 2 0 0 2 0 0 2 3 0 2 4 0 3 20 11 16 35 26 31 55 42 49 73 58 65 86 69 77 95 74 83 116 90 101 121 91 103 123 91 104 120 86 100 112 74 89 97 59 74 85 42 59 64 37 52 55 63 76 44 68 80 44 68 80 44 68 80 44 68 80 44 68 80 44 68 80 44 68 80 48 72 84 49 73 85 52 76 88 55 79 91 59 83 95 62 86 98 64 88 100 69 87 99 77 80 95 73 69 84 69 65 80 82 75 91 101 92 109 110 99 116 103 88 107 94 75 95 97 73 95 97 72 94 97 67 91 96 64 88 95 59 85 93 54 81 91 52 79 88 53 77 100 73 92 104 81 97 114 91 107 123 100 116 127 104 120 124 101 117 119 96 112 114 91 107 124 101 117 124 101 117 124 101 117 124 101 117 124 101 117 124 101 117 124 101 117 123 102 117 130 112 126 127 111 124 125 109 122 122 106 119 118 102 115 115 99 112 113 97 110 111 95 108 118 102 115 118 102 115 118 102 115 118 102 115 118 102 115 118 102 115 118 102 115 118 102 113 109 96 103 105 93 97 98 86 90 89 77 81 78 66 70 69 57 61 61 49 53 57 45 49 42 30 34 42 30 34 42 30 34 42 30 34 42 30 34 42 30 34 42 30 34 41 31 32 42 32 31 41 33 30 41 33 30 41 33 30 41 33 30 41 33 30 41 33 30 41 33 30 41 33 30 41 33 30 41 33 30 41 33 30 41 33 30 41 33 30 41 33 30 41 33 30
0 0 0 0 0 0 0 0 0 0 0 0 0 0 0 0 0 0 0 0 0 0 0 0 0 0 0 0 0 0 0 0 0 0 0 0 0 0 0 0 0 0 0 0 0 0 0 0 0 0 0 0 0 0 0 0 0 0 0 0 0 0 0 0 0 0 0 0 0 0 0 0 0 0 0 0 0 0 0 0 0 0 0 0 0 0 2 0 0 2 0 0 2 0 0 2 0 0 2 0 0 2 0 0 2 0 0 2 0 0 2 0 0 2 0 0 2 0 0 2 0 0 2 0 0 2 0 0 2 0 0 2 0 0 2 0 0 2 0 0 2 0 0 2 0 0 2 0 0 2 0 0 2 0 0 2 0 0 2 0 0 2 0 0 2 0 0 2 0 0 2 0 0 2 0 0 2 0 0 2 3 0 2 3 0 2 16 7 12 32 23 28 51 38 45 69 54 61 82 65 73 92 71 80 116 90 101 121 91 103 123 91 104 120 86 100 112 74 89 97 59 74 85 42 59 64 37 52 61 69 82 50 74 86 50 74 86 50 74 86 50 74 86 50 74 86 50 74 86 50 74 86 59 83 95 60 84 96 62 86 98 65 89 101 69 93 105 72 96 108 75 99 111 80 98 110 86 92 106 78 77 91 68 66 80 75 71 86 93 86 102 103 94 111 101 88 106 94 77 96 99 77 98 99 75 97 100 72 95 97 67 91 96 64 88 94 60 85 92 56 82 90 56 80 103 76 95 107 84 100 118 95 111 127 104 120 130 107 123 128 105 121 122 99 115 118 95 111 124 101 117 124 101 117 124 101 117 124 101 117 124 101 117 124 101 117 124 101 117 123 102 117 123 105 119 121 105 118 118 102 115 115 99 112 111 95 108 108 92 105 106 90 103 105 89 102 118 102 115 118 102 115 118 102 115 118 102 115 118 102 115 118 102 115 118 102 115 118 102 113 103 90 97 99 87 91 91 79 83 82 70 74 71 59 63 62 50 54 55 43 47 51 39 43 42 30 34 42 30 34 42 30 34 42 30 34 42 30 34 42 30 34 42 30 34 41 31 32 42 32 31 41 33 30 41 33 30 41 33 30 41 33 30 41 33 30 41 33 30 41 33 30 41 33 30 41 33 30 41 33 30 41 33 30 41 33 30 41 33 30 41 33 30 41 33 30
0 0 0 0 0 0 0 0 0 0 0 0 0 0 0 0 0 0 0 0 0 0 0 0 0 0 0 0 0 0 0 0 0 0 0 0 0 0 0 0 0 0 0 0 0 0 0 0 0 0 0 0 0 0 0 0 0 0 0 0 0 0 0 0 0 0 0 0 0 0 0 0 0 0 0 0 0 0 0 0 0 0 0 0 0 0 2 0 0 2 0 0 2 0 0 2 0 0 2 0 0 2 0 0 2 0 0 2 0 0 2 0 0 2 0 0 2 0 0 2 0 0 2 0 0 2 0 0 2 0 0 2 0 0 2 0 0 2 0 0 2 0 0 2 0 0 2 0 0 2 0 0 2 0 0 2 0 0 2 0 0 2 0 0 2 0 0 2 0 0 2 0 0 2 0 0 2 0 0 2 3 0 2 3 0 2 19 10 15 34 25 30 54 41 48 72 57 64 85 68 76 94 73 82 116 90 101 121 91 103 123 91 104 120 86 100 112 74 89 97 59 74 85 42 59 64 37 52 68 76 89 57 81 93 57 81 93 57 81 93 57 81 93 57 81 93 57 81 93 57 81 93 68 92 104 69 93 105 72 96 108 75 99 111 78 102 114 82 106 118 84 108 120 89 107 119 95 103 116 82 84 97 68 67 81 69 67 81 84 80 95 97 90 106 99 88 105 93 80 98 100 83 102 101 79 100 100 76 98 100 72 95 97 67 91 96 64 88 95 61 86 92 60 83 105 80 99 111 88 104 121 98 114 130 107 123 133 110 126 131 108 124 125 102 118 121 98 114 124 101 117 124 101 117 124 101 117 124 101 117 124 101 117 124 101 117 124 101 117 123 102 117 111 93 107 109 93 106 106 90 103 103 87 100 99 83 96 96 80 93 94 78 91 92 76 89 118 102 115 118 102 115 118 102 115 118 102 115 118 102 115 118 102 115 118 102 115 118 102 113 96 83 90 92 80 84 85 73 77 75 63 67 65 53 57 55 43 47 48 36 40 44 32 36 42 30 34 42 30 34 42 30 34 42 30 34 42 30 34 42 30 34 42 30 34 41 31 32 42 32 31 41 33 30 41 33 30 41 33 30 41 33 30 41 33 30 41 33 30 41 33 30 41 33 30 41 33 30 41 33 30 41 33 30 41 33 30 41 33 30 41 33 30 41 33 30
0 0 0 0 0 0 0 0 0 0 0 0 0 0 0 0 0 0 0 0 0 0 0 0 0 0 0 0 0 0 0 0 0 0 0 0 0 0 0 0 0 0 0 0 0 0 0 0 0 0 0 0 0 0 0 0 0 0 0 0 0 0 0 0 0 0 0 0 0 0 0 0 0 0 0 0 0 0 0 0 0 0 0 0 0 0 2 0 0 2 0 0 2 0 0 2 0 0 2 0 0 2 0 0 2 0 0 2 0 0 2 0 0 2 0 0 2 0 0 2 0 0 2 0 0 2 0 0 2 0 0 2 0 0 2 0 0 2 0 0 2 0 0 2 0 0 2 0 0 2 0 0 2 0 0 2 0 0 2 0 0 2 0 0 2 0 0 2 0 0 2 0 0 2 0 0 2 0 0 2 3 0 2 9 4 8 24 15 20 40 31 36 59 46 53 77 62 69 90 73 81 100 79 88 116 90 101 121 91 103 123 91 104 120 86 100 112 74 89 97 59 74 85 42 59 64 37 52 73 81 94 62 86 98 62 86 98 62 86 98 62 86 98 62 86 98 62 86 98 62 86 98 75 99 111 77 101 113 79 103 115 82 106 118 86 110 122 89 113 125 91 115 127 96 116 127 102 112 124 83 89 101 65 69 81 63 65 78 77 76 90 91 89 103 94 87 103 93 82 99 99 86 104 101 84 103 101 79 100 99 75 97 97 72 94 95 67 90 94 64 88 92 64 86 107 82 101 113 90 106 123 100 116 132 109 125 136 113 129 133 110 126 128 105 121 123 100 116 124 101 117 124 101 117 124 101 117 124 101 117 124 101 117 124 101 117 124 101 117 123 102 117 98 80 94 96 80 93 93 77 90 90 74 87 87 71 84 83 67 80 81 65 78 80 64 77 118 102 115 118 102 115 118 102 115 118 102 115 118 102 115 118 102 115 118 102 115 118 102 113 91 78 85 87 75 79 80 68 72 70 58 62 60 48 52 51 39 43 43 31 35 39 27 31 42 30 34 42 30 34 42 30 34 42 30 34 42 30 34 42 30 34 42 30 34 41 31 32 42 32 31 41 33 30 41 33 30 41 33 30 41 33 30 41 33 30 41 33 30 41 33 30 41 33 30 41 33 30 41 33 30 41 33 30 41 33 30 41 33 30 41 33 30 41 33 30
0 0 0 0 0 0 0 0 0 0 0 0 0 0 0 0 0 0 0 0 0 0 0 0 0 0 0 0 0 0 0 0 0 0 0 0 0 0 0 0 0 0 0 0 0 0 0 0 0 0 0 0 0 0 0 0 0 0 0 0 0 0 0 0 0 0 0 0 0 0 0 0 0 0 0 0 0 0 0 0 0 0 0 0 0 0 2 0 0 2 0 0 2 0 0 2 0 0 2 0 0 2 0 0 2 0 0 2 0 0 2 0 0 2 0 0 2 0 0 2 0 0 2 0 0 2 0 0 2 0 0 2 0 0 2 0 0 2 0 0 2 0 0 2 0 0 2 0 0 2 0 0 2 0 0 2 0 0 2 0 0 2 0 0 2 0 0 2 0 0 2 0 0 2 0 0 2 0 0 2 7 2 6 13 8 12 28 19 24 44 35 40 64 51 58 82 67 74 95 78 86 104 83 92 116 90 101 121 91 103 123 91 104 120 86 100 112 74 89 97 59 74 85 42 59 64 37 52 75 83 96 64 88 100 64 88 100 64 88 100 64 88 100 64 88 100 64 88 100 64 88 100 79 103 115 81 105 117 83 107 119 86 110 122 90 114 126 93 117 129 95 119 131 100 120 131 103 117 128 84 94 104 62 70 81 58 64 76 72 76 88 88 87 101 91 89 103 90 83 99 99 88 105 99 86 104 100 83 102 99 77 98 97 73 95 94 70 92 92 67 89 91 66 87 107 84 102 114 91 107 125 102 118 134 111 127 137 114 130 135 112 128 129 106 122 125 102 118 124 101 117 124 101 117 124 101 117 124 101 117 124 101 117 124 101 117 124 101 117 123 102 117 90 72 86 87 71 84 85 69 82 82 66 79 78 62 75 75 59 72 73 57 70 71 55 68 118 102 115 118 102 115 118 102 115 118 102 115 118 102 115 118 102 115 118 102 115 118 102 113 89 76 83 85 73 77 77 65 69 68 56 60 57 45 49 48 36 40 41 29 33 37 25 29 42 30 34 42 30 34 42 30 34 42 30 34 42 30 34 42 30 34 42 30 34 41 31 32 42 32 31 41 33 30 41 33 30 41 33 30 41 33 30 41 33 30 41 33 30 41 33 30 41 33 30 41 33 30 41 33 30 41 33 30 41 33 30 41 33 30 41 33 30 41 33 30
0 0 0 0 0 0 0 0 0 0 0 0 0 0 0 0 0 0 0 0 0 0 0 0 0 0 0 0 0 0 0 0 0 0 0 0 0 0 0 0 0 0 0 0 0 0 0 0 0 0 0 0 0 0 0 0 0 0 0 0 0 0 0 0 0 0 0 0 0 0 0 0 0 0 0 0 0 0 0 0 0 0 0 0 0 0 2 0 0 2 0 0 2 0 0 2 0 0 2 0 0 2 0 0 2 0 0 2 0 0 2 0 0 2 0 0 2 0 0 2 0 0 2 0 0 2 0 0 2 0 0 2 0 0 2 0 0 2 0 0 2 0 0 2 0 0 2 0 0 2 0 0 2 0 0 2 0 0 2 0 0 2 0 0 2 0 0 2 0 0 2 0 0 2 0 0 2 0 0 2 18 13 17 19 14 18 26 17 22 36 27 32 56 43 50 79 64 71 100 83 91 116 95 104 129 103 114 135 105 117 138 106 119 137 103 117 132 94 109 119 81 96 108 65 82 88 61 76 49 57 70 44 68 80 53 77 89 66 90 102 80 104 116 93 117 129 102 126 138 108 132 144 108 132 144 106 130 142 104 128 140 101 125 137 97 121 133 94 118 130 92 116 128 91 113 124 84 101 111 87 100 109 89 99 109 89 99 109 90 98 109 93 97 109 96 95 109 97 95 109 100 93 109 97 86 103 90 77 95 88 71 90 89 70 90 96 74 95 105 81 103 111 88 108 100 77 95 102 79 95 104 81 97 107 84 100 111 88 104 114 91 107 116 93 109 118 95 111 123 100 116 121 98 114 118 95 111 113 90 106 109 86 102 104 81 97 101 78 94 98 77 92 77 59 73 70 54 67 62 46 59 56 40 53 56 40 53 62 46 59 70 54 67 76 60 73 104 88 101 109 93 106 114 98 111 117 101 114 113 97 110 104 88 101 94 78 91 87 71 82 64 51 58 63 51 55 61 49 53 57 45 49 54 42 46 51 39 43 48 36 40 47 35 39 39 27 31 39 27 31 39 27 31 39 27 31 39 27 31 39 27 31 39 27 31 38 28 29 40 30 29 39 31 28 39 31 28 39 31 28 39 31 28 39 31 28 39 31 28 39 31 28 39 31 28 39 31 28 39 31 28 39 31 28 39 31 28 39 31 28 39 31 28 39 31 28
0 0 0 0 0 0 0 0 0 0 0 0 0 0 0 0 0 0 0 0 0 0 0 0 0 0 0 0 0 0 0 0 0 0 0 0 0 0 0 0 0 0 0 0 0 0 0 0 0 0 0 0 0 0 0 0 0 0 0 0 0 0 0 0 0 0 0 0 0 0 0 0 0 0 0 0 0 0 0 0 0 0 0 0 0 0 2 0 0 2 0 0 2 0 0 2 0 0 2 0 0 2 0 0 2 0 0 2 0 0 2 0 0 2 0 0 2 0 0 2 0 0 2 0 0 2 0 0 2 0 0 2 0 0 2 0 0 2 0 0 2 0 0 2 0 0 2 0 0 2 0 0 2 0 0 2 0 0 2 0 0 2 0 0 2 0 0 2 0 0 2 0 0 2 0 0 2 0 0 2 17 12 16 18 13 17 25 16 21 35 26 31 54 41 48 78 63 70 99 82 90 114 93 102 129 103 114 135 105 117 138 106 119 138 104 118 134 96 111 121 83 98 111 68 85 91 64 79 49 57 70 44 68 80 53 77 89 66 90 102 80 104 116 93 117 129 102 126 138 108 132 144 108 132 144 106 130 142 104 128 140 101 125 137 97 121 133 94 118 130 92 116 128 91 113 124 81 99 109 82 99 107 84 98 107 85 98 107 87 97 107 88 96 107 91 95 107 94 93 107 94 92 106 92 85 101 87 76 93 82 69 87 83 68 87 91 74 93 100 81 101 107 86 105 100 77 95 102 79 95 104 81 97 107 84 100 111 88 104 114 91 107 116 93 109 118 95 111 117 94 110 115 92 108 112 89 105 109 86 102 105 82 98 101 78 94 98 75 91 95 74 89 72 54 68 66 50 63 58 42 55 52 36 49 52 36 49 58 42 55 66 50 63 71 55 68 102 86 99 106 90 103 112 96 109 114 98 111 111 95 108 102 86 99 91 75 88 84 68 79 63 50 57 62 50 54 59 47 51 56 44 48 53 41 45 49 37 41 47 35 39 46 34 38 39 27 31 39 27 31 39 27 31 39 27 31 39 27 31 39 27 31 39 27 31 38 28 29 40 30 29 39 31 28 39 31 28 39 31 28 39 31 28 39 31 28 39 31 28 39 31 28 39 31 28 39 31 28 39 31 28 39 31 28 39 31 28 39 31 28 39 31 28 39 31 28
0 0 0 0 0 0 0 0 0 0 0 0 0 0 0 0 0 0 0 0 0 0 0 0 0 0 0 0 0 0 0 0 0 0 0 0 0 0 0 0 0 0 0 0 0 0 0 0 0 0 0 0 0 0 0 0 0 0 0 0 0 0 0 0 0 0 0 0 0 0 0 0 0 0 0 0 0 0 0 0 0 0 0 0 0 0 2 0 0 2 0 0 2 0 0 2 0 0 2 0 0 2 0 0 2 0 0 2 0 0 2 0 0 2 0 0 2 0 0 2 0 0 2 0 0 2 0 0 2 0 0 2 0 0 2 0 0 2 0 0 2 0 0 2 0 0 2 0 0 2 0 0 2 0 0 2 0 0 2 0 0 2 0 0 2 0 0 2 0 0 2 0 0 2 0 0 2 0 0 2 14 9 13 15 10 14 22 13 18 33 24 29 52 39 46 75 60 67 97 80 88 112 91 100 128 102 113 134 104 116 139 107 120 140 106 120 137 99 114 125 87 102 116 73 90 97 70 85 49 57 70 44 68 80 53 77 89 66 90 102 80 104 116 93 117 129 102 126 138 108 132 144 108 132 144 106 130 142 104 128 140 101 125 137 97 121 133 94 118 130 92 116 128 90 114 124 78 98 107 78 98 105 79 98 105 80 97 105 82 96 105 85 95 105 86 94 105 89 93 105 88 87 101 84 82 96 79 72 88 74 65 82 76 65 82 83 70 88 92 77 96 100 81 100 99 78 95 102 79 95 104 81 97 107 84 100 111 88 104 114 91 107 116 93 109 118 95 111 108 85 101 107 84 100 105 82 98 102 79 95 100 77 93 97 74 90 95 72 88 93 72 87 67 49 63 60 44 57 52 36 49 46 30 43 46 30 43 52 36 49 60 44 57 66 50 63 97 81 94 101 85 98 107 91 104 109 93 106 106 90 103 97 81 94 86 70 83 80 64 75 61 48 55 59 47 51 57 45 49 54 42 46 50 38 42 47 35 39 45 33 37 43 31 35 39 27 31 39 27 31 39 27 31 39 27 31 39 27 31 39 27 31 39 27 31 38 28 29 40 30 29 39 31 28 39 31 28 39 31 28 39 31 28 39 31 28 39 31 28 39 31 28 39 31 28 39 31 28 39 31 28 39 31 28 39 31 28 39 31 28 39 31 28 39 31 28
0 0 0 0 0 0 0 0 0 0 0 0 0 0 0 0 0 0 0 0 0 0 0 0 0 0 0 0 0 0 0 0 0 0 0 0 0 0 0 0 0 0 0 0 0 0 0 0 0 0 0 0 0 0 0 0 0 0 0 0 0 0 0 0 0 0 0 0 0 0 0 0 0 0 0 0 0 0 0 0 0 0 0 0 0 0 2 0 0 2 0 0 2 0 0 2 0 0 2 0 0 2 0 0 2 0 0 2 0 0 2 0 0 2 0 0 2 0 0 2 0 0 2 0 0 2 0 0 2 0 0 2 0 0 2 0 0 2 0 0 2 0 0 2 0 0 2 0 0 2 0 0 2 0 0 2 0 0 2 0 0 2 0 0 2 0 0 2 0 0 2 0 0 2 0 0 2 0 0 2 11 6 10 12 7 11 19 10 15 29 20 25 49 36 43 72 57 64 93 76 84 109 88 97 127 101 112 134 104 116 140 108 121 142 108 122 141 103 118 131 93 108 123 80 97 105 78 93 49 57 70 44 68 80 53 77 89 66 90 102 80 104 116 93 117 129 102 126 138 108 132 144 108 132 144 106 130 142 104 128 140 101 125 137 97 121 133 94 118 130 92 116 128 90 114 124 72 97 104 73 96 102 75 95 102 76 95 102 77 94 102 79 93 102 82 92 102 83 91 102 79 83 95 76 75 89 70 66 81 67 60 76 68 59 76 75 64 81 84 71 89 91 77 94 99 78 95 102 79 95 104 81 97 107 84 100 111 88 104 114 91 107 116 93 109 118 95 111 101 78 94 101 78 94 100 77 93 99 76 92 98 75 91 97 74 90 97 74 90 95 74 89 64 46 60 58 42 55 50 34 47 44 28 41 44 28 41 50 34 47 58 42 55 63 47 60 90 74 87 95 79 92 100 84 97 103 87 100 99 83 96 91 75 88 80 64 77 73 57 68 57 44 51 56 44 48 54 42 46 50 38 42 47 35 39 44 32 36 41 29 33 40 28 32 39 27 31 39 27 31 39 27 31 39 27 31 39 27 31 39 27 31 39 27 31 38 28 29 40 30 29 39 31 28 39 31 28 39 31 28 39 31 28 39 31 28 39 31 28 39 31 28 39 31 28 39 31 28 39 31 28 39 31 28 39 31 28 39 31 28 39 31 28 39 31 28
0 0 0 0 0 0 0 0 0 0 0 0 0 0 0 0 0 0 0 0 0 0 0 0 0 0 0 0 0 0 0 0 0 0 0 0 0 0 0 0 0 0 0 0 0 0 0 0 0 0 0 0 0 0 0 0 0 0 0 0 0 0 0 0 0 0 0 0 0 0 0 0 0 0 0 0 0 0 0 0 0 0 0 0 0 0 2 0 0 2 0 0 2 0 0 2 0 0 2 0 0 2 0 0 2 0 0 2 0 0 2 0 0 2 0 0 2 0 0 2 0 0 2 0 0 2 0 0 2 0 0 2 0 0 2 0 0 2 0 0 2 0 0 2 0 0 2 0 0 2 0 0 2 0 0 2 0 0 2 0 0 2 0 0 2 0 0 2 0 0 2 0 0 2 0 0 2 0 0 2 8 3 7 9 4 8 16 7 12 26 17 22 45 32 39 69 54 61 90 73 81 105 84 93 125 99 110 133 103 115 140 108 121 145 111 125 145 107 122 137 99 114 130 87 104 113 86 101 49 57 70 44 68 80 53 77 89 66 90 102 80 104 116 93 117 129 102 126 138 108 132 144 108 132 144 106 130 142 104 128 140 101 125 137 97 121 133 94 118 130 92 116 128 90 114 124 68 93 100 68 93 98 68 93 98 69 92 98 72 91 98 73 90 98 76 89 98 78 88 98 70 76 88 68 70 83 63 61 75 58 54 69 60 53 69 67 58 75 75 66 83 83 70 87 97 79 95 102 79 95 104 81 97 107 84 100 111 88 104 114 91 107 116 93 109 118 95 111 100 77 93 100 77 93 101 78 94 102 79 95 103 80 96 103 80 96 104 81 97 103 82 97 68 50 64 61 45 58 53 37 50 47 31 44 47 31 44 53 37 50 61 45 58 67 51 64 84 68 81 88 72 85 93 77 90 96 80 93 92 76 89 84 68 81 73 57 70 66 50 61 54 41 48 53 41 45 50 38 42 47 35 39 44 32 36 40 28 32 38 26 30 37 25 29 39 27 31 39 27 31 39 27 31 39 27 31 39 27 31 39 27 31 39 27 31 38 28 29 40 30 29 39 31 28 39 31 28 39 31 28 39 31 28 39 31 28 39 31 28 39 31 28 39 31 28 39 31 28 39 31 28 39 31 28 39 31 28 39 31 28 39 31 28 39 31 28
0 0 0 0 0 0 0 0 0 0 0 0 0 0 0 0 0 0 0 0 0 0 0 0 0 0 0 0 0 0 0 0 0 0 0 0 0 0 0 0 0 0 0 0 0 0 0 0 0 0 0 0 0 0 0 0 0 0 0 0 0 0 0 0 0 0 0 0 0 0 0 0 0 0 0 0 0 0 0 0 0 0 0 0 0 0 2 0 0 2 0 0 2 0 0 2 0 0 2 0 0 2 0 0 2 0 0 2 0 0 2 0 0 2 0 0 2 0 0 2 0 0 2 0 0 2 0 0 2 0 0 2 0 0 2 0 0 2 0 0 2 0 0 2 0 0 2 0 0 2 0 0 2 0 0 2 0 0 2 0 0 2 0 0 2 0 0 2 0 0 2 0 0 2 0 0 2 0 0 2 4 0 3 5 0 4 13 4 9 23 14 19 42 29 36 66 51 58 87 70 78 102 81 90 124 98 109 132 102 114 141 109 122 147 113 127 149 111 126 143 105 120 137 94 111 120 93 108 49 57 70 44 68 80 53 77 89 66 90 102 80 104 116 93 117 129 102 126 138 108 132 144 108 132 144 106 130 142 104 128 140 101 125 137 97 121 133 94 118 130 92 116 128 90 114 124 63 90 97 63 91 95 65 90 95 65 90 95 68 88 95 69 88 95 72 86 95 73 86 95 63 71 82 60 64 76 55 54 68 51 49 63 52 48 63 59 52 68 68 59 76 77 64 81 97 79 95 102 79 95 104 81 97 107 84 100 111 88 104 114 91 107 116 93 109 118 95 111 104 81 97 105 82 98 107 84 100 110 87 103 112 89 105 115 92 108 117 94 110 117 96 111 77 59 73 70 54 67 62 46 59 56 40 53 56 40 53 62 46 59 70 54 67 76 60 73 77 61 74 82 66 79 87 71 84 90 74 87 86 70 83 77 61 74 67 51 64 60 44 55 51 38 45 49 37 41 47 35 39 44 32 36 40 28 32 37 25 29 35 23 27 33 21 25 39 27 31 39 27 31 39 27 31 39 27 31 39 27 31 39 27 31 39 27 31 38 28 29 40 30 29 39 31 28 39 31 28 39 31 28 39 31 28 39 31 28 39 31 28 39 31 28 39 31 28 39 31 28 39 31 28 39 31 28 39 31 28 39 31 28 39 31 28 39 31 28
0 0 0 0 0 0 0 0 0 0 0 0 0 0 0 0 0 0 0 0 0 0 0 0 0 0 0 0 0 0 0 0 0 0 0 0 0 0 0 0 0 0 0 0 0 0 0 0 0 0 0 0 0 0 0 0 0 0 0 0 0 0 0 0 0 0 0 0 0 0 0 0 0 0 0 0 0 0 0 0 0 0 0 0 0 0 2 0 0 2 0 0 2 0 0 2 0 0 2 0 0 2 0 0 2 0 0 2 0 0 2 0 0 2 0 0 2 0 0 2 0 0 2 0 0 2 0 0 2 0 0 2 0 0 2 0 0 2 0 0 2 0 0 2 0 0 2 0 0 2 0 0 2 0 0 2 0 0 2 0 0 2 0 0 2 0 0 2 0 0 2 0 0 2 0 0 2 0 0 2 3 0 2 3 0 2 10 1 6 20 11 16 40 27 34 63 48 55 84 67 75 100 79 88 123 97 108 132 102 114 141 109 122 149 115 129 152 114 129 147 109 124 143 100 117 126 99 114 49 57 70 44 68 80 53 77 89 66 90 102 80 104 116 93 117 129 102 126 138 108 132 144 108 132 144 106 130 142 104 128 140 101 125 137 97 121 133 94 118 130 92 116 128 90 114 124 61 88 95 60 89 93 61 89 93 63 88 93 64 87 93 66 86 93 68 85 93 71 84 93 58 66 77 53 59 71 48 50 63 45 44 58 47 43 58 52 48 63 62 55 71 71 60 76 97 79 95 102 79 95 104 81 97 107 84 100 111 88 104 114 91 107 116 93 109 118 95 111 111 88 104 113 90 106 116 93 109 119 96 112 123 100 116 127 104 120 130 107 123 131 110 125 87 69 83 80 64 77 72 56 69 67 51 64 67 51 64 72 56 69 80 64 77 86 70 83 72 56 69 77 61 74 82 66 79 85 69 82 81 65 78 72 56 69 62 46 59 55 39 50 48 35 42 47 35 39 45 33 37 41 29 33 38 26 30 35 23 27 32 20 24 31 19 23 39 27 31 39 27 31 39 27 31 39 27 31 39 27 31 39 27 31 39 27 31 38 28 29 40 30 29 39 31 28 39 31 28 39 31 28 39 31 28 39 31 28 39 31 28 39 31 28 39 31 28 39 31 28 39 31 28 39 31 28 39 31 28 39 31 28 39 31 28 39 31 28
0 0 0 0 0 0 0 0 0 0 0 0 0 0 0 0 0 0 0 0 0 0 0 0 0 0 0 0 0 0 0 0 0 0 0 0 0 0 0 0 0 0 0 0 0 0 0 0 0 0 0 0 0 0 0 0 0 0 0 0 0 0 0 0 0 0 0 0 0 0 0 0 0 0 0 0 0 0 0 0 0 0 0 0 0 0 2 0 0 2 0 0 2 0 0 2 0 0 2 0 0 2 0 0 2 0 0 2 0 0 2 0 0 2 0 0 2 0 0 2 0 0 2 0 0 2 0 0 2 0 0 2 0 0 2 0 0 2 0 0 2 0 0 2 0 0 2 0 0 2 0 0 2 0 0 2 0 0 2 0 0 2 0 0 2 0 0 2 0 0 2 0 0 2 0 0 2 0 0 2 0 0 2 1 0 2 6 1 5 17 11 15 36 27 32 59 48 54 82 67 74 95 78 86 121 98 108 129 103 114 141 111 123 149 117 130 151 117 131 149 113 127 142 104 119 127 103 117 50 56 68 45 67 78 54 76 87 66 90 100 78 105 114 90 119 127 98 128 136 104 134 142 104 134 142 102 132 140 101 130 138 99 126 135 97 121 131 95 117 128 93 115 126 91 113 124 61 86 93 59 87 91 61 86 91 62 85 91 64 84 91 65 84 91 68 82 91 71 81 91 56 62 74 54 56 69 48 47 61 44 40 55 47 38 55 55 44 61 63 52 69 69 56 73 96 79 95 98 82 95 100 83 99 103 87 100 107 90 106 110 94 107 112 95 111 114 98 111 112 95 111 114 98 111 118 101 117 122 106 119 127 110 126 131 115 128 134 117 133 136 120 133 90 78 90 84 72 84 76 64 76 71 59 71 71 59 71 76 64 76 84 72 84 90 78 90 67 55 67 71 59 71 77 65 77 79 67 79 76 64 76 67 55 67 56 44 56 49 37 47 46 35 41 45 34 38 42 31 35 39 28 32 36 25 29 32 21 25 30 19 23 29 18 22 38 27 31 38 27 31 38 27 31 38 27 31 38 27 31 38 27 31 38 27 31 38 28 29 39 31 29 39 31 28 39 31 28 39 31 28 39 31 28 39 31 28 39 31 28 39 31 28 39 31 28 39 31 28 39 31 28 39 31 28 39 31 28 39 31 28 39 31 28 39 31 29
0 0 0 0 0 0 0 0 0 0 0 0 0 0 0 0 0 0 0 0 0 0 0 0 0 0 0 0 0 0 0 0 0 0 0 0 0 0 0 0 0 0 0 0 0 0 0 0 0 0 0 0 0 0 0 0 0 0 0 0 0 0 0 0 0 0 0 0 0 0 0 0 0 0 0 0 0 0 0 0 0 0 0 0 0 0 0 0 0 0 0 0 0 0 0 0 0 0 0 0 0 0 0 0 0 0 0 0 0 0 0 0 0 0 0 0 0 0 0 0 0 0 0 0 0 0 0 0 0 0 0 0 0 0 0 0 0 0 0 0 0 0 0 0 0 0 0 0 0 0 0 0 0 0 0 0 0 0 0 0 0 0 0 0 0 0 0 0 0 0 0 0 0 0 0 0 0 0 1 0 4 8 9 1 5 6 1 2 4 4 4 6 13 11 14 28 23 27 45 36 41 55 44 50 97 80 88 108 88 97 123 100 110 137 111 122 144 116 128 147 117 129 145 113 126 135 113 126 67 69 81 48 65 75 41 61 70 48 75 82 64 97 102 72 110 113 66 107 109 54 98 99 67 111 112 69 110 112 71 109 112 74 107 112 78 105 112 83 103 112 85 102 112 85 102 112 57 77 84 55 78 84 57 77 84 58 77 84 59 76 84 62 75 84 65 73 84 68 72 84 74 73 87 76 72 87 81 70 87 82 69 87 85 68 87 86 67 87 88 66 87 86 67 87 106 95 111 103 97 109 103 97 111 103 97 109 103 97 111 103 97 109 103 97 111 103 97 109 122 116 130 122 116 128 122 116 130 122 116 128 122 116 130 122 116 128 122 116 130 120 117 128 108 105 114 92 91 99 70 69 77 53 52 60 51 50 58 64 63 71 83 82 90 97 96 104 72 71 79 70 69 77 65 64 72 58 57 65 52 51 59 45 44 52 40 39 47 39 36 43 34 30 31 35 29 29 35 29 29 35 29 29 35 29 29 35 29 29 35 29 29 35 29 29 36 30 30 36 30 30 36 30 30 36 30 30 36 30 30 36 30 30 36 30 30 36 30 30 37 29 27 38 28 27 38 28 27 38 28 27 38 28 27 38 28 27 38 28 27 38 28 27 39 29 28 39 29 28 39 29 28 39 29 28 39 29 28 39 29 28 39 29 28 38 30 28
0 0 0 0 0 0 0 0 0 0 0 0 0 0 0 0 0 0 0 0 0 0 0 0 0 0 0 0 0 0 0 0 0 0 0 0 0 0 0 0 0 0 0 0 0 0 0 0 0 0 0 0 0 0 0 0 0 0 0 0 0 0 0 0 0 0 0 0 0 0 0 0 0 0 0 0 0 0 0 0 0 0 0 0 0 0 0 0 0 0 0 0 0 0 0 0 0 0 0 0 0 0 0 0 0 0 0 0 0 0 0 0 0 0 0 0 0 0 0 0 0 0 0 0 0 0 0 0 0 0 0 0 0 0 0 0 0 0 0 0 0 0 0 0 0 0 0 0 0 0 0 0 0 0 0 0 0 0 0 0 0 0 0 0 0 0 0 0 0 0 0 0 0 0 0 0 0 0 1 0 3 9 9 0 7 6 0 3 4 0 4 5 10 10 12 24 22 25 39 34 38 51 42 47 92 79 86 103 86 94 118 98 107 131 110 119 141 115 126 142 116 127 141 111 123 131 111 122 68 68 80 49 62 71 41 60 67 46 74 78 62 96 98 69 111 110 61 107 105 49 99 96 57 107 104 60 106 104 63 105 104 67 102 104 74 99 104 78 97 104 82 95 104 82 95 104 60 79 86 59 79 86 60 79 86 61 78 86 64 77 86 66 76 86 70 74 86 73 72 86 83 79 94 86 77 94 90 75 94 92 75 94 95 73 94 96 72 94 97 72 94 93 74 94 103 97 111 99 99 111 99 99 111 99 99 111 99 99 111 99 99 111 99 99 111 99 99 111 116 116 128 116 116 128 116 116 128 116 116 128 116 116 128 116 116 128 116 116 128 116 116 126 104 107 116 89 92 99 69 72 79 53 56 63 50 53 60 61 64 71 77 80 87 90 93 100 69 72 79 67 70 77 62 65 72 55 58 65 49 52 59 42 45 52 37 40 47 37 38 43 32 30 31 34 30 29 34 30 29 34 30 29 34 30 29 34 30 29 34 30 29 34 30 29 35 31 30 35 31 30 35 31 30 35 31 30 35 31 30 35 31 30 35 31 30 36 30 30 37 29 27 38 28 27 38 28 27 38 28 27 38 28 27 38 28 27 38 28 27 38 28 27 39 29 28 39 29 28 39 29 28 39 29 28 39 29 28 39 29 28 39 29 28 39 29 28
0 0 0 0 0 0 0 0 0 0 0 0 0 0 0 0 0 0 0 0 0 0 0 0 0 0 0 0 0 0 0 0 0 0 0 0 0 0 0 0 0 0 0 0 0 0 0 0 0 0 0 0 0 0 0 0 0 0 0 0 0 0 0 0 0 0 0 0 0 0 0 0 0 0 0 0 0 0 0 0 0 0 0 0 0 0 0 0 0 0 0 0 0 0 0 0 0 0 0 0 0 0 0 0 0 0 0 0 0 0 0 0 0 0 0 0 0 0 0 0 0 0 0 0 0 0 0 0 0 0 0 0 0 0 0 0 0 0 0 0 0 0 0 0 0 0 0 0 0 0 0 0 0 0 0 0 0 0 0 0 0 0 0 0 0 0 0 0 0 0 0 0 0 0 0 0 0 0 1 0 4 10 10 0 8 7 0 2 3 0 2 3 7 7 9 20 18 21 34 29 33 45 36 41 87 74 81 98 81 89 113 93 102 126 105 114 136 110 121 137 111 122 137 107 119 127 107 118 67 65 78 47 60 69 39 56 64 46 71 76 62 93 96 68 108 108 59 105 103 47 96 93 50 99 96 52 98 96 56 96 96 60 94 96 67 90 96 71 88 96 74 87 96 74 87 96 66 83 91 65 84 91 65 84 91 66 83 91 69 82 91 72 80 91 75 79 91 78 77 91 93 89 104 96 87 104 99 86 104 102 85 104 105 83 104 106 82 104 106 82 104 103 84 104 103 97 111 99 99 111 99 99 111 99 99 111 99 99 111 99 99 111 99 99 111 99 99 111 114 114 126 114 114 126 114 114 126 114 114 126 114 114 126 114 114 126 114 114 126 114 114 124 103 106 115 91 94 101 72 75 82 58 61 68 54 57 64 60 63 70 73 76 83 82 85 92 69 72 79 67 70 77 62 65 72 55 58 65 49 52 59 42 45 52 37 40 47 37 38 43 32 30 31 34 30 29 34 30 29 34 30 29 34 30 29 34 30 29 34 30 29 34 30 29 35 31 30 35 31 30 35 31 30 35 31 30 35 31 30 35 31 30 35 31 30 36 30 30 37 29 27 38 28 27 38 28 27 38 28 27 38 28 27 38 28 27 38 28 27 38 28 27 39 29 28 39 29 28 39 29 28 39 29 28 39 29 28 39 29 28 39 29 28 39 29 28
