P3
207 145
255
95 81 80 91 77 76 88 74 73 86 72 71 85 69 69 72 51 56 72 49 55 69 46 52 66 43 49 63 40 46 59 36 42 57 34 40 56 33 39 66 43 49 68 45 51 70 47 53 73 50 56 77 54 60 80 57 63 82 59 65 83 62 67 74 53 58 71 52 56 69 50 54 66 47 51 62 43 47 59 40 44 57 38 42 55 36 40 57 38 42 57 38 42 57 38 42 57 38 42 57 38 42 57 38 42 57 38 42 54 39 42 43 34 39 43 38 42 48 43 47 54 49 53 61 56 60 67 62 66 72 67 71 75 70 74 53 48 52 52 47 51 50 45 49 46 41 45 43 38 42 40 35 39 37 32 36 34 32 37 35 32 39 34 33 41 34 33 41 34 33 41 34 33 41 34 33 41 34 33 41 34 33 41 39 38 46 39 38 46 39 38 46 39 38 46 39 38 46 39 38 46 39 38 46 42 37 44 71 56 63 74 55 61 74 55 61 74 55 61 74 55 61 74 55 61 74 55 61 74 55 61 55 36 42 57 38 44 59 40 46 62 43 49 66 47 53 69 50 56 71 52 58 71 54 60 83 72 78 82 73 78 82 73 78 82 73 78 82 73 78 82 73 78 82 73 78 82 73 78 85 76 81 83 74 79 78 69 74 71 62 67 65 56 61 58 49 54 53 44 49 49 43 47 49 49 51 48 49 51 50 48 51 50 48 51 53 47 51 55 46 51 56 45 51 59 44 51 67 47 56 69 46 56 71 45 56 72 44 56 75 43 56 75 43 56 78 42 56 75 43 56 74 51 59 72 53 59 72 53 59 72 53 59 72 53 59 72 53 59 72 53 59 72 53 59 104 85 91 105 86 92 107 88 94 111 92 98 114 95 101 117 98 104 120 101 107 118 103 108 99 94 98 96 96 98 96 96 98 96 96 98 96 96 98 96 96 98 96 96 98 96 96 98 104 104 106 104 104 106 104 104 106 104 104 106 104 104 106 104 104 106 104 104 106 105 103 104 112 104 101 113 104 99 113 104 99 113 104 99 113 104 99 113 104 99 113 104 99 113 104 99 112 103 98 110 101 96 108 99 94 105 96 91 101 92 87 98 89 84 96 87 82 95 84 80 116 96 95 117 96 95 117 96 95 117 96 95 117 96 95 117 96 95 117 96 95 117 96 95 102 81 80 102 81 80 102 81 80 102 81 80 102 81 80 102 81 80 102 81 80 104 80 80 101 73 72 102 72 72 102 72 72 102 72 72 102 72 72 102 72 72 102 72 72 102 72 72 113 83 83 113 83 83 113 83 83 113 83 83 113 83 83 113 83 83 113 83 83 117 81 85 104 52 65 107 50 67 107 50 67 104 51 67 104 51 67 101 53 67 100 54 67 97 55 67 90 52 63 80 47 56
79 65 64 73 59 58 66 52 51 61 47 46 60 44 44 65 44 49 66 43 49 66 43 49 66 43 49 66 43 49 66 43 49 66 43 49 66 43 49 71 48 54 71 48 54 71 48 54 71 48 54 71 48 54 71 48 54 71 48 54 70 49 54 66 45 50 63 44 48 61 42 46 58 39 43 54 35 39 51 32 36 49 30 34 47 28 32 49 30 34 49 30 34 49 30 34 49 30 34 49 30 34 49 30 34 49 30 34 46 31 34 42 33 38 39 34 38 39 34 38 39 34 38 39 34 38 39 34 38 39 34 38 39 34 38 35 30 34 35 30 34 35 30 34 35 30 34 35 30 34 35 30 34 35 30 34 33 31 36 31 28 35 30 29 37 30 29 37 30 29 37 30 29 37 30 29 37 30 29 37 30 29 37 41 40 48 41 40 48 41 40 48 41 40 48 41 40 48 41 40 48 41 40 48 44 39 46 54 39 46 59 40 46 61 42 48 64 45 51 68 49 55 71 52 58 73 54 60 75 56 62 68 49 55 68 49 55 68 49 55 68 49 55 68 49 55 68 49 55 68 49 55 66 49 55 76 65 71 75 66 71 75 66 71 75 66 71 75 66 71 75 66 71 75 66 71 75 66 71 61 52 57 59 50 55 57 48 53 54 45 50 50 41 46 47 38 43 45 36 41 41 35 39 45 45 47 44 45 47 46 44 47 46 44 47 49 43 47 51 42 47 52 41 47 55 40 47 67 47 56 68 45 55 69 43 54 69 41 53 71 39 52 69 37 50 72 36 50 67 37 49 74 53 60 73 58 63 79 64 69 86 71 76 94 79 84 102 87 92 108 93 98 111 96 101 107 92 97 107 92 97 107 92 97 107 92 97 107 92 97 107 92 97 107 92 97 104 93 97 98 93 97 95 95 97 95 95 97 95 95 97 95 95 97 95 95 97 95 95 97 95 95 97 101 101 103 101 101 103 101 101 103 101 101 103 101 101 103 101 101 103 101 101 103 102 100 101 112 104 101 113 104 99 113 104 99 113 104 99 113 104 99 113 104 99 113 104 99 113 104 99 107 98 93 106 97 92 104 95 90 100 91 86 97 88 83 94 85 80 91 82 77 91 80 76 104 84 83 106 85 84 109 88 87 112 91 90 115 94 93 119 98 97 121 100 99 122 101 100 97 76 75 97 76 75 97 76 75 97 76 75 97 76 75 97 76 75 97 76 75 99 75 75 91 63 62 92 62 62 92 62 62 92 62 62 92 62 62 92 62 62 92 62 62 92 62 62 122 92 92 120 90 90 118 88 88 115 85 85 111 81 81 108 78 78 106 76 76 108 72 76 117 65 78 118 61 78 116 59 76 110 57 73 106 53 69 100 52 66 97 51 64 92 50 62 68 30 41 65 32 41
79 65 64 73 59 58 66 52 51 61 47 46 60 44 44 65 44 49 66 43 49 66 43 49 66 43 49 66 43 49 66 43 49 66 43 49 66 43 49 71 48 54 71 48 54 71 48 54 71 48 54 71 48 54 71 48 54 71 48 54 70 49 54 66 45 50 63 44 48 61 42 46 58 39 43 54 35 39 51 32 36 49 30 34 47 28 32 49 30 34 49 30 34 49 30 34 49 30 34 49 30 34 49 30 34 49 30 34 46 31 34 42 33 38 39 34 38 39 34 38 39 34 38 39 34 38 39 34 38 39 34 38 39 34 38 35 30 34 35 30 34 35 30 34 35 30 34 35 30 34 35 30 34 35 30 34 33 31 36 33 30 37 32 31 39 32 31 39 32 31 39 32 31 39 32 31 39 32 31 39 32 31 39 41 40 48 41 40 48 41 40 48 41 40 48 41 40 48 41 40 48 41 40 48 44 39 46 54 39 46 59 40 46 61 42 48 64 45 51 68 49 55 71 52 58 73 54 60 75 56 62 70 51 57 70 51 57 70 51 57 70 51 57 70 51 57 70 51 57 70 51 57 68 51 57 69 58 64 68 59 64 68 59 64 68 59 64 68 59 64 68 59 64 68 59 64 68 59 64 61 52 57 59 50 55 57 48 53 54 45 50 50 41 46 47 38 43 45 36 41 41 35 39 45 45 47 44 45 47 46 44 47 46 44 47 49 43 47 51 42 47 52 41 47 55 40 47 66 46 55 68 45 55 70 44 55 70 42 54 72 40 53 72 40 53 74 38 52 70 40 52 74 57 63 73 62 66 78 67 71 85 74 78 92 81 85 99 88 92 105 94 98 108 97 101 104 93 97 104 93 97 104 93 97 104 93 97 104 93 97 104 93 97 104 93 97 103 94 97 96 94 97 95 95 97 95 95 97 95 95 97 95 95 97 95 95 97 95 95 97 95 95 97 101 101 103 101 101 103 101 101 103 101 101 103 101 101 103 101 101 103 101 101 103 102 100 101 112 104 101 113 104 99 113 104 99 113 104 99 113 104 99 113 104 99 113 104 99 113 104 99 106 97 92 105 96 91 102 93 88 99 90 85 96 87 82 92 83 78 90 81 76 90 79 75 103 83 82 105 84 83 107 86 85 111 90 89 114 93 92 117 96 95 120 99 98 121 100 99 99 78 77 99 78 77 99 78 77 99 78 77 99 78 77 99 78 77 99 78 77 101 77 77 93 65 64 94 64 64 94 64 64 94 64 64 94 64 64 94 64 64 94 64 64 94 64 64 122 92 92 120 90 90 118 88 88 115 85 85 111 81 81 108 78 78 106 76 76 108 72 76 117 65 78 118 61 78 116 59 76 110 57 73 106 53 69 100 52 66 97 51 64 92 50 62 68 30 41 65 32 41
79 65 64 73 59 58 66 52 51 61 47 46 60 44 44 65 44 49 66 43 49 66 43 49 66 43 49 66 43 49 66 43 49 66 43 49 66 43 49 71 48 54 71 48 54 71 48 54 71 48 54 71 48 54 71 48 54 71 48 54 70 49 54 66 45 50 63 44 48 61 42 46 58 39 43 54 35 39 51 32 36 49 30 34 47 28 32 49 30 34 49 30 34 49 30 34 49 30 34 49 30 34 49 30 34 49 30 34 46 31 34 42 33 38 39 34 38 39 34 38 39 34 38 39 34 38 39 34 38 39 34 38 39 34 38 35 30 34 35 30 34 35 30 34 35 30 34 35 30 34 35 30 34 35 30 34 33 31 36 35 32 39 34 33 41 34 33 41 34 33 41 34 33 41 34 33 41 34 33 41 34 33 41 41 40 48 41 40 48 41 40 48 41 40 48 41 40 48 41 40 48 41 40 48 44 39 46 54 39 46 59 40 46 61 42 48 64 45 51 68 49 55 71 52 58 73 54 60 75 56 62 72 53 59 72 53 59 72 53 59 72 53 59 72 53 59 72 53 59 72 53 59 70 53 59 59 48 54 58 49 54 58 49 54 58 49 54 58 49 54 58 49 54 58 49 54 58 49 54 61 52 57 59 50 55 57 48 53 54 45 50 50 41 46 47 38 43 45 36 41 41 35 39 45 45 47 44 45 47 46 44 47 46 44 47 49 43 47 51 42 47 52 41 47 55 40 47 65 45 54 68 45 55 70 44 55 72 44 56 75 43 56 76 44 57 80 44 58 76 46 58 79 64 69 77 68 71 81 72 75 87 78 81 93 84 87 99 90 93 103 94 97 106 97 100 103 94 97 103 94 97 103 94 97 103 94 97 103 94 97 103 94 97 103 94 97 101 95 97 96 94 97 95 95 97 95 95 97 95 95 97 95 95 97 95 95 97 95 95 97 95 95 97 101 101 103 101 101 103 101 101 103 101 101 103 101 101 103 101 101 103 101 101 103 102 100 101 112 104 101 113 104 99 113 104 99 113 104 99 113 104 99 113 104 99 113 104 99 113 104 99 104 95 90 102 93 88 100 91 86 97 88 83 93 84 79 90 81 76 88 79 74 87 76 72 100 80 79 103 82 81 105 84 83 108 87 86 112 91 90 115 94 93 117 96 95 119 98 97 101 80 79 101 80 79 101 80 79 101 80 79 101 80 79 101 80 79 101 80 79 103 79 79 95 67 66 96 66 66 96 66 66 96 66 66 96 66 66 96 66 66 96 66 66 96 66 66 122 92 92 120 90 90 118 88 88 115 85 85 111 81 81 108 78 78 106 76 76 108 72 76 117 65 78 118 61 78 116 59 76 110 57 73 106 53 69 100 52 66 97 51 64 92 50 62 68 30 41 65 32 41
79 65 64 73 59 58 66 52 51 61 47 46 60 44 44 65 44 49 66 43 49 66 43 49 66 43 49 66 43 49 66 43 49 66 43 49 66 43 49 71 48 54 71 48 54 71 48 54 71 48 54 71 48 54 71 48 54 71 48 54 70 49 54 66 45 50 63 44 48 61 42 46 58 39 43 54 35 39 51 32 36 49 30 34 47 28 32 49 30 34 49 30 34 49 30 34 49 30 34 49 30 34 49 30 34 49 30 34 46 31 34 42 33 38 39 34 38 39 34 38 39 34 38 39 34 38 39 34 38 39 34 38 39 34 38 35 30 34 35 30 34 35 30 34 35 30 34 35 30 34 35 30 34 35 30 34 33 31 36 38 35 42 37 36 44 37 36 44 37 36 44 37 36 44 37 36 44 37 36 44 37 36 44 41 40 48 41 40 48 41 40 48 41 40 48 41 40 48 41 40 48 41 40 48 44 39 46 54 39 46 59 40 46 61 42 48 64 45 51 68 49 55 71 52 58 73 54 60 75 56 62 75 56 62 75 56 62 75 56 62 75 56 62 75 56 62 75 56 62 75 56 62 73 56 62 50 39 45 49 40 45 49 40 45 49 40 45 49 40 45 49 40 45 49 40 45 49 40 45 61 52 57 59 50 55 57 48 53 54 45 50 50 41 46 47 38 43 45 36 41 41 35 39 45 45 47 44 45 47 46 44 47 46 44 47 49 43 47 51 42 47 52 41 47 55 40 47 64 44 53 67 44 54 71 45 56 74 46 58 80 48 61 82 50 63 87 51 65 82 54 66 84 72 76 81 77 78 85 79 81 88 84 85 93 87 89 97 93 94 101 95 97 101 97 98 101 95 97 100 96 97 101 95 97 100 96 97 101 95 97 100 96 97 101 95 97 100 96 97 96 94 97 95 95 97 95 95 97 95 95 97 95 95 97 95 95 97 95 95 97 95 95 97 101 101 103 101 101 103 101 101 103 101 101 103 101 101 103 101 101 103 101 101 103 102 100 101 112 104 101 113 104 99 113 104 99 113 104 99 113 104 99 113 104 99 113 104 99 113 104 99 100 91 86 99 90 85 97 88 83 93 84 79 90 81 76 87 78 73 84 75 70 84 73 69 97 77 76 99 78 77 102 81 80 105 84 83 108 87 86 112 91 90 114 93 92 115 94 93 104 83 82 104 83 82 104 83 82 104 83 82 104 83 82 104 83 82 104 83 82 106 82 82 98 70 69 99 69 69 99 69 69 99 69 69 99 69 69 99 69 69 99 69 69 99 69 69 122 92 92 120 90 90 118 88 88 115 85 85 111 81 81 108 78 78 106 76 76 108 72 76 117 65 78 118 61 78 116 59 76 110 57 73 106 53 69 100 52 66 97 51 64 92 50 62 68 30 41 65 32 41
79 65 64 73 59 58 66 52 51 61 47 46 60 44 44 65 44 49 66 43 49 66 43 49 66 43 49 66 43 49 66 43 49 66 43 49 66 43 49 71 48 54 71 48 54 71 48 54 71 48 54 71 48 54 71 48 54 71 48 54 70 49 54 66 45 50 63 44 48 61 42 46 58 39 43 54 35 39 51 32 36 49 30 34 47 28 32 49 30 34 49 30 34 49 30 34 49 30 34 49 30 34 49 30 34 49 30 34 46 31 34 42 33 38 39 34 38 39 34 38 39 34 38 39 34 38 39 34 38 39 34 38 39 34 38 35 30 34 35 30 34 35 30 34 35 30 34 35 30 34 35 30 34 35 30 34 33 31 36 42 39 46 41 40 48 41 40 48 41 40 48 41 40 48 41 40 48 41 40 48 41 40 48 41 40 48 41 40 48 41 40 48 41 40 48 41 40 48 41 40 48 41 40 48 44 39 46 54 39 46 59 40 46 61 42 48 64 45 51 68 49 55 71 52 58 73 54 60 75 56 62 79 60 66 79 60 66 79 60 66 79 60 66 79 60 66 79 60 66 79 60 66 77 60 66 47 36 42 46 37 42 46 37 42 46 37 42 46 37 42 46 37 42 46 37 42 46 37 42 61 52 57 59 50 55 57 48 53 54 45 50 50 41 46 47 38 43 45 36 41 41 35 39 45 45 47 44 45 47 46 44 47 46 44 47 49 43 47 51 42 47 52 41 47 55 40 47 63 43 52 66 43 53 71 45 56 77 49 61 84 52 65 88 56 69 94 58 72 90 62 74 91 80 84 86 84 85 90 86 87 90 88 89 95 91 92 95 93 94 99 95 96 98 96 97 100 96 97 98 96 97 100 96 97 98 96 97 100 96 97 98 96 97 100 96 97 98 96 97 95 95 97 95 95 97 95 95 97 95 95 97 95 95 97 95 95 97 95 95 97 95 95 97 101 101 103 101 101 103 101 101 103 101 101 103 101 101 103 101 101 103 101 101 103 102 100 101 112 104 101 113 104 99 113 104 99 113 104 99 113 104 99 113 104 99 113 104 99 113 104 99 97 88 83 96 87 82 93 84 79 90 81 76 87 78 73 83 74 69 81 72 67 81 70 66 94 74 73 96 75 74 98 77 76 102 81 80 105 84 83 108 87 86 111 90 89 112 91 90 108 87 86 108 87 86 108 87 86 108 87 86 108 87 86 108 87 86 108 87 86 110 86 86 102 74 73 103 73 73 103 73 73 103 73 73 103 73 73 103 73 73 103 73 73 103 73 73 122 92 92 120 90 90 118 88 88 115 85 85 111 81 81 108 78 78 106 76 76 108 72 76 117 65 78 118 61 78 116 59 76 110 57 73 106 53 69 100 52 66 97 51 64 92 50 62 68 30 41 65 32 41
79 65 64 73 59 58 66 52 51 61 47 46 60 44 44 65 44 49 66 43 49 66 43 49 66 43 49 66 43 49 66 43 49 66 43 49 66 43 49 71 48 54 71 48 54 71 48 54 71 48 54 71 48 54 71 48 54 71 48 54 70 49 54 66 45 50 63 44 48 61 42 46 58 39 43 54 35 39 51 32 36 49 30 34 47 28 32 49 30 34 49 30 34 49 30 34 49 30 34 49 30 34 49 30 34 49 30 34 46 31 34 42 33 38 39 34 38 39 34 38 39 34 38 39 34 38 39 34 38 39 34 38 39 34 38 35 30 34 35 30 34 35 30 34 35 30 34 35 30 34 35 30 34 35 30 34 33 31 36 45 42 49 44 43 51 44 43 51 44 43 51 44 43 51 44 43 51 44 43 51 44 43 51 41 40 48 41 40 48 41 40 48 41 40 48 41 40 48 41 40 48 41 40 48 44 39 46 54 39 46 59 40 46 61 42 48 64 45 51 68 49 55 71 52 58 73 54 60 75 56 62 82 63 69 82 63 69 82 63 69 82 63 69 82 63 69 82 63 69 82 63 69 80 63 69 49 38 44 48 39 44 48 39 44 48 39 44 48 39 44 48 39 44 48 39 44 48 39 44 61 52 57 59 50 55 57 48 53 54 45 50 50 41 46 47 38 43 45 36 41 41 35 39 45 45 47 44 45 47 46 44 47 46 44 47 49 43 47 51 42 47 52 41 47 55 40 47 61 41 50 66 43 53 72 46 57 79 51 63 88 56 69 94 62 75 101 65 79 97 69 81 99 88 92 92 92 92 94 92 93 94 94 94 95 93 94 95 95 95 96 94 95 96 96 96 98 96 97 97 97 97 98 96 97 97 97 97 98 96 97 97 97 97 98 96 97 97 97 97 95 95 97 95 95 97 95 95 97 95 95 97 95 95 97 95 95 97 95 95 97 95 95 97 101 101 103 101 101 103 101 101 103 101 101 103 101 101 103 101 101 103 101 101 103 102 100 101 112 104 101 113 104 99 113 104 99 113 104 99 113 104 99 113 104 99 113 104 99 113 104 99 94 85 80 92 83 78 90 81 76 87 78 73 83 74 69 80 71 66 78 69 64 77 66 62 90 70 69 93 72 71 95 74 73 98 77 76 102 81 80 105 84 83 107 86 85 109 88 87 111 90 89 111 90 89 111 90 89 111 90 89 111 90 89 111 90 89 111 90 89 113 89 89 105 77 76 106 76 76 106 76 76 106 76 76 106 76 76 106 76 76 106 76 76 106 76 76 122 92 92 120 90 90 118 88 88 115 85 85 111 81 81 108 78 78 106 76 76 108 72 76 117 65 78 118 61 78 116 59 76 110 57 73 106 53 69 100 52 66 97 51 64 92 50 62 68 30 41 65 32 41
79 65 64 73 59 58 66 52 51 61 47 46 60 44 44 65 44 49 66 43 49 66 43 49 66 43 49 66 43 49 66 43 49 66 43 49 66 43 49 71 48 54 71 48 54 71 48 54 71 48 54 71 48 54 71 48 54 71 48 54 70 49 54 66 45 50 63 44 48 61 42 46 58 39 43 54 35 39 51 32 36 49 30 34 47 28 32 49 30 34 49 30 34 49 30 34 49 30 34 49 30 34 49 30 34 49 30 34 46 31 34 42 33 38 39 34 38 39 34 38 39 34 38 39 34 38 39 34 38 39 34 38 39 34 38 35 30 34 35 30 34 35 30 34 35 30 34 35 30 34 35 30 34 35 30 34 33 31 36 47 44 51 46 45 53 46 45 53 46 45 53 46 45 53 46 45 53 46 45 53 46 45 53 41 40 48 41 40 48 41 40 48 41 40 48 41 40 48 41 40 48 41 40 48 44 39 46 54 39 46 59 40 46 61 42 48 64 45 51 68 49 55 71 52 58 73 54 60 75 56 62 84 65 71 84 65 71 84 65 71 84 65 71 84 65 71 84 65 71 84 65 71 82 65 71 55 44 50 54 45 50 54 45 50 54 45 50 54 45 50 54 45 50 54 45 50 54 45 50 61 52 57 59 50 55 57 48 53 54 45 50 50 41 46 47 38 43 45 36 41 41 35 39 45 45 47 44 45 47 46 44 47 46 44 47 49 43 47 51 42 47 52 41 47 55 40 47 60 40 49 65 42 52 73 47 58 81 53 65 91 59 72 98 66 79 106 70 84 103 75 87 104 95 98 97 99 98 97 97 97 96 98 97 96 96 96 94 96 95 95 95 95 94 96 95 97 97 97 96 98 97 97 97 97 96 98 97 97 97 97 96 98 97 97 97 97 97 97 97 95 95 97 95 95 97 95 95 97 95 95 97 95 95 97 95 95 97 95 95 97 95 95 97 101 101 103 101 101 103 101 101 103 101 101 103 101 101 103 101 101 103 101 101 103 102 100 101 112 104 101 113 104 99 113 104 99 113 104 99 113 104 99 113 104 99 113 104 99 113 104 99 91 82 77 90 81 76 88 79 74 84 75 70 81 72 67 78 69 64 75 66 61 75 64 60 88 68 67 90 69 68 93 72 71 96 75 74 99 78 77 103 82 81 105 84 83 106 85 84 113 92 91 113 92 91 113 92 91 113 92 91 113 92 91 113 92 91 113 92 91 115 91 91 107 79 78 108 78 78 108 78 78 108 78 78 108 78 78 108 78 78 108 78 78 108 78 78 122 92 92 120 90 90 118 88 88 115 85 85 111 81 81 108 78 78 106 76 76 108 72 76 117 65 78 118 61 78 116 59 76 110 57 73 106 53 69 100 52 66 97 51 64 92 50 62 68 30 41 65 32 41
77 66 64 73 59 58 64 53 51 61 47 46 60 44 45 65 45 47 66 43 49 66 43 49 66 43 49 66 43 49 66 43 49 66 43 49 66 43 49 71 48 54 71 48 54 71 48 54 71 48 54 71 48 54 71 48 54 71 48 54 71 48 54 66 45 50 63 44 48 61 42 46 58 39 43 54 35 39 51 32 36 49 30 34 47 28 32 49 30 34 49 30 34 49 30 34 49 30 34 49 30 34 49 30 34 49 30 34 46 31 34 42 33 38 39 34 38 40 34 38 39 34 38 40 34 38 39 34 38 40 34 38 39 34 38 36 30 34 35 30 34 36 30 34 35 30 34 36 30 34 35 30 34 36 30 34 35 30 36 49 46 53 48 47 53 48 47 55 48 47 53 48 47 55 48 47 53 48 47 55 48 47 53 41 40 48 41 40 46 41 40 48 41 40 46 41 40 48 41 40 46 41 40 48 44 39 45 52 39 46 56 41 44 59 42 48 61 46 49 66 49 55 68 53 56 71 54 60 72 57 60 84 67 73 83 68 71 84 67 73 83 68 71 84 67 73 83 68 71 84 67 73 83 68 73 59 48 52 58 49 54 58 49 54 58 49 54 58 49 54 58 49 54 58 49 54 58 49 54 61 52 57 59 50 55 57 48 53 54 45 50 50 41 46 47 38 43 45 36 41 41 35 39 46 44 45 46 44 45 48 44 45 48 44 45 49 43 45 51 42 45 52 41 45 53 41 45 58 41 47 63 44 50 70 49 56 79 56 64 89 63 72 97 70 79 105 75 85 103 80 88 107 98 101 100 100 100 100 100 100 98 98 98 97 97 97 96 96 96 95 95 95 94 94 94 97 97 97 97 97 97 97 97 97 97 97 97 97 97 97 97 97 97 97 97 97 97 97 97 95 95 95 95 95 95 96 94 97 95 95 95 96 94 97 95 95 95 96 94 97 95 95 95 102 100 103 101 101 101 102 100 103 101 101 101 102 100 103 101 101 101 102 100 103 104 100 99 112 104 101 114 103 99 114 103 99 114 103 99 114 103 99 114 103 99 114 103 99 114 103 99 91 80 76 90 79 75 87 76 72 84 73 69 81 70 66 77 66 62 75 64 60 76 62 59 87 67 66 89 68 67 91 70 69 95 74 73 98 77 76 101 80 79 104 83 82 105 84 83 115 94 93 115 94 93 115 94 93 115 94 93 115 94 93 115 94 93 115 94 93 117 93 93 107 81 80 109 81 80 109 81 80 109 81 80 109 81 80 110 80 80 110 80 80 110 80 80 123 91 92 121 89 90 121 87 88 118 84 85 114 80 81 112 76 78 110 74 76 111 70 76 117 65 78 116 62 78 113 60 76 109 58 73 103 55 69 99 53 66 95 51 64 91 51 62 67 31 41 64 33 41
81 71 70 76 64 64 68 58 57 64 52 52 64 50 50 71 51 53 74 49 53 74 49 53 74 49 53 74 49 53 74 49 53 74 49 53 74 49 53 70 45 49 70 45 49 70 45 49 70 45 49 70 45 49 70 45 49 70 45 49 68 46 49 54 33 38 53 34 38 53 34 38 53 34 38 53 34 38 53 34 38 53 34 38 53 34 38 41 22 26 41 22 26 41 22 26 41 22 26 41 22 26 41 22 26 41 22 26 39 23 26 39 28 34 37 31 35 42 33 38 43 37 41 48 39 44 50 44 48 54 45 50 53 47 51 53 44 49 51 45 49 53 44 49 51 45 49 53 44 49 51 45 49 53 44 49 51 45 49 52 50 55 50 49 54 49 48 54 48 47 52 47 46 52 45 44 49 45 44 50 44 43 48 51 50 56 58 57 62 66 65 71 73 72 77 75 74 80 70 69 74 63 62 68 59 57 60 41 35 37 45 37 35 51 41 42 57 49 47 64 54 55 70 62 60 76 66 67 77 69 67 93 83 84 92 84 82 93 83 84 92 84 82 93 83 84 92 84 82 93 83 84 93 83 84 68 57 61 66 55 59 64 53 57 61 50 54 57 46 50 54 43 47 52 41 45 50 39 43 60 49 53 58 47 51 54 43 47 50 39 43 45 34 38 41 30 34 37 26 30 35 26 29 69 60 61 69 61 59 69 61 59 69 61 59 69 61 59 70 60 59 70 60 59 70 60 59 83 71 71 84 72 72 88 74 74 92 78 78 95 81 81 99 83 84 102 86 87 102 88 88 102 93 94 101 95 95 102 96 96 103 97 97 104 98 98 106 100 100 106 100 100 107 101 101 111 105 105 109 103 103 106 100 100 101 95 95 97 91 91 92 86 86 89 83 83 86 82 81 100 96 95 98 97 95 100 96 97 98 97 95 100 96 97 98 97 95 100 96 97 98 97 95 106 102 103 104 103 101 106 102 103 104 103 101 106 102 103 104 103 101 106 102 103 107 102 99 117 106 102 117 104 98 115 102 96 112 99 93 108 95 89 105 92 86 103 90 84 101 88 82 84 71 65 84 71 65 84 71 65 84 71 65 84 71 65 84 71 65 84 71 65 85 70 65 82 61 60 84 60 60 84 60 60 84 60 60 84 60 60 84 60 60 84 60 60 84 60 60 99 75 75 100 76 76 103 79 79 106 82 82 109 85 85 113 89 89 115 91 91 114 93 92 103 82 81 105 84 83 109 85 85 112 88 88 117 91 92 122 93 95 125 95 97 128 96 99 122 86 90 122 83 88 121 80 86 119 76 83 117 72 79 115 68 76 115 65 74 113 63 74 117 67 79 115 64 79 111 63 77 107 61 74 101 57 70 96 56 67 92 54 65 87 54 63 61 31 39 58 33 39
81 71 70 75 65 64 68 58 57 63 53 52 64 50 50 71 51 53 74 49 53 74 49 53 74 49 53 74 49 53 74 49 53 74 49 53 74 49 53 70 45 49 70 45 49 70 45 49 70 45 49 70 45 49 70 45 49 70 45 49 68 46 49 54 33 38 53 34 38 53 34 38 53 34 38 53 34 38 53 34 38 53 34 38 53 34 38 43 24 28 43 24 28 43 24 28 43 24 28 43 24 28 43 24 28 43 24 28 41 25 28 42 31 37 42 33 38 44 35 40 48 39 44 51 42 47 54 45 50 57 48 53 58 49 54 53 44 49 53 44 49 53 44 49 53 44 49 53 44 49 53 44 49 53 44 49 51 45 49 51 49 54 50 49 54 50 49 54 49 48 53 48 47 52 48 47 52 47 46 51 47 46 51 55 54 59 60 59 64 69 68 73 75 74 79 76 75 80 71 70 75 63 62 67 59 57 60 40 36 35 43 38 35 48 43 40 55 50 47 61 56 53 68 63 60 73 68 65 75 70 67 90 85 82 90 85 82 90 85 82 90 85 82 90 85 82 90 85 82 90 85 82 90 85 82 68 57 61 66 55 59 64 53 57 61 50 54 57 46 50 54 43 47 52 41 45 50 39 43 60 49 53 59 48 52 56 45 49 52 41 45 48 37 41 45 34 38 42 31 35 40 30 31 72 62 61 72 62 60 72 62 60 72 62 60 72 62 60 72 62 60 72 62 60 72 62 60 83 73 71 84 74 72 87 77 75 90 80 78 93 83 81 97 87 85 99 89 87 100 90 88 103 94 95 103 94 95 103 94 95 104 95 96 105 96 97 105 96 97 106 97 98 106 97 98 111 102 103 110 101 102 107 98 99 103 94 95 99 90 91 95 86 87 92 83 84 89 83 83 101 95 95 100 96 95 100 96 95 100 96 95 100 96 95 100 96 95 100 96 95 100 96 95 106 102 101 106 102 101 106 102 101 106 102 101 106 102 101 106 102 101 106 102 101 107 102 99 119 105 102 118 103 98 116 101 96 113 98 93 109 94 89 106 91 86 104 89 84 102 87 82 87 72 67 87 72 67 87 72 67 87 72 67 87 72 67 87 72 67 87 72 67 89 71 67 84 63 62 86 62 62 86 62 62 86 62 62 86 62 62 86 62 62 86 62 62 86 62 62 98 74 74 99 75 75 101 77 77 105 81 81 108 84 84 111 87 87 114 90 90 113 92 91 102 82 81 103 85 83 107 86 85 110 89 88 117 91 92 122 93 95 125 95 97 130 95 99 124 85 90 124 81 88 124 79 86 122 75 83 121 70 79 118 67 76 119 63 74 115 61 74 117 67 79 112 66 79 110 64 77 104 62 74 100 58 70 94 56 67 91 55 65 86 55 63 59 32 39 56 33 39
81 71 70 75 65 64 68 58 57 63 53 52 64 50 50 71 51 53 74 49 53 74 49 53 74 49 53 74 49 53 74 49 53 74 49 53 74 49 53 70 45 49 70 45 49 70 45 49 70 45 49 70 45 49 70 45 49 70 45 49 68 46 49 54 33 38 53 34 38 53 34 38 53 34 38 53 34 38 53 34 38 53 34 38 53 34 38 45 26 30 45 26 30 45 26 30 45 26 30 45 26 30 45 26 30 45 26 30 43 27 30 47 36 42 47 38 43 49 40 45 52 43 48 56 47 52 59 50 55 62 53 58 63 54 59 53 44 49 53 44 49 53 44 49 53 44 49 53 44 49 53 44 49 53 44 49 51 45 49 50 48 53 50 49 54 50 49 54 51 50 55 51 50 55 52 51 56 53 52 57 53 52 57 60 59 64 66 65 70 73 72 77 78 77 82 77 76 81 71 70 75 63 62 67 58 56 59 40 36 35 43 38 35 48 43 40 55 50 47 61 56 53 68 63 60 73 68 65 75 70 67 90 85 82 90 85 82 90 85 82 90 85 82 90 85 82 90 85 82 90 85 82 90 85 82 68 57 61 66 55 59 64 53 57 61 50 54 57 46 50 54 43 47 52 41 45 50 39 43 62 51 55 61 50 54 59 48 52 57 46 50 54 43 47 51 40 44 49 38 42 48 38 39 74 64 63 74 64 62 74 64 62 74 64 62 74 64 62 74 64 62 74 64 62 74 64 62 85 75 73 87 77 75 89 79 77 92 82 80 96 86 84 99 89 87 101 91 89 103 93 91 104 95 96 103 94 95 103 94 95 102 93 94 102 93 94 101 92 93 100 91 92 100 91 92 108 99 100 107 98 99 105 96 97 102 93 94 100 91 92 97 88 89 95 86 87 92 86 86 101 95 95 100 96 95 100 96 95 100 96 95 100 96 95 100 96 95 100 96 95 100 96 95 106 102 101 106 102 101 106 102 101 106 102 101 106 102 101 106 102 101 106 102 101 107 102 99 119 105 102 118 103 98 116 101 96 113 98 93 109 94 89 106 91 86 104 89 84 102 87 82 89 74 69 89 74 69 89 74 69 89 74 69 89 74 69 89 74 69 89 74 69 91 73 69 86 65 64 88 64 64 88 64 64 88 64 64 88 64 64 88 64 64 88 64 64 88 64 64 95 71 71 97 73 73 99 75 75 102 78 78 106 82 82 109 85 85 111 87 87 111 90 89 102 82 81 103 85 83 107 86 85 110 89 88 117 91 92 122 93 95 125 95 97 130 95 99 124 85 90 124 81 88 124 79 86 122 75 83 121 70 79 118 67 76 119 63 74 115 61 74 117 67 79 112 66 79 110 64 77 104 62 74 100 58 70 94 56 67 91 55 65 86 55 63 59 32 39 56 33 39
81 71 70 75 65 64 68 58 57 63 53 52 64 50 50 71 51 53 74 49 53 74 49 53 74 49 53 74 49 53 74 49 53 74 49 53 74 49 53 70 45 49 70 45 49 70 45 49 70 45 49 70 45 49 70 45 49 70 45 49 68 46 49 54 33 38 53 34 38 53 34 38 53 34 38 53 34 38 53 34 38 53 34 38 53 34 38 48 29 33 48 29 33 48 29 33 48 29 33 48 29 33 48 29 33 48 29 33 46 30 33 53 42 48 53 44 49 56 47 52 59 50 55 62 53 58 65 56 61 68 59 64 69 60 65 53 44 49 53 44 49 53 44 49 53 44 49 53 44 49 53 44 49 53 44 49 51 45 49 49 47 52 49 48 53 51 50 55 53 52 57 56 55 60 58 57 62 60 59 64 61 60 65 68 67 72 73 72 77 79 78 83 82 81 86 80 79 84 72 71 76 62 61 66 56 54 57 40 36 35 43 38 35 48 43 40 55 50 47 61 56 53 68 63 60 73 68 65 75 70 67 90 85 82 90 85 82 90 85 82 90 85 82 90 85 82 90 85 82 90 85 82 90 85 82 68 57 61 66 55 59 64 53 57 61 50 54 57 46 50 54 43 47 52 41 45 50 39 43 64 53 57 64 53 57 63 52 56 62 51 55 61 50 54 60 49 53 60 49 53 59 49 50 77 67 66 77 67 65 77 67 65 77 67 65 77 67 65 77 67 65 77 67 65 77 67 65 89 79 77 90 80 78 92 82 80 96 86 84 99 89 87 102 92 90 105 95 93 106 96 94 105 96 97 104 95 96 102 93 94 100 91 92 97 88 89 95 86 87 93 84 85 92 83 84 103 94 95 103 94 95 102 93 94 101 92 93 101 92 93 100 91 92 99 90 91 97 91 91 101 95 95 100 96 95 100 96 95 100 96 95 100 96 95 100 96 95 100 96 95 100 96 95 106 102 101 106 102 101 106 102 101 106 102 101 106 102 101 106 102 101 106 102 101 107 102 99 119 105 102 118 103 98 116 101 96 113 98 93 109 94 89 106 91 86 104 89 84 102 87 82 92 77 72 92 77 72 92 77 72 92 77 72 92 77 72 92 77 72 92 77 72 94 76 72 89 68 67 91 67 67 91 67 67 91 67 67 91 67 67 91 67 67 91 67 67 91 67 67 92 68 68 93 69 69 96 72 72 99 75 75 102 78 78 106 82 82 108 84 84 107 86 85 102 82 81 103 85 83 107 86 85 110 89 88 117 91 92 122 93 95 125 95 97 130 95 99 124 85 90 124 81 88 124 79 86 122 75 83 121 70 79 118 67 76 119 63 74 115 61 74 117 67 79 112 66 79 110 64 77 104 62 74 100 58 70 94 56 67 91 55 65 86 55 63 59 32 39 56 33 39
81 71 70 75 65 64 68 58 57 63 53 52 64 50 50 71 51 53 74 49 53 74 49 53 74 49 53 74 49 53 74 49 53 74 49 53 74 49 53 70 45 49 70 45 49 70 45 49 70 45 49 70 45 49 70 45 49 70 45 49 68 46 49 54 33 38 53 34 38 53 34 38 53 34 38 53 34 38 53 34 38 53 34 38 53 34 38 52 33 37 52 33 37 52 33 37 52 33 37 52 33 37 52 33 37 52 33 37 50 34 37 60 49 55 60 51 56 63 54 59 66 57 62 69 60 65 72 63 68 75 66 71 76 67 72 53 44 49 53 44 49 53 44 49 53 44 49 53 44 49 53 44 49 53 44 49 51 45 49 48 46 51 48 47 52 51 50 55 56 55 60 60 59 64 64 63 68 67 66 71 69 68 73 76 75 80 80 79 84 85 84 89 87 86 91 82 81 86 72 71 76 61 60 65 55 53 56 40 36 35 43 38 35 48 43 40 55 50 47 61 56 53 68 63 60 73 68 65 75 70 67 90 85 82 90 85 82 90 85 82 90 85 82 90 85 82 90 85 82 90 85 82 90 85 82 68 57 61 66 55 59 64 53 57 61 50 54 57 46 50 54 43 47 52 41 45 50 39 43 66 55 59 66 55 59 67 56 60 68 57 61 69 58 62 70 59 63 70 59 63 71 61 62 81 71 70 81 71 69 81 71 69 81 71 69 81 71 69 81 71 69 81 71 69 81 71 69 92 82 80 93 83 81 96 86 84 99 89 87 102 92 90 106 96 94 108 98 96 109 99 97 106 97 98 105 96 97 102 93 94 97 88 89 93 84 85 89 80 81 86 77 78 84 75 76 99 90 91 99 90 91 100 91 92 101 92 93 101 92 93 102 93 94 103 94 95 101 95 95 101 95 95 100 96 95 100 96 95 100 96 95 100 96 95 100 96 95 100 96 95 100 96 95 106 102 101 106 102 101 106 102 101 106 102 101 106 102 101 106 102 101 106 102 101 107 102 99 119 105 102 118 103 98 116 101 96 113 98 93 109 94 89 106 91 86 104 89 84 102 87 82 96 81 76 96 81 76 96 81 76 96 81 76 96 81 76 96 81 76 96 81 76 98 80 76 93 72 71 95 71 71 95 71 71 95 71 71 95 71 71 95 71 71 95 71 71 95 71 71 89 65 65 90 66 66 92 68 68 96 72 72 99 75 75 102 78 78 105 81 81 104 83 82 102 82 81 103 85 83 107 86 85 110 89 88 117 91 92 122 93 95 125 95 97 130 95 99 124 85 90 124 81 88 124 79 86 122 75 83 121 70 79 118 67 76 119 63 74 115 61 74 117 67 79 112 66 79 110 64 77 104 62 74 100 58 70 94 56 67 91 55 65 86 55 63 59 32 39 56 33 39
81 71 70 75 65 64 68 58 57 63 53 52 64 50 50 71 51 53 74 49 53 74 49 53 74 49 53 74 49 53 74 49 53 74 49 53 74 49 53 70 45 49 70 45 49 70 45 49 70 45 49 70 45 49 70 45 49 70 45 49 68 46 49 54 33 38 53 34 38 53 34 38 53 34 38 53 34 38 53 34 38 53 34 38 53 34 38 55 36 40 55 36 40 55 36 40 55 36 40 55 36 40 55 36 40 55 36 40 53 37 40 66 55 61 66 57 62 69 60 65 72 63 68 76 67 72 79 70 75 81 72 77 82 73 78 53 44 49 53 44 49 53 44 49 53 44 49 53 44 49 53 44 49 53 44 49 51 45 49 46 44 49 48 47 52 52 51 56 58 57 62 64 63 68 70 69 74 74 73 78 76 75 80 84 83 88 87 86 91 91 90 95 91 90 95 84 83 88 73 72 77 61 60 65 54 52 55 40 36 35 43 38 35 48 43 40 55 50 47 61 56 53 68 63 60 73 68 65 75 70 67 90 85 82 90 85 82 90 85 82 90 85 82 90 85 82 90 85 82 90 85 82 90 85 82 68 57 61 66 55 59 64 53 57 61 50 54 57 46 50 54 43 47 52 41 45 50 39 43 68 57 61 69 58 62 71 60 64 73 62 66 76 65 69 79 68 72 81 70 74 82 72 73 84 74 73 84 74 72 84 74 72 84 74 72 84 74 72 84 74 72 84 74 72 84 74 72 95 85 83 97 87 85 99 89 87 102 92 90 106 96 94 109 99 97 111 101 99 113 103 101 108 99 100 105 96 97 101 92 93 95 86 87 89 80 81 83 74 75 79 70 71 77 68 69 94 85 86 95 86 87 97 88 89 100 91 92 102 93 94 105 96 97 107 98 99 106 100 100 101 95 95 100 96 95 100 96 95 100 96 95 100 96 95 100 96 95 100 96 95 100 96 95 106 102 101 106 102 101 106 102 101 106 102 101 106 102 101 106 102 101 106 102 101 107 102 99 119 105 102 118 103 98 116 101 96 113 98 93 109 94 89 106 91 86 104 89 84 102 87 82 99 84 79 99 84 79 99 84 79 99 84 79 99 84 79 99 84 79 99 84 79 101 83 79 96 75 74 98 74 74 98 74 74 98 74 74 98 74 74 98 74 74 98 74 74 98 74 74 85 61 61 87 63 63 89 65 65 92 68 68 96 72 72 99 75 75 101 77 77 101 80 79 102 82 81 103 85 83 107 86 85 110 89 88 117 91 92 122 93 95 125 95 97 130 95 99 124 85 90 124 81 88 124 79 86 122 75 83 121 70 79 118 67 76 119 63 74 115 61 74 117 67 79 112 66 79 110 64 77 104 62 74 100 58 70 94 56 67 91 55 65 86 55 63 59 32 39 56 33 39
81 71 70 75 65 64 68 58 57 63 53 52 64 50 50 71 51 53 74 49 53 74 49 53 74 49 53 74 49 53 74 49 53 74 49 53 74 49 53 70 45 49 70 45 49 70 45 49 70 45 49 70 45 49 70 45 49 70 45 49 68 46 49 54 33 38 53 34 38 53 34 38 53 34 38 53 34 38 53 34 38 53 34 38 53 34 38 57 38 42 57 38 42 57 38 42 57 38 42 57 38 42 57 38 42 57 38 42 55 39 42 71 60 66 71 62 67 74 65 70 77 68 73 80 71 76 84 75 80 86 77 82 87 78 83 53 44 49 53 44 49 53 44 49 53 44 49 53 44 49 53 44 49 53 44 49 51 45 49 45 43 48 47 46 51 53 52 57 60 59 64 67 66 71 74 73 78 79 78 83 82 81 86 90 89 94 92 91 96 95 94 99 94 93 98 86 85 90 74 73 78 60 59 64 53 51 54 40 36 35 43 38 35 48 43 40 55 50 47 61 56 53 68 63 60 73 68 65 75 70 67 90 85 82 90 85 82 90 85 82 90 85 82 90 85 82 90 85 82 90 85 82 90 85 82 68 57 61 66 55 59 64 53 57 61 50 54 57 46 50 54 43 47 52 41 45 50 39 43 70 59 63 71 60 64 74 63 67 78 67 71 82 71 75 85 74 78 88 77 81 90 80 81 86 76 75 86 76 74 86 76 74 86 76 74 86 76 74 86 76 74 86 76 74 86 76 74 98 88 86 99 89 87 101 91 89 105 95 93 108 98 96 111 101 99 114 104 102 115 105 103 109 100 101 106 97 98 100 91 92 93 84 85 86 77 78 79 70 71 74 65 66 71 62 63 91 82 83 92 83 84 95 86 87 99 90 91 103 94 95 107 98 99 110 101 102 109 103 103 101 95 95 100 96 95 100 96 95 100 96 95 100 96 95 100 96 95 100 96 95 100 96 95 106 102 101 106 102 101 106 102 101 106 102 101 106 102 101 106 102 101 106 102 101 107 102 99 119 105 102 118 103 98 116 101 96 113 98 93 109 94 89 106 91 86 104 89 84 102 87 82 101 86 81 101 86 81 101 86 81 101 86 81 101 86 81 101 86 81 101 86 81 103 85 81 98 77 76 100 76 76 100 76 76 100 76 76 100 76 76 100 76 76 100 76 76 100 76 76 83 59 59 84 60 60 87 63 63 90 66 66 93 69 69 97 73 73 99 75 75 98 77 76 102 82 81 103 85 83 107 86 85 110 89 88 117 91 92 122 93 95 125 95 97 130 95 99 124 85 90 124 81 88 124 79 86 122 75 83 121 70 79 118 67 76 119 63 74 115 61 74 117 67 79 112 66 79 110 64 77 104 62 74 100 58 70 94 56 67 91 55 65 86 55 63 59 32 39 56 33 39
81 71 70 75 65 64 68 58 57 63 53 52 64 50 50 71 51 53 74 49 53 74 49 53 74 49 53 74 49 53 74 49 53 74 49 53 74 49 53 70 45 49 70 45 49 70 45 49 70 45 49 70 45 49 70 45 49 70 45 49 68 46 49 54 33 38 53 34 38 53 34 38 53 34 38 53 34 38 53 34 38 53 34 38 53 34 38 59 40 44 59 40 44 59 40 44 59 40 44 59 40 44 59 40 44 59 40 44 57 41 44 74 63 69 74 65 70 76 67 72 80 71 76 83 74 79 86 77 82 89 80 85 90 81 86 53 44 49 53 44 49 53 44 49 53 44 49 53 44 49 53 44 49 53 44 49 51 45 49 45 43 48 47 46 51 53 52 57 61 60 65 69 68 73 76 75 80 82 81 86 85 84 89 93 92 97 95 94 99 97 96 101 95 94 99 87 86 91 74 73 78 60 59 64 52 50 53 40 36 35 43 38 35 48 43 40 55 50 47 61 56 53 68 63 60 73 68 65 75 70 67 90 85 82 90 85 82 90 85 82 90 85 82 90 85 82 90 85 82 90 85 82 90 85 82 68 57 61 66 55 59 64 53 57 61 50 54 57 46 50 54 43 47 52 41 45 50 39 43 70 59 63 72 61 65 76 65 69 80 69 73 85 74 78 89 78 82 93 82 86 94 84 85 88 78 77 88 78 76 88 78 76 88 78 76 88 78 76 88 78 76 88 78 76 88 78 76 99 89 87 100 90 88 103 93 91 106 96 94 109 99 97 113 103 101 115 105 103 116 106 104 109 100 101 106 97 98 100 91 92 92 83 84 84 75 76 77 68 69 71 62 63 68 59 60 89 80 81 91 82 83 94 85 86 99 90 91 103 94 95 108 99 100 111 102 103 111 105 105 101 95 95 100 96 95 100 96 95 100 96 95 100 96 95 100 96 95 100 96 95 100 96 95 106 102 101 106 102 101 106 102 101 106 102 101 106 102 101 106 102 101 106 102 101 107 102 99 119 105 102 118 103 98 116 101 96 113 98 93 109 94 89 106 91 86 104 89 84 102 87 82 103 88 83 103 88 83 103 88 83 103 88 83 103 88 83 103 88 83 103 88 83 105 87 83 100 79 78 102 78 78 102 78 78 102 78 78 102 78 78 102 78 78 102 78 78 102 78 78 82 58 58 83 59 59 85 61 61 89 65 65 92 68 68 95 71 71 98 74 74 97 76 75 102 82 81 103 85 83 107 86 85 110 89 88 117 91 92 122 93 95 125 95 97 130 95 99 124 85 90 124 81 88 124 79 86 122 75 83 121 70 79 118 67 76 119 63 74 115 61 74 117 67 79 112 66 79 110 64 77 104 62 74 100 58 70 94 56 67 91 55 65 86 55 63 59 32 39 56 33 39
87 77 76 83 73 72 80 70 69 78 68 67 79 65 65 75 55 57 78 53 57 78 53 57 78 53 57 78 53 57 78 53 57 78 53 57 78 53 57 72 47 51 72 47 51 72 47 51 72 47 51 72 47 51 72 47 51 72 47 51 70 48 51 56 35 40 55 36 40 55 36 40 55 36 40 55 36 40 55 36 40 55 36 40 55 36 40 52 33 37 53 34 38 56 37 41 59 40 44 62 43 47 66 47 51 68 49 53 67 51 54 59 48 54 59 50 55 59 50 55 61 52 57 62 53 58 63 54 59 64 55 60 65 56 61 55 46 51 54 45 50 53 44 49 52 43 48 51 42 47 49 40 45 49 40 45 46 40 44 69 67 72 69 68 73 71 70 75 75 74 79 78 77 82 81 80 85 84 83 88 85 84 89 91 90 95 91 90 95 91 90 95 91 90 95 91 90 95 91 90 95 91 90 95 92 90 93 65 61 60 59 54 51 49 44 41 40 35 32 37 32 29 39 34 31 45 40 37 49 44 41 82 77 74 82 77 74 82 77 74 82 77 74 82 77 74 82 77 74 82 77 74 82 77 74 56 45 49 56 45 49 56 45 49 56 45 49 56 45 49 56 45 49 56 45 49 56 45 49 82 71 75 82 71 75 82 71 75 82 71 75 82 71 75 82 71 75 82 71 75 82 72 73 78 68 67 79 69 67 81 71 69 85 75 73 88 78 76 91 81 79 94 84 82 95 85 83 107 97 95 107 97 95 107 97 95 107 97 95 107 97 95 107 97 95 107 97 95 107 97 95 103 94 95 101 92 93 96 87 88 89 80 81 83 74 75 76 67 68 71 62 63 69 60 61 74 65 66 76 67 68 81 72 73 88 79 80 94 85 86 101 92 93 106 97 98 106 100 100 104 98 98 103 99 98 103 99 98 103 99 98 103 99 98 103 99 98 103 99 98 103 99 98 107 103 102 107 103 102 107 103 102 107 103 102 107 103 102 107 103 102 107 103 102 108 103 100 110 96 93 109 94 89 107 92 87 104 89 84 100 85 80 97 82 77 95 80 75 93 78 73 95 80 75 96 81 76 99 84 79 102 87 82 105 90 85 109 94 89 111 96 91 114 96 92 118 97 96 120 96 96 120 96 96 120 96 96 120 96 96 120 96 96 120 96 96 120 96 96 107 83 83 106 82 82 103 79 79 100 76 76 97 73 73 93 69 69 91 67 67 88 67 66 99 79 78 100 82 80 105 84 83 110 89 88 117 91 92 124 95 97 128 98 100 133 98 102 112 73 78 114 71 78 116 71 78 117 70 78 120 69 78 120 69 78 123 67 78 121 67 80 113 63 75 113 67 80 116 70 83 112 70 82 105 63 75 90 52 63 76 40 50 65 34 42 53 26 33 52 29 35
87 77 76 83 73 72 80 70 69 78 68 67 79 65 65 75 55 57 78 53 57 78 53 57 78 53 57 78 53 57 78 53 57 78 53 57 78 53 57 72 47 51 72 47 51 72 47 51 72 47 51 72 47 51 72 47 51 72 47 51 70 48 51 56 35 40 55 36 40 55 36 40 55 36 40 55 36 40 55 36 40 55 36 40 55 36 40 55 36 40 56 37 41 58 39 43 62 43 47 65 46 50 68 49 53 71 52 56 70 54 57 62 51 57 61 52 57 62 53 58 62 53 58 63 54 59 64 55 60 64 55 60 64 55 60 54 45 50 54 45 50 54 45 50 53 44 49 52 43 48 52 43 48 51 42 47 49 43 47 70 68 73 70 69 74 73 72 77 76 75 80 79 78 83 83 82 87 85 84 89 86 85 90 91 90 95 91 90 95 91 90 95 91 90 95 91 90 95 91 90 95 91 90 95 92 90 93 65 61 60 59 54 51 49 44 41 40 35 32 37 32 29 39 34 31 45 40 37 49 44 41 80 75 72 80 75 72 80 75 72 80 75 72 80 75 72 80 75 72 80 75 72 80 75 72 56 45 49 56 45 49 56 45 49 56 45 49 56 45 49 56 45 49 56 45 49 56 45 49 80 69 73 80 69 73 80 69 73 80 69 73 80 69 73 80 69 73 80 69 73 80 70 71 79 69 68 80 70 68 83 73 71 86 76 74 89 79 77 93 83 81 95 85 83 96 86 84 107 97 95 107 97 95 107 97 95 107 97 95 107 97 95 107 97 95 107 97 95 107 97 95 103 94 95 101 92 93 96 87 88 89 80 81 83 74 75 76 67 68 71 62 63 69 60 61 74 65 66 76 67 68 81 72 73 88 79 80 94 85 86 101 92 93 106 97 98 106 100 100 104 98 98 103 99 98 103 99 98 103 99 98 103 99 98 103 99 98 103 99 98 103 99 98 107 103 102 107 103 102 107 103 102 107 103 102 107 103 102 107 103 102 107 103 102 108 103 100 110 96 93 109 94 89 107 92 87 104 89 84 100 85 80 97 82 77 95 80 75 93 78 73 94 79 74 95 80 75 97 82 77 101 86 81 104 89 84 107 92 87 110 95 90 113 95 91 118 97 96 120 96 96 120 96 96 120 96 96 120 96 96 120 96 96 120 96 96 120 96 96 108 84 84 107 83 83 105 81 81 101 77 77 98 74 74 95 71 71 92 68 68 89 68 67 101 81 80 101 83 81 106 85 84 110 89 88 117 91 92 123 94 96 127 97 99 131 96 100 112 73 78 114 71 78 116 71 78 117 70 78 120 69 78 120 69 78 123 67 78 121 67 80 113 63 75 113 67 80 116 70 83 112 70 82 105 63 75 90 52 63 76 40 50 65 34 42 53 26 33 52 29 35
87 77 76 83 73 72 80 70 69 78 68 67 79 65 65 75 55 57 78 53 57 78 53 57 78 53 57 78 53 57 78 53 57 78 53 57 78 53 57 72 47 51 72 47 51 72 47 51 72 47 51 72 47 51 72 47 51 72 47 51 70 48 51 56 35 40 55 36 40 55 36 40 55 36 40 55 36 40 55 36 40 55 36 40 55 36 40 60 41 45 61 42 46 63 44 48 66 47 51 70 51 55 73 54 58 76 57 61 75 59 62 68 57 63 67 58 63 66 57 62 65 56 61 65 56 61 64 55 60 64 55 60 63 54 59 53 44 49 54 45 50 54 45 50 55 46 51 55 46 51 56 47 52 57 48 53 55 49 53 72 70 75 73 72 77 75 74 79 78 77 82 82 81 86 85 84 89 87 86 91 89 88 93 91 90 95 91 90 95 91 90 95 91 90 95 91 90 95 91 90 95 91 90 95 92 90 93 65 61 60 59 54 51 49 44 41 40 35 32 37 32 29 39 34 31 45 40 37 49 44 41 75 70 67 75 70 67 75 70 67 75 70 67 75 70 67 75 70 67 75 70 67 75 70 67 56 45 49 56 45 49 56 45 49 56 45 49 56 45 49 56 45 49 56 45 49 56 45 49 78 67 71 78 67 71 78 67 71 78 67 71 78 67 71 78 67 71 78 67 71 78 68 69 81 71 70 83 73 71 85 75 73 88 78 76 92 82 80 95 85 83 97 87 85 99 89 87 107 97 95 107 97 95 107 97 95 107 97 95 107 97 95 107 97 95 107 97 95 107 97 95 103 94 95 101 92 93 96 87 88 89 80 81 83 74 75 76 67 68 71 62 63 69 60 61 74 65 66 76 67 68 81 72 73 88 79 80 94 85 86 101 92 93 106 97 98 106 100 100 104 98 98 103 99 98 103 99 98 103 99 98 103 99 98 103 99 98 103 99 98 103 99 98 107 103 102 107 103 102 107 103 102 107 103 102 107 103 102 107 103 102 107 103 102 108 103 100 110 96 93 109 94 89 107 92 87 104 89 84 100 85 80 97 82 77 95 80 75 93 78 73 91 76 71 93 78 73 95 80 75 98 83 78 102 87 82 105 90 85 107 92 87 111 93 89 118 97 96 120 96 96 120 96 96 120 96 96 120 96 96 120 96 96 120 96 96 120 96 96 111 87 87 109 85 85 107 83 83 104 80 80 100 76 76 97 73 73 95 71 71 91 70 69 104 84 83 104 86 84 108 87 86 111 90 89 116 90 91 121 92 94 124 94 96 128 93 97 112 73 78 114 71 78 116 71 78 117 70 78 120 69 78 120 69 78 123 67 78 121 67 80 113 63 75 113 67 80 116 70 83 112 70 82 105 63 75 90 52 63 76 40 50 65 34 42 53 26 33 52 29 35
87 77 76 83 73 72 80 70 69 78 68 67 79 65 65 75 55 57 78 53 57 78 53 57 78 53 57 78 53 57 78 53 57 78 53 57 78 53 57 72 47 51 72 47 51 72 47 51 72 47 51 72 47 51 72 47 51 72 47 51 70 48 51 56 35 40 55 36 40 55 36 40 55 36 40 55 36 40 55 36 40 55 36 40 55 36 40 66 47 51 67 48 52 70 51 55 73 54 58 76 57 61 79 60 64 82 63 67 81 65 68 76 65 71 74 65 70 72 63 68 70 61 66 67 58 63 65 56 61 63 54 59 62 53 58 52 43 48 53 44 49 55 46 51 57 48 53 60 51 56 62 53 58 64 55 60 63 57 61 76 74 79 76 75 80 78 77 82 82 81 86 85 84 89 88 87 92 91 90 95 92 91 96 91 90 95 91 90 95 91 90 95 91 90 95 91 90 95 91 90 95 91 90 95 92 90 93 65 61 60 59 54 51 49 44 41 40 35 32 37 32 29 39 34 31 45 40 37 49 44 41 68 63 60 68 63 60 68 63 60 68 63 60 68 63 60 68 63 60 68 63 60 68 63 60 56 45 49 56 45 49 56 45 49 56 45 49 56 45 49 56 45 49 56 45 49 56 45 49 75 64 68 75 64 68 75 64 68 75 64 68 75 64 68 75 64 68 75 64 68 75 65 66 85 75 74 86 76 74 88 78 76 92 82 80 95 85 83 98 88 86 101 91 89 102 92 90 107 97 95 107 97 95 107 97 95 107 97 95 107 97 95 107 97 95 107 97 95 107 97 95 103 94 95 101 92 93 96 87 88 89 80 81 83 74 75 76 67 68 71 62 63 69 60 61 74 65 66 76 67 68 81 72 73 88 79 80 94 85 86 101 92 93 106 97 98 106 100 100 104 98 98 103 99 98 103 99 98 103 99 98 103 99 98 103 99 98 103 99 98 103 99 98 107 103 102 107 103 102 107 103 102 107 103 102 107 103 102 107 103 102 107 103 102 108 103 100 110 96 93 109 94 89 107 92 87 104 89 84 100 85 80 97 82 77 95 80 75 93 78 73 88 73 68 89 74 69 92 77 72 95 80 75 98 83 78 102 87 82 104 89 84 107 89 85 118 97 96 120 96 96 120 96 96 120 96 96 120 96 96 120 96 96 120 96 96 120 96 96 114 90 90 113 89 89 110 86 86 107 83 83 104 80 80 100 76 76 98 74 74 95 74 73 109 89 88 108 90 88 111 90 89 112 91 90 115 89 90 118 89 91 120 90 92 123 88 92 112 73 78 114 71 78 116 71 78 117 70 78 120 69 78 120 69 78 123 67 78 121 67 80 113 63 75 113 67 80 116 70 83 112 70 82 105 63 75 90 52 63 76 40 50 65 34 42 53 26 33 52 29 35
87 77 76 83 73 72 80 70 69 78 68 67 79 65 65 75 55 57 78 53 57 78 53 57 78 53 57 78 53 57 78 53 57 78 53 57 78 53 57 72 47 51 72 47 51 72 47 51 72 47 51 72 47 51 72 47 51 72 47 51 70 48 51 56 35 40 55 36 40 55 36 40 55 36 40 55 36 40 55 36 40 55 36 40 55 36 40 73 54 58 74 55 59 77 58 62 80 61 65 83 64 68 86 67 71 89 70 74 88 72 75 84 73 79 81 72 77 78 69 74 74 65 70 70 61 66 65 56 61 62 53 58 61 52 57 51 42 47 52 43 48 55 46 51 60 51 56 64 55 60 68 59 64 71 62 67 71 65 69 79 77 82 79 78 83 82 81 86 85 84 89 88 87 92 92 91 96 94 93 98 95 94 99 91 90 95 91 90 95 91 90 95 91 90 95 91 90 95 91 90 95 91 90 95 92 90 93 65 61 60 59 54 51 49 44 41 40 35 32 37 32 29 39 34 31 45 40 37 49 44 41 62 57 54 62 57 54 62 57 54 62 57 54 62 57 54 62 57 54 62 57 54 62 57 54 56 45 49 56 45 49 56 45 49 56 45 49 56 45 49 56 45 49 56 45 49 56 45 49 71 60 64 71 60 64 71 60 64 71 60 64 71 60 64 71 60 64 71 60 64 71 61 62 88 78 77 89 79 77 92 82 80 95 85 83 98 88 86 102 92 90 104 94 92 105 95 93 107 97 95 107 97 95 107 97 95 107 97 95 107 97 95 107 97 95 107 97 95 107 97 95 103 94 95 101 92 93 96 87 88 89 80 81 83 74 75 76 67 68 71 62 63 69 60 61 74 65 66 76 67 68 81 72 73 88 79 80 94 85 86 101 92 93 106 97 98 106 100 100 104 98 98 103 99 98 103 99 98 103 99 98 103 99 98 103 99 98 103 99 98 103 99 98 107 103 102 107 103 102 107 103 102 107 103 102 107 103 102 107 103 102 107 103 102 108 103 100 110 96 93 109 94 89 107 92 87 104 89 84 100 85 80 97 82 77 95 80 75 93 78 73 85 70 65 86 71 66 88 73 68 92 77 72 95 80 75 98 83 78 101 86 81 104 86 82 118 97 96 120 96 96 120 96 96 120 96 96 120 96 96 120 96 96 120 96 96 120 96 96 117 93 93 116 92 92 114 90 90 110 86 86 107 83 83 104 80 80 101 77 77 98 77 76 113 93 92 112 94 92 113 92 91 112 91 90 115 89 90 116 87 89 116 86 88 119 84 88 112 73 78 114 71 78 116 71 78 117 70 78 120 69 78 120 69 78 123 67 78 121 67 80 113 63 75 113 67 80 116 70 83 112 70 82 105 63 75 90 52 63 76 40 50 65 34 42 53 26 33 52 29 35
87 77 76 83 73 72 80 70 69 78 68 67 79 65 65 75 55 57 78 53 57 78 53 57 78 53 57 78 53 57 78 53 57 78 53 57 78 53 57 72 47 51 72 47 51 72 47 51 72 47 51 72 47 51 72 47 51 72 47 51 70 48 51 56 35 40 55 36 40 55 36 40 55 36 40 55 36 40 55 36 40 55 36 40 55 36 40 79 60 64 80 61 65 83 64 68 86 67 71 90 71 75 93 74 78 95 76 80 94 78 81 91 80 86 88 79 84 84 75 80 78 69 74 72 63 68 66 57 62 62 53 58 59 50 55 49 40 45 52 43 48 56 47 52 62 53 58 68 59 64 74 65 70 78 69 74 78 72 76 82 80 85 83 82 87 85 84 89 88 87 92 92 91 96 95 94 99 97 96 101 99 98 103 91 90 95 91 90 95 91 90 95 91 90 95 91 90 95 91 90 95 91 90 95 92 90 93 65 61 60 59 54 51 49 44 41 40 35 32 37 32 29 39 34 31 45 40 37 49 44 41 55 50 47 55 50 47 55 50 47 55 50 47 55 50 47 55 50 47 55 50 47 55 50 47 56 45 49 56 45 49 56 45 49 56 45 49 56 45 49 56 45 49 56 45 49 56 45 49 68 57 61 68 57 61 68 57 61 68 57 61 68 57 61 68 57 61 68 57 61 68 58 59 91 81 80 93 83 81 95 85 83 98 88 86 102 92 90 105 95 93 107 97 95 109 99 97 107 97 95 107 97 95 107 97 95 107 97 95 107 97 95 107 97 95 107 97 95 107 97 95 103 94 95 101 92 93 96 87 88 89 80 81 83 74 75 76 67 68 71 62 63 69 60 61 74 65 66 76 67 68 81 72 73 88 79 80 94 85 86 101 92 93 106 97 98 106 100 100 104 98 98 103 99 98 103 99 98 103 99 98 103 99 98 103 99 98 103 99 98 103 99 98 107 103 102 107 103 102 107 103 102 107 103 102 107 103 102 107 103 102 107 103 102 108 103 100 110 96 93 109 94 89 107 92 87 104 89 84 100 85 80 97 82 77 95 80 75 93 78 73 81 66 61 83 68 63 85 70 65 88 73 68 92 77 72 95 80 75 97 82 77 101 83 79 118 97 96 120 96 96 120 96 96 120 96 96 120 96 96 120 96 96 120 96 96 120 96 96 121 97 97 119 95 95 117 93 93 114 90 90 110 86 86 107 83 83 105 81 81 101 80 79 118 98 97 116 98 96 116 95 94 113 92 91 114 88 89 113 84 86 112 82 84 114 79 83 112 73 78 114 71 78 116 71 78 117 70 78 120 69 78 120 69 78 123 67 78 121 67 80 113 63 75 113 67 80 116 70 83 112 70 82 105 63 75 90 52 63 76 40 50 65 34 42 53 26 33 52 29 35
87 77 76 83 73 72 80 70 69 78 68 67 79 65 65 75 55 57 78 53 57 78 53 57 78 53 57 78 53 57 78 53 57 78 53 57 78 53 57 72 47 51 72 47 51 72 47 51 72 47 51 72 47 51 72 47 51 72 47 51 70 48 51 56 35 40 55 36 40 55 36 40 55 36 40 55 36 40 55 36 40 55 36 40 55 36 40 84 65 69 85 66 70 88 69 73 91 72 76 94 75 79 98 79 83 100 81 85 99 83 86 97 86 92 93 84 89 88 79 84 81 72 77 74 65 70 67 58 63 61 52 57 58 49 54 48 39 44 51 42 47 57 48 53 64 55 60 71 62 67 78 69 74 83 74 79 84 78 82 85 83 88 85 84 89 87 86 91 91 90 95 94 93 98 97 96 101 100 99 104 101 100 105 91 90 95 91 90 95 91 90 95 91 90 95 91 90 95 91 90 95 91 90 95 92 90 93 65 61 60 59 54 51 49 44 41 40 35 32 37 32 29 39 34 31 45 40 37 49 44 41 50 45 42 50 45 42 50 45 42 50 45 42 50 45 42 50 45 42 50 45 42 50 45 42 56 45 49 56 45 49 56 45 49 56 45 49 56 45 49 56 45 49 56 45 49 56 45 49 66 55 59 66 55 59 66 55 59 66 55 59 66 55 59 66 55 59 66 55 59 66 56 57 94 84 83 95 85 83 97 87 85 101 91 89 104 94 92 107 97 95 110 100 98 111 101 99 107 97 95 107 97 95 107 97 95 107 97 95 107 97 95 107 97 95 107 97 95 107 97 95 103 94 95 101 92 93 96 87 88 89 80 81 83 74 75 76 67 68 71 62 63 69 60 61 74 65 66 76 67 68 81 72 73 88 79 80 94 85 86 101 92 93 106 97 98 106 100 100 104 98 98 103 99 98 103 99 98 103 99 98 103 99 98 103 99 98 103 99 98 103 99 98 107 103 102 107 103 102 107 103 102 107 103 102 107 103 102 107 103 102 107 103 102 108 103 100 110 96 93 109 94 89 107 92 87 104 89 84 100 85 80 97 82 77 95 80 75 93 78 73 79 64 59 80 65 60 83 68 63 86 71 66 89 74 69 93 78 73 95 80 75 98 80 76 118 97 96 120 96 96 120 96 96 120 96 96 120 96 96 120 96 96 120 96 96 120 96 96 123 99 99 122 98 98 119 95 95 116 92 92 113 89 89 109 85 85 107 83 83 104 83 82 121 101 100 119 101 99 118 97 96 114 93 92 113 87 88 111 82 84 109 79 81 111 76 80 112 73 78 114 71 78 116 71 78 117 70 78 120 69 78 120 69 78 123 67 78 121 67 80 113 63 75 113 67 80 116 70 83 112 70 82 105 63 75 90 52 63 76 40 50 65 34 42 53 26 33 52 29 35
87 77 76 83 73 72 80 70 69 78 68 67 77 65 65 74 55 57 76 54 57 76 54 57 76 54 57 76 54 57 76 54 57 76 54 57 76 54 57 70 48 51 70 48 51 70 48 51 70 48 51 70 48 51 70 48 51 70 48 51 70 48 51 56 36 38 55 36 38 55 36 40 55 36 38 55 36 40 55 36 38 55 36 40 55 36 38 87 68 72 88 69 71 90 71 75 94 75 77 97 78 82 100 81 83 103 84 88 102 86 89 101 89 93 97 86 90 91 80 86 84 73 77 76 65 71 68 57 61 62 51 57 59 48 52 49 38 44 52 41 45 58 47 53 66 55 59 74 63 69 81 70 74 87 76 82 89 80 85 88 83 87 87 85 90 90 88 93 93 91 96 96 94 99 100 98 103 102 100 105 103 101 106 92 90 95 92 90 95 92 90 95 92 90 95 92 90 95 92 90 95 92 90 95 92 90 93 65 61 62 58 54 55 48 44 45 39 35 36 36 32 33 38 34 35 44 40 41 48 44 45 47 43 44 47 43 44 47 43 44 47 43 44 47 43 44 47 43 44 47 43 44 47 43 44 53 47 51 55 46 51 55 46 51 55 46 51 55 46 51 55 46 51 55 46 51 55 46 51 63 54 59 63 54 59 63 54 59 63 54 59 63 54 59 63 54 59 63 54 59 63 54 57 94 86 84 93 88 84 98 90 88 99 94 90 104 96 94 106 101 97 110 102 100 109 104 100 106 98 96 104 99 95 106 98 96 104 99 95 106 98 96 104 99 95 106 98 96 106 98 96 105 93 95 103 91 93 98 86 88 91 79 81 85 73 75 78 66 68 73 61 63 71 59 61 76 64 66 78 66 68 83 71 73 90 78 80 96 84 86 103 91 93 108 96 98 109 99 100 106 98 96 104 99 96 104 99 96 104 99 96 104 99 96 104 99 96 104 99 96 104 99 96 108 103 100 108 103 100 108 103 100 108 103 100 108 103 100 108 103 100 108 103 100 110 102 99 110 96 93 109 94 89 107 92 87 104 89 84 100 85 80 97 82 77 95 80 75 93 78 73 78 63 58 79 64 59 81 66 61 85 70 65 88 73 68 91 76 71 94 79 74 97 79 75 118 97 94 118 97 94 120 96 96 118 97 94 120 96 96 118 97 94 120 96 96 118 97 94 124 100 100 121 100 97 121 97 97 115 94 91 114 90 90 109 88 85 108 84 84 105 84 83 124 103 102 122 101 100 121 96 99 117 91 92 113 87 90 110 81 83 108 77 82 109 74 78 110 73 80 113 72 78 114 71 80 116 71 78 116 70 80 117 70 78 119 69 80 119 69 80 110 64 75 111 67 80 113 71 83 111 71 82 102 64 75 89 53 63 73 42 50 62 35 42 52 27 33 51 30 35
91 83 80 91 83 80 91 83 80 91 83 80 92 82 81 88 72 73 88 69 73 86 67 71 83 64 68 79 60 64 76 57 61 74 55 59 72 53 57 68 49 53 68 49 53 68 49 53 68 49 53 68 49 53 68 49 53 68 49 53 68 49 51 57 37 39 54 34 35 51 31 33 52 32 33 59 39 41 71 51 52 84 64 66 92 72 73 96 76 78 98 78 79 100 80 82 103 83 84 107 87 89 110 90 91 112 92 94 113 94 96 106 90 93 102 87 90 97 82 87 91 76 79 84 69 74 78 63 66 73 58 63 70 55 58 72 57 62 73 58 61 75 60 65 79 64 67 82 67 72 85 70 73 88 73 78 87 75 79 92 86 90 91 86 90 91 86 90 91 86 90 91 86 90 91 86 90 91 86 90 91 86 90 95 90 94 93 88 92 91 86 90 88 83 87 84 79 83 81 76 80 79 74 78 75 73 78 38 37 43 37 37 45 37 37 45 37 37 45 37 37 45 37 37 45 37 37 45 37 37 45 42 42 50 42 42 50 42 42 50 42 42 50 42 42 50 42 42 50 42 42 50 43 42 50 48 45 52 48 46 51 48 46 51 48 46 51 48 46 51 48 46 51 48 46 51 48 46 51 39 37 42 43 41 46 51 49 54 60 58 63 71 69 74 80 78 83 87 85 90 91 89 92 98 97 95 97 98 93 98 97 95 97 98 93 98 97 95 97 98 93 98 97 95 97 98 93 103 102 100 102 103 98 103 102 100 102 103 98 103 102 100 102 103 98 103 102 100 106 100 100 92 76 79 94 71 77 91 68 74 86 63 69 82 59 65 77 54 60 74 51 57 72 49 55 89 66 72 91 68 74 93 70 76 96 73 79 100 77 83 103 80 86 105 82 88 105 86 88 109 98 94 107 100 92 107 100 92 107 100 92 107 100 92 107 100 92 107 100 92 107 100 92 104 97 89 104 97 89 104 97 89 104 97 89 104 97 89 104 97 89 104 97 89 105 96 89 107 92 87 109 92 85 109 92 85 109 92 85 109 92 85 109 92 85 109 92 85 109 92 85 104 87 80 103 86 79 99 82 75 95 78 71 90 73 66 86 69 62 82 65 58 80 63 56 93 74 68 95 76 70 99 78 75 103 84 78 108 87 84 112 93 87 116 95 92 117 98 92 114 93 90 113 94 88 113 92 89 111 92 86 110 89 86 108 89 83 108 87 84 108 87 84 121 95 98 121 92 96 120 89 95 117 86 91 113 82 88 110 79 84 109 76 83 107 75 80 109 74 81 109 74 80 110 73 81 110 73 80 110 73 81 110 73 80 112 72 81 112 72 81 115 75 84 109 72 80 101 66 73 89 56 63 78 47 53 67 38 43 57 32 36 50 30 32 52 33 35 51 37 37
91 83 80 91 83 80 91 83 80 91 83 80 92 82 80 87 72 75 86 70 73 84 68 71 81 65 68 77 61 64 74 58 61 72 56 59 70 54 57 66 50 53 66 50 53 66 50 53 66 50 53 66 50 53 66 50 53 66 50 53 66 50 51 57 37 39 54 34 35 51 31 32 52 32 33 59 39 40 71 51 52 84 64 65 92 72 73 96 76 77 98 78 79 100 80 81 103 83 84 107 87 88 110 90 91 112 92 93 113 95 95 107 88 92 102 86 89 97 81 84 91 75 78 84 68 71 78 62 65 73 57 60 70 54 57 70 54 57 71 55 58 74 58 61 77 61 64 80 64 67 84 68 71 86 70 73 86 71 74 96 87 92 94 88 92 94 88 92 94 88 92 94 88 92 94 88 92 94 88 92 94 88 92 92 86 90 90 84 88 88 82 86 85 79 83 81 75 79 78 72 76 76 70 74 73 68 74 37 37 47 35 37 49 35 37 49 35 37 49 35 37 49 35 37 49 35 37 49 35 37 49 40 42 54 40 42 54 40 42 54 40 42 54 40 42 54 40 42 54 40 42 54 40 43 52 47 46 54 47 46 52 47 46 52 47 46 52 47 46 52 47 46 52 47 46 52 47 46 52 40 39 45 44 43 49 51 50 56 60 59 65 71 70 76 80 79 85 88 87 93 92 91 96 97 97 97 96 98 95 97 97 95 96 98 95 97 97 95 96 98 95 97 97 95 96 98 95 100 100 98 99 101 98 100 100 98 99 101 98 100 100 98 99 101 98 100 100 98 104 98 98 93 72 77 96 69 76 93 66 73 89 62 69 85 58 65 81 54 61 78 51 58 77 50 57 92 65 72 94 67 74 96 69 76 99 72 79 103 76 83 106 79 86 108 81 88 107 85 88 111 98 92 108 99 90 108 99 90 108 99 90 108 99 90 108 99 90 108 99 90 108 99 90 105 96 87 105 96 87 105 96 87 105 96 87 105 96 87 105 96 87 105 96 87 106 96 87 105 90 83 107 90 83 107 90 83 107 90 83 107 90 83 107 90 83 107 90 83 107 90 83 104 87 80 102 85 78 99 82 75 96 79 72 92 75 68 88 71 64 85 68 61 83 66 59 95 76 70 96 77 71 99 80 74 103 84 78 107 88 82 111 92 86 114 95 89 115 96 90 112 93 87 111 92 86 111 92 86 110 91 85 110 91 85 109 90 84 109 90 84 109 88 85 124 93 98 123 90 97 121 88 95 118 85 92 114 81 88 111 78 85 109 76 83 107 74 81 107 74 81 107 74 81 107 74 81 107 74 81 107 74 81 107 74 81 107 74 81 107 74 81 112 77 84 106 73 80 99 66 73 87 58 63 77 48 53 64 39 43 55 33 36 49 30 32 49 35 35 48 38 37
91 83 80 91 83 80 91 83 80 91 83 80 92 82 80 87 72 75 86 70 73 84 68 71 81 65 68 77 61 64 74 58 61 72 56 59 70 54 57 66 50 53 66 50 53 66 50 53 66 50 53 66 50 53 66 50 53 66 50 53 66 50 51 57 37 39 54 34 35 51 31 32 52 32 33 59 39 40 71 51 52 84 64 65 92 72 73 96 76 77 98 78 79 100 80 81 103 83 84 107 87 88 110 90 91 112 92 93 113 95 95 104 85 89 100 84 87 95 79 82 88 72 75 81 65 68 75 59 62 70 54 57 68 52 55 65 49 52 66 50 53 69 53 56 72 56 59 76 60 63 79 63 66 81 65 68 81 66 69 97 88 93 95 89 93 95 89 93 95 89 93 95 89 93 95 89 93 95 89 93 95 89 93 84 78 82 83 77 81 81 75 79 77 71 75 74 68 72 71 65 69 68 62 66 66 61 67 37 37 47 35 37 49 35 37 49 35 37 49 35 37 49 35 37 49 35 37 49 35 37 49 40 42 54 40 42 54 40 42 54 40 42 54 40 42 54 40 42 54 40 42 54 40 43 52 47 46 54 47 46 52 47 46 52 47 46 52 47 46 52 47 46 52 47 46 52 47 46 52 42 41 47 46 45 51 53 52 58 63 62 68 73 72 78 83 82 88 90 89 95 94 93 98 97 97 97 97 97 95 98 97 95 97 97 95 98 97 95 97 97 95 98 97 95 97 97 95 99 98 96 98 98 96 99 98 96 98 98 96 99 98 96 98 98 96 99 98 96 104 95 96 90 69 74 93 66 73 91 64 71 88 61 68 86 59 66 83 56 63 81 54 61 80 53 60 92 65 72 94 67 74 96 69 76 99 72 79 103 76 83 106 79 86 108 81 88 107 85 88 111 98 92 108 99 90 108 99 90 108 99 90 108 99 90 108 99 90 108 99 90 108 99 90 105 96 87 105 96 87 105 96 87 105 96 87 105 96 87 105 96 87 105 96 87 106 96 87 103 88 81 105 88 81 105 88 81 105 88 81 105 88 81 105 88 81 105 88 81 105 88 81 103 86 79 102 85 78 100 83 76 97 80 73 95 78 71 92 75 68 90 73 66 89 72 65 98 79 73 99 80 74 101 82 76 104 85 79 106 87 81 109 90 84 111 92 86 112 93 87 108 89 83 108 89 83 109 90 84 110 91 85 110 91 85 111 92 86 112 93 87 113 92 89 124 93 98 123 90 97 121 88 95 118 85 92 114 81 88 111 78 85 109 76 83 107 74 81 107 74 81 107 74 81 107 74 81 107 74 81 107 74 81 107 74 81 107 74 81 107 74 81 112 77 84 106 73 80 99 66 73 87 58 63 77 48 53 64 39 43 55 33 36 49 30 32 49 35 35 48 38 37
91 83 80 91 83 80 91 83 80 91 83 80 92 82 80 87 72 75 86 70 73 84 68 71 81 65 68 77 61 64 74 58 61 72 56 59 70 54 57 66 50 53 66 50 53 66 50 53 66 50 53 66 50 53 66 50 53 66 50 53 66 50 51 57 37 39 54 34 35 51 31 32 52 32 33 59 39 40 71 51 52 84 64 65 92 72 73 96 76 77 98 78 79 100 80 81 103 83 84 107 87 88 110 90 91 112 92 93 113 95 95 101 82 86 96 80 83 92 76 79 85 69 72 78 62 65 72 56 59 67 51 54 64 48 51 59 43 46 60 44 47 63 47 50 66 50 53 69 53 56 72 56 59 75 59 62 75 60 63 93 84 89 91 85 89 91 85 89 91 85 89 91 85 89 91 85 89 91 85 89 91 85 89 75 69 73 74 68 72 71 65 69 68 62 66 64 58 62 61 55 59 59 53 57 57 52 58 37 37 47 35 37 49 35 37 49 35 37 49 35 37 49 35 37 49 35 37 49 35 37 49 40 42 54 40 42 54 40 42 54 40 42 54 40 42 54 40 42 54 40 42 54 40 43 52 47 46 54 47 46 52 47 46 52 47 46 52 47 46 52 47 46 52 47 46 52 47 46 52 45 44 50 49 48 54 57 56 62 66 65 71 76 75 81 86 85 91 93 92 98 97 96 101 98 96 97 98 97 95 100 96 95 98 97 95 100 96 95 98 97 95 100 96 95 98 97 95 98 94 93 96 95 93 98 94 93 96 95 93 98 94 93 96 95 93 98 94 93 101 92 93 85 64 69 89 62 69 88 61 68 87 60 67 87 60 67 86 59 66 85 58 65 85 58 65 92 65 72 94 67 74 96 69 76 99 72 79 103 76 83 106 79 86 108 81 88 107 85 88 111 98 92 108 99 90 108 99 90 108 99 90 108 99 90 108 99 90 108 99 90 108 99 90 105 96 87 105 96 87 105 96 87 105 96 87 105 96 87 105 96 87 105 96 87 106 96 87 100 85 78 102 85 78 102 85 78 102 85 78 102 85 78 102 85 78 102 85 78 102 85 78 102 85 78 101 84 77 101 84 77 100 83 76 99 82 75 98 81 74 97 80 73 97 80 73 103 84 78 103 84 78 104 85 79 105 86 80 105 86 80 106 87 81 107 88 82 107 88 82 104 85 79 105 86 80 106 87 81 109 90 84 111 92 86 114 95 89 115 96 90 117 96 93 124 93 98 123 90 97 121 88 95 118 85 92 114 81 88 111 78 85 109 76 83 107 74 81 107 74 81 107 74 81 107 74 81 107 74 81 107 74 81 107 74 81 107 74 81 107 74 81 112 77 84 106 73 80 99 66 73 87 58 63 77 48 53 64 39 43 55 33 36 49 30 32 49 35 35 48 38 37
91 83 80 91 83 80 91 83 80 91 83 80 92 82 80 87 72 75 86 70 73 84 68 71 81 65 68 77 61 64 74 58 61 72 56 59 70 54 57 66 50 53 66 50 53 66 50 53 66 50 53 66 50 53 66 50 53 66 50 53 66 50 51 57 37 39 54 34 35 51 31 32 52 32 33 59 39 40 71 51 52 84 64 65 92 72 73 96 76 77 98 78 79 100 80 81 103 83 84 107 87 88 110 90 91 112 92 93 113 95 95 98 79 83 93 77 80 88 72 75 82 66 69 75 59 62 68 52 55 64 48 51 61 45 48 52 36 39 53 37 40 56 40 43 59 43 46 62 46 49 65 49 52 68 52 55 68 53 56 82 73 78 80 74 78 80 74 78 80 74 78 80 74 78 80 74 78 80 74 78 80 74 78 64 58 62 63 57 61 61 55 59 58 52 56 54 48 52 51 45 49 48 42 46 46 41 47 37 37 47 35 37 49 35 37 49 35 37 49 35 37 49 35 37 49 35 37 49 35 37 49 40 42 54 40 42 54 40 42 54 40 42 54 40 42 54 40 42 54 40 42 54 40 43 52 47 46 54 47 46 52 47 46 52 47 46 52 47 46 52 47 46 52 47 46 52 47 46 52 49 48 54 53 52 58 60 59 65 70 69 75 80 79 85 89 88 94 97 96 102 102 100 105 100 96 97 100 96 95 101 95 95 100 96 95 101 95 95 100 96 95 101 95 95 100 96 95 95 89 89 94 90 89 95 89 89 94 90 89 95 89 89 94 90 89 95 89 89 98 88 89 81 60 65 85 58 65 86 59 66 87 60 67 87 60 67 88 61 68 89 62 69 89 62 69 92 65 72 94 67 74 96 69 76 99 72 79 103 76 83 106 79 86 108 81 88 107 85 88 111 98 92 108 99 90 108 99 90 108 99 90 108 99 90 108 99 90 108 99 90 108 99 90 105 96 87 105 96 87 105 96 87 105 96 87 105 96 87 105 96 87 105 96 87 106 96 87 96 81 74 98 81 74 98 81 74 98 81 74 98 81 74 98 81 74 98 81 74 98 81 74 100 83 76 101 84 77 101 84 77 102 85 78 103 86 79 104 87 80 105 88 81 105 88 81 107 88 82 107 88 82 106 87 81 105 86 80 105 86 80 104 85 79 103 84 78 103 84 78 99 80 74 101 82 76 104 85 79 108 89 83 112 93 87 116 97 91 119 100 94 122 101 98 124 93 98 123 90 97 121 88 95 118 85 92 114 81 88 111 78 85 109 76 83 107 74 81 107 74 81 107 74 81 107 74 81 107 74 81 107 74 81 107 74 81 107 74 81 107 74 81 112 77 84 106 73 80 99 66 73 87 58 63 77 48 53 64 39 43 55 33 36 49 30 32 49 35 35 48 38 37
91 83 80 91 83 80 91 83 80 91 83 80 92 82 80 87 72 75 86 70 73 84 68 71 81 65 68 77 61 64 74 58 61 72 56 59 70 54 57 66 50 53 66 50 53 66 50 53 66 50 53 66 50 53 66 50 53 66 50 53 66 50 51 57 37 39 54 34 35 51 31 32 52 32 33 59 39 40 71 51 52 84 64 65 92 72 73 96 76 77 98 78 79 100 80 81 103 83 84 107 87 88 110 90 91 112 92 93 113 95 95 94 75 79 90 74 77 85 69 72 79 63 66 72 56 59 65 49 52 60 44 47 58 42 45 46 30 33 47 31 34 49 33 36 52 36 39 56 40 43 59 43 46 62 46 49 62 47 50 67 58 63 65 59 63 65 59 63 65 59 63 65 59 63 65 59 63 65 59 63 65 59 63 55 49 53 54 48 52 51 45 49 48 42 46 45 39 43 41 35 39 39 33 37 37 32 38 37 37 47 35 37 49 35 37 49 35 37 49 35 37 49 35 37 49 35 37 49 35 37 49 40 42 54 40 42 54 40 42 54 40 42 54 40 42 54 40 42 54 40 42 54 40 43 52 47 46 54 47 46 52 47 46 52 47 46 52 47 46 52 47 46 52 47 46 52 47 46 52 52 51 57 56 55 61 63 62 68 73 72 78 83 82 88 93 92 98 100 99 105 105 103 108 101 95 97 103 94 95 103 94 95 103 94 95 103 94 95 103 94 95 103 94 95 103 94 95 94 85 86 94 85 86 94 85 86 94 85 86 94 85 86 94 85 86 94 85 86 96 84 86 77 54 60 81 54 61 83 56 63 86 59 66 88 61 68 91 64 71 93 66 73 94 67 74 92 65 72 94 67 74 96 69 76 99 72 79 103 76 83 106 79 86 108 81 88 107 85 88 111 98 92 108 99 90 108 99 90 108 99 90 108 99 90 108 99 90 108 99 90 108 99 90 105 96 87 105 96 87 105 96 87 105 96 87 105 96 87 105 96 87 105 96 87 106 96 87 93 78 71 95 78 71 95 78 71 95 78 71 95 78 71 95 78 71 95 78 71 95 78 71 99 82 75 100 83 76 102 85 78 105 88 81 107 90 83 110 93 86 112 95 88 113 96 89 112 93 87 111 92 86 109 90 84 106 87 81 104 85 79 101 82 76 99 80 74 98 79 73 95 76 70 97 78 72 101 82 76 107 88 82 113 94 88 119 100 94 123 104 98 126 105 102 124 93 98 123 90 97 121 88 95 118 85 92 114 81 88 111 78 85 109 76 83 107 74 81 107 74 81 107 74 81 107 74 81 107 74 81 107 74 81 107 74 81 107 74 81 107 74 81 112 77 84 106 73 80 99 66 73 87 58 63 77 48 53 64 39 43 55 33 36 49 30 32 49 35 35 48 38 37
91 83 80 91 83 80 91 83 80 91 83 80 92 82 80 87 72 75 86 70 73 84 68 71 81 65 68 77 61 64 74 58 61 72 56 59 70 54 57 66 50 53 66 50 53 66 50 53 66 50 53 66 50 53 66 50 53 66 50 53 66 50 51 57 37 39 54 34 35 51 31 32 52 32 33 59 39 40 71 51 52 84 64 65 92 72 73 96 76 77 98 78 79 100 80 81 103 83 84 107 87 88 110 90 91 112 92 93 113 95 95 92 73 77 87 71 74 82 66 69 76 60 63 69 53 56 63 47 50 58 42 45 55 39 42 41 25 28 42 26 29 44 28 31 48 32 35 51 35 38 54 38 41 57 41 44 57 42 45 52 43 48 50 44 48 50 44 48 50 44 48 50 44 48 50 44 48 50 44 48 50 44 48 48 42 46 46 40 44 44 38 42 41 35 39 37 31 35 34 28 32 32 26 30 29 24 30 37 37 47 35 37 49 35 37 49 35 37 49 35 37 49 35 37 49 35 37 49 35 37 49 40 42 54 40 42 54 40 42 54 40 42 54 40 42 54 40 42 54 40 42 54 40 43 52 47 46 54 47 46 52 47 46 52 47 46 52 47 46 52 47 46 52 47 46 52 47 46 52 54 53 59 58 57 63 66 65 71 75 74 80 86 85 91 95 94 100 102 101 107 107 105 110 103 94 97 104 94 95 104 94 95 104 94 95 104 94 95 104 94 95 104 94 95 104 94 95 93 83 84 93 83 84 93 83 84 93 83 84 93 83 84 93 83 84 93 83 84 96 81 84 74 51 57 78 51 58 81 54 61 85 58 65 89 62 69 93 66 73 96 69 76 97 70 77 92 65 72 94 67 74 96 69 76 99 72 79 103 76 83 106 79 86 108 81 88 107 85 88 111 98 92 108 99 90 108 99 90 108 99 90 108 99 90 108 99 90 108 99 90 108 99 90 105 96 87 105 96 87 105 96 87 105 96 87 105 96 87 105 96 87 105 96 87 106 96 87 91 76 69 93 76 69 93 76 69 93 76 69 93 76 69 93 76 69 93 76 69 93 76 69 98 81 74 100 83 76 103 86 79 106 89 82 110 93 86 114 97 90 117 100 93 119 102 95 115 96 90 114 95 89 111 92 86 107 88 82 103 84 78 99 80 74 96 77 71 95 76 70 91 72 66 94 75 69 99 80 74 106 87 81 114 95 89 121 102 96 126 107 101 130 109 106 124 93 98 123 90 97 121 88 95 118 85 92 114 81 88 111 78 85 109 76 83 107 74 81 107 74 81 107 74 81 107 74 81 107 74 81 107 74 81 107 74 81 107 74 81 107 74 81 112 77 84 106 73 80 99 66 73 87 58 63 77 48 53 64 39 43 55 33 36 49 30 32 49 35 35 48 38 37
91 83 80 91 83 80 91 83 80 91 83 80 92 82 80 87 72 75 86 70 73 84 68 71 81 65 68 77 61 64 74 58 61 72 56 59 70 54 57 66 50 53 66 50 53 66 50 53 66 50 53 66 50 53 66 50 53 66 50 53 66 50 51 57 37 39 54 34 35 51 31 32 52 32 33 59 39 40 71 51 52 84 64 65 92 72 73 96 76 77 98 78 79 100 80 81 103 83 84 107 87 88 110 90 91 112 92 93 113 95 95 91 72 76 86 70 73 81 65 68 75 59 62 68 52 55 62 46 49 57 41 44 54 38 41 38 22 25 39 23 26 42 26 29 45 29 32 48 32 35 52 36 39 54 38 41 54 39 42 42 33 38 40 34 38 40 34 38 40 34 38 40 34 38 40 34 38 40 34 38 40 34 38 44 38 42 42 36 40 40 34 38 37 31 35 33 27 31 30 24 28 28 22 26 25 20 26 37 37 47 35 37 49 35 37 49 35 37 49 35 37 49 35 37 49 35 37 49 35 37 49 40 42 54 40 42 54 40 42 54 40 42 54 40 42 54 40 42 54 40 42 54 40 43 52 47 46 54 47 46 52 47 46 52 47 46 52 47 46 52 47 46 52 47 46 52 47 46 52 56 55 61 60 59 65 67 66 72 76 75 81 87 86 92 96 95 101 104 103 109 111 106 112 104 93 97 107 92 95 107 92 95 107 92 95 107 92 95 107 92 95 107 92 95 107 92 95 94 79 82 94 79 82 94 79 82 94 79 82 94 79 82 94 79 82 94 79 82 95 79 82 74 49 55 77 50 57 80 53 60 85 58 65 89 62 69 94 67 74 97 70 77 99 72 79 92 65 72 94 67 74 96 69 76 99 72 79 103 76 83 106 79 86 108 81 88 107 85 88 111 98 92 108 99 90 108 99 90 108 99 90 108 99 90 108 99 90 108 99 90 108 99 90 105 96 87 105 96 87 105 96 87 105 96 87 105 96 87 105 96 87 105 96 87 106 96 87 89 74 67 91 74 67 91 74 67 91 74 67 91 74 67 91 74 67 91 74 67 91 74 67 98 81 74 99 82 75 103 86 79 107 90 83 112 95 88 116 99 92 120 103 96 122 105 98 117 98 92 115 96 90 112 93 87 107 88 82 103 84 78 98 79 73 95 76 70 93 74 68 89 70 64 92 73 67 98 79 73 106 87 81 114 95 89 122 103 97 128 109 103 132 111 108 124 93 98 123 90 97 121 88 95 118 85 92 114 81 88 111 78 85 109 76 83 107 74 81 107 74 81 107 74 81 107 74 81 107 74 81 107 74 81 107 74 81 107 74 81 107 74 81 112 77 84 106 73 80 99 66 73 87 58 63 77 48 53 64 39 43 55 33 36 49 30 32 49 35 35 48 38 37
90 82 79 95 87 84 99 91 88 103 95 92 106 96 94 89 74 77 89 73 76 86 70 73 83 67 70 80 64 67 76 60 63 74 58 61 73 57 60 67 51 54 67 51 54 67 51 54 67 51 54 67 51 54 67 51 54 67 51 54 67 51 52 57 37 39 54 34 35 51 31 32 52 32 33 59 39 40 71 51 52 84 64 65 92 72 73 103 83 84 103 83 84 103 83 84 103 83 84 103 83 84 103 83 84 103 83 84 102 84 84 96 77 81 86 70 73 73 57 60 61 45 48 54 38 41 53 37 40 56 40 43 59 43 46 50 34 37 50 34 37 50 34 37 50 34 37 50 34 37 50 34 37 50 34 37 49 34 37 42 33 38 40 34 38 40 34 38 40 34 38 40 34 38 40 34 38 40 34 38 40 34 38 37 31 35 37 31 35 37 31 35 37 31 35 37 31 35 37 31 35 37 31 35 36 31 37 39 39 49 37 39 51 37 39 51 37 39 51 37 39 51 37 39 51 37 39 51 37 39 51 39 41 53 39 41 53 39 41 53 39 41 53 39 41 53 39 41 53 39 41 53 39 42 51 44 43 51 44 43 49 44 43 49 44 43 49 44 43 49 44 43 49 44 43 49 44 43 49 54 53 59 58 57 63 67 66 72 78 77 83 89 88 94 100 99 105 108 107 113 116 111 117 83 68 73 86 67 71 86 67 71 86 67 71 86 67 71 86 67 71 86 67 71 86 67 71 69 50 54 69 50 54 69 50 54 69 50 54 69 50 54 69 50 54 69 50 54 70 49 54 79 54 60 82 55 62 84 57 64 87 60 67 91 64 71 94 67 74 96 69 76 98 71 78 104 77 84 106 79 86 108 81 88 111 84 91 115 88 95 118 91 98 120 93 100 119 97 100 109 96 90 106 97 88 106 97 88 106 97 88 106 97 88 106 97 88 106 97 88 106 97 88 104 95 86 104 95 86 104 95 86 104 95 86 104 95 86 104 95 86 104 95 86 105 95 86 98 83 76 100 83 76 100 83 76 100 83 76 100 83 76 100 83 76 100 83 76 100 83 76 104 87 80 104 87 80 104 87 80 104 87 80 104 87 80 104 87 80 104 87 80 104 87 80 120 101 95 118 99 93 115 96 90 110 91 85 106 87 81 101 82 76 98 79 73 96 77 71 102 83 77 104 85 79 107 88 82 112 93 87 116 97 91 121 102 96 124 105 99 127 106 103 114 83 88 115 82 89 115 82 89 115 82 89 115 82 89 115 82 89 115 82 89 115 82 89 119 86 93 119 86 93 119 86 93 119 86 93 119 86 93 119 86 93 119 86 93 119 86 93 122 87 94 110 77 84 95 62 69 78 49 54 67 38 43 60 35 39 59 37 40 59 40 42 51 37 37 54 44 43
89 81 78 93 85 82 97 89 86 100 92 89 103 93 91 86 71 74 86 70 73 84 68 71 80 64 67 77 61 64 74 58 61 71 55 58 70 54 57 65 49 52 65 49 52 65 49 52 65 49 52 65 49 52 65 49 52 65 49 52 65 49 50 57 37 39 54 34 35 51 31 32 52 32 33 59 39 40 71 51 52 84 64 65 92 72 73 103 83 84 103 83 84 103 83 84 103 83 84 103 83 84 103 83 84 103 83 84 102 84 84 96 77 81 86 70 73 73 57 60 61 45 48 54 38 41 53 37 40 56 40 43 59 43 46 50 34 37 50 34 37 50 34 37 50 34 37 50 34 37 50 34 37 50 34 37 49 34 37 42 33 38 40 34 38 40 34 38 40 34 38 40 34 38 40 34 38 40 34 38 40 34 38 37 31 35 37 31 35 37 31 35 37 31 35 37 31 35 37 31 35 37 31 35 36 31 37 39 39 49 37 39 51 37 39 51 37 39 51 37 39 51 37 39 51 37 39 51 37 39 51 39 41 53 39 41 53 39 41 53 39 41 53 39 41 53 39 41 53 39 41 53 39 42 51 44 43 51 44 43 49 44 43 49 44 43 49 44 43 49 44 43 49 44 43 49 44 43 49 53 52 58 57 56 62 65 64 70 75 74 80 86 85 91 96 95 101 104 103 109 112 105 112 82 65 71 86 63 69 86 63 69 86 63 69 86 63 69 86 63 69 86 63 69 86 63 69 71 48 54 71 48 54 71 48 54 71 48 54 71 48 54 71 48 54 71 48 54 71 48 54 79 54 60 82 55 62 84 57 64 87 60 67 91 64 71 94 67 74 96 69 76 98 71 78 104 77 84 106 79 86 108 81 88 111 84 91 115 88 95 118 91 98 120 93 100 119 97 100 109 96 90 106 97 88 106 97 88 106 97 88 106 97 88 106 97 88 106 97 88 106 97 88 104 95 86 104 95 86 104 95 86 104 95 86 104 95 86 104 95 86 104 95 86 105 95 86 98 83 76 100 83 76 100 83 76 100 83 76 100 83 76 100 83 76 100 83 76 100 83 76 102 85 78 102 85 78 102 85 78 102 85 78 102 85 78 102 85 78 102 85 78 102 85 78 118 99 93 117 98 92 114 95 89 110 91 85 106 87 81 102 83 77 99 80 74 98 79 73 104 85 79 105 86 80 108 89 83 112 93 87 116 97 91 120 101 95 123 104 98 125 104 101 114 83 88 115 82 89 115 82 89 115 82 89 115 82 89 115 82 89 115 82 89 115 82 89 119 86 93 119 86 93 119 86 93 119 86 93 119 86 93 119 86 93 119 86 93 119 86 93 122 87 94 110 77 84 95 62 69 78 49 54 67 38 43 60 35 39 59 37 40 59 40 42 51 37 37 54 44 43
88 80 77 90 82 79 93 85 82 95 87 84 97 87 85 81 66 69 81 65 68 79 63 66 76 60 63 72 56 59 69 53 56 66 50 53 65 49 52 63 47 50 63 47 50 63 47 50 63 47 50 63 47 50 63 47 50 63 47 50 63 47 48 57 37 39 54 34 35 51 31 32 52 32 33 59 39 40 71 51 52 84 64 65 92 72 73 103 83 84 103 83 84 103 83 84 103 83 84 103 83 84 103 83 84 103 83 84 102 84 84 96 77 81 86 70 73 73 57 60 61 45 48 54 38 41 53 37 40 56 40 43 59 43 46 50 34 37 50 34 37 50 34 37 50 34 37 50 34 37 50 34 37 50 34 37 49 34 37 42 33 38 40 34 38 40 34 38 40 34 38 40 34 38 40 34 38 40 34 38 40 34 38 37 31 35 37 31 35 37 31 35 37 31 35 37 31 35 37 31 35 37 31 35 36 31 37 39 39 49 37 39 51 37 39 51 37 39 51 37 39 51 37 39 51 37 39 51 37 39 51 39 41 53 39 41 53 39 41 53 39 41 53 39 41 53 39 41 53 39 41 53 39 42 51 44 43 51 44 43 49 44 43 49 44 43 49 44 43 49 44 43 49 44 43 49 44 43 49 52 51 57 55 54 60 62 61 67 71 70 76 81 80 86 89 88 94 96 95 101 104 97 104 82 63 69 86 61 67 86 61 67 86 61 67 86 61 67 86 61 67 86 61 67 86 61 67 73 48 54 73 48 54 73 48 54 73 48 54 73 48 54 73 48 54 73 48 54 73 48 54 80 53 60 82 55 62 84 57 64 87 60 67 91 64 71 94 67 74 96 69 76 98 71 78 104 77 84 106 79 86 108 81 88 111 84 91 115 88 95 118 91 98 120 93 100 119 97 100 109 96 90 106 97 88 106 97 88 106 97 88 106 97 88 106 97 88 106 97 88 106 97 88 104 95 86 104 95 86 104 95 86 104 95 86 104 95 86 104 95 86 104 95 86 105 95 86 98 83 76 100 83 76 100 83 76 100 83 76 100 83 76 100 83 76 100 83 76 100 83 76 100 83 76 100 83 76 100 83 76 100 83 76 100 83 76 100 83 76 100 83 76 100 83 76 115 96 90 114 95 89 112 93 87 109 90 84 107 88 82 104 85 79 102 83 77 101 82 76 107 88 82 108 89 83 110 91 85 113 94 88 115 96 90 118 99 93 120 101 95 122 101 98 114 83 88 115 82 89 115 82 89 115 82 89 115 82 89 115 82 89 115 82 89 115 82 89 119 86 93 119 86 93 119 86 93 119 86 93 119 86 93 119 86 93 119 86 93 119 86 93 122 87 94 110 77 84 95 62 69 78 49 54 67 38 43 60 35 39 59 37 40 59 40 42 51 37 37 54 44 43
85 77 74 86 78 75 87 79 76 88 80 77 89 79 77 75 60 63 75 59 62 72 56 59 69 53 56 66 50 53 63 47 50 60 44 47 59 43 46 60 44 47 60 44 47 60 44 47 60 44 47 60 44 47 60 44 47 60 44 47 60 44 45 57 37 39 54 34 35 51 31 32 52 32 33 59 39 40 71 51 52 84 64 65 92 72 73 103 83 84 103 83 84 103 83 84 103 83 84 103 83 84 103 83 84 103 83 84 102 84 84 96 77 81 86 70 73 73 57 60 61 45 48 54 38 41 53 37 40 56 40 43 59 43 46 50 34 37 50 34 37 50 34 37 50 34 37 50 34 37 50 34 37 50 34 37 49 34 37 42 33 38 40 34 38 40 34 38 40 34 38 40 34 38 40 34 38 40 34 38 40 34 38 37 31 35 37 31 35 37 31 35 37 31 35 37 31 35 37 31 35 37 31 35 36 31 37 39 39 49 37 39 51 37 39 51 37 39 51 37 39 51 37 39 51 37 39 51 37 39 51 39 41 53 39 41 53 39 41 53 39 41 53 39 41 53 39 41 53 39 41 53 39 42 51 44 43 51 44 43 49 44 43 49 44 43 49 44 43 49 44 43 49 44 43 49 44 43 49 50 49 55 53 52 58 58 57 63 66 65 71 73 72 78 81 80 86 86 85 91 93 86 93 80 59 66 84 57 64 86 56 64 84 57 64 86 56 64 84 57 64 86 56 64 84 57 64 76 46 54 74 47 54 76 46 54 74 47 54 76 46 54 74 47 54 76 46 54 74 47 54 80 53 60 82 55 62 84 57 64 87 60 67 91 64 71 94 67 74 96 69 76 98 71 78 104 77 84 106 79 86 108 81 88 111 84 91 115 88 95 118 91 98 120 93 100 119 97 100 109 96 90 106 97 88 106 97 88 106 97 88 106 97 88 106 97 88 106 97 88 106 97 88 104 95 86 104 95 86 104 95 86 104 95 86 104 95 86 104 95 86 104 95 86 105 95 86 98 83 76 100 83 76 100 83 76 100 83 76 100 83 76 100 83 76 100 83 76 100 83 76 97 80 73 97 80 73 97 80 73 97 80 73 97 80 73 97 80 73 97 80 73 97 80 73 110 91 85 110 91 85 109 90 84 108 89 83 108 89 83 107 88 82 106 87 81 106 87 81 112 93 87 112 93 87 113 94 88 114 95 89 114 95 89 115 96 90 116 97 91 117 96 93 114 83 88 115 82 89 115 82 89 115 82 89 115 82 89 115 82 89 115 82 89 115 82 89 119 86 93 119 86 93 119 86 93 119 86 93 119 86 93 119 86 93 119 86 93 119 86 93 122 87 94 110 77 84 95 62 69 78 49 54 67 38 43 60 35 39 59 37 40 59 40 42 51 37 37 54 44 43
83 75 72 82 74 71 81 73 70 80 72 69 81 71 69 68 53 56 68 52 55 65 49 52 62 46 49 59 43 46 56 40 43 53 37 40 52 36 39 56 40 43 56 40 43 56 40 43 56 40 43 56 40 43 56 40 43 56 40 43 56 40 41 57 37 39 54 34 35 51 31 32 52 32 33 59 39 40 71 51 52 84 64 65 92 72 73 103 83 84 103 83 84 103 83 84 103 83 84 103 83 84 103 83 84 103 83 84 102 84 84 96 77 81 86 70 73 73 57 60 61 45 48 54 38 41 53 37 40 56 40 43 59 43 46 50 34 37 50 34 37 50 34 37 50 34 37 50 34 37 50 34 37 50 34 37 49 34 37 42 33 38 40 34 38 40 34 38 40 34 38 40 34 38 40 34 38 40 34 38 40 34 38 37 31 35 37 31 35 37 31 35 37 31 35 37 31 35 37 31 35 37 31 35 36 31 37 39 39 49 37 39 51 37 39 51 37 39 51 37 39 51 37 39 51 37 39 51 37 39 51 39 41 53 39 41 53 39 41 53 39 41 53 39 41 53 39 41 53 39 41 53 39 42 51 44 43 51 44 43 49 44 43 49 44 43 49 44 43 49 44 43 49 44 43 49 44 43 49 48 47 53 50 49 55 54 53 59 60 59 65 66 65 71 71 70 76 75 74 80 84 74 82 77 54 62 82 52 60 83 52 60 82 52 60 83 52 60 82 52 60 83 52 60 82 52 60 77 46 54 76 46 54 77 46 54 76 46 54 77 46 54 76 46 54 77 46 54 76 46 54 80 53 60 82 55 62 84 57 64 87 60 67 91 64 71 94 67 74 96 69 76 98 71 78 104 77 84 106 79 86 108 81 88 111 84 91 115 88 95 118 91 98 120 93 100 119 97 100 109 96 90 106 97 88 106 97 88 106 97 88 106 97 88 106 97 88 106 97 88 106 97 88 104 95 86 104 95 86 104 95 86 104 95 86 104 95 86 104 95 86 104 95 86 105 95 86 98 83 76 100 83 76 100 83 76 100 83 76 100 83 76 100 83 76 100 83 76 100 83 76 93 76 69 93 76 69 93 76 69 93 76 69 93 76 69 93 76 69 93 76 69 93 76 69 106 87 81 106 87 81 107 88 82 108 89 83 108 89 83 109 90 84 110 91 85 110 91 85 116 97 91 116 97 91 115 96 90 114 95 89 114 95 89 113 94 88 112 93 87 113 92 89 114 83 88 115 82 89 115 82 89 115 82 89 115 82 89 115 82 89 115 82 89 115 82 89 119 86 93 119 86 93 119 86 93 119 86 93 119 86 93 119 86 93 119 86 93 119 86 93 122 87 94 110 77 84 95 62 69 78 49 54 67 38 43 60 35 39 59 37 40 59 40 42 51 37 37 54 44 43
80 72 69 78 70 67 75 67 64 73 65 62 73 63 61 62 47 50 62 46 49 59 43 46 56 40 43 52 36 39 49 33 36 47 31 34 46 30 33 53 37 40 53 37 40 53 37 40 53 37 40 53 37 40 53 37 40 53 37 40 53 37 38 57 37 39 54 34 35 51 31 32 52 32 33 59 39 40 71 51 52 84 64 65 92 72 73 103 83 84 103 83 84 103 83 84 103 83 84 103 83 84 103 83 84 103 83 84 102 84 84 96 77 81 86 70 73 73 57 60 61 45 48 54 38 41 53 37 40 56 40 43 59 43 46 50 34 37 50 34 37 50 34 37 50 34 37 50 34 37 50 34 37 50 34 37 49 34 37 42 33 38 40 34 38 40 34 38 40 34 38 40 34 38 40 34 38 40 34 38 40 34 38 37 31 35 37 31 35 37 31 35 37 31 35 37 31 35 37 31 35 37 31 35 36 31 37 39 39 49 37 39 51 37 39 51 37 39 51 37 39 51 37 39 51 37 39 51 37 39 51 39 41 53 39 41 53 39 41 53 39 41 53 39 41 53 39 41 53 39 41 53 39 42 51 44 43 51 44 43 49 44 43 49 44 43 49 44 43 49 44 43 49 44 43 49 44 43 49 46 45 51 47 46 52 50 49 55 54 53 59 58 57 63 62 61 67 65 64 70 73 63 71 76 50 59 80 49 57 81 48 57 80 49 57 81 48 57 80 49 57 81 48 57 80 49 57 78 45 54 77 46 54 78 45 54 77 46 54 78 45 54 77 46 54 78 45 54 77 46 54 82 52 60 82 55 62 84 57 64 87 60 67 91 64 71 94 67 74 96 69 76 98 71 78 104 77 84 106 79 86 108 81 88 111 84 91 115 88 95 118 91 98 120 93 100 119 97 100 109 96 90 106 97 88 106 97 88 106 97 88 106 97 88 106 97 88 106 97 88 106 97 88 104 95 86 104 95 86 104 95 86 104 95 86 104 95 86 104 95 86 104 95 86 105 95 86 98 83 76 100 83 76 100 83 76 100 83 76 100 83 76 100 83 76 100 83 76 100 83 76 90 73 66 90 73 66 90 73 66 90 73 66 90 73 66 90 73 66 90 73 66 90 73 66 101 82 76 102 83 77 104 85 79 107 88 82 109 90 84 112 93 87 114 95 89 115 96 90 121 102 96 120 101 95 118 99 93 115 96 90 113 94 88 110 91 85 108 89 83 108 87 84 114 83 88 115 82 89 115 82 89 115 82 89 115 82 89 115 82 89 115 82 89 115 82 89 119 86 93 119 86 93 119 86 93 119 86 93 119 86 93 119 86 93 119 86 93 119 86 93 122 87 94 110 77 84 95 62 69 78 49 54 67 38 43 60 35 39 59 37 40 59 40 42 51 37 37 54 44 43
79 71 68 75 67 64 71 63 60 68 60 57 67 57 55 57 42 45 57 41 44 54 38 41 51 35 38 48 32 35 44 28 31 42 26 29 41 25 28 51 35 38 51 35 38 51 35 38 51 35 38 51 35 38 51 35 38 51 35 38 51 35 36 57 37 39 54 34 35 51 31 32 52 32 33 59 39 40 71 51 52 84 64 65 92 72 73 103 83 84 103 83 84 103 83 84 103 83 84 103 83 84 103 83 84 103 83 84 102 84 84 96 77 81 86 70 73 73 57 60 61 45 48 54 38 41 53 37 40 56 40 43 59 43 46 50 34 37 50 34 37 50 34 37 50 34 37 50 34 37 50 34 37 50 34 37 49 34 37 42 33 38 40 34 38 40 34 38 40 34 38 40 34 38 40 34 38 40 34 38 40 34 38 37 31 35 37 31 35 37 31 35 37 31 35 37 31 35 37 31 35 37 31 35 36 31 37 39 39 49 37 39 51 37 39 51 37 39 51 37 39 51 37 39 51 37 39 51 37 39 51 39 41 53 39 41 53 39 41 53 39 41 53 39 41 53 39 41 53 39 41 53 39 42 51 44 43 51 44 43 49 44 43 49 44 43 49 44 43 49 44 43 49 44 43 49 44 43 49 44 43 49 45 44 50 47 46 52 50 49 55 53 52 58 55 54 60 57 56 62 64 54 62 74 48 57 79 46 55 81 45 55 79 46 55 81 45 55 79 46 55 81 45 55 79 46 55 80 44 54 78 45 54 80 44 54 78 45 54 80 44 54 78 45 54 80 44 54 78 45 54 82 52 60 82 55 62 84 57 64 87 60 67 91 64 71 94 67 74 96 69 76 98 71 78 104 77 84 106 79 86 108 81 88 111 84 91 115 88 95 118 91 98 120 93 100 119 97 100 109 96 90 106 97 88 106 97 88 106 97 88 106 97 88 106 97 88 106 97 88 106 97 88 104 95 86 104 95 86 104 95 86 104 95 86 104 95 86 104 95 86 104 95 86 105 95 86 98 83 76 100 83 76 100 83 76 100 83 76 100 83 76 100 83 76 100 83 76 100 83 76 88 71 64 88 71 64 88 71 64 88 71 64 88 71 64 88 71 64 88 71 64 88 71 64 98 79 73 99 80 74 102 83 77 106 87 81 110 91 85 114 95 89 117 98 92 118 99 93 124 105 99 123 104 98 120 101 95 116 97 91 112 93 87 108 89 83 105 86 80 105 84 81 114 83 88 115 82 89 115 82 89 115 82 89 115 82 89 115 82 89 115 82 89 115 82 89 119 86 93 119 86 93 119 86 93 119 86 93 119 86 93 119 86 93 119 86 93 119 86 93 122 87 94 110 77 84 95 62 69 78 49 54 67 38 43 60 35 39 59 37 40 59 40 42 51 37 37 54 44 43
78 70 68 74 64 63 69 61 59 66 56 55 64 54 53 52 40 42 53 38 43 51 36 41 47 32 37 44 29 34 41 26 31 38 23 28 37 22 27 48 33 38 48 33 38 48 33 38 48 33 38 48 33 38 48 33 38 48 33 38 48 33 36 56 37 39 53 34 36 50 31 33 51 32 34 58 39 41 70 51 53 83 64 66 91 72 74 102 83 85 102 83 85 102 83 85 102 83 85 102 83 85 102 83 85 102 83 85 102 83 85 94 78 81 85 70 75 72 57 62 60 45 50 53 38 43 52 37 42 55 40 45 58 43 48 49 34 39 49 34 39 49 34 39 49 34 39 49 34 39 49 34 39 49 34 39 47 35 39 42 33 38 39 34 40 40 33 40 39 34 40 40 33 40 39 34 40 40 33 40 39 34 40 37 30 37 36 31 37 37 30 37 36 31 37 37 30 37 36 31 37 37 30 37 34 31 38 39 39 47 37 40 49 37 40 49 37 40 49 37 40 49 37 40 49 37 40 49 37 40 49 39 42 51 39 42 51 39 42 51 39 42 51 39 42 51 39 42 51 39 42 51 41 41 51 45 42 49 45 43 48 47 42 49 45 43 48 47 42 49 45 43 48 47 42 49 45 43 48 46 41 48 45 43 48 49 44 51 49 47 52 53 48 55 53 51 56 56 51 58 61 50 58 72 46 55 77 44 53 77 44 53 77 44 53 77 44 53 77 44 53 77 44 53 77 44 53 78 45 54 78 45 54 78 45 54 78 45 54 78 45 54 78 45 54 78 45 54 77 46 54 82 52 60 84 54 62 86 56 66 89 59 67 93 63 73 96 66 74 98 68 78 100 70 78 106 76 86 108 78 86 110 80 90 113 83 91 117 87 97 120 90 98 122 92 102 119 97 100 109 96 90 105 99 87 106 97 88 105 99 87 106 97 88 105 99 87 106 97 88 105 99 87 104 95 86 103 97 85 104 95 86 103 97 85 104 95 86 103 97 85 104 95 86 105 95 86 98 83 76 100 83 76 100 83 76 100 83 76 100 83 76 100 83 76 100 83 76 100 83 76 86 69 62 86 69 62 86 69 62 86 69 62 86 69 62 86 69 62 86 69 62 87 68 62 96 77 71 99 78 73 102 81 76 107 86 81 111 90 85 116 95 90 119 98 93 121 100 95 127 106 101 125 104 99 122 101 96 117 96 91 113 92 87 108 87 82 105 84 79 105 81 79 114 83 88 117 82 89 117 82 89 117 82 89 117 82 89 117 82 89 117 82 89 117 82 89 121 86 93 121 86 93 121 86 93 121 86 93 121 86 93 121 86 93 121 86 93 119 86 93 119 88 94 106 79 84 91 64 71 75 50 54 62 39 45 57 37 39 57 38 42 57 41 42 49 37 39 54 44 43
72 62 63 70 58 60 66 56 57 64 52 54 62 51 55 45 34 40 44 34 42 44 34 42 44 34 42 44 34 42 44 34 42 44 34 42 44 34 42 44 34 42 44 34 42 44 34 42 44 34 42 44 34 42 44 34 42 44 34 42 45 34 40 50 35 40 53 37 40 55 39 42 58 42 45 62 46 49 65 49 52 67 51 54 69 53 56 107 91 94 107 91 94 107 91 94 107 91 94 107 91 94 107 91 94 107 91 94 106 91 96 65 52 59 62 51 59 60 49 57 57 46 54 53 42 50 50 39 47 48 37 45 46 35 43 46 35 43 46 35 43 46 35 43 46 35 43 46 35 43 46 35 43 46 35 43 45 35 43 48 43 50 46 43 50 48 43 50 46 43 50 48 43 50 46 43 50 48 43 50 46 43 50 41 36 43 39 36 43 41 36 43 39 36 43 41 36 43 39 36 43 41 36 43 38 37 43 38 41 48 37 42 48 37 42 48 37 42 48 37 42 48 37 42 48 37 42 48 37 42 48 37 42 48 37 42 48 37 42 48 37 42 48 37 42 48 37 42 48 37 42 48 40 41 46 45 38 45 47 38 43 48 37 45 47 38 43 48 37 45 47 38 43 48 37 45 47 38 43 48 37 45 47 38 43 48 37 45 47 38 43 48 37 45 47 38 43 48 37 45 51 36 43 65 40 46 68 39 44 68 39 44 68 39 44 68 39 44 68 39 44 68 39 44 68 39 44 68 39 44 70 41 46 72 43 48 75 46 51 79 50 55 82 53 58 84 55 60 86 56 64 82 50 61 84 52 63 87 55 68 92 60 71 96 64 77 101 69 80 104 72 85 106 74 85 116 84 97 116 84 95 116 84 97 116 84 95 116 84 97 116 84 95 116 84 97 112 87 91 97 86 80 93 90 75 95 89 77 93 90 75 95 89 77 93 90 75 95 89 77 93 90 75 96 90 78 95 92 77 99 93 81 101 98 83 106 100 88 107 104 89 112 106 94 114 106 95 115 100 93 116 97 91 113 94 88 108 89 83 104 85 79 99 80 74 96 77 71 94 75 69 93 74 68 93 74 68 93 74 68 93 74 68 93 74 68 93 74 68 93 74 68 93 74 68 103 79 77 105 81 79 107 83 81 110 86 84 114 90 88 117 93 91 119 95 93 121 97 95 122 98 96 120 96 94 118 94 92 115 91 89 111 87 85 108 84 82 106 82 80 107 79 78 110 75 81 111 74 81 111 74 81 111 74 81 111 74 81 111 74 81 111 74 81 111 74 81 126 89 96 126 89 96 126 89 96 126 89 96 126 89 96 126 89 96 126 89 96 122 91 97 90 69 74 78 63 66 65 50 55 53 38 41 44 32 36 43 31 33 46 34 38 48 38 39 52 41 45 55 46 47
68 56 60 64 52 56 61 49 53 59 47 51 56 45 51 44 34 42 42 35 43 42 35 43 42 35 43 42 35 43 42 35 43 42 35 43 42 35 43 42 35 43 42 35 43 42 35 43 42 35 43 42 35 43 42 35 43 42 35 43 44 34 42 48 35 42 52 37 42 54 39 44 57 42 47 61 46 51 64 49 54 66 51 56 68 53 58 104 89 94 104 89 94 104 89 94 104 89 94 104 89 94 104 89 94 104 89 94 102 89 96 64 53 61 61 51 60 59 49 58 56 46 55 52 42 51 49 39 48 47 37 46 45 35 44 45 35 44 45 35 44 45 35 44 45 35 44 45 35 44 45 35 44 45 35 44 43 36 44 48 42 52 46 43 52 46 43 52 46 43 52 46 43 52 46 43 52 46 43 52 46 43 52 39 36 45 39 36 45 39 36 45 39 36 45 39 36 45 39 36 45 39 36 45 38 37 45 38 41 46 37 42 46 38 41 46 37 42 46 38 41 46 37 42 46 38 41 46 37 42 46 38 41 46 37 42 46 38 41 46 37 42 46 38 41 46 37 42 46 38 41 46 41 40 45 47 37 45 49 36 43 49 36 43 49 36 43 49 36 43 49 36 43 49 36 43 49 36 43 49 36 43 49 36 43 49 36 43 49 36 43 49 36 43 49 36 43 49 36 43 52 35 41 63 40 46 66 39 44 66 39 44 66 39 44 66 39 44 66 39 44 66 39 44 66 39 44 66 39 44 68 41 46 70 43 48 73 46 51 77 50 55 80 53 58 82 55 60 86 56 64 84 52 63 85 53 66 89 55 69 92 60 73 97 63 77 100 68 81 104 70 84 104 72 85 113 79 93 112 80 93 113 79 93 112 80 93 113 79 93 112 80 93 113 79 93 108 83 89 95 84 78 91 88 73 91 87 75 91 88 73 91 87 75 91 88 73 91 87 75 91 88 73 91 87 75 92 89 74 95 91 79 98 95 80 101 97 85 105 102 87 107 103 91 111 103 92 113 98 91 115 96 90 112 93 87 108 89 83 104 85 79 100 81 75 97 78 72 96 77 71 95 76 70 95 76 70 95 76 70 95 76 70 95 76 70 95 76 70 95 76 70 96 75 70 103 79 77 106 80 79 108 82 81 111 85 84 115 89 88 118 92 91 120 94 93 122 96 95 123 97 96 121 95 94 119 93 92 116 90 89 112 86 85 109 83 82 107 81 80 107 79 78 111 74 81 113 73 81 113 73 81 113 73 81 113 73 81 113 73 81 113 73 81 113 73 81 126 86 94 126 86 94 126 86 94 126 86 94 126 86 94 126 86 94 126 86 94 120 89 95 87 71 74 74 65 68 61 52 55 49 40 43 42 33 36 41 32 35 44 35 38 47 38 41 51 42 45 55 46 49
60 48 52 56 44 48 53 41 45 51 39 43 48 37 43 44 34 42 42 35 43 42 35 43 42 35 43 42 35 43 42 35 43 42 35 43 42 35 43 42 35 43 42 35 43 42 35 43 42 35 43 42 35 43 42 35 43 42 35 43 44 34 42 48 35 42 52 37 42 54 39 44 57 42 47 61 46 51 64 49 54 66 51 56 68 53 58 99 84 89 99 84 89 99 84 89 99 84 89 99 84 89 99 84 89 99 84 89 97 84 91 64 53 61 61 51 60 59 49 58 56 46 55 52 42 51 49 39 48 47 37 46 45 35 44 45 35 44 45 35 44 45 35 44 45 35 44 45 35 44 45 35 44 45 35 44 43 36 44 48 42 52 46 43 52 46 43 52 46 43 52 46 43 52 46 43 52 46 43 52 46 43 52 39 36 45 39 36 45 39 36 45 39 36 45 39 36 45 39 36 45 39 36 45 38 37 45 40 41 46 38 41 46 40 41 46 38 41 46 40 41 46 38 41 46 40 41 46 38 41 46 40 41 46 38 41 46 40 41 46 38 41 46 40 41 46 38 41 46 40 41 46 41 40 45 47 37 45 49 36 43 49 36 43 49 36 43 49 36 43 49 36 43 49 36 43 49 36 43 49 36 43 49 36 43 49 36 43 49 36 43 49 36 43 49 36 43 49 36 43 52 35 41 63 40 46 66 39 44 66 39 44 66 39 44 66 39 44 66 39 44 66 39 44 66 39 44 66 39 44 68 41 46 70 43 48 73 46 51 77 50 55 80 53 58 82 55 60 84 57 64 86 56 66 87 57 69 90 58 71 92 62 74 95 63 76 97 67 79 100 68 81 100 70 82 105 73 86 104 74 86 105 73 86 104 74 86 105 73 86 104 74 86 105 73 86 101 76 82 90 79 73 86 82 70 86 82 71 86 82 70 86 82 71 86 82 70 86 82 71 86 82 70 86 82 71 87 83 71 90 86 75 93 89 77 97 93 82 100 96 84 102 98 87 106 97 88 110 95 88 112 93 87 110 91 85 107 88 82 105 86 80 102 83 77 100 81 75 99 80 74 97 78 72 97 78 72 97 78 72 97 78 72 97 78 72 97 78 72 97 78 72 98 77 72 103 79 77 106 80 79 108 82 81 111 85 84 115 89 88 118 92 91 120 94 93 122 96 95 123 97 96 121 95 94 119 93 92 116 90 89 112 86 85 109 83 82 107 81 80 107 79 78 111 74 81 113 73 81 113 73 81 113 73 81 113 73 81 113 73 81 113 73 81 113 73 81 124 84 92 124 84 92 124 84 92 124 84 92 124 84 92 124 84 92 124 84 92 118 87 93 87 71 74 74 65 68 61 52 55 49 40 43 42 33 36 41 32 35 44 35 38 47 38 41 51 42 45 55 46 49
54 42 46 51 39 43 47 35 39 45 33 37 43 32 38 44 34 42 42 35 43 42 35 43 42 35 43 42 35 43 42 35 43 42 35 43 42 35 43 42 35 43 42 35 43 42 35 43 42 35 43 42 35 43 42 35 43 42 35 43 44 34 42 48 35 42 52 37 42 54 39 44 57 42 47 61 46 51 64 49 54 66 51 56 68 53 58 92 77 82 92 77 82 92 77 82 92 77 82 92 77 82 92 77 82 92 77 82 90 77 84 64 53 61 61 51 60 59 49 58 56 46 55 52 42 51 49 39 48 47 37 46 45 35 44 45 35 44 45 35 44 45 35 44 45 35 44 45 35 44 45 35 44 45 35 44 43 36 44 48 42 52 46 43 52 46 43 52 46 43 52 46 43 52 46 43 52 46 43 52 46 43 52 39 36 45 39 36 45 39 36 45 39 36 45 39 36 45 39 36 45 39 36 45 39 36 45 41 40 46 40 41 46 41 40 46 40 41 46 41 40 46 40 41 46 41 40 46 40 41 46 41 40 46 40 41 46 41 40 46 40 41 46 41 40 46 40 41 46 41 40 46 42 40 45 47 37 45 49 36 43 49 36 43 49 36 43 49 36 43 49 36 43 49 36 43 49 36 43 49 36 43 49 36 43 49 36 43 49 36 43 49 36 43 49 36 43 49 36 43 52 35 41 63 40 46 66 39 44 66 39 44 66 39 44 66 39 44 66 39 44 66 39 44 66 39 44 66 39 44 68 41 46 70 43 48 73 46 51 77 50 55 80 53 58 82 55 60 84 57 64 89 62 71 89 61 73 92 62 74 91 63 75 93 63 75 92 64 76 95 65 77 93 65 77 94 64 76 92 64 76 94 64 76 92 64 76 94 64 76 92 64 76 94 64 76 89 66 72 83 72 68 79 75 64 79 75 66 79 75 64 79 75 66 79 75 64 79 75 66 79 75 64 80 76 67 81 77 66 84 80 71 87 83 72 90 86 77 93 89 78 96 92 83 100 91 82 105 90 83 108 89 83 107 88 82 106 87 81 106 87 81 105 86 80 104 85 79 104 85 79 100 81 75 100 81 75 100 81 75 100 81 75 100 81 75 100 81 75 100 81 75 101 80 75 103 79 77 106 80 79 108 82 81 111 85 84 115 89 88 118 92 91 120 94 93 122 96 95 123 97 96 121 95 94 119 93 92 116 90 89 112 86 85 109 83 82 107 81 80 107 79 78 111 74 81 113 73 81 113 73 81 113 73 81 113 73 81 113 73 81 113 73 81 113 73 81 121 81 89 121 81 89 121 81 89 121 81 89 121 81 89 121 81 89 121 81 89 115 84 90 87 71 74 74 65 68 61 52 55 49 40 43 42 33 36 41 32 35 44 35 38 47 38 41 51 42 45 55 46 49
54 42 46 51 39 43 47 35 39 45 33 37 43 32 38 44 34 42 42 35 43 42 35 43 42 35 43 42 35 43 42 35 43 42 35 43 42 35 43 42 35 43 42 35 43 42 35 43 42 35 43 42 35 43 42 35 43 42 35 43 44 34 42 48 35 42 52 37 42 54 39 44 57 42 47 61 46 51 64 49 54 66 51 56 68 53 58 86 71 76 86 71 76 86 71 76 86 71 76 86 71 76 86 71 76 86 71 76 84 71 78 64 53 61 61 51 60 59 49 58 56 46 55 52 42 51 49 39 48 47 37 46 45 35 44 45 35 44 45 35 44 45 35 44 45 35 44 45 35 44 45 35 44 45 35 44 43 36 44 48 42 52 46 43 52 46 43 52 46 43 52 46 43 52 46 43 52 46 43 52 46 43 52 39 36 45 39 36 45 39 36 45 39 36 45 39 36 45 39 36 45 39 36 45 39 36 45 42 39 46 41 40 46 42 39 46 41 40 46 42 39 46 41 40 46 42 39 46 41 40 46 42 39 46 41 40 46 42 39 46 41 40 46 42 39 46 41 40 46 42 39 46 44 39 45 48 37 45 49 36 43 49 36 43 49 36 43 49 36 43 49 36 43 49 36 43 49 36 43 49 36 43 49 36 43 49 36 43 49 36 43 49 36 43 49 36 43 49 36 43 52 35 41 63 40 46 66 39 44 66 39 44 66 39 44 66 39 44 66 39 44 66 39 44 66 39 44 66 39 44 68 41 46 70 43 48 73 46 51 77 50 55 80 53 58 82 55 60 84 57 64 93 66 75 92 66 77 92 64 76 90 64 75 91 63 75 89 63 74 89 61 73 88 62 73 82 54 66 81 55 66 82 54 66 81 55 66 82 54 66 81 55 66 82 54 66 78 57 64 76 66 64 73 69 60 73 68 62 73 69 60 73 68 62 73 69 60 73 68 62 73 69 60 73 68 62 74 70 61 77 72 66 80 76 67 83 78 72 86 82 73 89 84 78 93 84 77 101 86 79 104 85 79 105 86 80 106 87 81 106 87 81 107 88 82 108 89 83 108 89 83 104 85 79 104 85 79 104 85 79 104 85 79 104 85 79 104 85 79 104 85 79 105 84 79 103 79 77 106 80 79 108 82 81 111 85 84 115 89 88 118 92 91 120 94 93 122 96 95 123 97 96 121 95 94 119 93 92 116 90 89 112 86 85 109 83 82 107 81 80 107 79 78 111 74 81 113 73 81 113 73 81 113 73 81 113 73 81 113 73 81 113 73 81 113 73 81 117 77 85 117 77 85 117 77 85 117 77 85 117 77 85 117 77 85 117 77 85 111 80 86 87 71 74 74 65 68 61 52 55 49 40 43 42 33 36 41 32 35 44 35 38 47 38 41 51 42 45 55 46 49
60 48 52 56 44 48 53 41 45 51 39 43 48 37 43 44 34 42 42 35 43 42 35 43 42 35 43 42 35 43 42 35 43 42 35 43 42 35 43 42 35 43 42 35 43 42 35 43 42 35 43 42 35 43 42 35 43 42 35 43 44 34 42 48 35 42 52 37 42 54 39 44 57 42 47 61 46 51 64 49 54 66 51 56 68 53 58 79 64 69 79 64 69 79 64 69 79 64 69 79 64 69 79 64 69 79 64 69 77 64 71 64 53 61 61 51 60 59 49 58 56 46 55 52 42 51 49 39 48 47 37 46 45 35 44 45 35 44 45 35 44 45 35 44 45 35 44 45 35 44 45 35 44 45 35 44 43 36 44 48 42 52 46 43 52 46 43 52 46 43 52 46 43 52 46 43 52 46 43 52 46 43 52 39 36 45 39 36 45 39 36 45 39 36 45 39 36 45 39 36 45 39 36 45 39 36 45 44 39 46 44 39 46 44 39 46 44 39 46 44 39 46 44 39 46 44 39 46 44 39 46 44 39 46 44 39 46 44 39 46 44 39 46 44 39 46 44 39 46 44 39 46 45 38 45 48 37 45 49 36 43 49 36 43 49 36 43 49 36 43 49 36 43 49 36 43 49 36 43 49 36 43 49 36 43 49 36 43 49 36 43 49 36 43 49 36 43 49 36 43 52 35 41 63 40 46 66 39 44 66 39 44 66 39 44 66 39 44 66 39 44 66 39 44 66 39 44 66 39 44 68 41 46 70 43 48 73 46 51 77 50 55 80 53 58 82 55 60 84 57 64 97 71 80 94 71 81 92 69 79 89 66 76 87 64 74 84 61 71 82 59 69 81 58 68 69 46 56 69 46 56 69 46 56 69 46 56 69 46 56 69 46 56 69 46 56 67 48 54 69 59 58 66 61 57 66 61 57 66 61 57 66 61 57 66 61 57 66 61 57 66 61 57 67 62 58 68 63 59 70 65 61 73 68 64 77 72 68 80 75 71 83 78 74 87 78 73 96 81 76 100 81 75 102 83 77 105 86 80 107 88 82 110 91 85 112 93 87 113 94 88 107 88 82 107 88 82 107 88 82 107 88 82 107 88 82 107 88 82 107 88 82 108 87 82 103 79 77 106 80 79 108 82 81 111 85 84 115 89 88 118 92 91 120 94 93 122 96 95 123 97 96 121 95 94 119 93 92 116 90 89 112 86 85 109 83 82 107 81 80 107 79 78 111 74 81 113 73 81 113 73 81 113 73 81 113 73 81 113 73 81 113 73 81 113 73 81 114 74 82 114 74 82 114 74 82 114 74 82 114 74 82 114 74 82 114 74 82 108 77 83 87 71 74 74 65 68 61 52 55 49 40 43 42 33 36 41 32 35 44 35 38 47 38 41 51 42 45 55 46 49
68 56 60 64 52 56 61 49 53 59 47 51 56 45 51 44 34 42 42 35 43 42 35 43 42 35 43 42 35 43 42 35 43 42 35 43 42 35 43 42 35 43 42 35 43 42 35 43 42 35 43 42 35 43 42 35 43 42 35 43 44 34 42 48 35 42 52 37 42 54 39 44 57 42 47 61 46 51 64 49 54 66 51 56 68 53 58 74 59 64 74 59 64 74 59 64 74 59 64 74 59 64 74 59 64 74 59 64 72 59 66 64 53 61 61 51 60 59 49 58 56 46 55 52 42 51 49 39 48 47 37 46 45 35 44 45 35 44 45 35 44 45 35 44 45 35 44 45 35 44 45 35 44 45 35 44 43 36 44 48 42 52 46 43 52 46 43 52 46 43 52 46 43 52 46 43 52 46 43 52 46 43 52 39 36 45 39 36 45 39 36 45 39 36 45 39 36 45 39 36 45 39 36 45 41 35 45 45 38 46 45 38 46 45 38 46 45 38 46 45 38 46 45 38 46 45 38 46 45 38 46 45 38 46 45 38 46 45 38 46 45 38 46 45 38 46 45 38 46 45 38 46 47 37 45 48 37 45 49 36 43 49 36 43 49 36 43 49 36 43 49 36 43 49 36 43 49 36 43 49 36 43 49 36 43 49 36 43 49 36 43 49 36 43 49 36 43 49 36 43 52 35 41 63 40 46 66 39 44 66 39 44 66 39 44 66 39 44 66 39 44 66 39 44 66 39 44 66 39 44 68 41 46 70 43 48 73 46 51 77 50 55 80 53 58 82 55 60 83 58 64 98 75 83 96 75 84 93 72 81 89 68 77 85 64 73 81 60 69 78 57 66 77 56 65 61 40 49 61 40 49 61 40 49 61 40 49 61 40 49 61 40 49 61 40 49 58 41 47 64 54 55 61 56 53 61 56 53 61 56 53 61 56 53 61 56 53 61 56 53 61 56 53 62 57 54 63 58 55 65 60 57 69 64 61 72 67 64 75 70 67 78 73 70 82 72 70 93 78 73 97 78 72 100 81 75 104 85 79 108 89 83 112 93 87 115 96 90 116 97 91 109 90 84 109 90 84 109 90 84 109 90 84 109 90 84 109 90 84 109 90 84 110 89 84 103 79 77 106 80 79 108 82 81 111 85 84 115 89 88 118 92 91 120 94 93 122 96 95 123 97 96 121 95 94 119 93 92 116 90 89 112 86 85 109 83 82 107 81 80 107 79 78 111 74 81 113 73 81 113 73 81 113 73 81 113 73 81 113 73 81 113 73 81 113 73 81 112 72 80 112 72 80 112 72 80 112 72 80 112 72 80 112 72 80 112 72 80 106 75 81 87 71 74 74 65 68 61 52 55 49 40 43 42 33 36 41 32 35 44 35 38 47 38 41 51 42 45 55 46 49
73 61 65 70 58 62 67 55 59 64 52 56 62 51 57 44 34 42 42 35 43 42 35 43 42 35 43 42 35 43 42 35 43 42 35 43 42 35 43 42 35 43 42 35 43 42 35 43 42 35 43 42 35 43 42 35 43 42 35 43 44 34 42 48 35 42 52 37 42 54 39 44 57 42 47 61 46 51 64 49 54 66 51 56 68 53 58 72 57 62 72 57 62 72 57 62 72 57 62 72 57 62 72 57 62 72 57 62 70 57 64 64 53 61 61 51 60 59 49 58 56 46 55 52 42 51 49 39 48 47 37 46 45 35 44 45 35 44 45 35 44 45 35 44 45 35 44 45 35 44 45 35 44 45 35 44 43 36 44 48 42 52 46 43 52 46 43 52 46 43 52 46 43 52 46 43 52 46 43 52 46 43 52 39 36 45 39 36 45 39 36 45 39 36 45 39 36 45 39 36 45 39 36 45 41 35 45 47 37 46 48 36 46 48 36 46 48 36 46 48 36 46 48 36 46 48 36 46 48 36 46 48 36 46 48 36 46 48 36 46 48 36 46 48 36 46 48 36 46 48 36 46 48 37 45 49 36 45 49 36 43 49 36 43 49 36 43 49 36 43 49 36 43 49 36 43 49 36 43 49 36 43 49 36 43 49 36 43 49 36 43 49 36 43 49 36 43 49 36 43 52 35 41 63 40 46 66 39 44 66 39 44 66 39 44 66 39 44 66 39 44 66 39 44 66 39 44 66 39 44 68 41 46 70 43 48 73 46 51 77 50 55 80 53 58 82 55 60 83 58 64 98 79 85 94 77 85 91 74 82 86 69 77 82 65 73 77 60 68 74 57 65 72 55 63 54 37 45 54 37 45 54 37 45 54 37 45 54 37 45 54 37 45 54 37 45 53 38 45 61 52 55 59 53 55 59 53 55 59 53 55 59 53 55 59 53 55 59 53 55 59 53 55 59 53 55 60 54 56 63 57 59 66 60 62 69 63 65 73 67 69 75 69 71 79 69 68 91 76 73 96 77 71 99 80 74 104 85 79 108 89 83 113 94 88 116 97 91 118 99 93 111 92 86 111 92 86 111 92 86 111 92 86 111 92 86 111 92 86 111 92 86 112 91 86 103 79 77 106 80 79 108 82 81 111 85 84 115 89 88 118 92 91 120 94 93 122 96 95 123 97 96 121 95 94 119 93 92 116 90 89 112 86 85 109 83 82 107 81 80 107 79 78 111 74 81 113 73 81 113 73 81 113 73 81 113 73 81 113 73 81 113 73 81 113 73 81 110 70 78 110 70 78 110 70 78 110 70 78 110 70 78 110 70 78 110 70 78 104 73 79 87 71 74 74 65 68 61 52 55 49 40 43 42 33 36 41 32 35 44 35 38 47 38 41 51 42 45 55 46 49
80 68 72 80 68 72 80 68 72 80 68 72 79 68 74 76 66 74 71 64 72 65 58 66 58 51 59 50 43 51 42 35 43 36 29 37 33 26 34 34 27 35 36 29 37 39 32 40 44 37 45 48 41 49 53 46 54 56 49 57 60 50 58 61 48 55 63 48 53 63 48 53 63 48 53 63 48 53 63 48 53 63 48 53 63 48 53 65 50 55 65 50 55 65 50 55 65 50 55 65 50 55 65 50 55 65 50 55 63 50 57 47 36 44 46 36 45 46 36 45 46 36 45 46 36 45 46 36 45 46 36 45 46 36 45 46 36 45 46 36 45 46 36 45 46 36 45 46 36 45 46 36 45 46 36 45 44 37 45 53 47 57 51 48 57 51 48 57 51 48 57 51 48 57 51 48 57 51 48 57 51 48 57 51 48 57 51 48 57 51 48 57 51 48 57 51 48 57 51 48 57 51 48 57 53 47 57 51 38 48 53 37 48 53 37 48 53 37 48 53 37 48 53 37 48 53 37 48 53 37 48 58 42 53 58 42 53 58 42 53 58 42 53 58 42 53 58 42 53 58 42 53 58 42 52 51 38 47 51 38 45 51 38 45 51 38 45 51 38 45 51 38 45 51 38 45 51 38 45 41 28 35 43 30 37 45 32 39 48 35 42 52 39 46 55 42 49 57 44 51 62 45 51 60 37 43 64 37 42 66 39 44 70 43 48 73 46 51 76 49 54 79 52 57 80 53 58 88 61 66 90 63 68 93 66 71 98 71 76 102 75 80 107 80 85 110 83 88 109 86 92 86 69 75 82 69 76 79 66 73 76 63 70 73 60 67 69 56 63 67 54 61 66 53 60 42 29 36 44 31 38 46 33 40 49 36 43 53 40 47 56 43 50 58 45 52 59 48 54 54 44 52 52 45 52 52 45 52 52 45 52 52 45 52 52 45 52 52 45 52 52 45 52 50 43 50 51 44 51 53 46 53 57 50 57 60 53 60 63 56 63 66 59 66 70 59 63 87 72 69 92 73 67 94 75 69 97 78 72 101 82 76 104 85 79 106 87 81 108 89 83 105 86 80 105 86 80 105 86 80 105 86 80 105 86 80 105 86 80 105 86 80 106 85 80 110 86 84 111 85 84 111 85 84 111 85 84 111 85 84 111 85 84 111 85 84 111 85 84 111 85 84 111 85 84 111 85 84 111 85 84 111 85 84 111 85 84 111 85 84 113 85 84 102 65 72 104 64 72 104 64 72 104 64 72 104 64 72 104 64 72 104 64 72 104 64 72 104 64 72 104 64 72 104 64 72 104 64 72 104 64 72 104 64 72 104 64 72 98 67 73 63 47 50 56 47 50 54 45 48 51 42 45 47 38 41 44 35 38 42 33 36 40 31 34 67 58 61 65 56 59
80 68 72 80 68 72 80 68 72 80 68 72 79 68 74 77 67 75 72 65 73 67 60 68 60 53 61 53 46 54 46 39 47 40 33 41 37 30 38 36 29 37 37 30 38 40 33 41 44 37 45 48 41 49 52 45 53 55 48 56 58 48 56 59 46 53 61 46 51 61 46 51 61 46 51 61 46 51 61 46 51 61 46 51 61 46 51 63 48 53 63 48 53 63 48 53 63 48 53 63 48 53 63 48 53 63 48 53 61 48 55 47 36 44 46 36 45 46 36 45 46 36 45 46 36 45 46 36 45 46 36 45 46 36 45 46 36 45 46 36 45 46 36 45 46 36 45 46 36 45 46 36 45 46 36 45 44 37 45 53 47 57 51 48 57 51 48 57 51 48 57 51 48 57 51 48 57 51 48 57 51 48 57 51 48 57 51 48 57 51 48 57 51 48 57 51 48 57 51 48 57 51 48 57 54 46 57 53 37 48 56 36 48 56 36 48 56 36 48 56 36 48 56 36 48 56 36 48 56 36 48 61 41 53 61 41 53 61 41 53 61 41 53 61 41 53 61 41 53 61 41 53 59 42 52 53 37 47 51 38 45 51 38 45 51 38 45 51 38 45 51 38 45 51 38 45 51 38 45 41 28 35 43 30 37 45 32 39 48 35 42 52 39 46 55 42 49 57 44 51 62 45 51 61 38 44 65 38 43 68 41 46 71 44 49 74 47 52 78 51 56 80 53 58 81 54 59 90 63 68 91 64 69 94 67 72 98 71 76 102 75 80 106 79 84 109 82 87 107 84 90 80 68 72 77 68 73 75 66 71 71 62 67 68 59 64 65 56 61 62 53 58 61 52 57 40 31 36 42 33 38 44 35 40 47 38 43 51 42 47 54 45 50 56 47 52 58 48 56 52 45 53 52 44 55 52 44 55 52 44 55 52 44 55 52 44 55 52 44 55 52 44 55 51 43 54 52 44 55 55 47 58 58 50 61 61 53 64 65 57 68 67 59 70 71 60 66 87 72 69 92 73 67 94 75 69 97 78 72 101 82 76 104 85 79 106 87 81 108 89 83 105 86 80 105 86 80 105 86 80 105 86 80 105 86 80 105 86 80 105 86 80 106 85 80 110 86 84 111 85 84 111 85 84 111 85 84 111 85 84 111 85 84 111 85 84 111 85 84 109 83 82 109 83 82 109 83 82 109 83 82 109 83 82 109 83 82 109 83 82 111 83 82 102 65 72 104 64 72 104 64 72 104 64 72 104 64 72 104 64 72 104 64 72 104 64 72 104 64 72 104 64 72 104 64 72 104 64 72 104 64 72 104 64 72 104 64 72 98 67 73 63 47 50 56 47 50 54 45 48 51 42 45 47 38 41 44 35 38 42 33 36 40 31 34 67 58 61 65 56 59
80 68 72 80 68 72 80 68 72 80 68 72 79 68 74 79 69 77 74 67 75 70 63 71 64 57 65 58 51 59 52 45 53 48 41 49 46 39 47 39 32 40 40 33 41 42 35 43 45 38 46 47 40 48 50 43 51 52 45 53 55 45 53 57 44 51 59 44 49 59 44 49 59 44 49 59 44 49 59 44 49 59 44 49 59 44 49 61 46 51 61 46 51 61 46 51 61 46 51 61 46 51 61 46 51 61 46 51 59 46 53 47 36 44 46 36 45 46 36 45 46 36 45 46 36 45 46 36 45 46 36 45 46 36 45 46 36 45 46 36 45 46 36 45 46 36 45 46 36 45 46 36 45 46 36 45 44 37 45 53 47 57 51 48 57 51 48 57 51 48 57 51 48 57 51 48 57 51 48 57 51 48 57 51 48 57 51 48 57 51 48 57 51 48 57 51 48 57 51 48 57 51 48 57 54 46 57 54 36 48 57 35 48 57 35 48 57 35 48 57 35 48 57 35 48 57 35 48 57 35 48 62 40 53 62 40 53 62 40 53 62 40 53 62 40 53 62 40 53 62 40 53 61 41 52 53 37 47 51 38 45 51 38 45 51 38 45 51 38 45 51 38 45 51 38 45 51 38 45 41 28 35 43 30 37 45 32 39 48 35 42 52 39 46 55 42 49 57 44 51 62 45 51 63 40 46 68 41 46 70 43 48 73 46 51 77 50 55 80 53 58 82 55 60 84 57 62 93 66 71 94 67 72 96 69 74 99 72 77 101 74 79 104 77 82 106 79 84 103 82 87 74 63 67 70 64 68 68 62 66 65 59 63 61 55 59 58 52 56 55 49 53 54 48 52 38 32 36 40 34 38 42 36 40 45 39 43 49 43 47 52 46 50 54 48 52 56 49 56 52 44 55 52 44 57 52 44 57 52 44 57 52 44 57 52 44 57 52 44 57 52 44 57 53 45 58 55 47 60 57 49 62 60 52 65 64 56 69 67 59 72 69 61 74 74 63 71 87 71 71 92 73 67 94 75 69 97 78 72 101 82 76 104 85 79 106 87 81 108 89 83 105 86 80 105 86 80 105 86 80 105 86 80 105 86 80 105 86 80 105 86 80 106 85 80 110 86 84 111 85 84 111 85 84 111 85 84 111 85 84 111 85 84 111 85 84 111 85 84 107 81 80 107 81 80 107 81 80 107 81 80 107 81 80 107 81 80 107 81 80 109 81 80 102 65 72 104 64 72 104 64 72 104 64 72 104 64 72 104 64 72 104 64 72 104 64 72 104 64 72 104 64 72 104 64 72 104 64 72 104 64 72 104 64 72 104 64 72 98 67 73 63 47 50 56 47 50 54 45 48 51 42 45 47 38 41 44 35 38 42 33 36 40 31 34 67 58 61 65 56 59
80 68 72 80 68 72 80 68 72 80 68 72 79 68 74 81 71 79 77 70 78 74 67 75 70 63 71 65 58 66 61 54 62 58 51 59 57 50 58 44 37 45 44 37 45 45 38 46 46 39 47 46 39 47 47 40 48 48 41 49 50 40 48 54 41 48 56 41 46 56 41 46 56 41 46 56 41 46 56 41 46 56 41 46 56 41 46 58 43 48 58 43 48 58 43 48 58 43 48 58 43 48 58 43 48 58 43 48 56 43 50 47 36 44 46 36 45 46 36 45 46 36 45 46 36 45 46 36 45 46 36 45 46 36 45 46 36 45 46 36 45 46 36 45 46 36 45 46 36 45 46 36 45 46 36 45 44 37 45 53 47 57 51 48 57 51 48 57 51 48 57 51 48 57 51 48 57 51 48 57 51 48 57 51 48 57 51 48 57 51 48 57 51 48 57 51 48 57 51 48 57 51 48 57 56 46 57 56 36 48 58 34 48 60 33 48 58 34 48 60 33 48 58 34 48 60 33 48 58 34 48 65 38 53 63 39 53 65 38 53 63 39 53 65 38 53 63 39 53 65 38 53 62 40 52 53 37 47 51 38 45 51 38 45 51 38 45 51 38 45 51 38 45 51 38 45 51 38 45 41 28 35 43 30 37 45 32 39 48 35 42 52 39 46 55 42 49 57 44 51 62 45 51 67 44 50 71 44 49 73 46 51 77 50 55 80 53 58 83 56 61 86 59 64 87 60 65 98 71 76 98 71 76 99 72 77 100 73 78 100 73 78 101 74 79 102 75 80 98 77 82 67 58 61 61 59 62 60 55 59 55 53 56 54 49 53 49 47 50 48 43 47 45 43 46 37 32 36 37 35 38 41 36 40 42 40 43 48 43 47 49 47 50 53 48 52 55 50 56 52 44 57 52 44 59 52 43 60 52 44 59 52 43 60 52 44 59 52 43 60 52 44 59 57 48 65 58 50 65 60 51 68 64 56 71 67 58 75 70 62 77 73 64 81 77 65 75 87 71 71 92 73 67 94 75 69 97 78 72 101 82 76 104 85 79 106 87 81 108 89 83 105 86 80 105 86 80 105 86 80 105 86 80 105 86 80 105 86 80 105 86 80 106 85 80 110 86 84 111 85 84 111 85 84 111 85 84 111 85 84 111 85 84 111 85 84 111 85 84 104 78 77 104 78 77 104 78 77 104 78 77 104 78 77 104 78 77 104 78 77 106 78 77 102 65 72 104 64 72 104 64 72 104 64 72 104 64 72 104 64 72 104 64 72 104 64 72 104 64 72 104 64 72 104 64 72 104 64 72 104 64 72 104 64 72 104 64 72 98 67 73 63 47 50 56 47 50 54 45 48 51 42 45 47 38 41 44 35 38 42 33 36 40 31 34 67 58 61 65 56 59
80 68 72 80 68 72 80 68 72 80 68 72 79 68 74 83 73 81 80 73 81 78 71 79 76 69 77 73 66 74 71 64 72 69 62 70 68 61 69 48 41 49 48 41 49 47 40 48 46 39 47 46 39 47 45 38 46 44 37 45 46 36 44 50 37 44 52 37 42 52 37 42 52 37 42 52 37 42 52 37 42 52 37 42 52 37 42 54 39 44 54 39 44 54 39 44 54 39 44 54 39 44 54 39 44 54 39 44 52 39 46 47 36 44 46 36 45 46 36 45 46 36 45 46 36 45 46 36 45 46 36 45 46 36 45 46 36 45 46 36 45 46 36 45 46 36 45 46 36 45 46 36 45 46 36 45 44 37 45 53 47 57 51 48 57 51 48 57 51 48 57 51 48 57 51 48 57 51 48 57 51 48 57 51 48 57 51 48 57 51 48 57 51 48 57 51 48 57 51 48 57 51 48 57 56 46 57 57 35 48 60 33 48 61 33 48 60 33 48 61 33 48 60 33 48 61 33 48 60 33 48 66 38 53 65 38 53 66 38 53 65 38 53 66 38 53 65 38 53 66 38 53 63 39 52 54 37 47 51 38 45 51 38 45 51 38 45 51 38 45 51 38 45 51 38 45 51 38 45 41 28 35 43 30 37 45 32 39 48 35 42 52 39 46 55 42 49 57 44 51 62 45 51 70 47 53 74 47 52 77 50 55 80 53 58 83 56 61 87 60 65 89 62 67 90 63 68 102 75 80 102 75 80 101 74 79 100 73 78 100 73 78 99 72 77 98 71 76 94 73 78 60 51 54 53 53 55 51 49 52 47 47 49 45 43 46 41 41 43 39 37 40 37 37 39 35 33 36 36 36 38 39 37 40 41 41 43 46 44 47 48 48 50 51 49 52 53 50 57 51 45 59 52 43 60 52 43 62 52 43 60 52 43 62 52 43 60 52 43 62 52 43 60 60 51 70 61 52 69 64 55 74 67 58 75 70 61 80 74 65 82 76 67 86 80 68 80 87 71 71 92 73 67 94 75 69 97 78 72 101 82 76 104 85 79 106 87 81 108 89 83 105 86 80 105 86 80 105 86 80 105 86 80 105 86 80 105 86 80 105 86 80 106 85 80 110 86 84 111 85 84 111 85 84 111 85 84 111 85 84 111 85 84 111 85 84 111 85 84 100 74 73 100 74 73 100 74 73 100 74 73 100 74 73 100 74 73 100 74 73 102 74 73 102 65 72 104 64 72 104 64 72 104 64 72 104 64 72 104 64 72 104 64 72 104 64 72 104 64 72 104 64 72 104 64 72 104 64 72 104 64 72 104 64 72 104 64 72 98 67 73 63 47 50 56 47 50 54 45 48 51 42 45 47 38 41 44 35 38 42 33 36 40 31 34 67 58 61 65 56 59
80 68 72 80 68 72 80 68 72 80 68 72 79 68 74 85 75 83 82 75 83 82 75 83 81 74 82 80 73 81 80 73 81 79 72 80 79 72 80 53 46 54 52 45 53 50 43 51 47 40 48 45 38 46 42 35 43 40 33 41 41 31 39 47 34 41 49 34 39 49 34 39 49 34 39 49 34 39 49 34 39 49 34 39 49 34 39 51 36 41 51 36 41 51 36 41 51 36 41 51 36 41 51 36 41 51 36 41 49 36 43 47 36 44 46 36 45 46 36 45 46 36 45 46 36 45 46 36 45 46 36 45 46 36 45 46 36 45 46 36 45 46 36 45 46 36 45 46 36 45 46 36 45 46 36 45 44 37 45 53 47 57 51 48 57 51 48 57 51 48 57 51 48 57 51 48 57 51 48 57 51 48 57 51 48 57 51 48 57 51 48 57 51 48 57 51 48 57 51 48 57 51 48 57 56 46 57 57 35 48 61 33 48 63 32 48 61 33 48 63 32 48 61 33 48 63 32 48 61 33 48 68 37 53 66 38 53 68 37 53 66 38 53 68 37 53 66 38 53 68 37 53 65 39 52 54 37 47 51 38 45 51 38 45 51 38 45 51 38 45 51 38 45 51 38 45 51 38 45 41 28 35 43 30 37 45 32 39 48 35 42 52 39 46 55 42 49 57 44 51 62 45 51 73 50 56 78 51 56 80 53 58 83 56 61 87 60 65 90 63 68 92 65 70 94 67 72 107 80 85 106 79 84 104 77 82 101 74 79 99 72 77 96 69 74 94 67 72 89 68 73 52 46 48 46 47 49 44 44 46 40 41 43 37 37 39 33 34 36 32 32 34 30 31 33 34 34 36 35 36 38 38 38 40 40 41 43 45 45 47 47 48 50 50 50 52 52 51 57 51 44 60 52 43 62 52 43 64 52 43 62 52 43 64 52 43 62 52 43 64 52 43 62 63 54 75 65 56 75 67 58 79 70 61 80 74 65 86 77 68 87 79 70 91 84 72 86 87 71 72 92 73 67 94 75 69 97 78 72 101 82 76 104 85 79 106 87 81 108 89 83 105 86 80 105 86 80 105 86 80 105 86 80 105 86 80 105 86 80 105 86 80 106 85 80 110 86 84 111 85 84 111 85 84 111 85 84 111 85 84 111 85 84 111 85 84 111 85 84 97 71 70 97 71 70 97 71 70 97 71 70 97 71 70 97 71 70 97 71 70 99 71 70 102 65 72 104 64 72 104 64 72 104 64 72 104 64 72 104 64 72 104 64 72 104 64 72 104 64 72 104 64 72 104 64 72 104 64 72 104 64 72 104 64 72 104 64 72 98 67 73 63 47 50 56 47 50 54 45 48 51 42 45 47 38 41 44 35 38 42 33 36 40 31 34 67 58 61 65 56 59
80 68 72 80 68 72 80 68 72 80 68 72 79 68 74 86 76 84 84 77 85 85 78 86 85 78 86 86 79 87 87 80 88 87 80 88 87 80 88 56 49 57 55 48 56 52 45 53 48 41 49 44 37 45 40 33 41 37 30 38 38 28 36 45 32 39 47 32 37 47 32 37 47 32 37 47 32 37 47 32 37 47 32 37 47 32 37 49 34 39 49 34 39 49 34 39 49 34 39 49 34 39 49 34 39 49 34 39 47 34 41 47 36 44 46 36 45 46 36 45 46 36 45 46 36 45 46 36 45 46 36 45 46 36 45 46 36 45 46 36 45 46 36 45 46 36 45 46 36 45 46 36 45 46 36 45 44 37 45 53 47 57 51 48 57 51 48 57 51 48 57 51 48 57 51 48 57 51 48 57 51 48 57 51 48 57 51 48 57 51 48 57 51 48 57 51 48 57 51 48 57 51 48 57 56 46 57 58 34 48 63 32 48 64 31 48 63 32 48 64 31 48 63 32 48 64 31 48 63 32 48 69 36 53 68 37 53 69 36 53 68 37 53 69 36 53 68 37 53 69 36 53 65 39 52 54 37 47 51 38 45 51 38 45 51 38 45 51 38 45 51 38 45 51 38 45 51 38 45 41 28 35 43 30 37 45 32 39 48 35 42 52 39 46 55 42 49 57 44 51 62 45 51 76 53 59 80 53 58 82 55 60 86 59 64 89 62 67 92 65 70 95 68 73 96 69 74 110 83 88 109 82 87 106 79 84 102 75 80 98 71 76 94 67 72 91 64 69 85 66 70 46 42 43 39 43 44 38 39 41 33 37 38 32 33 35 26 30 31 26 27 29 23 27 28 33 34 36 33 37 38 37 38 40 38 42 43 44 45 47 45 49 50 49 50 52 52 51 57 51 44 60 52 43 64 52 42 66 52 43 64 52 42 66 52 43 64 52 42 66 52 43 64 66 56 80 67 58 79 69 59 83 73 64 85 76 66 90 79 70 91 82 72 96 86 73 90 87 71 72 92 73 67 94 75 69 97 78 72 101 82 76 104 85 79 106 87 81 108 89 83 105 86 80 105 86 80 105 86 80 105 86 80 105 86 80 105 86 80 105 86 80 106 85 80 110 86 84 111 85 84 111 85 84 111 85 84 111 85 84 111 85 84 111 85 84 111 85 84 95 69 68 95 69 68 95 69 68 95 69 68 95 69 68 95 69 68 95 69 68 97 69 68 102 65 72 104 64 72 104 64 72 104 64 72 104 64 72 104 64 72 104 64 72 104 64 72 104 64 72 104 64 72 104 64 72 104 64 72 104 64 72 104 64 72 104 64 72 98 67 73 63 47 50 56 47 50 54 45 48 51 42 45 47 38 41 44 35 38 42 33 36 40 31 34 67 58 61 65 56 59
79 68 72 80 68 72 79 68 72 80 68 72 79 68 72 87 78 83 86 79 86 86 79 86 88 81 88 89 82 89 90 83 90 91 84 91 92 85 92 58 51 58 56 49 56 53 46 53 48 41 48 44 37 44 39 32 39 36 29 36 36 26 34 42 31 37 42 31 37 42 31 37 42 31 37 42 31 37 42 31 37 42 31 37 42 31 37 44 33 39 44 33 39 44 33 39 44 33 39 44 33 39 44 33 39 44 33 39 44 33 39 46 36 45 44 37 45 44 37 45 44 37 45 44 37 45 44 37 45 44 37 45 44 37 45 44 37 45 44 37 45 44 37 45 44 37 45 44 37 45 44 37 45 44 37 45 43 38 45 51 48 55 50 49 55 50 49 55 50 49 55 50 49 55 50 49 55 50 49 55 50 49 55 50 49 55 50 49 55 50 49 55 50 49 55 50 49 55 50 49 55 50 49 55 54 47 55 57 35 47 61 33 47 61 33 47 61 33 47 61 33 47 61 33 47 61 33 47 61 33 47 66 38 52 66 38 52 66 38 52 66 38 52 66 38 52 66 38 52 66 38 52 63 39 52 53 37 47 49 39 47 50 39 47 49 39 47 50 39 47 49 39 47 50 39 47 49 39 47 40 29 37 41 31 39 44 33 41 46 36 44 51 40 48 53 43 51 56 45 53 59 46 53 75 56 62 78 55 61 81 58 64 84 61 67 87 64 70 91 68 74 93 70 76 94 71 77 109 86 92 107 84 90 104 81 87 99 76 82 95 72 78 90 67 73 87 64 70 80 65 70 41 39 42 36 40 43 34 38 41 30 34 37 27 31 34 24 28 31 21 25 28 20 24 27 31 35 38 33 37 40 35 39 42 38 42 45 42 46 49 45 49 52 47 51 54 51 51 59 51 45 59 52 43 62 52 43 62 52 43 62 52 43 62 52 43 62 52 43 62 52 43 62 67 58 77 68 59 78 71 62 81 74 65 84 77 68 87 81 72 91 83 74 93 87 75 87 87 71 72 92 73 67 94 75 69 97 78 72 101 82 76 104 85 79 106 87 81 108 89 83 105 86 80 105 86 80 105 86 80 105 86 80 105 86 80 105 86 80 105 86 80 106 85 82 111 85 84 111 85 84 113 84 86 111 85 84 113 84 86 111 85 84 113 84 86 111 85 84 95 66 68 93 67 66 95 66 68 93 67 66 95 66 68 93 67 66 95 66 68 96 66 68 102 65 72 105 64 72 105 64 72 105 64 72 105 64 72 105 64 72 105 64 72 105 64 72 105 64 72 105 64 72 105 64 72 105 64 72 105 64 72 105 64 72 105 64 72 99 66 73 62 47 50 54 48 50 52 46 48 49 43 45 45 39 41 42 36 38 40 34 36 38 32 34 65 59 61 63 57 59
82 73 74 83 73 74 82 73 74 83 73 74 82 73 74 83 74 77 83 74 77 83 74 77 83 74 77 83 74 77 83 74 77 83 74 77 83 74 77 76 67 70 73 64 67 68 59 62 62 53 56 55 46 49 49 40 43 44 35 38 39 33 37 44 39 45 44 39 46 44 39 46 44 39 46 44 39 46 44 39 46 44 39 46 44 39 46 42 37 44 42 37 44 42 37 44 42 37 44 42 37 44 42 37 44 42 37 44 42 37 44 41 38 45 41 38 45 41 38 45 41 38 45 41 38 45 41 38 45 41 38 45 41 38 45 47 44 51 47 44 51 47 44 51 47 44 51 47 44 51 47 44 51 47 44 51 46 45 50 53 57 60 52 58 58 52 58 58 52 58 58 52 58 58 52 58 58 52 58 58 52 58 58 52 58 58 52 58 58 52 58 58 52 58 58 52 58 58 52 58 58 52 58 58 56 56 58 56 43 50 61 41 50 61 41 50 61 41 50 61 41 50 61 41 50 61 41 50 61 41 50 63 43 52 63 43 52 64 44 53 65 45 54 67 47 56 68 48 57 69 49 58 66 51 58 52 45 53 49 46 53 51 46 53 49 46 53 51 46 53 49 46 53 51 46 53 49 46 53 49 44 51 47 44 51 49 44 51 47 44 51 49 44 51 47 44 51 49 44 51 50 43 50 72 61 67 73 61 65 73 61 65 73 61 65 73 61 65 73 61 65 73 61 65 73 61 65 74 62 66 78 66 70 84 72 76 86 74 78 83 71 75 74 62 66 63 51 55 54 45 50 35 34 42 31 35 44 31 35 44 31 35 44 31 35 44 31 35 44 31 35 44 31 35 44 41 45 54 41 45 54 41 45 54 41 45 54 41 45 54 41 45 54 41 45 54 44 44 52 45 39 49 49 39 48 51 41 50 55 45 54 58 48 57 61 51 60 64 54 63 65 55 64 85 75 84 85 75 84 85 75 84 85 75 84 85 75 84 85 75 84 85 75 84 86 75 81 92 76 76 94 76 72 94 76 72 94 76 72 94 76 72 94 76 72 94 76 72 94 76 72 105 87 83 105 87 83 105 87 83 105 87 83 105 87 83 105 87 83 105 87 83 107 86 83 112 86 87 112 83 85 111 80 85 107 78 80 104 73 78 100 71 73 99 68 73 96 67 69 96 65 70 95 66 68 96 65 70 95 66 68 96 65 70 95 66 68 96 65 70 97 65 70 99 58 66 102 56 67 102 56 67 102 56 67 102 56 67 102 56 67 102 56 67 102 56 67 100 54 65 100 54 65 100 54 65 100 54 65 100 54 65 100 54 65 100 54 65 93 58 65 53 38 41 46 42 43 46 42 43 46 42 43 46 42 43 46 42 43 46 42 43 46 42 43 48 44 45 46 42 43
82 73 74 82 73 74 82 73 74 82 73 74 82 73 74 83 74 75 83 74 75 83 74 75 83 74 75 83 74 75 83 74 75 83 74 75 83 74 75 77 68 69 74 65 66 69 60 61 63 54 55 56 47 48 50 41 42 45 36 37 40 34 36 42 39 46 41 40 48 41 40 48 41 40 48 41 40 48 41 40 48 41 40 48 41 40 48 39 38 46 39 38 46 39 38 46 39 38 46 39 38 46 39 38 46 39 38 46 39 38 46 40 39 45 40 39 45 40 39 45 40 39 45 40 39 45 40 39 45 40 39 45 40 39 45 46 45 51 46 45 51 46 45 51 46 45 51 46 45 51 46 45 51 46 45 51 45 46 50 52 58 58 50 59 56 52 58 56 50 59 56 52 58 56 50 59 56 52 58 56 50 59 56 54 60 58 52 61 58 54 60 58 52 61 58 54 60 58 52 61 58 54 60 58 57 59 58 56 47 50 60 45 50 60 45 50 60 45 50 60 45 50 60 45 50 60 45 50 60 45 50 61 46 51 62 47 52 62 47 52 63 48 53 63 48 53 64 49 54 64 49 54 62 51 57 51 46 53 48 47 55 48 47 55 48 47 55 48 47 55 48 47 55 48 47 55 48 47 55 46 45 53 46 45 53 46 45 53 46 45 53 46 45 53 46 45 53 46 45 53 47 44 51 67 60 67 69 60 65 69 60 65 69 60 65 69 60 65 69 60 65 69 60 65 69 60 65 70 61 66 75 66 71 80 71 76 83 74 79 79 70 75 70 61 66 60 51 56 50 45 51 34 34 44 31 35 46 31 35 46 31 35 46 31 35 46 31 35 46 31 35 46 31 35 46 41 45 56 41 45 56 41 45 56 41 45 56 41 45 56 41 45 56 41 45 56 44 44 54 46 41 47 50 41 46 53 44 49 56 47 52 59 50 55 63 54 59 65 56 61 66 57 62 85 76 81 85 76 81 85 76 81 85 76 81 85 76 81 85 76 81 85 76 81 86 76 77 92 76 76 94 76 72 94 76 72 94 76 72 94 76 72 94 76 72 94 76 72 94 76 72 105 87 83 105 87 83 105 87 83 105 87 83 105 87 83 105 87 83 105 87 83 106 87 83 114 85 89 113 82 87 111 80 85 108 77 82 104 73 78 101 70 75 99 68 73 97 66 71 96 65 70 96 65 70 96 65 70 96 65 70 96 65 70 96 65 70 96 65 70 99 64 70 100 57 67 103 55 67 103 55 67 103 55 67 103 55 67 103 55 67 103 55 67 103 55 67 101 53 65 101 53 65 101 53 65 101 53 65 101 53 65 101 53 65 101 53 65 93 58 65 53 38 43 44 42 43 44 42 43 44 42 43 44 42 43 44 42 43 44 42 43 44 42 43 46 44 45 44 42 43
82 73 74 82 73 74 82 73 74 82 73 74 82 73 74 83 74 75 83 74 75 83 74 75 83 74 75 83 74 75 83 74 75 83 74 75 83 74 75 79 70 71 77 68 69 72 63 64 66 57 58 59 50 51 52 43 44 47 38 39 43 37 39 42 39 46 41 40 48 41 40 48 41 40 48 41 40 48 41 40 48 41 40 48 41 40 48 39 38 46 39 38 46 39 38 46 39 38 46 39 38 46 39 38 46 39 38 46 39 38 46 40 39 45 40 39 45 40 39 45 40 39 45 40 39 45 40 39 45 40 39 45 40 39 45 46 45 51 46 45 51 46 45 51 46 45 51 46 45 51 46 45 51 46 45 51 45 46 50 53 57 58 52 58 56 53 57 56 52 58 56 53 57 56 52 58 56 53 57 56 52 58 56 57 61 60 56 62 60 57 61 60 56 62 60 57 61 60 56 62 60 57 61 60 60 60 60 62 51 55 65 50 55 65 50 55 65 50 55 65 50 55 65 50 55 65 50 55 65 50 55 65 50 55 65 50 55 64 49 54 63 48 53 63 48 53 62 47 52 61 46 51 58 47 53 51 46 53 48 47 55 48 47 55 48 47 55 48 47 55 48 47 55 48 47 55 48 47 55 46 45 53 46 45 53 46 45 53 46 45 53 46 45 53 46 45 53 46 45 53 47 44 51 65 58 65 67 58 63 67 58 63 67 58 63 67 58 63 67 58 63 67 58 63 67 58 63 68 59 64 72 63 68 78 69 74 80 71 76 77 68 73 68 59 64 58 49 54 48 43 49 34 34 44 31 35 46 31 35 46 31 35 46 31 35 46 31 35 46 31 35 46 31 35 46 41 45 56 41 45 56 41 45 56 41 45 56 41 45 56 41 45 56 41 45 56 44 44 54 48 43 49 53 44 49 55 46 51 58 49 54 62 53 58 65 56 61 67 58 63 69 60 65 85 76 81 85 76 81 85 76 81 85 76 81 85 76 81 85 76 81 85 76 81 86 76 77 92 76 76 94 76 72 94 76 72 94 76 72 94 76 72 94 76 72 94 76 72 94 76 72 105 87 83 105 87 83 105 87 83 105 87 83 105 87 83 105 87 83 105 87 83 106 87 83 114 85 89 113 82 87 111 80 85 108 77 82 104 73 78 101 70 75 99 68 73 97 66 71 96 65 70 96 65 70 96 65 70 96 65 70 96 65 70 96 65 70 96 65 70 99 64 70 100 57 67 103 55 67 103 55 67 103 55 67 103 55 67 103 55 67 103 55 67 103 55 67 101 53 65 101 53 65 101 53 65 101 53 65 101 53 65 101 53 65 101 53 65 93 58 65 53 38 43 44 42 43 44 42 43 44 42 43 44 42 43 44 42 43 44 42 43 44 42 43 46 44 45 44 42 43
82 73 74 82 73 74 82 73 74 82 73 74 82 73 74 83 74 75 83 74 75 83 74 75 83 74 75 83 74 75 83 74 75 83 74 75 83 74 75 83 74 75 80 71 72 75 66 67 69 60 61 62 53 54 55 46 47 51 42 43 46 40 42 42 39 46 41 40 48 41 40 48 41 40 48 41 40 48 41 40 48 41 40 48 41 40 48 39 38 46 39 38 46 39 38 46 39 38 46 39 38 46 39 38 46 39 38 46 39 38 46 40 39 45 40 39 45 40 39 45 40 39 45 40 39 45 40 39 45 40 39 45 40 39 45 46 45 51 46 45 51 46 45 51 46 45 51 46 45 51 46 45 51 46 45 51 46 45 50 55 56 58 53 57 56 55 57 56 53 57 56 55 57 56 53 57 56 55 57 56 53 57 56 62 64 63 60 64 63 62 64 63 60 64 63 62 64 63 60 64 63 62 64 63 64 62 63 69 58 62 72 57 62 72 57 62 72 57 62 72 57 62 72 57 62 72 57 62 72 57 62 69 54 59 68 53 58 67 52 57 64 49 54 62 47 52 59 44 49 58 43 48 54 43 49 51 46 53 48 47 55 48 47 55 48 47 55 48 47 55 48 47 55 48 47 55 48 47 55 46 45 53 46 45 53 46 45 53 46 45 53 46 45 53 46 45 53 46 45 53 47 44 51 62 55 62 64 55 60 64 55 60 64 55 60 64 55 60 64 55 60 64 55 60 64 55 60 65 56 61 69 60 65 75 66 71 77 68 73 74 65 70 65 56 61 54 45 50 44 39 45 34 34 44 31 35 46 31 35 46 31 35 46 31 35 46 31 35 46 31 35 46 31 35 46 41 45 56 41 45 56 41 45 56 41 45 56 41 45 56 41 45 56 41 45 56 44 44 54 52 47 53 56 47 52 58 49 54 62 53 58 65 56 61 68 59 64 71 62 67 72 63 68 85 76 81 85 76 81 85 76 81 85 76 81 85 76 81 85 76 81 85 76 81 86 76 77 92 76 76 94 76 72 94 76 72 94 76 72 94 76 72 94 76 72 94 76 72 94 76 72 105 87 83 105 87 83 105 87 83 105 87 83 105 87 83 105 87 83 105 87 83 106 87 83 114 85 89 113 82 87 111 80 85 108 77 82 104 73 78 101 70 75 99 68 73 97 66 71 96 65 70 96 65 70 96 65 70 96 65 70 96 65 70 96 65 70 96 65 70 99 64 70 100 57 67 103 55 67 103 55 67 103 55 67 103 55 67 103 55 67 103 55 67 103 55 67 101 53 65 101 53 65 101 53 65 101 53 65 101 53 65 101 53 65 101 53 65 93 58 65 53 38 43 44 42 43 44 42 43 44 42 43 44 42 43 44 42 43 44 42 43 44 42 43 46 44 45 44 42 43
82 73 74 82 73 74 82 73 74 82 73 74 82 73 74 83 74 75 83 74 75 83 74 75 83 74 75 83 74 75 83 74 75 83 74 75 83 74 75 86 77 78 83 74 75 79 70 71 72 63 64 65 56 57 59 50 51 54 45 46 49 43 45 42 39 46 41 40 48 41 40 48 41 40 48 41 40 48 41 40 48 41 40 48 41 40 48 39 38 46 39 38 46 39 38 46 39 38 46 39 38 46 39 38 46 39 38 46 39 38 46 40 39 45 40 39 45 40 39 45 40 39 45 40 39 45 40 39 45 40 39 45 40 39 45 46 45 51 46 45 51 46 45 51 46 45 51 46 45 51 46 45 51 46 45 51 46 45 50 56 56 58 55 57 56 56 56 56 55 57 56 56 56 56 55 57 56 56 56 56 55 57 56 67 67 67 66 68 67 67 67 67 66 68 67 67 67 67 66 68 67 67 67 67 68 66 67 75 64 68 78 63 68 78 63 68 78 63 68 78 63 68 78 63 68 78 63 68 78 63 68 74 59 64 72 57 62 69 54 59 65 50 55 61 46 51 57 42 47 54 39 44 49 38 44 51 46 53 48 47 55 48 47 55 48 47 55 48 47 55 48 47 55 48 47 55 48 47 55 46 45 53 46 45 53 46 45 53 46 45 53 46 45 53 46 45 53 46 45 53 47 44 51 58 51 58 60 51 56 60 51 56 60 51 56 60 51 56 60 51 56 60 51 56 60 51 56 61 52 57 66 57 62 71 62 67 74 65 70 70 61 66 61 52 57 51 42 47 41 36 42 34 34 44 31 35 46 31 35 46 31 35 46 31 35 46 31 35 46 31 35 46 31 35 46 41 45 56 41 45 56 41 45 56 41 45 56 41 45 56 41 45 56 41 45 56 44 44 54 55 50 56 59 50 55 62 53 58 65 56 61 68 59 64 72 63 68 74 65 70 75 66 71 85 76 81 85 76 81 85 76 81 85 76 81 85 76 81 85 76 81 85 76 81 86 76 77 92 76 76 94 76 72 94 76 72 94 76 72 94 76 72 94 76 72 94 76 72 94 76 72 105 87 83 105 87 83 105 87 83 105 87 83 105 87 83 105 87 83 105 87 83 106 87 83 114 85 89 113 82 87 111 80 85 108 77 82 104 73 78 101 70 75 99 68 73 97 66 71 96 65 70 96 65 70 96 65 70 96 65 70 96 65 70 96 65 70 96 65 70 99 64 70 100 57 67 103 55 67 103 55 67 103 55 67 103 55 67 103 55 67 103 55 67 103 55 67 101 53 65 101 53 65 101 53 65 101 53 65 101 53 65 101 53 65 101 53 65 93 58 65 53 38 43 44 42 43 44 42 43 44 42 43 44 42 43 44 42 43 44 42 43 44 42 43 46 44 45 44 42 43
82 73 74 82 73 74 82 73 74 82 73 74 82 73 74 83 74 75 83 74 75 83 74 75 83 74 75 83 74 75 83 74 75 83 74 75 83 74 75 89 80 81 87 78 79 82 73 74 75 66 67 68 59 60 62 53 54 57 48 49 53 47 49 42 39 46 41 40 48 41 40 48 41 40 48 41 40 48 41 40 48 41 40 48 41 40 48 39 38 46 39 38 46 39 38 46 39 38 46 39 38 46 39 38 46 39 38 46 39 38 46 40 39 45 40 39 45 40 39 45 40 39 45 40 39 45 40 39 45 40 39 45 40 39 45 46 45 51 46 45 51 46 45 51 46 45 51 46 45 51 46 45 51 46 45 51 46 45 50 57 55 58 57 55 56 57 55 56 57 55 56 57 55 56 57 55 56 57 55 56 57 55 56 71 69 70 71 69 70 71 69 70 71 69 70 71 69 70 71 69 70 71 69 70 73 69 70 82 71 75 85 70 75 85 70 75 85 70 75 85 70 75 85 70 75 85 70 75 85 70 75 78 63 68 76 61 66 72 57 62 66 51 56 60 45 50 54 39 44 50 35 40 45 34 40 51 46 53 48 47 55 48 47 55 48 47 55 48 47 55 48 47 55 48 47 55 48 47 55 46 45 53 46 45 53 46 45 53 46 45 53 46 45 53 46 45 53 46 45 53 47 44 51 55 48 55 57 48 53 57 48 53 57 48 53 57 48 53 57 48 53 57 48 53 57 48 53 58 49 54 62 53 58 68 59 64 70 61 66 67 58 63 58 49 54 48 39 44 38 33 39 34 34 44 31 35 46 31 35 46 31 35 46 31 35 46 31 35 46 31 35 46 31 35 46 41 45 56 41 45 56 41 45 56 41 45 56 41 45 56 41 45 56 41 45 56 44 44 54 58 53 59 63 54 59 65 56 61 68 59 64 72 63 68 75 66 71 77 68 73 79 70 75 85 76 81 85 76 81 85 76 81 85 76 81 85 76 81 85 76 81 85 76 81 86 76 77 92 76 76 94 76 72 94 76 72 94 76 72 94 76 72 94 76 72 94 76 72 94 76 72 105 87 83 105 87 83 105 87 83 105 87 83 105 87 83 105 87 83 105 87 83 106 87 83 114 85 89 113 82 87 111 80 85 108 77 82 104 73 78 101 70 75 99 68 73 97 66 71 96 65 70 96 65 70 96 65 70 96 65 70 96 65 70 96 65 70 96 65 70 99 64 70 100 57 67 103 55 67 103 55 67 103 55 67 103 55 67 103 55 67 103 55 67 103 55 67 101 53 65 101 53 65 101 53 65 101 53 65 101 53 65 101 53 65 101 53 65 93 58 65 53 38 43 44 42 43 44 42 43 44 42 43 44 42 43 44 42 43 44 42 43 44 42 43 46 44 45 44 42 43
82 73 74 82 73 74 82 73 74 82 73 74 82 73 74 83 74 75 83 74 75 83 74 75 83 74 75 83 74 75 83 74 75 83 74 75 83 74 75 92 83 84 89 80 81 84 75 76 78 69 70 71 62 63 65 56 57 60 51 52 55 49 51 42 39 46 41 40 48 41 40 48 41 40 48 41 40 48 41 40 48 41 40 48 41 40 48 39 38 46 39 38 46 39 38 46 39 38 46 39 38 46 39 38 46 39 38 46 39 38 46 40 39 45 40 39 45 40 39 45 40 39 45 40 39 45 40 39 45 40 39 45 40 39 45 46 45 51 46 45 51 46 45 51 46 45 51 46 45 51 46 45 51 46 45 51 47 45 50 59 54 58 59 55 56 59 55 56 59 55 56 59 55 56 59 55 56 59 55 56 59 55 56 75 71 72 75 71 72 75 71 72 75 71 72 75 71 72 75 71 72 75 71 72 76 70 72 88 76 80 90 75 80 90 75 80 90 75 80 90 75 80 90 75 80 90 75 80 90 75 80 82 67 72 79 64 69 74 59 64 67 52 57 59 44 49 52 37 42 47 32 37 41 30 36 51 46 53 48 47 55 48 47 55 48 47 55 48 47 55 48 47 55 48 47 55 48 47 55 46 45 53 46 45 53 46 45 53 46 45 53 46 45 53 46 45 53 46 45 53 47 44 51 53 46 53 55 46 51 55 46 51 55 46 51 55 46 51 55 46 51 55 46 51 55 46 51 56 47 52 60 51 56 66 57 62 68 59 64 65 56 61 56 47 52 45 36 41 35 30 36 34 34 44 31 35 46 31 35 46 31 35 46 31 35 46 31 35 46 31 35 46 31 35 46 41 45 56 41 45 56 41 45 56 41 45 56 41 45 56 41 45 56 41 45 56 44 44 54 61 56 62 65 56 61 67 58 63 71 62 67 74 65 70 77 68 73 80 71 76 81 72 77 85 76 81 85 76 81 85 76 81 85 76 81 85 76 81 85 76 81 85 76 81 86 76 77 92 76 76 94 76 72 94 76 72 94 76 72 94 76 72 94 76 72 94 76 72 94 76 72 105 87 83 105 87 83 105 87 83 105 87 83 105 87 83 105 87 83 105 87 83 106 87 83 114 85 89 113 82 87 111 80 85 108 77 82 104 73 78 101 70 75 99 68 73 97 66 71 96 65 70 96 65 70 96 65 70 96 65 70 96 65 70 96 65 70 96 65 70 99 64 70 100 57 67 103 55 67 103 55 67 103 55 67 103 55 67 103 55 67 103 55 67 103 55 67 101 53 65 101 53 65 101 53 65 101 53 65 101 53 65 101 53 65 101 53 65 93 58 65 53 38 43 44 42 43 44 42 43 44 42 43 44 42 43 44 42 43 44 42 43 44 42 43 46 44 45 44 42 43
82 73 74 82 73 74 82 73 74 82 73 74 82 73 74 83 74 75 83 74 75 83 74 75 83 74 75 83 74 75 83 74 75 83 74 75 83 74 75 93 84 85 90 81 82 85 76 77 79 70 71 72 63 64 66 57 58 61 52 53 56 50 52 42 39 46 41 40 48 41 40 48 41 40 48 41 40 48 41 40 48 41 40 48 41 40 48 39 38 46 39 38 46 39 38 46 39 38 46 39 38 46 39 38 46 39 38 46 39 38 46 40 39 45 40 39 45 40 39 45 40 39 45 40 39 45 40 39 45 40 39 45 40 39 45 46 45 51 46 45 51 46 45 51 46 45 51 46 45 51 46 45 51 46 45 51 47 45 50 60 54 58 62 53 56 62 53 56 62 53 56 62 53 56 62 53 56 62 53 56 62 53 56 80 71 74 80 71 74 80 71 74 80 71 74 80 71 74 80 71 74 80 71 74 81 70 74 90 78 82 92 77 82 92 77 82 92 77 82 92 77 82 92 77 82 92 77 82 92 77 82 84 69 74 81 66 71 75 60 65 67 52 57 59 44 49 51 36 41 45 30 35 39 28 34 51 46 53 48 47 55 48 47 55 48 47 55 48 47 55 48 47 55 48 47 55 48 47 55 46 45 53 46 45 53 46 45 53 46 45 53 46 45 53 46 45 53 46 45 53 47 44 51 51 44 51 53 44 49 53 44 49 53 44 49 53 44 49 53 44 49 53 44 49 53 44 49 54 45 50 59 50 55 64 55 60 67 58 63 63 54 59 54 45 50 44 35 40 34 29 35 34 34 44 31 35 46 31 35 46 31 35 46 31 35 46 31 35 46 31 35 46 31 35 46 41 45 56 41 45 56 41 45 56 41 45 56 41 45 56 41 45 56 41 45 56 44 44 54 62 57 63 66 57 62 69 60 65 72 63 68 75 66 71 79 70 75 81 72 77 82 73 78 85 76 81 85 76 81 85 76 81 85 76 81 85 76 81 85 76 81 85 76 81 86 76 77 92 76 76 94 76 72 94 76 72 94 76 72 94 76 72 94 76 72 94 76 72 94 76 72 105 87 83 105 87 83 105 87 83 105 87 83 105 87 83 105 87 83 105 87 83 106 87 83 114 85 89 113 82 87 111 80 85 108 77 82 104 73 78 101 70 75 99 68 73 97 66 71 96 65 70 96 65 70 96 65 70 96 65 70 96 65 70 96 65 70 96 65 70 99 64 70 100 57 67 103 55 67 103 55 67 103 55 67 103 55 67 103 55 67 103 55 67 103 55 67 101 53 65 101 53 65 101 53 65 101 53 65 101 53 65 101 53 65 101 53 65 93 58 65 53 38 43 44 42 43 44 42 43 44 42 43 44 42 43 44 42 43 44 42 43 44 42 43 46 44 45 44 42 43
86 77 78 86 77 78 86 77 78 86 77 78 86 77 78 84 75 76 82 73 74 80 71 72 77 68 69 73 64 65 70 61 62 68 59 60 66 57 58 73 64 65 73 64 65 73 64 65 73 64 65 73 64 65 73 64 65 73 64 65 71 65 67 77 74 81 74 73 81 71 70 78 66 65 73 62 61 69 57 56 64 54 53 61 52 51 59 46 45 53 46 45 53 46 45 53 46 45 53 46 45 53 46 45 53 46 45 53 46 45 53 53 52 58 52 51 57 50 49 55 46 45 51 43 42 48 40 39 45 37 36 42 36 35 41 56 55 61 56 55 61 56 55 61 56 55 61 56 55 61 56 55 61 56 55 61 57 55 60 58 47 53 60 48 52 62 50 54 66 54 58 69 57 61 72 60 64 75 63 67 76 64 68 90 78 82 90 78 82 90 78 82 90 78 82 90 78 82 90 78 82 90 78 82 90 78 82 100 85 90 100 85 90 100 85 90 100 85 90 100 85 90 100 85 90 100 85 90 100 85 90 88 73 78 86 71 76 84 69 74 81 66 71 77 62 67 74 59 64 72 57 62 67 56 62 49 44 51 46 45 53 46 45 53 46 45 53 46 45 53 46 45 53 46 45 53 46 45 53 41 40 48 41 40 48 41 40 48 41 40 48 41 40 48 41 40 48 41 40 48 42 39 46 48 41 48 50 41 46 50 41 46 50 41 46 50 41 46 50 41 46 50 41 46 50 41 46 48 39 44 48 39 44 48 39 44 48 39 44 48 39 44 48 39 44 48 39 44 45 40 46 37 37 47 34 38 49 34 38 49 34 38 49 34 38 49 34 38 49 34 38 49 34 38 49 33 37 48 35 39 50 37 41 52 40 44 55 44 48 59 47 51 62 49 53 64 54 54 64 57 52 58 65 56 61 73 64 69 79 70 75 79 70 75 73 64 69 65 56 61 60 51 56 70 61 66 72 63 68 74 65 70 77 68 73 81 72 77 84 75 80 86 77 82 89 79 80 99 83 83 101 83 79 101 83 79 101 83 79 101 83 79 101 83 79 101 83 79 101 83 79 100 82 78 100 82 78 100 82 78 100 82 78 100 82 78 100 82 78 100 82 78 101 82 78 101 72 76 102 71 76 102 71 76 102 71 76 102 71 76 102 71 76 102 71 76 102 71 76 101 70 75 101 70 75 101 70 75 101 70 75 101 70 75 101 70 75 101 70 75 104 69 75 109 66 76 110 62 74 108 60 72 105 57 69 101 53 65 98 50 62 96 48 60 94 46 58 100 52 64 98 50 62 96 48 60 93 45 57 89 41 53 86 38 50 84 36 48 74 39 46 52 37 42 43 41 42 43 41 42 43 41 42 43 41 42 43 41 42 43 41 42 43 41 42 43 41 42 41 39 40
86 77 78 86 77 78 86 77 78 86 77 78 86 77 78 84 75 76 82 73 74 80 71 72 77 68 69 73 64 65 70 61 62 68 59 60 66 57 58 71 62 63 71 62 63 71 62 63 71 62 63 71 62 63 71 62 63 71 62 63 69 63 65 75 72 79 73 72 80 70 69 77 66 65 73 62 61 69 58 57 65 55 54 62 54 53 61 54 53 61 54 53 61 54 53 61 54 53 61 54 53 61 54 53 61 54 53 61 54 53 61 60 59 65 59 58 64 57 56 62 53 52 58 50 49 55 47 46 52 44 43 49 43 42 48 56 55 61 56 55 61 56 55 61 56 55 61 56 55 61 56 55 61 56 55 61 59 54 60 60 47 54 64 47 53 67 50 56 70 53 59 73 56 62 77 60 66 79 62 68 80 63 69 93 76 82 93 76 82 93 76 82 93 76 82 93 76 82 93 76 82 93 76 82 93 76 82 98 83 88 98 83 88 98 83 88 98 83 88 98 83 88 98 83 88 98 83 88 98 83 88 88 73 78 86 71 76 84 69 74 81 66 71 77 62 67 74 59 64 72 57 62 67 56 62 49 44 51 46 45 53 46 45 53 46 45 53 46 45 53 46 45 53 46 45 53 46 45 53 41 40 48 41 40 48 41 40 48 41 40 48 41 40 48 41 40 48 41 40 48 42 39 46 48 41 48 50 41 46 50 41 46 50 41 46 50 41 46 50 41 46 50 41 46 50 41 46 48 39 44 48 39 44 48 39 44 48 39 44 48 39 44 48 39 44 48 39 44 45 40 46 37 37 47 34 38 49 34 38 49 34 38 49 34 38 49 34 38 49 34 38 49 34 38 49 33 37 48 35 39 50 37 41 52 40 44 55 44 48 59 47 51 62 49 53 64 54 54 64 58 53 59 67 58 63 75 66 71 80 71 76 80 71 76 75 66 71 67 58 63 61 52 57 70 61 66 72 63 68 74 65 70 77 68 73 81 72 77 84 75 80 86 77 82 89 79 80 99 83 83 101 83 79 101 83 79 101 83 79 101 83 79 101 83 79 101 83 79 101 83 79 100 82 78 100 82 78 100 82 78 100 82 78 100 82 78 100 82 78 100 82 78 101 82 78 101 72 76 102 71 76 102 71 76 102 71 76 102 71 76 102 71 76 102 71 76 102 71 76 101 70 75 101 70 75 101 70 75 101 70 75 101 70 75 101 70 75 101 70 75 104 69 75 109 66 76 110 62 74 108 60 72 105 57 69 101 53 65 98 50 62 96 48 60 94 46 58 100 52 64 98 50 62 96 48 60 93 45 57 89 41 53 86 38 50 84 36 48 74 39 46 52 37 42 43 41 42 43 41 42 43 41 42 43 41 42 43 41 42 43 41 42 43 41 42 43 41 42 41 39 40
86 77 78 86 77 78 86 77 78 86 77 78 86 77 78 84 75 76 82 73 74 80 71 72 77 68 69 73 64 65 70 61 62 68 59 60 66 57 58 69 60 61 69 60 61 69 60 61 69 60 61 69 60 61 69 60 61 69 60 61 67 61 63 72 69 76 70 69 77 68 67 75 65 64 72 63 62 70 60 59 67 58 57 65 57 56 64 67 66 74 67 66 74 67 66 74 67 66 74 67 66 74 67 66 74 67 66 74 67 66 74 71 70 76 69 68 74 67 66 72 64 63 69 60 59 65 57 56 62 55 54 60 53 52 58 56 55 61 56 55 61 56 55 61 56 55 61 56 55 61 56 55 61 56 55 61 59 54 60 64 49 56 69 50 56 71 52 58 74 55 61 78 59 65 81 62 68 83 64 70 85 66 72 95 76 82 95 76 82 95 76 82 95 76 82 95 76 82 95 76 82 95 76 82 95 76 82 97 80 86 96 81 86 96 81 86 96 81 86 96 81 86 96 81 86 96 81 86 96 81 86 88 73 78 86 71 76 84 69 74 81 66 71 77 62 67 74 59 64 72 57 62 67 56 62 49 44 51 46 45 53 46 45 53 46 45 53 46 45 53 46 45 53 46 45 53 46 45 53 41 40 48 41 40 48 41 40 48 41 40 48 41 40 48 41 40 48 41 40 48 42 39 46 48 41 48 50 41 46 50 41 46 50 41 46 50 41 46 50 41 46 50 41 46 50 41 46 48 39 44 48 39 44 48 39 44 48 39 44 48 39 44 48 39 44 48 39 44 45 40 46 37 37 47 34 38 49 34 38 49 34 38 49 34 38 49 34 38 49 34 38 49 34 38 49 33 37 48 35 39 50 37 41 52 40 44 55 44 48 59 47 51 62 49 53 64 54 54 64 60 55 61 69 60 65 77 68 73 83 74 79 83 74 79 77 68 73 69 60 65 63 54 59 70 61 66 72 63 68 74 65 70 77 68 73 81 72 77 84 75 80 86 77 82 89 79 80 99 83 83 101 83 79 101 83 79 101 83 79 101 83 79 101 83 79 101 83 79 101 83 79 100 82 78 100 82 78 100 82 78 100 82 78 100 82 78 100 82 78 100 82 78 101 82 78 101 72 76 102 71 76 102 71 76 102 71 76 102 71 76 102 71 76 102 71 76 102 71 76 101 70 75 101 70 75 101 70 75 101 70 75 101 70 75 101 70 75 101 70 75 104 69 75 109 66 76 110 62 74 108 60 72 105 57 69 101 53 65 98 50 62 96 48 60 94 46 58 100 52 64 98 50 62 96 48 60 93 45 57 89 41 53 86 38 50 84 36 48 74 39 46 52 37 42 43 41 42 43 41 42 43 41 42 43 41 42 43 41 42 43 41 42 43 41 42 43 41 42 41 39 40
86 77 78 86 77 78 86 77 78 86 77 78 86 77 78 84 75 76 82 73 74 80 71 72 77 68 69 73 64 65 70 61 62 68 59 60 66 57 58 66 57 58 66 57 58 66 57 58 66 57 58 66 57 58 66 57 58 66 57 58 64 58 60 67 64 71 66 65 73 65 64 72 64 63 71 64 63 71 63 62 70 62 61 69 62 61 69 79 78 86 79 78 86 79 78 86 79 78 86 79 78 86 79 78 86 79 78 86 79 78 86 80 79 85 78 77 83 76 75 81 73 72 78 69 68 74 66 65 71 64 63 69 62 61 67 56 55 61 56 55 61 56 55 61 56 55 61 56 55 61 56 55 61 56 55 61 60 53 60 69 52 60 73 52 59 76 53 61 79 58 65 83 60 68 85 64 71 89 66 74 89 68 75 97 74 82 96 75 82 97 74 82 96 75 82 97 74 82 96 75 82 97 74 82 96 75 82 94 77 83 93 78 83 93 78 83 93 78 83 93 78 83 93 78 83 93 78 83 93 78 83 88 73 78 86 71 76 84 69 74 81 66 71 77 62 67 74 59 64 72 57 62 67 56 62 49 44 51 46 45 53 46 45 53 46 45 53 46 45 53 46 45 53 46 45 53 46 45 53 41 40 48 41 40 48 41 40 48 41 40 48 41 40 48 41 40 48 41 40 48 42 39 46 48 41 48 50 41 46 50 41 46 50 41 46 50 41 46 50 41 46 50 41 46 50 41 46 48 39 44 48 39 44 48 39 44 48 39 44 48 39 44 48 39 44 48 39 44 45 40 46 37 37 47 34 38 49 34 38 49 34 38 49 34 38 49 34 38 49 34 38 49 34 38 49 33 37 48 35 39 50 37 41 52 40 44 55 44 48 59 47 51 62 49 53 64 54 54 64 64 59 65 72 63 68 80 71 76 86 77 82 86 77 82 80 71 76 72 63 68 67 58 63 70 61 66 72 63 68 74 65 70 77 68 73 81 72 77 84 75 80 86 77 82 89 79 80 99 83 83 101 83 79 101 83 79 101 83 79 101 83 79 101 83 79 101 83 79 101 83 79 100 82 78 100 82 78 100 82 78 100 82 78 100 82 78 100 82 78 100 82 78 101 82 78 101 72 76 102 71 76 102 71 76 102 71 76 102 71 76 102 71 76 102 71 76 102 71 76 101 70 75 101 70 75 101 70 75 101 70 75 101 70 75 101 70 75 101 70 75 104 69 75 109 66 76 110 62 74 108 60 72 105 57 69 101 53 65 98 50 62 96 48 60 94 46 58 100 52 64 98 50 62 96 48 60 93 45 57 89 41 53 86 38 50 84 36 48 74 39 46 52 37 42 43 41 42 43 41 42 43 41 42 43 41 42 43 41 42 43 41 42 43 41 42 43 41 42 41 39 40
86 77 78 86 77 78 86 77 78 86 77 78 86 77 78 84 75 76 82 73 74 80 71 72 77 68 69 73 64 65 70 61 62 68 59 60 66 57 58 62 53 54 62 53 54 62 53 54 62 53 54 62 53 54 62 53 54 62 53 54 60 54 56 63 60 67 62 61 69 63 62 70 64 63 71 64 63 71 65 64 72 66 65 73 66 65 73 86 85 93 86 85 93 86 85 93 86 85 93 86 85 93 86 85 93 86 85 93 86 85 93 83 82 88 82 81 87 79 78 84 76 75 81 73 72 78 69 68 74 67 66 72 66 65 71 56 55 61 56 55 61 56 55 61 56 55 61 56 55 61 56 55 61 56 55 61 60 53 60 74 54 63 77 54 62 82 56 65 83 60 68 88 62 71 90 67 75 94 68 77 93 70 78 99 73 82 97 74 82 99 73 82 97 74 82 99 73 82 97 74 82 99 73 82 96 75 82 90 73 79 89 74 79 89 74 79 89 74 79 89 74 79 89 74 79 89 74 79 89 74 79 88 73 78 86 71 76 84 69 74 81 66 71 77 62 67 74 59 64 72 57 62 67 56 62 49 44 51 46 45 53 46 45 53 46 45 53 46 45 53 46 45 53 46 45 53 46 45 53 41 40 48 41 40 48 41 40 48 41 40 48 41 40 48 41 40 48 41 40 48 42 39 46 48 41 48 50 41 46 50 41 46 50 41 46 50 41 46 50 41 46 50 41 46 50 41 46 48 39 44 48 39 44 48 39 44 48 39 44 48 39 44 48 39 44 48 39 44 45 40 46 37 37 47 34 38 49 34 38 49 34 38 49 34 38 49 34 38 49 34 38 49 34 38 49 33 37 48 35 39 50 37 41 52 40 44 55 44 48 59 47 51 62 49 53 64 54 54 64 67 62 68 76 67 72 84 75 80 89 80 85 89 80 85 84 75 80 76 67 72 70 61 66 70 61 66 72 63 68 74 65 70 77 68 73 81 72 77 84 75 80 86 77 82 89 79 80 99 83 83 101 83 79 101 83 79 101 83 79 101 83 79 101 83 79 101 83 79 101 83 79 100 82 78 100 82 78 100 82 78 100 82 78 100 82 78 100 82 78 100 82 78 101 82 78 101 72 76 102 71 76 102 71 76 102 71 76 102 71 76 102 71 76 102 71 76 102 71 76 101 70 75 101 70 75 101 70 75 101 70 75 101 70 75 101 70 75 101 70 75 104 69 75 109 66 76 110 62 74 108 60 72 105 57 69 101 53 65 98 50 62 96 48 60 94 46 58 100 52 64 98 50 62 96 48 60 93 45 57 89 41 53 86 38 50 84 36 48 74 39 46 52 37 42 43 41 42 43 41 42 43 41 42 43 41 42 43 41 42 43 41 42 43 41 42 43 41 42 41 39 40
86 77 78 86 77 78 86 77 78 86 77 78 86 77 78 84 75 76 82 73 74 80 71 72 77 68 69 73 64 65 70 61 62 68 59 60 66 57 58 59 50 51 59 50 51 59 50 51 59 50 51 59 50 51 59 50 51 59 50 51 57 51 53 58 55 62 58 57 65 60 59 67 63 62 70 65 64 72 68 67 75 70 69 77 71 70 78 87 86 94 87 86 94 87 86 94 87 86 94 87 86 94 87 86 94 87 86 94 87 86 94 81 80 86 79 78 84 77 76 82 74 73 79 70 69 75 67 66 72 65 64 70 63 62 68 56 55 61 56 55 61 56 55 61 56 55 61 56 55 61 56 55 61 56 55 61 60 53 60 77 57 66 83 57 66 86 59 68 88 62 71 93 66 75 95 69 78 98 71 80 99 73 82 100 73 82 99 73 82 100 73 82 99 73 82 100 73 82 99 73 82 100 73 82 97 74 82 87 70 76 86 71 76 86 71 76 86 71 76 86 71 76 86 71 76 86 71 76 86 71 76 88 73 78 86 71 76 84 69 74 81 66 71 77 62 67 74 59 64 72 57 62 67 56 62 49 44 51 46 45 53 46 45 53 46 45 53 46 45 53 46 45 53 46 45 53 46 45 53 41 40 48 41 40 48 41 40 48 41 40 48 41 40 48 41 40 48 41 40 48 42 39 46 48 41 48 50 41 46 50 41 46 50 41 46 50 41 46 50 41 46 50 41 46 50 41 46 48 39 44 48 39 44 48 39 44 48 39 44 48 39 44 48 39 44 48 39 44 45 40 46 37 37 47 34 38 49 34 38 49 34 38 49 34 38 49 34 38 49 34 38 49 34 38 49 33 37 48 35 39 50 37 41 52 40 44 55 44 48 59 47 51 62 49 53 64 54 54 64 70 65 71 79 70 75 87 78 83 93 84 89 93 84 89 87 78 83 79 70 75 73 64 69 70 61 66 72 63 68 74 65 70 77 68 73 81 72 77 84 75 80 86 77 82 89 79 80 99 83 83 101 83 79 101 83 79 101 83 79 101 83 79 101 83 79 101 83 79 101 83 79 100 82 78 100 82 78 100 82 78 100 82 78 100 82 78 100 82 78 100 82 78 101 82 78 101 72 76 102 71 76 102 71 76 102 71 76 102 71 76 102 71 76 102 71 76 102 71 76 101 70 75 101 70 75 101 70 75 101 70 75 101 70 75 101 70 75 101 70 75 104 69 75 109 66 76 110 62 74 108 60 72 105 57 69 101 53 65 98 50 62 96 48 60 94 46 58 100 52 64 98 50 62 96 48 60 93 45 57 89 41 53 86 38 50 84 36 48 74 39 46 52 37 42 43 41 42 43 41 42 43 41 42 43 41 42 43 41 42 43 41 42 43 41 42 43 41 42 41 39 40
86 77 78 86 77 78 86 77 78 86 77 78 86 77 78 84 75 76 82 73 74 80 71 72 77 68 69 73 64 65 70 61 62 68 59 60 66 57 58 57 48 49 57 48 49 57 48 49 57 48 49 57 48 49 57 48 49 57 48 49 55 49 51 55 52 59 55 54 62 58 57 65 62 61 69 66 65 73 70 69 77 73 72 80 74 73 81 84 83 91 84 83 91 84 83 91 84 83 91 84 83 91 84 83 91 84 83 91 84 83 91 75 74 80 74 73 79 71 70 76 68 67 73 65 64 70 61 60 66 59 58 64 58 57 63 56 55 61 56 55 61 56 55 61 56 55 61 56 55 61 56 55 61 56 55 61 60 53 60 81 60 69 86 59 68 90 60 70 92 65 74 97 67 77 98 71 80 103 73 83 102 75 84 102 72 82 100 73 82 102 72 82 100 73 82 102 72 82 100 73 82 102 72 82 99 73 82 87 68 74 84 69 74 84 69 74 84 69 74 84 69 74 84 69 74 84 69 74 84 69 74 88 73 78 86 71 76 84 69 74 81 66 71 77 62 67 74 59 64 72 57 62 67 56 62 49 44 51 46 45 53 46 45 53 46 45 53 46 45 53 46 45 53 46 45 53 46 45 53 41 40 48 41 40 48 41 40 48 41 40 48 41 40 48 41 40 48 41 40 48 42 39 46 48 41 48 50 41 46 50 41 46 50 41 46 50 41 46 50 41 46 50 41 46 50 41 46 48 39 44 48 39 44 48 39 44 48 39 44 48 39 44 48 39 44 48 39 44 45 40 46 37 37 47 34 38 49 34 38 49 34 38 49 34 38 49 34 38 49 34 38 49 34 38 49 33 37 48 35 39 50 37 41 52 40 44 55 44 48 59 47 51 62 49 53 64 54 54 64 73 68 74 81 72 77 89 80 85 95 86 91 95 86 91 89 80 85 81 72 77 76 67 72 70 61 66 72 63 68 74 65 70 77 68 73 81 72 77 84 75 80 86 77 82 89 79 80 99 83 83 101 83 79 101 83 79 101 83 79 101 83 79 101 83 79 101 83 79 101 83 79 100 82 78 100 82 78 100 82 78 100 82 78 100 82 78 100 82 78 100 82 78 101 82 78 101 72 76 102 71 76 102 71 76 102 71 76 102 71 76 102 71 76 102 71 76 102 71 76 101 70 75 101 70 75 101 70 75 101 70 75 101 70 75 101 70 75 101 70 75 104 69 75 109 66 76 110 62 74 108 60 72 105 57 69 101 53 65 98 50 62 96 48 60 94 46 58 100 52 64 98 50 62 96 48 60 93 45 57 89 41 53 86 38 50 84 36 48 74 39 46 52 37 42 43 41 42 43 41 42 43 41 42 43 41 42 43 41 42 43 41 42 43 41 42 43 41 42 41 39 40
86 77 78 86 77 78 86 77 78 86 77 78 86 77 78 84 75 76 82 73 74 80 71 72 77 68 69 73 64 65 70 61 62 68 59 60 66 57 58 55 46 47 55 46 47 55 46 47 55 46 47 55 46 47 55 46 47 55 46 47 53 47 49 55 50 56 55 52 59 58 55 62 63 60 67 67 64 71 72 69 76 75 72 79 77 74 81 82 79 86 82 79 86 82 79 86 82 79 86 82 79 86 82 79 86 82 79 86 82 79 86 72 70 75 70 68 73 70 65 71 65 63 68 63 58 64 58 56 61 58 53 59 54 52 57 59 54 60 57 55 60 59 54 60 57 55 60 59 54 60 57 55 60 59 54 60 62 53 58 82 61 68 87 60 67 90 63 70 93 66 73 96 69 76 100 73 80 102 75 82 103 76 83 100 73 80 100 73 80 100 73 80 100 73 80 100 73 80 100 73 80 100 73 80 97 74 80 85 66 70 82 67 70 82 67 72 82 67 70 82 67 72 82 67 70 82 67 72 82 67 70 88 73 78 86 71 74 84 69 74 81 66 69 77 62 67 74 59 62 72 57 62 67 56 62 49 44 51 46 45 53 46 45 53 46 45 53 46 45 53 46 45 53 46 45 53 46 45 53 41 40 48 41 40 48 41 40 48 41 40 48 41 40 48 41 40 48 41 40 48 42 39 46 47 42 48 48 42 46 48 41 48 48 42 46 48 41 48 48 42 46 48 41 48 48 42 46 46 39 46 46 40 44 46 39 46 46 40 44 46 39 46 46 40 44 46 39 46 43 41 46 37 37 47 34 38 47 35 37 49 34 38 47 35 37 49 34 38 47 35 37 49 34 38 47 34 36 48 35 39 48 38 40 52 40 44 53 45 47 59 47 51 60 50 52 64 54 54 62 75 69 73 84 73 77 92 81 85 97 86 90 97 86 90 92 81 85 84 73 77 78 67 71 71 60 64 73 62 66 75 64 68 78 67 71 82 71 75 85 74 78 87 76 80 90 78 80 101 83 81 102 83 79 102 83 79 102 83 79 102 83 79 102 83 79 102 83 79 102 83 79 101 82 78 101 82 78 101 82 78 101 82 78 101 82 78 101 82 78 101 82 78 102 81 80 101 72 76 102 71 76 102 71 76 102 71 76 102 71 76 102 71 76 102 71 76 102 71 76 101 70 75 101 70 75 101 70 75 101 70 75 101 70 75 101 70 75 101 70 75 104 69 76 108 66 76 109 63 74 107 61 74 104 58 69 100 54 67 97 51 62 95 49 62 93 47 58 99 53 66 97 51 62 95 49 62 92 46 57 88 42 55 85 39 50 83 37 50 74 38 48 50 38 42 43 41 42 43 41 42 43 41 42 43 41 42 43 41 42 43 41 42 43 41 42 43 41 42 41 39 40
85 79 79 85 79 79 85 79 79 85 79 79 85 79 79 79 73 75 79 73 75 79 73 75 79 73 75 79 73 75 79 73 75 79 73 75 79 73 75 60 54 56 60 54 56 60 54 56 60 54 56 60 54 56 60 54 56 60 54 56 60 54 56 52 46 48 54 48 50 56 50 52 59 53 55 63 57 59 66 60 62 68 62 64 70 64 66 89 83 85 89 83 85 89 83 85 89 83 85 89 83 85 89 83 85 89 83 85 89 83 85 63 54 57 63 54 57 64 53 57 63 54 57 64 53 57 63 54 57 64 53 57 63 54 57 64 53 57 65 56 59 68 57 61 70 61 64 75 64 68 77 68 71 80 69 73 83 71 73 90 71 73 92 72 74 93 73 75 94 74 76 95 75 77 97 77 79 97 77 79 98 78 80 103 83 85 102 82 84 102 82 84 100 80 82 99 79 81 98 78 80 97 77 79 96 76 78 95 79 80 93 77 78 91 75 78 88 72 73 84 68 71 81 65 66 79 63 66 77 61 62 80 64 67 80 64 65 80 64 67 80 64 65 80 64 67 80 64 65 80 64 67 77 65 69 59 54 60 54 53 59 52 51 57 49 48 54 45 44 50 42 41 47 40 39 45 38 37 43 34 33 39 34 33 39 34 33 39 34 33 39 34 33 39 34 33 39 34 33 39 34 33 39 51 50 56 51 50 55 51 50 56 51 50 55 51 50 56 51 50 55 51 50 56 51 50 55 38 37 43 38 37 42 38 37 43 38 37 42 38 37 43 38 37 42 38 37 43 38 37 43 42 42 50 40 43 50 42 42 52 40 43 50 42 42 52 40 43 50 42 42 52 40 43 50 50 50 60 50 53 60 54 54 64 55 58 65 61 61 71 62 65 72 66 66 76 69 68 74 85 76 77 87 76 74 87 76 74 87 76 74 87 76 74 87 76 74 87 76 74 87 76 74 93 82 80 93 82 80 93 82 80 93 82 80 93 82 80 93 82 80 93 82 80 96 80 80 99 78 77 101 77 77 101 77 77 101 77 77 101 77 77 101 77 77 101 77 77 101 77 77 97 73 73 97 73 73 97 73 73 97 73 73 97 73 73 97 73 73 97 73 73 98 72 73 98 67 72 99 66 73 99 66 73 99 66 73 99 66 73 99 66 73 99 66 73 99 66 73 101 68 75 101 68 75 101 68 75 101 68 75 101 68 75 101 68 75 101 68 75 103 68 75 99 59 70 100 58 70 100 58 72 100 58 70 100 58 72 100 58 70 100 58 72 100 58 70 93 51 65 91 49 61 89 47 61 86 44 56 82 40 54 79 37 49 77 35 49 68 36 47 42 31 35 37 37 39 39 39 41 42 42 44 46 46 48 49 49 51 51 51 53 53 53 55 38 38 40 36 36 38
85 79 79 85 79 79 85 79 79 85 79 79 85 79 79 79 73 75 79 73 75 79 73 75 79 73 75 79 73 75 79 73 75 79 73 75 79 73 75 60 54 56 60 54 56 60 54 56 60 54 56 60 54 56 60 54 56 60 54 56 60 54 56 54 45 46 56 47 48 58 49 50 61 52 53 65 56 57 68 59 60 70 61 62 72 63 64 89 80 81 89 80 81 89 80 81 89 80 81 89 80 81 89 80 81 89 80 81 89 80 81 65 53 55 65 53 55 65 53 55 65 53 55 65 53 55 65 53 55 65 53 55 65 53 55 65 53 55 67 55 57 69 57 59 72 60 62 76 64 66 79 67 69 81 69 71 85 71 71 89 73 74 91 73 73 91 73 73 92 74 74 93 75 75 93 75 75 94 76 76 94 76 76 99 81 81 99 81 81 98 80 80 98 80 80 97 79 79 96 78 78 96 78 78 96 78 78 95 79 80 93 77 78 91 75 76 88 72 73 84 68 69 81 65 66 79 63 64 77 61 62 80 64 65 80 64 65 80 64 65 80 64 65 80 64 65 80 64 65 80 64 65 77 65 67 59 54 60 54 53 59 52 51 57 49 48 54 45 44 50 42 41 47 40 39 45 38 37 43 36 35 41 36 35 41 36 35 41 36 35 41 36 35 41 36 35 41 36 35 41 36 35 41 50 51 56 50 51 56 50 51 56 50 51 56 50 51 56 50 51 56 50 51 56 50 51 56 37 38 43 37 38 43 37 38 43 37 38 43 37 38 43 37 38 43 37 38 43 37 38 43 42 42 50 42 42 50 42 42 50 42 42 50 42 42 50 42 42 50 42 42 50 42 42 50 50 50 58 52 52 60 54 54 62 57 57 65 61 61 69 64 64 72 66 66 74 70 68 73 86 76 75 89 75 72 89 75 72 89 75 72 89 75 72 89 75 72 89 75 72 89 75 72 95 81 78 95 81 78 95 81 78 95 81 78 95 81 78 95 81 78 95 81 78 96 81 78 101 77 77 102 76 77 102 76 77 102 76 77 102 76 77 102 76 77 102 76 77 102 76 77 98 72 73 98 72 73 98 72 73 98 72 73 98 72 73 98 72 73 98 72 73 100 71 73 98 67 73 99 66 73 99 66 73 99 66 73 99 66 73 99 66 73 99 66 73 99 66 73 101 68 75 101 68 75 101 68 75 101 68 75 101 68 75 101 68 75 101 68 75 103 68 75 97 59 72 99 58 72 99 58 72 99 58 72 99 58 72 99 58 72 99 58 72 99 58 72 92 51 65 90 49 63 88 47 61 85 44 58 81 40 54 78 37 51 76 35 49 67 37 47 42 31 37 37 37 39 39 39 41 42 42 44 46 46 48 49 49 51 51 51 53 53 53 55 38 38 40 36 36 38
85 79 79 85 79 79 85 79 79 85 79 79 85 79 79 79 73 75 79 73 75 79 73 75 79 73 75 79 73 75 79 73 75 79 73 75 79 73 75 60 54 56 60 54 56 60 54 56 60 54 56 60 54 56 60 54 56 60 54 56 60 54 56 54 45 46 56 47 48 58 49 50 61 52 53 65 56 57 68 59 60 70 61 62 72 63 64 87 78 79 87 78 79 87 78 79 87 78 79 87 78 79 87 78 79 87 78 79 87 78 79 65 53 55 65 53 55 65 53 55 65 53 55 65 53 55 65 53 55 65 53 55 65 53 55 65 53 55 67 55 57 69 57 59 72 60 62 76 64 66 79 67 69 81 69 71 85 71 71 90 74 75 91 73 73 91 73 73 90 72 72 90 72 72 89 71 71 88 70 70 88 70 70 93 75 75 93 75 75 94 76 76 95 77 77 95 77 77 96 78 78 96 78 78 97 79 79 95 79 80 93 77 78 91 75 76 88 72 73 84 68 69 81 65 66 79 63 64 77 61 62 80 64 65 80 64 65 80 64 65 80 64 65 80 64 65 80 64 65 80 64 65 77 65 67 59 54 60 54 53 59 52 51 57 49 48 54 45 44 50 42 41 47 40 39 45 38 37 43 38 37 43 38 37 43 38 37 43 38 37 43 38 37 43 38 37 43 38 37 43 38 37 43 50 51 56 50 51 56 50 51 56 50 51 56 50 51 56 50 51 56 50 51 56 50 51 56 37 38 43 37 38 43 37 38 43 37 38 43 37 38 43 37 38 43 37 38 43 37 38 43 42 42 50 42 42 50 42 42 50 42 42 50 42 42 50 42 42 50 42 42 50 42 42 50 50 50 58 52 52 60 54 54 62 57 57 65 61 61 69 64 64 72 66 66 74 70 68 73 86 76 75 89 75 72 89 75 72 89 75 72 89 75 72 89 75 72 89 75 72 89 75 72 95 81 78 95 81 78 95 81 78 95 81 78 95 81 78 95 81 78 95 81 78 96 81 78 101 77 77 102 76 77 102 76 77 102 76 77 102 76 77 102 76 77 102 76 77 102 76 77 98 72 73 98 72 73 98 72 73 98 72 73 98 72 73 98 72 73 98 72 73 100 71 73 98 67 73 99 66 73 99 66 73 99 66 73 99 66 73 99 66 73 99 66 73 99 66 73 101 68 75 101 68 75 101 68 75 101 68 75 101 68 75 101 68 75 101 68 75 103 68 75 97 59 72 99 58 72 99 58 72 99 58 72 99 58 72 99 58 72 99 58 72 99 58 72 92 51 65 90 49 63 88 47 61 85 44 58 81 40 54 78 37 51 76 35 49 67 37 47 42 31 37 37 37 39 39 39 41 42 42 44 46 46 48 49 49 51 51 51 53 53 53 55 38 38 40 36 36 38
85 79 79 85 79 79 85 79 79 85 79 79 85 79 79 79 73 75 79 73 75 79 73 75 79 73 75 79 73 75 79 73 75 79 73 75 79 73 75 60 54 56 60 54 56 60 54 56 60 54 56 60 54 56 60 54 56 60 54 56 60 54 56 54 45 46 56 47 48 58 49 50 61 52 53 65 56 57 68 59 60 70 61 62 72 63 64 84 75 76 84 75 76 84 75 76 84 75 76 84 75 76 84 75 76 84 75 76 84 75 76 65 53 55 65 53 55 65 53 55 65 53 55 65 53 55 65 53 55 65 53 55 65 53 55 65 53 55 67 55 57 69 57 59 72 60 62 76 64 66 79 67 69 81 69 71 85 71 71 91 75 76 92 74 74 90 72 72 88 70 70 85 67 67 83 65 65 81 63 63 80 62 62 85 67 67 86 68 68 88 70 70 90 72 72 93 75 75 95 77 77 97 79 79 98 80 80 95 79 80 93 77 78 91 75 76 88 72 73 84 68 69 81 65 66 79 63 64 77 61 62 80 64 65 80 64 65 80 64 65 80 64 65 80 64 65 80 64 65 80 64 65 77 65 67 59 54 60 54 53 59 52 51 57 49 48 54 45 44 50 42 41 47 40 39 45 38 37 43 41 40 46 41 40 46 41 40 46 41 40 46 41 40 46 41 40 46 41 40 46 41 40 46 50 51 56 50 51 56 50 51 56 50 51 56 50 51 56 50 51 56 50 51 56 50 51 56 37 38 43 37 38 43 37 38 43 37 38 43 37 38 43 37 38 43 37 38 43 37 38 43 42 42 50 42 42 50 42 42 50 42 42 50 42 42 50 42 42 50 42 42 50 42 42 50 50 50 58 52 52 60 54 54 62 57 57 65 61 61 69 64 64 72 66 66 74 70 68 73 86 76 75 89 75 72 89 75 72 89 75 72 89 75 72 89 75 72 89 75 72 89 75 72 95 81 78 95 81 78 95 81 78 95 81 78 95 81 78 95 81 78 95 81 78 96 81 78 101 77 77 102 76 77 102 76 77 102 76 77 102 76 77 102 76 77 102 76 77 102 76 77 98 72 73 98 72 73 98 72 73 98 72 73 98 72 73 98 72 73 98 72 73 100 71 73 98 67 73 99 66 73 99 66 73 99 66 73 99 66 73 99 66 73 99 66 73 99 66 73 101 68 75 101 68 75 101 68 75 101 68 75 101 68 75 101 68 75 101 68 75 103 68 75 97 59 72 99 58 72 99 58 72 99 58 72 99 58 72 99 58 72 99 58 72 99 58 72 92 51 65 90 49 63 88 47 61 85 44 58 81 40 54 78 37 51 76 35 49 67 37 47 42 31 37 37 37 39 39 39 41 42 42 44 46 46 48 49 49 51 51 51 53 53 53 55 38 38 40 36 36 38
85 79 79 85 79 79 85 79 79 85 79 79 85 79 79 79 73 75 79 73 75 79 73 75 79 73 75 79 73 75 79 73 75 79 73 75 79 73 75 60 54 56 60 54 56 60 54 56 60 54 56 60 54 56 60 54 56 60 54 56 60 54 56 54 45 46 56 47 48 58 49 50 61 52 53 65 56 57 68 59 60 70 61 62 72 63 64 80 71 72 80 71 72 80 71 72 80 71 72 80 71 72 80 71 72 80 71 72 80 71 72 65 53 55 65 53 55 65 53 55 65 53 55 65 53 55 65 53 55 65 53 55 65 53 55 65 53 55 67 55 57 69 57 59 72 60 62 76 64 66 79 67 69 81 69 71 85 71 71 92 76 77 93 75 75 90 72 72 85 67 67 81 63 63 77 59 59 74 56 56 72 54 54 77 59 59 79 61 61 82 64 64 86 68 68 90 72 72 95 77 77 98 80 80 99 81 81 95 79 80 93 77 78 91 75 76 88 72 73 84 68 69 81 65 66 79 63 64 77 61 62 80 64 65 80 64 65 80 64 65 80 64 65 80 64 65 80 64 65 80 64 65 77 65 67 59 54 60 54 53 59 52 51 57 49 48 54 45 44 50 42 41 47 40 39 45 38 37 43 45 44 50 45 44 50 45 44 50 45 44 50 45 44 50 45 44 50 45 44 50 45 44 50 50 51 56 50 51 56 50 51 56 50 51 56 50 51 56 50 51 56 50 51 56 50 51 56 37 38 43 37 38 43 37 38 43 37 38 43 37 38 43 37 38 43 37 38 43 37 38 43 42 42 50 42 42 50 42 42 50 42 42 50 42 42 50 42 42 50 42 42 50 42 42 50 50 50 58 52 52 60 54 54 62 57 57 65 61 61 69 64 64 72 66 66 74 70 68 73 86 76 75 89 75 72 89 75 72 89 75 72 89 75 72 89 75 72 89 75 72 89 75 72 95 81 78 95 81 78 95 81 78 95 81 78 95 81 78 95 81 78 95 81 78 96 81 78 101 77 77 102 76 77 102 76 77 102 76 77 102 76 77 102 76 77 102 76 77 102 76 77 98 72 73 98 72 73 98 72 73 98 72 73 98 72 73 98 72 73 98 72 73 100 71 73 98 67 73 99 66 73 99 66 73 99 66 73 99 66 73 99 66 73 99 66 73 99 66 73 101 68 75 101 68 75 101 68 75 101 68 75 101 68 75 101 68 75 101 68 75 103 68 75 97 59 72 99 58 72 99 58 72 99 58 72 99 58 72 99 58 72 99 58 72 99 58 72 92 51 65 90 49 63 88 47 61 85 44 58 81 40 54 78 37 51 76 35 49 67 37 47 42 31 37 37 37 39 39 39 41 42 42 44 46 46 48 49 49 51 51 51 53 53 53 55 38 38 40 36 36 38
85 79 79 85 79 79 85 79 79 85 79 79 85 79 79 79 73 75 79 73 75 79 73 75 79 73 75 79 73 75 79 73 75 79 73 75 79 73 75 60 54 56 60 54 56 60 54 56 60 54 56 60 54 56 60 54 56 60 54 56 60 54 56 54 45 46 56 47 48 58 49 50 61 52 53 65 56 57 68 59 60 70 61 62 72 63 64 77 68 69 77 68 69 77 68 69 77 68 69 77 68 69 77 68 69 77 68 69 77 68 69 65 53 55 65 53 55 65 53 55 65 53 55 65 53 55 65 53 55 65 53 55 65 53 55 65 53 55 67 55 57 69 57 59 72 60 62 76 64 66 79 67 69 81 69 71 85 71 71 94 78 79 93 75 75 89 71 71 83 65 65 77 59 59 71 53 53 67 49 49 65 47 47 70 52 52 72 54 54 76 58 58 82 64 64 88 70 70 94 76 76 98 80 80 101 83 83 95 79 80 93 77 78 91 75 76 88 72 73 84 68 69 81 65 66 79 63 64 77 61 62 80 64 65 80 64 65 80 64 65 80 64 65 80 64 65 80 64 65 80 64 65 77 65 67 59 54 60 54 53 59 52 51 57 49 48 54 45 44 50 42 41 47 40 39 45 38 37 43 48 47 53 48 47 53 48 47 53 48 47 53 48 47 53 48 47 53 48 47 53 48 47 53 50 51 56 50 51 56 50 51 56 50 51 56 50 51 56 50 51 56 50 51 56 50 51 56 37 38 43 37 38 43 37 38 43 37 38 43 37 38 43 37 38 43 37 38 43 37 38 43 42 42 50 42 42 50 42 42 50 42 42 50 42 42 50 42 42 50 42 42 50 42 42 50 50 50 58 52 52 60 54 54 62 57 57 65 61 61 69 64 64 72 66 66 74 70 68 73 86 76 75 89 75 72 89 75 72 89 75 72 89 75 72 89 75 72 89 75 72 89 75 72 95 81 78 95 81 78 95 81 78 95 81 78 95 81 78 95 81 78 95 81 78 96 81 78 101 77 77 102 76 77 102 76 77 102 76 77 102 76 77 102 76 77 102 76 77 102 76 77 98 72 73 98 72 73 98 72 73 98 72 73 98 72 73 98 72 73 98 72 73 100 71 73 98 67 73 99 66 73 99 66 73 99 66 73 99 66 73 99 66 73 99 66 73 99 66 73 101 68 75 101 68 75 101 68 75 101 68 75 101 68 75 101 68 75 101 68 75 103 68 75 97 59 72 99 58 72 99 58 72 99 58 72 99 58 72 99 58 72 99 58 72 99 58 72 92 51 65 90 49 63 88 47 61 85 44 58 81 40 54 78 37 51 76 35 49 67 37 47 42 31 37 37 37 39 39 39 41 42 42 44 46 46 48 49 49 51 51 51 53 53 53 55 38 38 40 36 36 38
85 79 79 85 79 79 85 79 79 85 79 79 85 79 79 79 73 75 79 73 75 79 73 75 79 73 75 79 73 75 79 73 75 79 73 75 79 73 75 60 54 56 60 54 56 60 54 56 60 54 56 60 54 56 60 54 56 60 54 56 60 54 56 54 45 46 56 47 48 58 49 50 61 52 53 65 56 57 68 59 60 70 61 62 72 63 64 75 66 67 75 66 67 75 66 67 75 66 67 75 66 67 75 66 67 75 66 67 75 66 67 65 53 55 65 53 55 65 53 55 65 53 55 65 53 55 65 53 55 65 53 55 65 53 55 65 53 55 67 55 57 69 57 59 72 60 62 76 64 66 79 67 69 81 69 71 85 71 71 95 79 80 94 76 76 88 70 70 81 63 63 74 56 56 67 49 49 62 44 44 59 41 41 64 46 46 67 49 49 72 54 54 79 61 61 86 68 68 93 75 75 99 81 81 102 84 84 95 79 80 93 77 78 91 75 76 88 72 73 84 68 69 81 65 66 79 63 64 77 61 62 80 64 65 80 64 65 80 64 65 80 64 65 80 64 65 80 64 65 80 64 65 77 65 67 59 54 60 54 53 59 52 51 57 49 48 54 45 44 50 42 41 47 40 39 45 38 37 43 50 49 55 50 49 55 50 49 55 50 49 55 50 49 55 50 49 55 50 49 55 50 49 55 50 51 56 50 51 56 50 51 56 50 51 56 50 51 56 50 51 56 50 51 56 50 51 56 37 38 43 37 38 43 37 38 43 37 38 43 37 38 43 37 38 43 37 38 43 37 38 43 42 42 50 42 42 50 42 42 50 42 42 50 42 42 50 42 42 50 42 42 50 42 42 50 50 50 58 52 52 60 54 54 62 57 57 65 61 61 69 64 64 72 66 66 74 70 68 73 86 76 75 89 75 72 89 75 72 89 75 72 89 75 72 89 75 72 89 75 72 89 75 72 95 81 78 95 81 78 95 81 78 95 81 78 95 81 78 95 81 78 95 81 78 96 81 78 101 77 77 102 76 77 102 76 77 102 76 77 102 76 77 102 76 77 102 76 77 102 76 77 98 72 73 98 72 73 98 72 73 98 72 73 98 72 73 98 72 73 98 72 73 100 71 73 98 67 73 99 66 73 99 66 73 99 66 73 99 66 73 99 66 73 99 66 73 99 66 73 101 68 75 101 68 75 101 68 75 101 68 75 101 68 75 101 68 75 101 68 75 103 68 75 97 59 72 99 58 72 99 58 72 99 58 72 99 58 72 99 58 72 99 58 72 99 58 72 92 51 65 90 49 63 88 47 61 85 44 58 81 40 54 78 37 51 76 35 49 67 37 47 42 31 37 37 37 39 39 39 41 42 42 44 46 46 48 49 49 51 51 51 53 53 53 55 38 38 40 36 36 38
85 79 79 85 79 79 85 79 79 85 79 79 85 79 79 79 73 75 79 73 75 79 73 75 79 73 75 79 73 75 79 73 75 79 73 75 79 73 75 60 54 56 60 54 56 60 54 56 60 54 56 60 54 56 60 54 56 60 54 56 60 54 56 54 45 46 56 47 48 58 49 50 61 52 53 65 56 57 68 59 60 70 61 62 72 63 64 73 64 65 73 64 65 73 64 65 73 64 65 73 64 65 73 64 65 73 64 65 73 64 65 65 53 55 65 53 55 65 53 55 65 53 55 65 53 55 65 53 55 65 53 55 65 53 55 65 53 55 67 55 57 69 57 59 72 60 62 76 64 66 79 67 69 81 69 71 85 71 71 95 79 80 94 76 76 88 70 70 80 62 62 72 54 54 65 47 47 59 41 41 56 38 38 61 43 43 64 46 46 70 52 52 77 59 59 85 67 67 93 75 75 99 81 81 102 84 84 95 79 80 93 77 78 91 75 76 88 72 73 84 68 69 81 65 66 79 63 64 77 61 62 80 64 65 80 64 65 80 64 65 80 64 65 80 64 65 80 64 65 80 64 65 77 65 67 59 54 60 54 53 59 52 51 57 49 48 54 45 44 50 42 41 47 40 39 45 38 37 43 52 51 57 52 51 57 52 51 57 52 51 57 52 51 57 52 51 57 52 51 57 52 51 57 50 51 56 50 51 56 50 51 56 50 51 56 50 51 56 50 51 56 50 51 56 50 51 56 37 38 43 37 38 43 37 38 43 37 38 43 37 38 43 37 38 43 37 38 43 37 38 43 42 42 50 42 42 50 42 42 50 42 42 50 42 42 50 42 42 50 42 42 50 42 42 50 50 50 58 52 52 60 54 54 62 57 57 65 61 61 69 64 64 72 66 66 74 70 68 73 86 76 75 89 75 72 89 75 72 89 75 72 89 75 72 89 75 72 89 75 72 89 75 72 95 81 78 95 81 78 95 81 78 95 81 78 95 81 78 95 81 78 95 81 78 96 81 78 101 77 77 102 76 77 102 76 77 102 76 77 102 76 77 102 76 77 102 76 77 102 76 77 98 72 73 98 72 73 98 72 73 98 72 73 98 72 73 98 72 73 98 72 73 100 71 73 98 67 73 99 66 73 99 66 73 99 66 73 99 66 73 99 66 73 99 66 73 99 66 73 101 68 75 101 68 75 101 68 75 101 68 75 101 68 75 101 68 75 101 68 75 103 68 75 97 59 72 99 58 72 99 58 72 99 58 72 99 58 72 99 58 72 99 58 72 99 58 72 92 51 65 90 49 63 88 47 61 85 44 58 81 40 54 78 37 51 76 35 49 67 37 47 42 31 37 37 37 39 39 39 41 42 42 44 46 46 48 49 49 51 51 51 53 53 53 55 38 38 40 36 36 38
66 60 60 66 60 60 66 60 60 66 60 60 66 60 60 65 59 61 65 59 61 65 59 61 65 59 61 65 59 61 65 59 61 65 59 61 65 59 61 60 54 56 60 54 56 60 54 56 60 54 56 60 54 56 60 54 56 60 54 56 60 54 56 59 50 51 59 50 51 59 50 51 59 50 51 59 50 51 59 50 51 59 50 51 59 50 51 58 49 50 58 49 50 58 49 50 58 49 50 58 49 50 58 49 50 58 49 50 58 49 50 69 57 59 69 57 59 69 57 59 69 57 59 69 57 59 69 57 59 69 57 59 69 57 59 75 63 65 76 64 66 79 67 69 82 70 72 85 73 75 89 77 79 91 79 81 94 80 80 84 68 69 84 66 66 82 64 64 79 61 61 75 57 57 72 54 54 70 52 52 68 50 50 74 56 56 76 58 58 78 60 60 81 63 63 85 67 67 88 70 70 90 72 72 92 74 74 94 78 79 92 76 77 90 74 75 87 71 72 83 67 68 80 64 65 78 62 63 76 60 61 74 58 59 74 58 59 74 58 59 74 58 59 74 58 59 74 58 59 74 58 59 71 59 61 63 58 64 59 58 64 55 54 60 51 50 56 46 45 51 42 41 47 38 37 43 36 35 41 65 64 70 65 64 70 65 64 70 65 64 70 65 64 70 65 64 70 65 64 70 65 64 70 63 64 69 61 62 67 59 60 65 56 57 62 52 53 58 49 50 55 47 48 53 45 46 51 40 41 46 40 41 46 40 41 46 40 41 46 40 41 46 40 41 46 40 41 46 40 41 46 49 49 57 49 49 57 49 49 57 49 49 57 49 49 57 49 49 57 49 49 57 49 49 57 59 59 67 60 60 68 62 62 70 66 66 74 69 69 77 72 72 80 75 75 83 78 76 81 97 87 86 100 86 83 100 86 83 100 86 83 100 86 83 100 86 83 100 86 83 100 86 83 95 81 78 95 81 78 95 81 78 95 81 78 95 81 78 95 81 78 95 81 78 96 81 78 98 74 74 99 73 74 99 73 74 99 73 74 99 73 74 99 73 74 99 73 74 99 73 74 95 69 70 95 69 70 95 69 70 95 69 70 95 69 70 95 69 70 95 69 70 97 68 70 94 63 69 95 62 69 95 62 69 95 62 69 95 62 69 95 62 69 95 62 69 95 62 69 99 66 73 99 66 73 99 66 73 99 66 73 99 66 73 99 66 73 99 66 73 101 66 73 98 60 73 100 59 73 100 59 73 100 59 73 100 59 73 100 59 73 100 59 73 100 59 73 97 56 70 95 54 68 90 49 63 83 42 56 77 36 50 70 29 43 65 24 38 56 26 36 51 40 46 44 44 46 44 44 46 44 44 46 44 44 46 44 44 46 44 44 46 44 44 46 28 28 30 28 28 30
66 60 60 66 60 60 66 60 60 66 60 60 66 60 60 65 59 61 65 59 61 65 59 61 65 59 61 65 59 61 65 59 61 65 59 61 65 59 61 60 54 56 60 54 56 60 54 56 60 54 56 60 54 56 60 54 56 60 54 56 60 54 56 59 50 51 59 50 51 59 50 51 59 50 51 59 50 51 59 50 51 59 50 51 59 50 51 58 49 50 58 49 50 58 49 50 58 49 50 58 49 50 58 49 50 58 49 50 58 49 50 69 57 59 69 57 59 69 57 59 69 57 59 69 57 59 69 57 59 69 57 59 69 57 59 74 62 64 75 63 65 77 65 67 81 69 71 84 72 74 87 75 77 90 78 80 93 79 79 84 68 69 84 66 66 82 64 64 79 61 61 75 57 57 72 54 54 70 52 52 68 50 50 74 56 56 76 58 58 78 60 60 81 63 63 85 67 67 88 70 70 90 72 72 92 74 74 94 78 79 92 76 77 90 74 75 87 71 72 83 67 68 80 64 65 78 62 63 76 60 61 74 58 59 74 58 59 74 58 59 74 58 59 74 58 59 74 58 59 74 58 59 71 59 61 63 58 64 58 57 63 55 54 60 52 51 57 48 47 53 44 43 49 41 40 46 39 38 44 65 64 70 65 64 70 65 64 70 65 64 70 65 64 70 65 64 70 65 64 70 65 64 70 63 64 69 61 62 67 59 60 65 56 57 62 52 53 58 49 50 55 47 48 53 45 46 51 40 41 46 40 41 46 40 41 46 40 41 46 40 41 46 40 41 46 40 41 46 40 41 46 49 49 57 49 49 57 49 49 57 49 49 57 49 49 57 49 49 57 49 49 57 49 49 57 60 60 68 61 61 69 64 64 72 67 67 75 70 70 78 74 74 82 76 76 84 79 77 82 97 87 86 100 86 83 100 86 83 100 86 83 100 86 83 100 86 83 100 86 83 100 86 83 95 81 78 95 81 78 95 81 78 95 81 78 95 81 78 95 81 78 95 81 78 96 81 78 98 74 74 99 73 74 99 73 74 99 73 74 99 73 74 99 73 74 99 73 74 99 73 74 95 69 70 95 69 70 95 69 70 95 69 70 95 69 70 95 69 70 95 69 70 97 68 70 94 63 69 95 62 69 95 62 69 95 62 69 95 62 69 95 62 69 95 62 69 95 62 69 99 66 73 99 66 73 99 66 73 99 66 73 99 66 73 99 66 73 99 66 73 101 66 73 98 60 73 100 59 73 100 59 73 100 59 73 100 59 73 100 59 73 100 59 73 100 59 73 97 56 70 95 54 68 90 49 63 83 42 56 77 36 50 70 29 43 65 24 38 56 26 36 51 40 46 44 44 46 44 44 46 44 44 46 44 44 46 44 44 46 44 44 46 44 44 46 28 28 30 28 28 30
66 60 60 66 60 60 66 60 60 66 60 60 66 60 60 65 59 61 65 59 61 65 59 61 65 59 61 65 59 61 65 59 61 65 59 61 65 59 61 60 54 56 60 54 56 60 54 56 60 54 56 60 54 56 60 54 56 60 54 56 60 54 56 59 50 51 59 50 51 59 50 51 59 50 51 59 50 51 59 50 51 59 50 51 59 50 51 58 49 50 58 49 50 58 49 50 58 49 50 58 49 50 58 49 50 58 49 50 58 49 50 69 57 59 69 57 59 69 57 59 69 57 59 69 57 59 69 57 59 69 57 59 69 57 59 71 59 61 73 61 63 75 63 65 78 66 68 82 70 72 85 73 75 87 75 77 91 77 77 84 68 69 84 66 66 82 64 64 79 61 61 75 57 57 72 54 54 70 52 52 68 50 50 74 56 56 76 58 58 78 60 60 81 63 63 85 67 67 88 70 70 90 72 72 92 74 74 94 78 79 92 76 77 90 74 75 87 71 72 83 67 68 80 64 65 78 62 63 76 60 61 74 58 59 74 58 59 74 58 59 74 58 59 74 58 59 74 58 59 74 58 59 71 59 61 62 57 63 58 57 63 56 55 61 53 52 58 51 50 56 48 47 53 46 45 51 45 44 50 65 64 70 65 64 70 65 64 70 65 64 70 65 64 70 65 64 70 65 64 70 65 64 70 63 64 69 61 62 67 59 60 65 56 57 62 52 53 58 49 50 55 47 48 53 45 46 51 40 41 46 40 41 46 40 41 46 40 41 46 40 41 46 40 41 46 40 41 46 40 41 46 49 49 57 49 49 57 49 49 57 49 49 57 49 49 57 49 49 57 49 49 57 49 49 57 62 62 70 64 64 72 66 66 74 69 69 77 73 73 81 76 76 84 78 78 86 82 80 85 97 87 86 100 86 83 100 86 83 100 86 83 100 86 83 100 86 83 100 86 83 100 86 83 95 81 78 95 81 78 95 81 78 95 81 78 95 81 78 95 81 78 95 81 78 96 81 78 98 74 74 99 73 74 99 73 74 99 73 74 99 73 74 99 73 74 99 73 74 99 73 74 95 69 70 95 69 70 95 69 70 95 69 70 95 69 70 95 69 70 95 69 70 97 68 70 94 63 69 95 62 69 95 62 69 95 62 69 95 62 69 95 62 69 95 62 69 95 62 69 99 66 73 99 66 73 99 66 73 99 66 73 99 66 73 99 66 73 99 66 73 101 66 73 98 60 73 100 59 73 100 59 73 100 59 73 100 59 73 100 59 73 100 59 73 100 59 73 97 56 70 95 54 68 90 49 63 83 42 56 77 36 50 70 29 43 65 24 38 56 26 36 51 40 46 44 44 46 44 44 46 44 44 46 44 44 46 44 44 46 44 44 46 44 44 46 28 28 30 28 28 30
66 60 60 66 60 60 66 60 60 66 60 60 66 60 60 65 59 61 65 59 61 65 59 61 65 59 61 65 59 61 65 59 61 65 59 61 65 59 61 60 54 56 60 54 56 60 54 56 60 54 56 60 54 56 60 54 56 60 54 56 60 54 56 59 50 51 59 50 51 59 50 51 59 50 51 59 50 51 59 50 51 59 50 51 59 50 51 58 49 50 58 49 50 58 49 50 58 49 50 58 49 50 58 49 50 58 49 50 58 49 50 69 57 59 69 57 59 69 57 59 69 57 59 69 57 59 69 57 59 69 57 59 69 57 59 68 56 58 69 57 59 72 60 62 75 63 65 78 66 68 82 70 72 84 72 74 87 73 73 84 68 69 84 66 66 82 64 64 79 61 61 75 57 57 72 54 54 70 52 52 68 50 50 74 56 56 76 58 58 78 60 60 81 63 63 85 67 67 88 70 70 90 72 72 92 74 74 94 78 79 92 76 77 90 74 75 87 71 72 83 67 68 80 64 65 78 62 63 76 60 61 74 58 59 74 58 59 74 58 59 74 58 59 74 58 59 74 58 59 74 58 59 71 59 61 61 56 62 57 56 62 57 56 62 56 55 61 55 54 60 54 53 59 53 52 58 53 52 58 65 64 70 65 64 70 65 64 70 65 64 70 65 64 70 65 64 70 65 64 70 65 64 70 63 64 69 61 62 67 59 60 65 56 57 62 52 53 58 49 50 55 47 48 53 45 46 51 40 41 46 40 41 46 40 41 46 40 41 46 40 41 46 40 41 46 40 41 46 40 41 46 49 49 57 49 49 57 49 49 57 49 49 57 49 49 57 49 49 57 49 49 57 49 49 57 66 66 74 67 67 75 69 69 77 73 73 81 76 76 84 79 79 87 82 82 90 85 83 88 97 87 86 100 86 83 100 86 83 100 86 83 100 86 83 100 86 83 100 86 83 100 86 83 95 81 78 95 81 78 95 81 78 95 81 78 95 81 78 95 81 78 95 81 78 96 81 78 98 74 74 99 73 74 99 73 74 99 73 74 99 73 74 99 73 74 99 73 74 99 73 74 95 69 70 95 69 70 95 69 70 95 69 70 95 69 70 95 69 70 95 69 70 97 68 70 94 63 69 95 62 69 95 62 69 95 62 69 95 62 69 95 62 69 95 62 69 95 62 69 99 66 73 99 66 73 99 66 73 99 66 73 99 66 73 99 66 73 99 66 73 101 66 73 98 60 73 100 59 73 100 59 73 100 59 73 100 59 73 100 59 73 100 59 73 100 59 73 97 56 70 95 54 68 90 49 63 83 42 56 77 36 50 70 29 43 65 24 38 56 26 36 51 40 46 44 44 46 44 44 46 44 44 46 44 44 46 44 44 46 44 44 46 44 44 46 28 28 30 28 28 30
66 60 60 66 60 60 66 60 60 66 60 60 66 60 60 65 59 61 65 59 61 65 59 61 65 59 61 65 59 61 65 59 61 65 59 61 65 59 61 60 54 56 60 54 56 60 54 56 60 54 56 60 54 56 60 54 56 60 54 56 60 54 56 59 50 51 59 50 51 59 50 51 59 50 51 59 50 51 59 50 51 59 50 51 59 50 51 58 49 50 58 49 50 58 49 50 58 49 50 58 49 50 58 49 50 58 49 50 58 49 50 69 57 59 69 57 59 69 57 59 69 57 59 69 57 59 69 57 59 69 57 59 69 57 59 65 53 55 66 54 56 68 56 58 72 60 62 75 63 65 78 66 68 81 69 71 84 70 70 84 68 69 84 66 66 82 64 64 79 61 61 75 57 57 72 54 54 70 52 52 68 50 50 74 56 56 76 58 58 78 60 60 81 63 63 85 67 67 88 70 70 90 72 72 92 74 74 94 78 79 92 76 77 90 74 75 87 71 72 83 67 68 80 64 65 78 62 63 76 60 61 74 58 59 74 58 59 74 58 59 74 58 59 74 58 59 74 58 59 74 58 59 71 59 61 59 54 60 57 56 62 57 56 62 58 57 63 59 58 64 60 59 65 61 60 66 61 60 66 65 64 70 65 64 70 65 64 70 65 64 70 65 64 70 65 64 70 65 64 70 65 64 70 63 64 69 61 62 67 59 60 65 56 57 62 52 53 58 49 50 55 47 48 53 45 46 51 40 41 46 40 41 46 40 41 46 40 41 46 40 41 46 40 41 46 40 41 46 40 41 46 49 49 57 49 49 57 49 49 57 49 49 57 49 49 57 49 49 57 49 49 57 49 49 57 69 69 77 70 70 78 73 73 81 76 76 84 79 79 87 83 83 91 85 85 93 88 86 91 97 87 86 100 86 83 100 86 83 100 86 83 100 86 83 100 86 83 100 86 83 100 86 83 95 81 78 95 81 78 95 81 78 95 81 78 95 81 78 95 81 78 95 81 78 96 81 78 98 74 74 99 73 74 99 73 74 99 73 74 99 73 74 99 73 74 99 73 74 99 73 74 95 69 70 95 69 70 95 69 70 95 69 70 95 69 70 95 69 70 95 69 70 97 68 70 94 63 69 95 62 69 95 62 69 95 62 69 95 62 69 95 62 69 95 62 69 95 62 69 99 66 73 99 66 73 99 66 73 99 66 73 99 66 73 99 66 73 99 66 73 101 66 73 98 60 73 100 59 73 100 59 73 100 59 73 100 59 73 100 59 73 100 59 73 100 59 73 97 56 70 95 54 68 90 49 63 83 42 56 77 36 50 70 29 43 65 24 38 56 26 36 51 40 46 44 44 46 44 44 46 44 44 46 44 44 46 44 44 46 44 44 46 44 44 46 28 28 30 28 28 30
66 60 60 66 60 60 66 60 60 66 60 60 66 60 60 65 59 61 65 59 61 65 59 61 65 59 61 65 59 61 65 59 61 65 59 61 65 59 61 60 54 56 60 54 56 60 54 56 60 54 56 60 54 56 60 54 56 60 54 56 60 54 56 59 50 51 59 50 51 59 50 51 59 50 51 59 50 51 59 50 51 59 50 51 59 50 51 58 49 50 58 49 50 58 49 50 58 49 50 58 49 50 58 49 50 58 49 50 58 49 50 69 57 59 69 57 59 69 57 59 69 57 59 69 57 59 69 57 59 69 57 59 69 57 59 61 49 51 63 51 53 65 53 55 68 56 58 72 60 62 75 63 65 77 65 67 81 67 67 84 68 69 84 66 66 82 64 64 79 61 61 75 57 57 72 54 54 70 52 52 68 50 50 74 56 56 76 58 58 78 60 60 81 63 63 85 67 67 88 70 70 90 72 72 92 74 74 94 78 79 92 76 77 90 74 75 87 71 72 83 67 68 80 64 65 78 62 63 76 60 61 74 58 59 74 58 59 74 58 59 74 58 59 74 58 59 74 58 59 74 58 59 71 59 61 58 53 59 56 55 61 58 57 63 61 60 66 63 62 68 66 65 71 68 67 73 69 68 74 65 64 70 65 64 70 65 64 70 65 64 70 65 64 70 65 64 70 65 64 70 65 64 70 63 64 69 61 62 67 59 60 65 56 57 62 52 53 58 49 50 55 47 48 53 45 46 51 40 41 46 40 41 46 40 41 46 40 41 46 40 41 46 40 41 46 40 41 46 40 41 46 49 49 57 49 49 57 49 49 57 49 49 57 49 49 57 49 49 57 49 49 57 49 49 57 72 72 80 74 74 82 76 76 84 79 79 87 83 83 91 86 86 94 88 88 96 92 90 95 97 87 86 100 86 83 100 86 83 100 86 83 100 86 83 100 86 83 100 86 83 100 86 83 95 81 78 95 81 78 95 81 78 95 81 78 95 81 78 95 81 78 95 81 78 96 81 78 98 74 74 99 73 74 99 73 74 99 73 74 99 73 74 99 73 74 99 73 74 99 73 74 95 69 70 95 69 70 95 69 70 95 69 70 95 69 70 95 69 70 95 69 70 97 68 70 94 63 69 95 62 69 95 62 69 95 62 69 95 62 69 95 62 69 95 62 69 95 62 69 99 66 73 99 66 73 99 66 73 99 66 73 99 66 73 99 66 73 99 66 73 101 66 73 98 60 73 100 59 73 100 59 73 100 59 73 100 59 73 100 59 73 100 59 73 100 59 73 97 56 70 95 54 68 90 49 63 83 42 56 77 36 50 70 29 43 65 24 38 56 26 36 51 40 46 44 44 46 44 44 46 44 44 46 44 44 46 44 44 46 44 44 46 44 44 46 28 28 30 28 28 30
66 60 60 66 60 60 66 60 60 66 60 60 66 60 60 65 59 61 65 59 61 65 59 61 65 59 61 65 59 61 65 59 61 65 59 61 65 59 61 60 54 56 60 54 56 60 54 56 60 54 56 60 54 56 60 54 56 60 54 56 60 54 56 59 50 51 59 50 51 59 50 51 59 50 51 59 50 51 59 50 51 59 50 51 59 50 51 58 49 50 58 49 50 58 49 50 58 49 50 58 49 50 58 49 50 58 49 50 58 49 50 69 57 59 69 57 59 69 57 59 69 57 59 69 57 59 69 57 59 69 57 59 69 57 59 59 47 49 60 48 50 63 51 53 66 54 56 69 57 59 73 61 63 75 63 65 78 64 64 84 68 69 84 66 66 82 64 64 79 61 61 75 57 57 72 54 54 70 52 52 68 50 50 74 56 56 76 58 58 78 60 60 81 63 63 85 67 67 88 70 70 90 72 72 92 74 74 94 78 79 92 76 77 90 74 75 87 71 72 83 67 68 80 64 65 78 62 63 76 60 61 74 58 59 74 58 59 74 58 59 74 58 59 74 58 59 74 58 59 74 58 59 71 59 61 57 52 58 56 55 61 59 58 64 62 61 67 66 65 71 70 69 75 73 72 78 75 74 80 65 64 70 65 64 70 65 64 70 65 64 70 65 64 70 65 64 70 65 64 70 65 64 70 63 64 69 61 62 67 59 60 65 56 57 62 52 53 58 49 50 55 47 48 53 45 46 51 40 41 46 40 41 46 40 41 46 40 41 46 40 41 46 40 41 46 40 41 46 40 41 46 49 49 57 49 49 57 49 49 57 49 49 57 49 49 57 49 49 57 49 49 57 49 49 57 75 75 83 76 76 84 78 78 86 82 82 90 85 85 93 88 88 96 91 91 99 94 92 97 97 87 86 100 86 83 100 86 83 100 86 83 100 86 83 100 86 83 100 86 83 100 86 83 95 81 78 95 81 78 95 81 78 95 81 78 95 81 78 95 81 78 95 81 78 96 81 78 98 74 74 99 73 74 99 73 74 99 73 74 99 73 74 99 73 74 99 73 74 99 73 74 95 69 70 95 69 70 95 69 70 95 69 70 95 69 70 95 69 70 95 69 70 97 68 70 94 63 69 95 62 69 95 62 69 95 62 69 95 62 69 95 62 69 95 62 69 95 62 69 99 66 73 99 66 73 99 66 73 99 66 73 99 66 73 99 66 73 99 66 73 101 66 73 98 60 73 100 59 73 100 59 73 100 59 73 100 59 73 100 59 73 100 59 73 100 59 73 97 56 70 95 54 68 90 49 63 83 42 56 77 36 50 70 29 43 65 24 38 56 26 36 51 40 46 44 44 46 44 44 46 44 44 46 44 44 46 44 44 46 44 44 46 44 44 46 28 28 30 28 28 30
66 60 62 66 60 62 66 60 62 66 60 62 66 60 62 65 59 61 65 59 61 65 59 61 65 59 61 65 59 61 65 59 61 65 59 61 65 59 61 60 54 56 60 54 56 60 54 56 60 54 56 60 54 56 60 54 56 60 54 56 60 54 56 59 50 53 59 50 51 59 50 53 59 50 51 59 50 53 59 50 51 59 50 53 59 50 51 58 49 52 58 49 50 58 49 52 58 49 50 58 49 52 58 49 50 58 49 52 58 49 50 68 58 59 69 57 59 69 57 59 69 57 59 69 57 59 69 57 59 69 57 59 69 57 59 58 46 48 59 47 49 61 49 51 65 53 55 68 56 58 71 59 61 74 62 64 75 63 65 83 69 69 81 67 67 80 64 65 76 62 62 73 57 58 69 55 55 68 52 53 65 51 51 72 56 57 73 59 59 76 60 61 78 64 64 83 67 68 85 71 71 88 72 73 89 75 75 93 78 81 91 76 79 89 74 77 86 71 74 82 67 70 79 64 67 77 62 65 75 60 63 73 58 61 73 58 61 73 58 61 73 58 61 73 58 61 73 58 61 73 58 61 70 59 63 57 52 56 56 54 59 60 58 63 64 62 67 69 67 72 73 71 76 77 75 80 79 77 82 66 64 69 66 64 69 66 64 69 66 64 69 66 64 69 66 64 69 66 64 69 66 64 69 65 63 68 63 61 66 61 58 65 58 56 61 54 51 58 51 49 54 49 46 53 47 45 50 42 39 46 42 40 45 42 39 46 42 40 45 42 39 46 42 40 45 42 39 46 41 40 46 50 49 57 50 49 57 50 49 57 50 49 57 50 49 57 50 49 57 50 49 57 50 49 57 77 76 84 78 77 85 81 80 88 84 83 91 87 86 94 91 90 98 93 92 100 97 92 98 97 87 88 100 86 85 100 86 85 100 86 85 100 86 85 100 86 85 100 86 85 100 86 85 95 81 80 95 81 80 95 81 80 95 81 80 95 81 80 95 81 80 95 81 80 96 80 80 96 75 74 98 74 74 98 74 74 98 74 74 98 74 74 98 74 74 98 74 74 98 74 74 94 70 70 94 70 70 94 70 70 94 70 70 94 70 70 94 70 70 94 70 70 95 69 72 94 63 69 94 63 69 94 63 69 94 63 69 94 63 69 94 63 69 94 63 69 94 63 69 98 67 73 98 67 73 98 67 73 98 67 73 98 67 73 98 67 73 98 67 73 99 66 73 98 60 73 100 59 73 100 59 73 100 59 73 100 59 73 98 60 73 98 60 73 97 61 73 94 58 70 92 56 68 85 52 63 78 45 56 72 39 50 64 32 43 59 27 38 51 28 36 50 41 46 44 44 46 44 43 48 44 44 46 44 43 48 44 44 46 44 43 48 44 44 46 28 27 32 28 28 30
66 60 64 66 60 64 66 60 64 66 60 64 66 60 64 73 69 70 73 69 70 73 69 70 73 69 70 73 69 70 73 69 70 73 69 70 73 69 70 58 54 55 58 54 55 58 54 55 58 54 55 58 54 55 58 54 55 58 54 55 58 54 55 59 53 55 59 53 55 59 53 57 59 53 55 59 53 57 59 53 55 59 53 57 59 53 55 55 49 53 57 51 53 59 53 57 62 56 58 66 60 64 69 63 65 71 65 69 75 66 69 72 61 65 73 61 65 73 61 65 73 61 65 73 61 65 73 61 65 73 61 65 73 61 65 60 48 52 62 50 54 65 53 57 70 58 62 74 62 66 79 67 71 82 70 74 84 72 76 73 62 66 72 63 66 73 62 66 72 63 66 73 62 66 72 63 66 73 62 66 72 63 66 69 58 62 69 60 63 73 62 66 75 66 69 79 68 72 82 73 76 85 74 78 86 75 79 104 93 97 101 90 94 95 84 88 88 77 81 80 69 73 72 61 65 66 55 59 63 52 56 70 59 63 70 59 63 70 59 63 70 59 63 70 59 63 70 59 63 70 59 63 69 60 63 65 59 63 65 60 64 68 63 67 71 66 70 74 69 73 78 73 77 80 75 79 81 76 80 77 72 76 75 70 74 72 67 71 67 62 66 63 58 62 58 53 57 55 50 54 54 48 52 71 62 67 71 62 67 71 61 69 71 62 67 71 61 69 71 62 67 71 61 69 71 62 67 57 47 55 57 48 53 57 47 55 57 48 53 57 47 55 57 48 53 57 47 55 55 48 55 62 57 64 60 57 66 60 57 66 60 57 66 60 57 66 60 57 66 60 57 66 60 57 66 94 91 100 94 91 100 94 91 100 94 91 100 94 91 100 94 91 100 94 91 100 97 90 98 94 82 86 96 82 82 96 82 82 96 82 82 96 82 82 96 82 82 96 82 82 96 82 82 94 80 80 94 80 80 94 80 80 94 80 80 94 80 80 94 80 80 94 80 80 95 79 80 90 70 71 91 69 71 91 69 71 91 69 71 91 69 71 91 69 71 91 69 71 91 69 71 76 54 56 76 54 56 76 54 56 76 54 56 76 54 56 76 54 56 76 54 56 76 54 56 79 52 57 81 52 57 81 52 57 81 52 57 81 52 57 81 52 57 81 52 57 81 52 57 84 55 60 86 57 62 88 59 64 91 62 67 95 66 71 98 69 74 100 71 76 103 72 78 102 61 75 103 61 75 102 61 75 102 61 75 100 62 75 99 63 75 97 64 75 95 65 75 86 59 68 83 57 66 76 53 61 68 47 54 61 42 48 52 35 41 46 31 36 41 30 36 45 43 48 43 44 48 43 44 49 43 44 48 43 44 49 43 44 48 43 44 49 43 44 48 26 27 32 26 27 31
66 59 66 66 59 66 66 59 66 66 59 66 66 60 64 73 68 72 73 69 70 73 69 70 73 69 70 73 69 70 73 69 70 73 69 70 73 69 70 60 56 57 60 56 57 60 56 57 60 56 57 60 56 57 60 56 57 60 56 57 60 56 57 59 53 57 59 53 57 59 53 57 59 53 57 59 53 57 59 53 57 59 53 57 59 53 57 55 49 53 57 51 55 59 53 57 62 56 60 66 60 64 69 63 67 71 65 69 75 66 71 72 61 65 73 61 65 73 61 65 73 61 65 73 61 65 73 61 65 73 61 65 73 61 65 62 50 54 63 51 55 66 54 58 70 58 62 74 62 66 78 66 70 81 69 73 81 70 74 70 61 66 68 62 66 68 62 66 68 62 66 68 62 66 68 62 66 68 62 66 68 62 66 65 59 63 66 60 64 68 62 66 72 66 70 75 69 73 78 72 76 81 75 79 82 76 80 100 91 96 97 88 93 92 83 88 85 76 81 78 69 74 71 62 67 65 56 61 62 53 58 69 60 65 69 60 65 69 60 65 69 60 65 69 60 65 69 60 65 69 60 65 69 60 65 64 58 60 65 59 61 67 61 63 71 65 67 74 68 70 77 71 73 80 74 76 81 75 77 76 70 72 75 69 71 72 66 68 68 62 64 64 58 60 60 54 56 57 51 53 58 49 52 72 61 67 73 60 67 73 60 67 73 60 67 73 60 67 73 60 67 73 60 67 73 60 67 61 48 55 61 48 55 61 48 55 61 48 55 61 48 55 61 48 55 61 48 55 60 49 57 63 56 64 62 56 66 62 56 66 62 56 66 62 56 66 62 56 66 62 56 66 62 56 66 94 88 98 94 88 98 94 88 98 94 88 98 94 88 98 94 88 98 94 88 98 95 88 96 92 80 84 94 79 82 94 79 82 94 79 82 94 79 82 94 79 82 94 79 82 94 79 82 92 77 80 92 77 80 92 77 80 92 77 80 92 77 80 92 77 80 92 77 80 93 77 78 87 68 70 88 68 69 88 68 69 88 68 69 88 68 69 88 68 69 88 68 69 88 68 69 75 55 56 75 55 56 75 55 56 75 55 56 75 55 56 75 55 56 75 55 56 76 54 56 78 53 57 79 52 57 79 52 57 79 52 57 79 52 57 79 52 57 79 52 57 79 52 57 82 55 60 84 57 62 86 59 64 89 62 67 93 66 71 96 69 74 98 71 76 103 72 78 102 61 75 103 61 75 103 61 75 100 62 75 100 62 75 97 64 75 96 64 75 93 66 75 83 60 68 79 60 66 72 55 61 62 50 54 56 44 48 47 38 41 42 33 36 37 32 36 44 43 48 43 44 49 43 44 49 43 44 49 43 44 49 43 44 49 43 44 49 43 44 49 26 27 32 26 27 32
66 59 66 66 59 66 66 59 66 66 59 66 66 60 64 73 68 72 73 69 70 73 69 70 73 69 70 73 69 70 73 69 70 73 69 70 73 69 70 62 58 59 62 58 59 62 58 59 62 58 59 62 58 59 62 58 59 62 58 59 62 58 59 59 53 57 59 53 57 59 53 57 59 53 57 59 53 57 59 53 57 59 53 57 59 53 57 55 49 53 57 51 55 59 53 57 62 56 60 66 60 64 69 63 67 71 65 69 75 66 71 72 61 65 73 61 65 73 61 65 73 61 65 73 61 65 73 61 65 73 61 65 73 61 65 65 53 57 66 54 58 68 56 60 71 59 63 73 61 65 76 64 68 78 66 70 78 67 71 68 59 64 66 60 64 66 60 64 66 60 64 66 60 64 66 60 64 66 60 64 66 60 64 62 56 60 64 58 62 66 60 64 69 63 67 73 67 71 76 70 74 78 72 76 80 74 78 94 85 90 92 83 88 88 79 84 82 73 78 76 67 72 70 61 66 66 57 62 63 54 59 69 60 65 69 60 65 69 60 65 69 60 65 69 60 65 69 60 65 69 60 65 69 60 65 61 55 57 63 57 59 65 59 61 68 62 64 72 66 68 75 69 71 77 71 73 79 73 75 73 67 69 72 66 68 70 64 66 67 61 63 65 59 61 62 56 58 60 54 56 61 52 55 72 61 67 73 60 67 73 60 67 73 60 67 73 60 67 73 60 67 73 60 67 73 60 67 63 50 57 63 50 57 63 50 57 63 50 57 63 50 57 63 50 57 63 50 57 62 51 59 63 56 64 62 56 66 62 56 66 62 56 66 62 56 66 62 56 66 62 56 66 62 56 66 89 83 93 89 83 93 89 83 93 89 83 93 89 83 93 89 83 93 89 83 93 90 83 91 90 78 82 92 77 80 92 77 80 92 77 80 92 77 80 92 77 80 92 77 80 92 77 80 90 75 78 90 75 78 90 75 78 90 75 78 90 75 78 90 75 78 90 75 78 91 75 76 85 66 68 86 66 67 86 66 67 86 66 67 86 66 67 86 66 67 86 66 67 86 66 67 75 55 56 75 55 56 75 55 56 75 55 56 75 55 56 75 55 56 75 55 56 76 54 56 78 53 57 79 52 57 79 52 57 79 52 57 79 52 57 79 52 57 79 52 57 79 52 57 82 55 60 84 57 62 86 59 64 89 62 67 93 66 71 96 69 74 98 71 76 103 72 78 102 61 75 103 61 75 103 61 75 100 62 75 100 62 75 97 64 75 96 64 75 93 66 75 83 60 68 79 60 66 72 55 61 62 50 54 56 44 48 47 38 41 42 33 36 37 32 36 44 43 48 43 44 49 43 44 49 43 44 49 43 44 49 43 44 49 43 44 49 43 44 49 26 27 32 26 27 32
66 59 66 66 59 66 66 59 66 66 59 66 66 60 64 73 68 72 73 69 70 73 69 70 73 69 70 73 69 70 73 69 70 73 69 70 73 69 70 65 61 62 65 61 62 65 61 62 65 61 62 65 61 62 65 61 62 65 61 62 65 61 62 59 53 57 59 53 57 59 53 57 59 53 57 59 53 57 59 53 57 59 53 57 59 53 57 55 49 53 57 51 55 59 53 57 62 56 60 66 60 64 69 63 67 71 65 69 75 66 71 72 61 65 73 61 65 73 61 65 73 61 65 73 61 65 73 61 65 73 61 65 73 61 65 70 58 62 70 58 62 71 59 63 72 60 64 72 60 64 73 61 65 74 62 66 73 62 66 65 56 61 63 57 61 63 57 61 63 57 61 63 57 61 63 57 61 63 57 61 63 57 61 59 53 57 60 54 58 63 57 61 66 60 64 69 63 67 73 67 71 75 69 73 76 70 74 87 78 83 85 76 81 82 73 78 78 69 74 74 65 70 69 60 65 66 57 62 65 56 61 69 60 65 69 60 65 69 60 65 69 60 65 69 60 65 69 60 65 69 60 65 69 60 65 58 52 54 59 53 55 62 56 58 65 59 61 68 62 64 72 66 68 74 68 70 75 69 71 68 62 64 68 62 64 67 61 63 66 60 62 66 60 62 65 59 61 64 58 60 66 57 60 72 61 67 73 60 67 73 60 67 73 60 67 73 60 67 73 60 67 73 60 67 73 60 67 66 53 60 66 53 60 66 53 60 66 53 60 66 53 60 66 53 60 66 53 60 65 54 62 63 56 64 62 56 66 62 56 66 62 56 66 62 56 66 62 56 66 62 56 66 62 56 66 82 76 86 82 76 86 82 76 86 82 76 86 82 76 86 82 76 86 82 76 86 83 76 84 87 75 79 89 74 77 89 74 77 89 74 77 89 74 77 89 74 77 89 74 77 89 74 77 87 72 75 87 72 75 87 72 75 87 72 75 87 72 75 87 72 75 87 72 75 88 72 73 82 63 65 83 63 64 83 63 64 83 63 64 83 63 64 83 63 64 83 63 64 83 63 64 75 55 56 75 55 56 75 55 56 75 55 56 75 55 56 75 55 56 75 55 56 76 54 56 78 53 57 79 52 57 79 52 57 79 52 57 79 52 57 79 52 57 79 52 57 79 52 57 82 55 60 84 57 62 86 59 64 89 62 67 93 66 71 96 69 74 98 71 76 103 72 78 102 61 75 103 61 75 103 61 75 100 62 75 100 62 75 97 64 75 96 64 75 93 66 75 83 60 68 79 60 66 72 55 61 62 50 54 56 44 48 47 38 41 42 33 36 37 32 36 44 43 48 43 44 49 43 44 49 43 44 49 43 44 49 43 44 49 43 44 49 43 44 49 26 27 32 26 27 32
66 59 66 66 59 66 66 59 66 66 59 66 66 60 64 73 68 72 73 69 70 73 69 70 73 69 70 73 69 70 73 69 70 73 69 70 73 69 70 69 65 66 69 65 66 69 65 66 69 65 66 69 65 66 69 65 66 69 65 66 69 65 66 59 53 57 59 53 57 59 53 57 59 53 57 59 53 57 59 53 57 59 53 57 59 53 57 55 49 53 57 51 55 59 53 57 62 56 60 66 60 64 69 63 67 71 65 69 75 66 71 72 61 65 73 61 65 73 61 65 73 61 65 73 61 65 73 61 65 73 61 65 73 61 65 74 62 66 74 62 66 73 61 65 72 60 64 72 60 64 71 59 63 70 58 62 69 58 62 61 52 57 59 53 57 59 53 57 59 53 57 59 53 57 59 53 57 59 53 57 59 53 57 56 50 54 57 51 55 59 53 57 63 57 61 66 60 64 69 63 67 72 66 70 73 67 71 79 70 75 78 69 74 76 67 72 74 65 70 71 62 67 69 60 65 67 58 63 66 57 62 69 60 65 69 60 65 69 60 65 69 60 65 69 60 65 69 60 65 69 60 65 69 60 65 55 49 51 56 50 52 58 52 54 62 56 58 65 59 61 68 62 64 71 65 67 72 66 68 64 58 60 64 58 60 65 59 61 66 60 62 66 60 62 67 61 63 68 62 64 70 61 64 72 61 67 73 60 67 73 60 67 73 60 67 73 60 67 73 60 67 73 60 67 73 60 67 70 57 64 70 57 64 70 57 64 70 57 64 70 57 64 70 57 64 70 57 64 69 58 66 63 56 64 62 56 66 62 56 66 62 56 66 62 56 66 62 56 66 62 56 66 62 56 66 76 70 80 76 70 80 76 70 80 76 70 80 76 70 80 76 70 80 76 70 80 77 70 78 83 71 75 85 70 73 85 70 73 85 70 73 85 70 73 85 70 73 85 70 73 85 70 73 83 68 71 83 68 71 83 68 71 83 68 71 83 68 71 83 68 71 83 68 71 84 68 69 78 59 61 79 59 60 79 59 60 79 59 60 79 59 60 79 59 60 79 59 60 79 59 60 75 55 56 75 55 56 75 55 56 75 55 56 75 55 56 75 55 56 75 55 56 76 54 56 78 53 57 79 52 57 79 52 57 79 52 57 79 52 57 79 52 57 79 52 57 79 52 57 82 55 60 84 57 62 86 59 64 89 62 67 93 66 71 96 69 74 98 71 76 103 72 78 102 61 75 103 61 75 103 61 75 100 62 75 100 62 75 97 64 75 96 64 75 93 66 75 83 60 68 79 60 66 72 55 61 62 50 54 56 44 48 47 38 41 42 33 36 37 32 36 44 43 48 43 44 49 43 44 49 43 44 49 43 44 49 43 44 49 43 44 49 43 44 49 26 27 32 26 27 32
66 59 66 66 59 66 66 59 66 66 59 66 66 60 64 73 68 72 73 69 70 73 69 70 73 69 70 73 69 70 73 69 70 73 69 70 73 69 70 72 68 69 72 68 69 72 68 69 72 68 69 72 68 69 72 68 69 72 68 69 72 68 69 59 53 57 59 53 57 59 53 57 59 53 57 59 53 57 59 53 57 59 53 57 59 53 57 55 49 53 57 51 55 59 53 57 62 56 60 66 60 64 69 63 67 71 65 69 75 66 71 72 61 65 73 61 65 73 61 65 73 61 65 73 61 65 73 61 65 73 61 65 73 61 65 79 67 71 78 66 70 76 64 68 73 61 65 71 59 63 68 56 60 66 54 58 64 53 57 58 49 54 56 50 54 56 50 54 56 50 54 56 50 54 56 50 54 56 50 54 56 50 54 52 46 50 54 48 52 56 50 54 59 53 57 63 57 61 66 60 64 68 62 66 70 64 68 71 62 67 71 62 67 70 61 66 69 60 65 69 60 65 68 59 64 68 59 64 67 58 63 69 60 65 69 60 65 69 60 65 69 60 65 69 60 65 69 60 65 69 60 65 69 60 65 51 45 47 53 47 49 55 49 51 58 52 54 62 56 58 65 59 61 67 61 63 69 63 65 59 53 55 60 54 56 62 56 58 65 59 61 67 61 63 70 64 66 72 66 68 75 66 69 72 61 67 73 60 67 73 60 67 73 60 67 73 60 67 73 60 67 73 60 67 73 60 67 73 60 67 73 60 67 73 60 67 73 60 67 73 60 67 73 60 67 73 60 67 72 61 69 63 56 64 62 56 66 62 56 66 62 56 66 62 56 66 62 56 66 62 56 66 62 56 66 69 63 73 69 63 73 69 63 73 69 63 73 69 63 73 69 63 73 69 63 73 70 63 71 80 68 72 82 67 70 82 67 70 82 67 70 82 67 70 82 67 70 82 67 70 82 67 70 80 65 68 80 65 68 80 65 68 80 65 68 80 65 68 80 65 68 80 65 68 81 65 66 75 56 58 76 56 57 76 56 57 76 56 57 76 56 57 76 56 57 76 56 57 76 56 57 75 55 56 75 55 56 75 55 56 75 55 56 75 55 56 75 55 56 75 55 56 76 54 56 78 53 57 79 52 57 79 52 57 79 52 57 79 52 57 79 52 57 79 52 57 79 52 57 82 55 60 84 57 62 86 59 64 89 62 67 93 66 71 96 69 74 98 71 76 103 72 78 102 61 75 103 61 75 103 61 75 100 62 75 100 62 75 97 64 75 96 64 75 93 66 75 83 60 68 79 60 66 72 55 61 62 50 54 56 44 48 47 38 41 42 33 36 37 32 36 44 43 48 43 44 49 43 44 49 43 44 49 43 44 49 43 44 49 43 44 49 43 44 49 26 27 32 26 27 32
66 59 66 66 59 66 66 59 66 66 59 66 66 60 64 73 68 72 73 69 70 73 69 70 73 69 70 73 69 70 73 69 70 73 69 70 73 69 70 74 70 71 74 70 71 74 70 71 74 70 71 74 70 71 74 70 71 74 70 71 74 70 71 59 53 57 59 53 57 59 53 57 59 53 57 59 53 57 59 53 57 59 53 57 59 53 57 55 49 53 57 51 55 59 53 57 62 56 60 66 60 64 69 63 67 71 65 69 75 66 71 72 61 65 73 61 65 73 61 65 73 61 65 73 61 65 73 61 65 73 61 65 73 61 65 82 70 74 81 69 73 78 66 70 74 62 66 70 58 62 66 54 58 63 51 55 61 50 54 56 47 52 54 48 52 54 48 52 54 48 52 54 48 52 54 48 52 54 48 52 54 48 52 50 44 48 51 45 49 54 48 52 57 51 55 60 54 58 64 58 62 66 60 64 67 61 65 65 56 61 65 56 61 66 57 62 66 57 62 67 58 63 68 59 64 68 59 64 68 59 64 69 60 65 69 60 65 69 60 65 69 60 65 69 60 65 69 60 65 69 60 65 69 60 65 49 43 45 50 44 46 53 47 49 56 50 52 59 53 55 63 57 59 65 59 61 66 60 62 56 50 52 57 51 53 60 54 56 64 58 60 68 62 64 72 66 68 75 69 71 78 69 72 72 61 67 73 60 67 73 60 67 73 60 67 73 60 67 73 60 67 73 60 67 73 60 67 75 62 69 75 62 69 75 62 69 75 62 69 75 62 69 75 62 69 75 62 69 74 63 71 63 56 64 62 56 66 62 56 66 62 56 66 62 56 66 62 56 66 62 56 66 62 56 66 64 58 68 64 58 68 64 58 68 64 58 68 64 58 68 64 58 68 64 58 68 65 58 66 78 66 70 80 65 68 80 65 68 80 65 68 80 65 68 80 65 68 80 65 68 80 65 68 78 63 66 78 63 66 78 63 66 78 63 66 78 63 66 78 63 66 78 63 66 79 63 64 73 54 56 74 54 55 74 54 55 74 54 55 74 54 55 74 54 55 74 54 55 74 54 55 75 55 56 75 55 56 75 55 56 75 55 56 75 55 56 75 55 56 75 55 56 76 54 56 78 53 57 79 52 57 79 52 57 79 52 57 79 52 57 79 52 57 79 52 57 79 52 57 82 55 60 84 57 62 86 59 64 89 62 67 93 66 71 96 69 74 98 71 76 103 72 78 102 61 75 103 61 75 103 61 75 100 62 75 100 62 75 97 64 75 96 64 75 93 66 75 83 60 68 79 60 66 72 55 61 62 50 54 56 44 48 47 38 41 42 33 36 37 32 36 44 43 48 43 44 49 43 44 49 43 44 49 43 44 49 43 44 49 43 44 49 43 44 49 26 27 32 26 27 32
66 59 66 66 59 66 66 59 66 66 59 66 66 60 64 73 68 72 73 69 70 73 69 70 73 69 70 73 69 70 73 69 70 73 69 70 73 69 70 76 72 73 76 72 73 76 72 73 76 72 73 76 72 73 76 72 73 76 72 73 76 72 73 59 53 57 59 53 57 59 53 57 59 53 57 59 53 57 59 53 57 59 53 57 59 53 57 55 49 53 57 51 55 59 53 57 62 56 60 66 60 64 69 63 67 71 65 69 75 66 71 72 61 65 73 61 65 73 61 65 73 61 65 73 61 65 73 61 65 73 61 65 73 61 65 84 72 76 82 70 74 79 67 71 74 62 66 70 58 62 65 53 57 62 50 54 59 48 52 54 45 50 52 46 50 52 46 50 52 46 50 52 46 50 52 46 50 52 46 50 52 46 50 49 43 47 50 44 48 52 46 50 56 50 54 59 53 57 62 56 60 65 59 63 66 60 64 62 53 58 63 54 59 63 54 59 65 56 61 66 57 62 67 58 63 68 59 64 69 60 65 69 60 65 69 60 65 69 60 65 69 60 65 69 60 65 69 60 65 69 60 65 69 60 65 48 42 44 49 43 45 51 45 47 55 49 51 58 52 54 61 55 57 64 58 60 65 59 61 54 48 50 56 50 52 59 53 55 64 58 60 68 62 64 73 67 69 76 70 72 80 71 74 72 61 67 73 60 67 73 60 67 73 60 67 73 60 67 73 60 67 73 60 67 73 60 67 77 64 71 77 64 71 77 64 71 77 64 71 77 64 71 77 64 71 77 64 71 76 65 73 63 56 64 62 56 66 62 56 66 62 56 66 62 56 66 62 56 66 62 56 66 62 56 66 62 56 66 62 56 66 62 56 66 62 56 66 62 56 66 62 56 66 62 56 66 63 56 64 76 64 68 78 63 66 78 63 66 78 63 66 78 63 66 78 63 66 78 63 66 78 63 66 76 61 64 76 61 64 76 61 64 76 61 64 76 61 64 76 61 64 76 61 64 77 61 62 71 52 54 72 52 53 72 52 53 72 52 53 72 52 53 72 52 53 72 52 53 72 52 53 75 55 56 75 55 56 75 55 56 75 55 56 75 55 56 75 55 56 75 55 56 76 54 56 78 53 57 79 52 57 79 52 57 79 52 57 79 52 57 79 52 57 79 52 57 79 52 57 82 55 60 84 57 62 86 59 64 89 62 67 93 66 71 96 69 74 98 71 76 103 72 78 102 61 75 103 61 75 103 61 75 100 62 75 100 62 75 97 64 75 96 64 75 93 66 75 83 60 68 79 60 66 72 55 61 62 50 54 56 44 48 47 38 41 42 33 36 37 32 36 44 43 48 43 44 49 43 44 49 43 44 49 43 44 49 43 44 49 43 44 49 43 44 49 26 27 32 26 27 32
79 72 79 79 72 79 79 72 79 79 72 79 79 73 77 68 63 67 68 64 65 68 64 65 68 64 65 68 64 65 68 64 65 68 64 65 68 64 65 78 74 75 78 74 75 78 74 75 78 74 75 78 74 75 78 74 75 78 74 75 78 74 75 73 67 71 71 65 69 69 63 67 66 60 64 62 56 60 59 53 57 57 51 55 55 49 53 68 62 66 68 62 66 68 62 66 68 62 66 68 62 66 68 62 66 68 62 66 70 61 66 67 56 60 70 58 62 72 60 64 75 63 67 79 67 71 82 70 74 84 72 76 86 74 78 80 68 72 80 68 72 80 68 72 80 68 72 80 68 72 80 68 72 80 68 72 79 68 72 80 71 76 75 69 73 70 64 68 64 58 62 57 51 55 51 45 49 46 40 44 43 37 41 51 45 49 51 45 49 51 45 49 51 45 49 51 45 49 51 45 49 51 45 49 51 45 49 49 40 45 51 42 47 53 44 49 56 47 52 60 51 56 63 54 59 65 56 61 67 58 63 71 62 67 71 62 67 71 62 67 71 62 67 71 62 67 71 62 67 71 62 67 71 62 67 55 49 51 55 49 51 55 49 51 55 49 51 55 49 51 55 49 51 55 49 51 55 49 51 60 54 56 62 56 58 64 58 60 67 61 63 71 65 67 74 68 70 76 70 72 80 71 74 80 69 75 81 68 75 81 68 75 81 68 75 81 68 75 81 68 75 81 68 75 81 68 75 87 74 81 85 72 79 83 70 77 80 67 74 76 63 70 73 60 67 71 58 65 68 57 65 53 46 54 52 46 56 52 46 56 52 46 56 52 46 56 52 46 56 52 46 56 52 46 56 49 43 53 49 43 53 49 43 53 49 43 53 49 43 53 49 43 53 49 43 53 50 43 51 54 42 46 58 43 46 60 45 48 63 48 51 67 52 55 70 55 58 72 57 60 74 59 62 68 53 56 68 53 56 68 53 56 68 53 56 68 53 56 68 53 56 68 53 56 69 53 54 72 53 55 73 53 54 73 53 54 73 53 54 73 53 54 73 53 54 73 53 54 73 53 54 68 48 49 68 48 49 68 48 49 68 48 49 68 48 49 68 48 49 68 48 49 69 47 49 83 58 62 84 57 62 84 57 62 84 57 62 84 57 62 84 57 62 84 57 62 84 57 62 89 62 67 89 62 67 89 62 67 89 62 67 89 62 67 89 62 67 89 62 67 92 61 67 104 63 77 105 63 77 105 63 77 102 64 77 102 64 77 99 66 77 98 66 77 95 68 77 75 52 60 71 52 58 67 50 56 61 49 53 57 45 49 52 43 46 50 41 44 45 40 44 43 42 47 42 43 48 42 43 48 42 43 48 42 43 48 42 43 48 42 43 48 42 43 48 27 28 33 27 28 33
81 74 81 81 74 81 81 74 81 81 74 81 81 75 79 70 65 69 70 66 67 70 66 67 70 66 67 70 66 67 70 66 67 70 66 67 70 66 67 78 74 75 78 74 75 78 74 75 78 74 75 78 74 75 78 74 75 78 74 75 78 74 75 73 67 71 71 65 69 69 63 67 66 60 64 62 56 60 59 53 57 57 51 55 55 49 53 68 62 66 68 62 66 68 62 66 68 62 66 68 62 66 68 62 66 68 62 66 70 61 66 67 56 60 70 58 62 72 60 64 75 63 67 79 67 71 82 70 74 84 72 76 86 74 78 82 70 74 82 70 74 82 70 74 82 70 74 82 70 74 82 70 74 82 70 74 81 70 74 81 72 77 76 70 74 71 65 69 65 59 63 58 52 56 52 46 50 47 41 45 44 38 42 51 45 49 51 45 49 51 45 49 51 45 49 51 45 49 51 45 49 51 45 49 51 45 49 49 40 45 51 42 47 53 44 49 56 47 52 60 51 56 63 54 59 65 56 61 67 58 63 71 62 67 71 62 67 71 62 67 71 62 67 71 62 67 71 62 67 71 62 67 71 62 67 55 49 51 55 49 51 55 49 51 55 49 51 55 49 51 55 49 51 55 49 51 55 49 51 60 54 56 62 56 58 64 58 60 67 61 63 71 65 67 74 68 70 76 70 72 80 71 74 80 69 75 81 68 75 81 68 75 81 68 75 81 68 75 81 68 75 81 68 75 81 68 75 87 74 81 85 72 79 83 70 77 80 67 74 76 63 70 73 60 67 71 58 65 68 57 65 53 46 54 52 46 56 52 46 56 52 46 56 52 46 56 52 46 56 52 46 56 52 46 56 49 43 53 49 43 53 49 43 53 49 43 53 49 43 53 49 43 53 49 43 53 50 43 51 54 42 46 58 43 46 60 45 48 63 48 51 67 52 55 70 55 58 72 57 60 74 59 62 68 53 56 68 53 56 68 53 56 68 53 56 68 53 56 68 53 56 68 53 56 69 53 54 72 53 55 73 53 54 73 53 54 73 53 54 73 53 54 73 53 54 73 53 54 73 53 54 70 50 51 70 50 51 70 50 51 70 50 51 70 50 51 70 50 51 70 50 51 71 49 51 83 58 62 84 57 62 84 57 62 84 57 62 84 57 62 84 57 62 84 57 62 84 57 62 89 62 67 89 62 67 89 62 67 89 62 67 89 62 67 89 62 67 89 62 67 92 61 67 104 63 77 105 63 77 105 63 77 102 64 77 102 64 77 99 66 77 98 66 77 95 68 77 75 52 60 71 52 58 67 50 56 61 49 53 57 45 49 52 43 46 50 41 44 45 40 44 43 42 47 42 43 48 42 43 48 42 43 48 42 43 48 42 43 48 42 43 48 42 43 48 27 28 33 27 28 33
83 76 83 83 76 83 83 76 83 83 76 83 83 77 81 72 67 71 72 68 69 72 68 69 72 68 69 72 68 69 72 68 69 72 68 69 72 68 69 78 74 75 78 74 75 78 74 75 78 74 75 78 74 75 78 74 75 78 74 75 78 74 75 73 67 71 71 65 69 69 63 67 66 60 64 62 56 60 59 53 57 57 51 55 55 49 53 68 62 66 68 62 66 68 62 66 68 62 66 68 62 66 68 62 66 68 62 66 70 61 66 67 56 60 70 58 62 72 60 64 75 63 67 79 67 71 82 70 74 84 72 76 86 74 78 84 72 76 84 72 76 84 72 76 84 72 76 84 72 76 84 72 76 84 72 76 83 72 76 83 74 79 79 73 77 74 68 72 68 62 66 61 55 59 54 48 52 49 43 47 47 41 45 51 45 49 51 45 49 51 45 49 51 45 49 51 45 49 51 45 49 51 45 49 51 45 49 49 40 45 51 42 47 53 44 49 56 47 52 60 51 56 63 54 59 65 56 61 67 58 63 71 62 67 71 62 67 71 62 67 71 62 67 71 62 67 71 62 67 71 62 67 71 62 67 55 49 51 55 49 51 55 49 51 55 49 51 55 49 51 55 49 51 55 49 51 55 49 51 60 54 56 62 56 58 64 58 60 67 61 63 71 65 67 74 68 70 76 70 72 80 71 74 80 69 75 81 68 75 81 68 75 81 68 75 81 68 75 81 68 75 81 68 75 81 68 75 87 74 81 85 72 79 83 70 77 80 67 74 76 63 70 73 60 67 71 58 65 68 57 65 53 46 54 52 46 56 52 46 56 52 46 56 52 46 56 52 46 56 52 46 56 52 46 56 49 43 53 49 43 53 49 43 53 49 43 53 49 43 53 49 43 53 49 43 53 50 43 51 54 42 46 58 43 46 60 45 48 63 48 51 67 52 55 70 55 58 72 57 60 74 59 62 68 53 56 68 53 56 68 53 56 68 53 56 68 53 56 68 53 56 68 53 56 69 53 54 72 53 55 73 53 54 73 53 54 73 53 54 73 53 54 73 53 54 73 53 54 73 53 54 72 52 53 72 52 53 72 52 53 72 52 53 72 52 53 72 52 53 72 52 53 73 51 53 83 58 62 84 57 62 84 57 62 84 57 62 84 57 62 84 57 62 84 57 62 84 57 62 89 62 67 89 62 67 89 62 67 89 62 67 89 62 67 89 62 67 89 62 67 92 61 67 104 63 77 105 63 77 105 63 77 102 64 77 102 64 77 99 66 77 98 66 77 95 68 77 75 52 60 71 52 58 67 50 56 61 49 53 57 45 49 52 43 46 50 41 44 45 40 44 43 42 47 42 43 48 42 43 48 42 43 48 42 43 48 42 43 48 42 43 48 42 43 48 27 28 33 27 28 33
86 79 86 86 79 86 86 79 86 86 79 86 86 80 84 75 70 74 75 71 72 75 71 72 75 71 72 75 71 72 75 71 72 75 71 72 75 71 72 78 74 75 78 74 75 78 74 75 78 74 75 78 74 75 78 74 75 78 74 75 78 74 75 73 67 71 71 65 69 69 63 67 66 60 64 62 56 60 59 53 57 57 51 55 55 49 53 68 62 66 68 62 66 68 62 66 68 62 66 68 62 66 68 62 66 68 62 66 70 61 66 67 56 60 70 58 62 72 60 64 75 63 67 79 67 71 82 70 74 84 72 76 86 74 78 87 75 79 87 75 79 87 75 79 87 75 79 87 75 79 87 75 79 87 75 79 86 75 79 87 78 83 82 76 80 77 71 75 71 65 69 64 58 62 57 51 55 53 47 51 50 44 48 51 45 49 51 45 49 51 45 49 51 45 49 51 45 49 51 45 49 51 45 49 51 45 49 49 40 45 51 42 47 53 44 49 56 47 52 60 51 56 63 54 59 65 56 61 67 58 63 71 62 67 71 62 67 71 62 67 71 62 67 71 62 67 71 62 67 71 62 67 71 62 67 55 49 51 55 49 51 55 49 51 55 49 51 55 49 51 55 49 51 55 49 51 55 49 51 60 54 56 62 56 58 64 58 60 67 61 63 71 65 67 74 68 70 76 70 72 80 71 74 80 69 75 81 68 75 81 68 75 81 68 75 81 68 75 81 68 75 81 68 75 81 68 75 87 74 81 85 72 79 83 70 77 80 67 74 76 63 70 73 60 67 71 58 65 68 57 65 53 46 54 52 46 56 52 46 56 52 46 56 52 46 56 52 46 56 52 46 56 52 46 56 49 43 53 49 43 53 49 43 53 49 43 53 49 43 53 49 43 53 49 43 53 50 43 51 54 42 46 58 43 46 60 45 48 63 48 51 67 52 55 70 55 58 72 57 60 74 59 62 68 53 56 68 53 56 68 53 56 68 53 56 68 53 56 68 53 56 68 53 56 69 53 54 72 53 55 73 53 54 73 53 54 73 53 54 73 53 54 73 53 54 73 53 54 73 53 54 75 55 56 75 55 56 75 55 56 75 55 56 75 55 56 75 55 56 75 55 56 76 54 56 83 58 62 84 57 62 84 57 62 84 57 62 84 57 62 84 57 62 84 57 62 84 57 62 89 62 67 89 62 67 89 62 67 89 62 67 89 62 67 89 62 67 89 62 67 92 61 67 104 63 77 105 63 77 105 63 77 102 64 77 102 64 77 99 66 77 98 66 77 95 68 77 75 52 60 71 52 58 67 50 56 61 49 53 57 45 49 52 43 46 50 41 44 45 40 44 43 42 47 42 43 48 42 43 48 42 43 48 42 43 48 42 43 48 42 43 48 42 43 48 27 28 33 27 28 33
90 83 90 90 83 90 90 83 90 90 83 90 90 84 88 79 74 78 79 75 76 79 75 76 79 75 76 79 75 76 79 75 76 79 75 76 79 75 76 78 74 75 78 74 75 78 74 75 78 74 75 78 74 75 78 74 75 78 74 75 78 74 75 73 67 71 71 65 69 69 63 67 66 60 64 62 56 60 59 53 57 57 51 55 55 49 53 68 62 66 68 62 66 68 62 66 68 62 66 68 62 66 68 62 66 68 62 66 70 61 66 67 56 60 70 58 62 72 60 64 75 63 67 79 67 71 82 70 74 84 72 76 86 74 78 91 79 83 91 79 83 91 79 83 91 79 83 91 79 83 91 79 83 91 79 83 90 79 83 90 81 86 85 79 83 81 75 79 74 68 72 67 61 65 61 55 59 56 50 54 53 47 51 51 45 49 51 45 49 51 45 49 51 45 49 51 45 49 51 45 49 51 45 49 51 45 49 49 40 45 51 42 47 53 44 49 56 47 52 60 51 56 63 54 59 65 56 61 67 58 63 71 62 67 71 62 67 71 62 67 71 62 67 71 62 67 71 62 67 71 62 67 71 62 67 55 49 51 55 49 51 55 49 51 55 49 51 55 49 51 55 49 51 55 49 51 55 49 51 60 54 56 62 56 58 64 58 60 67 61 63 71 65 67 74 68 70 76 70 72 80 71 74 80 69 75 81 68 75 81 68 75 81 68 75 81 68 75 81 68 75 81 68 75 81 68 75 87 74 81 85 72 79 83 70 77 80 67 74 76 63 70 73 60 67 71 58 65 68 57 65 53 46 54 52 46 56 52 46 56 52 46 56 52 46 56 52 46 56 52 46 56 52 46 56 49 43 53 49 43 53 49 43 53 49 43 53 49 43 53 49 43 53 49 43 53 50 43 51 54 42 46 58 43 46 60 45 48 63 48 51 67 52 55 70 55 58 72 57 60 74 59 62 68 53 56 68 53 56 68 53 56 68 53 56 68 53 56 68 53 56 68 53 56 69 53 54 72 53 55 73 53 54 73 53 54 73 53 54 73 53 54 73 53 54 73 53 54 73 53 54 79 59 60 79 59 60 79 59 60 79 59 60 79 59 60 79 59 60 79 59 60 80 58 60 83 58 62 84 57 62 84 57 62 84 57 62 84 57 62 84 57 62 84 57 62 84 57 62 89 62 67 89 62 67 89 62 67 89 62 67 89 62 67 89 62 67 89 62 67 92 61 67 104 63 77 105 63 77 105 63 77 102 64 77 102 64 77 99 66 77 98 66 77 95 68 77 75 52 60 71 52 58 67 50 56 61 49 53 57 45 49 52 43 46 50 41 44 45 40 44 43 42 47 42 43 48 42 43 48 42 43 48 42 43 48 42 43 48 42 43 48 42 43 48 27 28 33 27 28 33
93 86 93 93 86 93 93 86 93 93 86 93 93 87 91 82 77 81 82 78 79 82 78 79 82 78 79 82 78 79 82 78 79 82 78 79 82 78 79 78 74 75 78 74 75 78 74 75 78 74 75 78 74 75 78 74 75 78 74 75 78 74 75 73 67 71 71 65 69 69 63 67 66 60 64 62 56 60 59 53 57 57 51 55 55 49 53 68 62 66 68 62 66 68 62 66 68 62 66 68 62 66 68 62 66 68 62 66 70 61 66 67 56 60 70 58 62 72 60 64 75 63 67 79 67 71 82 70 74 84 72 76 86 74 78 94 82 86 94 82 86 94 82 86 94 82 86 94 82 86 94 82 86 94 82 86 93 82 86 93 84 89 89 83 87 84 78 82 77 71 75 70 64 68 64 58 62 59 53 57 57 51 55 51 45 49 51 45 49 51 45 49 51 45 49 51 45 49 51 45 49 51 45 49 51 45 49 49 40 45 51 42 47 53 44 49 56 47 52 60 51 56 63 54 59 65 56 61 67 58 63 71 62 67 71 62 67 71 62 67 71 62 67 71 62 67 71 62 67 71 62 67 71 62 67 55 49 51 55 49 51 55 49 51 55 49 51 55 49 51 55 49 51 55 49 51 55 49 51 60 54 56 62 56 58 64 58 60 67 61 63 71 65 67 74 68 70 76 70 72 80 71 74 80 69 75 81 68 75 81 68 75 81 68 75 81 68 75 81 68 75 81 68 75 81 68 75 87 74 81 85 72 79 83 70 77 80 67 74 76 63 70 73 60 67 71 58 65 68 57 65 53 46 54 52 46 56 52 46 56 52 46 56 52 46 56 52 46 56 52 46 56 52 46 56 49 43 53 49 43 53 49 43 53 49 43 53 49 43 53 49 43 53 49 43 53 50 43 51 54 42 46 58 43 46 60 45 48 63 48 51 67 52 55 70 55 58 72 57 60 74 59 62 68 53 56 68 53 56 68 53 56 68 53 56 68 53 56 68 53 56 68 53 56 69 53 54 72 53 55 73 53 54 73 53 54 73 53 54 73 53 54 73 53 54 73 53 54 73 53 54 82 62 63 82 62 63 82 62 63 82 62 63 82 62 63 82 62 63 82 62 63 83 61 63 83 58 62 84 57 62 84 57 62 84 57 62 84 57 62 84 57 62 84 57 62 84 57 62 89 62 67 89 62 67 89 62 67 89 62 67 89 62 67 89 62 67 89 62 67 92 61 67 104 63 77 105 63 77 105 63 77 102 64 77 102 64 77 99 66 77 98 66 77 95 68 77 75 52 60 71 52 58 67 50 56 61 49 53 57 45 49 52 43 46 50 41 44 45 40 44 43 42 47 42 43 48 42 43 48 42 43 48 42 43 48 42 43 48 42 43 48 42 43 48 27 28 33 27 28 33
95 88 95 95 88 95 95 88 95 95 88 95 95 89 93 84 79 83 84 80 81 84 80 81 84 80 81 84 80 81 84 80 81 84 80 81 84 80 81 78 74 75 78 74 75 78 74 75 78 74 75 78 74 75 78 74 75 78 74 75 78 74 75 73 67 71 71 65 69 69 63 67 66 60 64 62 56 60 59 53 57 57 51 55 55 49 53 68 62 66 68 62 66 68 62 66 68 62 66 68 62 66 68 62 66 68 62 66 70 61 66 67 56 60 70 58 62 72 60 64 75 63 67 79 67 71 82 70 74 84 72 76 86 74 78 96 84 88 96 84 88 96 84 88 96 84 88 96 84 88 96 84 88 96 84 88 95 84 88 96 87 92 91 85 89 86 80 84 80 74 78 73 67 71 67 61 65 62 56 60 59 53 57 51 45 49 51 45 49 51 45 49 51 45 49 51 45 49 51 45 49 51 45 49 51 45 49 49 40 45 51 42 47 53 44 49 56 47 52 60 51 56 63 54 59 65 56 61 67 58 63 71 62 67 71 62 67 71 62 67 71 62 67 71 62 67 71 62 67 71 62 67 71 62 67 55 49 51 55 49 51 55 49 51 55 49 51 55 49 51 55 49 51 55 49 51 55 49 51 60 54 56 62 56 58 64 58 60 67 61 63 71 65 67 74 68 70 76 70 72 80 71 74 80 69 75 81 68 75 81 68 75 81 68 75 81 68 75 81 68 75 81 68 75 81 68 75 87 74 81 85 72 79 83 70 77 80 67 74 76 63 70 73 60 67 71 58 65 68 57 65 53 46 54 52 46 56 52 46 56 52 46 56 52 46 56 52 46 56 52 46 56 52 46 56 49 43 53 49 43 53 49 43 53 49 43 53 49 43 53 49 43 53 49 43 53 50 43 51 54 42 46 58 43 46 60 45 48 63 48 51 67 52 55 70 55 58 72 57 60 74 59 62 68 53 56 68 53 56 68 53 56 68 53 56 68 53 56 68 53 56 68 53 56 69 53 54 72 53 55 73 53 54 73 53 54 73 53 54 73 53 54 73 53 54 73 53 54 73 53 54 84 64 65 84 64 65 84 64 65 84 64 65 84 64 65 84 64 65 84 64 65 85 63 65 83 58 62 84 57 62 84 57 62 84 57 62 84 57 62 84 57 62 84 57 62 84 57 62 89 62 67 89 62 67 89 62 67 89 62 67 89 62 67 89 62 67 89 62 67 92 61 67 104 63 77 105 63 77 105 63 77 102 64 77 102 64 77 99 66 77 98 66 77 95 68 77 75 52 60 71 52 58 67 50 56 61 49 53 57 45 49 52 43 46 50 41 44 45 40 44 43 42 47 42 43 48 42 43 48 42 43 48 42 43 48 42 43 48 42 43 48 42 43 48 27 28 33 27 28 33
96 91 95 96 91 95 96 91 95 96 91 95 96 91 95 84 82 83 84 83 81 84 82 83 84 83 81 84 82 83 84 83 81 84 82 83 84 83 81 76 74 75 76 75 73 76 74 75 76 75 73 76 74 75 76 75 73 76 74 75 78 74 75 73 67 71 71 64 71 69 62 69 66 59 66 62 55 62 59 52 59 57 50 57 55 48 55 68 61 68 68 61 68 68 61 68 68 61 68 68 61 68 68 61 68 68 61 68 70 60 68 67 56 62 69 58 64 71 60 66 74 63 69 78 67 73 81 70 76 83 72 78 85 74 80 97 86 92 97 86 92 97 86 92 97 86 92 97 86 92 97 86 92 97 86 92 97 86 92 95 89 93 92 86 90 87 81 85 81 75 79 74 68 72 68 62 66 63 57 61 60 54 58 51 45 49 51 45 49 51 45 49 51 45 49 51 45 49 51 45 49 51 45 49 51 45 49 49 40 45 51 42 47 53 44 49 56 47 52 60 51 56 63 54 59 65 56 61 67 58 63 71 62 67 71 62 67 71 62 67 71 62 67 71 62 67 71 62 67 71 62 67 71 62 67 57 48 53 55 49 51 57 48 53 55 49 51 57 48 53 55 49 51 57 48 53 55 49 51 62 53 58 62 56 58 66 57 62 67 61 63 73 64 69 74 68 70 78 69 74 80 71 76 80 69 75 80 69 75 81 68 75 80 69 75 81 68 75 80 69 75 81 68 75 80 69 75 87 74 81 84 73 79 83 70 77 79 68 74 76 63 70 72 61 67 71 58 65 68 57 65 53 46 54 52 46 56 52 46 56 52 46 56 52 46 56 52 46 56 52 46 56 52 46 56 49 43 53 49 43 53 49 43 53 49 43 53 49 43 53 49 43 53 49 43 53 50 43 51 53 42 48 56 44 46 58 46 50 61 49 51 65 53 57 68 56 58 70 58 62 72 60 62 66 54 58 66 54 56 66 54 58 66 54 56 66 54 58 66 54 56 66 54 58 68 53 56 70 54 55 72 54 54 72 53 55 72 54 54 72 53 55 72 54 54 72 53 55 72 54 54 85 66 68 85 67 67 85 66 68 85 67 67 85 66 68 85 67 67 85 66 68 86 66 68 81 59 62 83 58 62 83 58 62 83 58 62 83 58 62 83 58 62 83 58 62 83 58 62 88 63 67 88 63 67 88 63 67 88 63 67 88 63 67 88 63 67 88 63 67 89 62 69 99 66 77 101 65 77 101 65 77 99 66 77 98 66 77 97 67 77 95 68 77 94 68 77 74 53 60 71 52 58 67 50 56 63 48 53 57 45 49 53 42 46 51 40 44 46 40 44 43 42 48 42 43 48 42 43 48 42 43 48 42 43 48 42 43 48 42 43 48 42 43 48 27 28 33 27 28 33
95 95 95 95 95 95 95 95 95 95 95 95 95 95 93 84 84 82 84 85 80 84 84 82 84 85 80 84 84 82 84 85 80 84 84 82 84 85 80 75 75 73 75 76 71 75 75 73 75 76 71 75 75 73 75 76 71 75 75 73 76 74 75 70 63 71 72 62 73 72 62 73 72 62 73 72 62 73 72 62 73 72 62 73 72 62 73 73 63 74 73 63 74 73 63 74 73 63 74 73 63 74 73 63 74 73 63 74 73 63 74 71 61 70 73 63 71 75 65 73 78 68 76 82 72 80 85 75 83 87 77 85 89 79 87 95 85 93 95 85 93 95 85 93 95 85 93 95 85 93 95 85 93 95 85 93 93 86 93 88 81 88 87 82 88 87 82 88 87 82 88 87 82 88 87 82 88 87 82 88 87 82 88 67 62 68 65 60 66 63 58 64 60 55 61 56 51 57 53 48 54 51 46 52 49 44 50 59 52 59 61 54 61 63 56 63 66 59 66 70 63 70 73 66 73 75 68 75 77 70 77 82 75 82 81 74 81 79 72 79 75 68 75 72 65 72 69 62 69 66 59 66 67 57 65 62 52 60 62 53 58 63 52 60 62 53 58 63 52 60 62 53 58 63 52 60 62 53 58 78 67 75 77 68 73 78 67 75 77 68 73 78 67 75 77 68 73 78 67 75 77 67 75 85 74 82 84 74 82 85 74 82 84 74 82 85 74 82 84 74 82 85 74 82 84 74 82 84 73 81 83 73 81 84 73 81 83 73 81 84 73 81 83 73 81 84 73 81 83 73 81 58 53 60 56 53 62 56 53 62 56 53 62 56 53 62 56 53 62 56 53 62 56 53 62 50 47 56 50 47 56 50 47 56 50 47 56 50 47 56 50 47 56 50 47 56 52 47 54 72 63 68 73 62 66 73 62 68 73 62 66 73 62 68 73 62 66 73 62 68 73 62 66 64 53 59 64 53 57 64 53 59 64 53 57 64 53 59 64 53 57 64 53 59 64 53 57 75 63 65 77 63 63 77 62 65 77 63 63 77 62 65 77 63 63 77 62 65 77 63 63 83 68 71 83 69 69 83 68 71 83 69 69 83 68 71 83 69 69 83 68 71 84 68 69 76 57 59 76 57 59 76 57 59 76 57 59 76 57 59 76 57 59 76 57 59 76 57 59 84 65 67 84 65 67 84 65 67 84 65 67 84 65 67 84 65 67 84 65 67 85 64 69 84 61 69 84 61 71 84 61 71 84 61 71 83 62 71 83 62 71 83 62 71 82 62 71 68 48 57 64 47 55 62 45 53 59 42 50 54 39 46 51 36 43 49 34 41 44 33 39 53 52 58 48 51 58 46 49 56 43 46 53 39 42 49 36 39 46 34 37 44 32 35 42 26 29 36 26 29 36
92 94 91 92 94 93 92 94 91 92 94 93 92 94 91 81 83 80 81 83 78 81 83 80 81 83 78 81 83 80 81 83 78 81 83 80 81 83 78 74 76 73 74 76 71 74 76 73 74 76 71 74 76 73 74 76 71 74 76 73 75 75 75 70 63 71 72 61 75 72 61 75 72 61 75 72 61 75 72 61 75 72 61 75 72 61 75 73 62 76 73 62 76 73 62 76 73 62 76 73 62 76 73 62 76 73 62 76 73 63 74 69 61 72 71 64 72 73 66 74 76 69 77 80 73 81 83 76 84 85 78 86 87 80 88 93 86 94 93 86 94 93 86 94 93 86 94 93 86 94 93 86 94 93 86 94 93 86 94 87 82 88 87 82 88 87 82 88 87 82 88 87 82 88 87 82 88 87 82 88 87 82 88 67 62 68 65 60 66 63 58 64 60 55 61 56 51 57 53 48 54 51 46 52 49 44 50 59 52 59 61 54 61 63 56 63 66 59 66 70 63 70 73 66 73 75 68 75 77 70 77 81 74 81 80 73 80 77 70 77 74 67 74 71 64 71 67 60 67 65 58 65 64 57 64 63 52 60 63 52 60 63 52 60 63 52 60 63 52 60 63 52 60 63 52 60 63 52 60 78 67 75 78 67 75 78 67 75 78 67 75 78 67 75 78 67 75 78 67 75 78 67 75 84 74 82 84 74 82 84 74 82 84 74 82 84 74 82 84 74 82 84 74 82 84 74 82 83 73 81 83 73 81 83 73 81 83 73 81 83 73 81 83 73 81 83 73 81 81 74 81 60 54 64 58 55 64 58 55 64 58 55 64 58 55 64 58 55 64 58 55 64 58 55 64 52 49 58 52 49 58 52 49 58 52 49 58 52 49 58 52 49 58 52 49 58 54 49 56 70 63 70 72 63 68 72 63 68 72 63 68 72 63 68 72 63 68 72 63 68 72 63 68 63 54 59 63 54 59 63 54 59 63 54 59 63 54 59 63 54 59 63 54 59 63 54 57 75 63 67 75 63 65 75 63 65 75 63 65 75 63 65 75 63 65 75 63 65 75 63 65 81 69 71 81 69 71 81 69 71 81 69 71 81 69 71 81 69 71 81 69 71 81 69 71 76 60 61 76 60 61 76 60 61 76 60 61 76 60 61 76 60 61 76 60 61 76 60 61 82 66 67 82 66 67 82 66 67 82 66 67 82 66 67 82 66 67 82 66 67 82 66 69 80 63 69 80 63 71 80 63 71 80 63 71 80 63 71 80 63 71 80 63 71 80 63 71 66 49 57 64 47 55 62 45 53 59 42 50 55 38 46 52 35 43 50 33 41 44 33 41 54 51 58 48 51 58 46 49 56 43 46 53 39 42 49 36 39 46 34 37 44 32 35 42 26 29 36 26 29 36
90 92 91 90 91 93 90 92 91 90 91 93 90 92 91 79 81 80 79 81 78 79 81 80 79 81 78 79 81 80 79 81 78 79 81 80 79 81 78 74 76 75 74 76 73 74 76 75 74 76 73 74 76 75 74 76 73 74 76 75 75 75 77 70 62 73 72 61 75 72 61 75 72 61 75 72 61 75 72 61 75 72 61 75 72 61 75 73 62 76 73 62 76 73 62 76 73 62 76 73 62 76 73 62 76 73 62 76 73 63 74 69 61 72 71 64 72 73 66 74 76 69 77 80 73 81 83 76 84 85 78 86 87 80 88 93 86 94 93 86 94 93 86 94 93 86 94 93 86 94 93 86 94 93 86 94 93 86 94 87 82 88 87 82 88 87 82 88 87 82 88 87 82 88 87 82 88 87 82 88 87 82 88 67 62 68 65 60 66 63 58 64 60 55 61 56 51 57 53 48 54 51 46 52 49 44 50 59 52 59 61 54 61 63 56 63 66 59 66 70 63 70 73 66 73 75 68 75 77 70 77 79 72 79 77 70 77 75 68 75 72 65 72 68 61 68 65 58 65 63 56 63 61 54 61 63 52 60 63 52 60 63 52 60 63 52 60 63 52 60 63 52 60 63 52 60 63 52 60 78 67 75 78 67 75 78 67 75 78 67 75 78 67 75 78 67 75 78 67 75 78 67 75 84 74 82 84 74 82 84 74 82 84 74 82 84 74 82 84 74 82 84 74 82 84 74 82 83 73 81 83 73 81 83 73 81 83 73 81 83 73 81 83 73 81 83 73 81 81 74 81 62 56 66 60 57 66 60 57 66 60 57 66 60 57 66 60 57 66 60 57 66 60 57 66 54 51 60 54 51 60 54 51 60 54 51 60 54 51 60 54 51 60 54 51 60 56 51 58 70 63 70 72 63 68 72 63 68 72 63 68 72 63 68 72 63 68 72 63 68 72 63 68 63 54 59 63 54 59 63 54 59 63 54 59 63 54 59 63 54 59 63 54 59 63 54 57 75 63 67 75 63 65 75 63 65 75 63 65 75 63 65 75 63 65 75 63 65 75 63 65 81 69 71 81 69 71 81 69 71 81 69 71 81 69 71 81 69 71 81 69 71 81 69 71 78 62 63 78 62 63 78 62 63 78 62 63 78 62 63 78 62 63 78 62 63 78 62 63 82 66 67 82 66 67 82 66 67 82 66 67 82 66 67 82 66 67 82 66 67 82 66 69 80 63 69 80 63 71 80 63 71 80 63 71 80 63 71 80 63 71 80 63 71 80 63 71 66 49 57 64 47 55 62 45 53 59 42 50 55 38 46 52 35 43 50 33 41 44 33 41 54 51 58 48 51 58 46 49 56 43 46 53 39 42 49 36 39 46 34 37 44 32 35 42 26 29 36 26 29 36
87 88 90 87 88 92 87 88 90 87 88 92 87 88 90 76 77 79 76 78 77 76 77 79 76 78 77 76 77 79 76 78 77 76 77 79 76 78 77 74 75 77 74 76 75 74 75 77 74 76 75 74 75 77 74 76 75 74 75 77 75 74 79 70 62 73 72 61 75 72 61 75 72 61 75 72 61 75 72 61 75 72 61 75 72 61 75 73 62 76 73 62 76 73 62 76 73 62 76 73 62 76 73 62 76 73 62 76 73 63 74 69 61 72 71 64 72 73 66 74 76 69 77 80 73 81 83 76 84 85 78 86 87 80 88 93 86 94 93 86 94 93 86 94 93 86 94 93 86 94 93 86 94 93 86 94 93 86 94 87 82 88 87 82 88 87 82 88 87 82 88 87 82 88 87 82 88 87 82 88 87 82 88 67 62 68 65 60 66 63 58 64 60 55 61 56 51 57 53 48 54 51 46 52 49 44 50 59 52 59 61 54 61 63 56 63 66 59 66 70 63 70 73 66 73 75 68 75 77 70 77 75 68 75 74 67 74 72 65 72 68 61 68 65 58 65 62 55 62 59 52 59 58 51 58 63 52 60 63 52 60 63 52 60 63 52 60 63 52 60 63 52 60 63 52 60 63 52 60 78 67 75 78 67 75 78 67 75 78 67 75 78 67 75 78 67 75 78 67 75 78 67 75 84 74 82 84 74 82 84 74 82 84 74 82 84 74 82 84 74 82 84 74 82 84 74 82 83 73 81 83 73 81 83 73 81 83 73 81 83 73 81 83 73 81 83 73 81 81 74 81 65 59 69 63 60 69 63 60 69 63 60 69 63 60 69 63 60 69 63 60 69 63 60 69 57 54 63 57 54 63 57 54 63 57 54 63 57 54 63 57 54 63 57 54 63 59 54 61 70 63 70 72 63 68 72 63 68 72 63 68 72 63 68 72 63 68 72 63 68 72 63 68 63 54 59 63 54 59 63 54 59 63 54 59 63 54 59 63 54 59 63 54 59 63 54 57 75 63 67 75 63 65 75 63 65 75 63 65 75 63 65 75 63 65 75 63 65 75 63 65 81 69 71 81 69 71 81 69 71 81 69 71 81 69 71 81 69 71 81 69 71 81 69 71 81 65 66 81 65 66 81 65 66 81 65 66 81 65 66 81 65 66 81 65 66 81 65 66 82 66 67 82 66 67 82 66 67 82 66 67 82 66 67 82 66 67 82 66 67 82 66 69 80 63 69 80 63 71 80 63 71 80 63 71 80 63 71 80 63 71 80 63 71 80 63 71 66 49 57 64 47 55 62 45 53 59 42 50 55 38 46 52 35 43 50 33 41 44 33 41 54 51 58 48 51 58 46 49 56 43 46 53 39 42 49 36 39 46 34 37 44 32 35 42 26 29 36 26 29 36
83 84 88 83 84 89 83 84 88 83 84 89 83 84 88 72 73 77 72 73 75 72 73 77 72 73 75 72 73 77 72 73 75 72 73 77 72 73 75 74 75 79 74 75 77 74 75 79 74 75 77 74 75 79 74 75 77 74 75 79 75 74 79 70 62 73 72 61 75 72 61 75 72 61 75 72 61 75 72 61 75 72 61 75 72 61 75 73 62 76 73 62 76 73 62 76 73 62 76 73 62 76 73 62 76 73 62 76 73 63 74 69 61 72 71 64 72 73 66 74 76 69 77 80 73 81 83 76 84 85 78 86 87 80 88 93 86 94 93 86 94 93 86 94 93 86 94 93 86 94 93 86 94 93 86 94 93 86 94 87 82 88 87 82 88 87 82 88 87 82 88 87 82 88 87 82 88 87 82 88 87 82 88 67 62 68 65 60 66 63 58 64 60 55 61 56 51 57 53 48 54 51 46 52 49 44 50 59 52 59 61 54 61 63 56 63 66 59 66 70 63 70 73 66 73 75 68 75 77 70 77 72 65 72 71 64 71 68 61 68 65 58 65 62 55 62 58 51 58 56 49 56 55 48 55 63 52 60 63 52 60 63 52 60 63 52 60 63 52 60 63 52 60 63 52 60 63 52 60 78 67 75 78 67 75 78 67 75 78 67 75 78 67 75 78 67 75 78 67 75 78 67 75 84 74 82 84 74 82 84 74 82 84 74 82 84 74 82 84 74 82 84 74 82 84 74 82 83 73 81 83 73 81 83 73 81 83 73 81 83 73 81 83 73 81 83 73 81 81 74 81 69 63 73 67 64 73 67 64 73 67 64 73 67 64 73 67 64 73 67 64 73 67 64 73 61 58 67 61 58 67 61 58 67 61 58 67 61 58 67 61 58 67 61 58 67 63 58 65 70 63 70 72 63 68 72 63 68 72 63 68 72 63 68 72 63 68 72 63 68 72 63 68 63 54 59 63 54 59 63 54 59 63 54 59 63 54 59 63 54 59 63 54 59 63 54 57 75 63 67 75 63 65 75 63 65 75 63 65 75 63 65 75 63 65 75 63 65 75 63 65 81 69 71 81 69 71 81 69 71 81 69 71 81 69 71 81 69 71 81 69 71 81 69 71 85 69 70 85 69 70 85 69 70 85 69 70 85 69 70 85 69 70 85 69 70 85 69 70 82 66 67 82 66 67 82 66 67 82 66 67 82 66 67 82 66 67 82 66 67 82 66 69 80 63 69 80 63 71 80 63 71 80 63 71 80 63 71 80 63 71 80 63 71 80 63 71 66 49 57 64 47 55 62 45 53 59 42 50 55 38 46 52 35 43 50 33 41 44 33 41 54 51 58 48 51 58 46 49 56 43 46 53 39 42 49 36 39 46 34 37 44 32 35 42 26 29 36 26 29 36
80 80 88 80 80 88 80 80 88 80 80 88 80 81 86 69 70 75 69 70 75 69 70 75 69 70 75 69 70 75 69 70 75 69 70 75 69 70 75 74 75 80 74 75 80 74 75 80 74 75 80 74 75 80 74 75 80 74 75 80 75 74 80 70 62 73 72 61 75 72 61 75 72 61 75 72 61 75 72 61 75 72 61 75 72 61 75 73 62 76 73 62 76 73 62 76 73 62 76 73 62 76 73 62 76 73 62 76 73 63 74 69 61 72 71 64 72 73 66 74 76 69 77 80 73 81 83 76 84 85 78 86 87 80 88 93 86 94 93 86 94 93 86 94 93 86 94 93 86 94 93 86 94 93 86 94 93 86 94 87 82 88 87 82 88 87 82 88 87 82 88 87 82 88 87 82 88 87 82 88 87 82 88 67 62 68 65 60 66 63 58 64 60 55 61 56 51 57 53 48 54 51 46 52 49 44 50 59 52 59 61 54 61 63 56 63 66 59 66 70 63 70 73 66 73 75 68 75 77 70 77 69 62 69 67 60 67 65 58 65 62 55 62 58 51 58 55 48 55 53 46 53 51 44 51 63 52 60 63 52 60 63 52 60 63 52 60 63 52 60 63 52 60 63 52 60 63 52 60 78 67 75 78 67 75 78 67 75 78 67 75 78 67 75 78 67 75 78 67 75 78 67 75 84 74 82 84 74 82 84 74 82 84 74 82 84 74 82 84 74 82 84 74 82 84 74 82 83 73 81 83 73 81 83 73 81 83 73 81 83 73 81 83 73 81 83 73 81 81 74 81 72 66 76 70 67 76 70 67 76 70 67 76 70 67 76 70 67 76 70 67 76 70 67 76 64 61 70 64 61 70 64 61 70 64 61 70 64 61 70 64 61 70 64 61 70 66 61 68 70 63 70 72 63 68 72 63 68 72 63 68 72 63 68 72 63 68 72 63 68 72 63 68 63 54 59 63 54 59 63 54 59 63 54 59 63 54 59 63 54 59 63 54 59 63 54 57 75 63 67 75 63 65 75 63 65 75 63 65 75 63 65 75 63 65 75 63 65 75 63 65 81 69 71 81 69 71 81 69 71 81 69 71 81 69 71 81 69 71 81 69 71 81 69 71 88 72 73 88 72 73 88 72 73 88 72 73 88 72 73 88 72 73 88 72 73 88 72 73 82 66 67 82 66 67 82 66 67 82 66 67 82 66 67 82 66 67 82 66 67 82 66 69 80 63 69 80 63 71 80 63 71 80 63 71 80 63 71 80 63 71 80 63 71 80 63 71 66 49 57 64 47 55 62 45 53 59 42 50 55 38 46 52 35 43 50 33 41 44 33 41 54 51 58 48 51 58 46 49 56 43 46 53 39 42 49 36 39 46 34 37 44 32 35 42 26 29 36 26 29 36
78 78 88 78 78 88 78 78 88 78 78 88 78 78 88 67 67 77 67 67 75 67 67 75 67 67 75 67 67 75 67 67 75 67 67 75 67 67 75 74 74 82 74 74 82 74 74 82 74 74 82 74 74 82 74 74 82 74 74 82 75 74 82 70 62 75 72 61 75 72 61 75 72 61 75 72 61 75 72 61 75 72 61 75 72 61 75 73 62 76 73 62 76 73 62 76 73 62 76 73 62 76 73 62 76 73 62 76 73 63 74 69 61 72 71 64 72 73 66 74 76 69 77 80 73 81 83 76 84 85 78 86 87 80 88 93 86 94 93 86 94 93 86 94 93 86 94 93 86 94 93 86 94 93 86 94 93 86 94 87 82 88 87 82 88 87 82 88 87 82 88 87 82 88 87 82 88 87 82 88 87 82 88 67 62 68 65 60 66 63 58 64 60 55 61 56 51 57 53 48 54 51 46 52 49 44 50 59 52 59 61 54 61 63 56 63 66 59 66 70 63 70 73 66 73 75 68 75 77 70 77 66 59 66 65 58 65 63 56 63 59 52 59 56 49 56 53 46 53 50 43 50 49 42 49 63 52 60 63 52 60 63 52 60 63 52 60 63 52 60 63 52 60 63 52 60 63 52 60 78 67 75 78 67 75 78 67 75 78 67 75 78 67 75 78 67 75 78 67 75 78 67 75 84 74 82 84 74 82 84 74 82 84 74 82 84 74 82 84 74 82 84 74 82 84 74 82 83 73 81 83 73 81 83 73 81 83 73 81 83 73 81 83 73 81 83 73 81 81 74 81 74 68 78 72 69 78 72 69 78 72 69 78 72 69 78 72 69 78 72 69 78 72 69 78 66 63 72 66 63 72 66 63 72 66 63 72 66 63 72 66 63 72 66 63 72 68 63 70 70 63 70 72 63 68 72 63 68 72 63 68 72 63 68 72 63 68 72 63 68 72 63 68 63 54 59 63 54 59 63 54 59 63 54 59 63 54 59 63 54 59 63 54 59 63 54 57 75 63 67 75 63 65 75 63 65 75 63 65 75 63 65 75 63 65 75 63 65 75 63 65 81 69 71 81 69 71 81 69 71 81 69 71 81 69 71 81 69 71 81 69 71 81 69 71 90 74 75 90 74 75 90 74 75 90 74 75 90 74 75 90 74 75 90 74 75 90 74 75 82 66 67 82 66 67 82 66 67 82 66 67 82 66 67 82 66 67 82 66 67 82 66 69 80 63 69 80 63 71 80 63 71 80 63 71 80 63 71 80 63 71 80 63 71 80 63 71 66 49 57 64 47 55 62 45 53 59 42 50 55 38 46 52 35 43 50 33 41 44 33 41 54 51 58 48 51 58 46 49 56 43 46 53 39 42 49 36 39 46 34 37 44 32 35 42 26 29 36 26 29 36
76 75 89 76 75 89 76 75 89 76 75 89 76 75 89 65 65 77 65 65 77 65 65 77 65 65 77 65 65 77 65 65 77 65 65 77 65 65 77 74 74 86 74 74 86 74 74 86 74 74 86 74 74 86 74 74 86 74 74 86 75 73 86 70 62 75 72 61 75 72 61 75 72 61 75 72 61 75 72 61 75 72 61 75 72 61 75 73 62 76 73 62 76 73 62 76 73 62 76 73 62 76 73 62 76 73 62 76 73 63 74 69 61 72 71 64 72 73 66 74 76 69 77 80 73 81 83 76 84 85 78 86 87 80 88 93 86 94 93 86 94 93 86 94 93 86 94 93 86 94 93 86 94 93 86 94 93 86 94 87 82 88 87 82 88 87 82 88 87 82 88 87 82 88 87 82 88 87 82 88 87 82 88 67 62 68 65 60 66 63 58 64 60 55 61 56 51 57 53 48 54 51 46 52 49 44 50 59 52 59 61 54 61 63 56 63 66 59 66 70 63 70 73 66 73 75 68 75 77 70 77 65 58 65 64 57 64 61 54 61 58 51 58 55 48 55 51 44 51 49 42 49 48 41 48 63 52 60 63 52 60 63 52 60 63 52 60 63 52 60 63 52 60 63 52 60 63 52 60 78 67 75 78 67 75 78 67 75 78 67 75 78 67 75 78 67 75 78 67 75 78 67 75 84 74 82 84 74 82 84 74 82 84 74 82 84 74 82 84 74 82 84 74 82 84 74 82 83 73 81 83 73 81 83 73 81 83 73 81 83 73 81 83 73 81 83 73 81 81 74 81 76 70 80 74 71 80 74 71 80 74 71 80 74 71 80 74 71 80 74 71 80 74 71 80 68 65 74 68 65 74 68 65 74 68 65 74 68 65 74 68 65 74 68 65 74 70 65 72 70 63 70 72 63 68 72 63 68 72 63 68 72 63 68 72 63 68 72 63 68 72 63 68 63 54 59 63 54 59 63 54 59 63 54 59 63 54 59 63 54 59 63 54 59 63 54 57 75 63 67 75 63 65 75 63 65 75 63 65 75 63 65 75 63 65 75 63 65 75 63 65 81 69 71 81 69 71 81 69 71 81 69 71 81 69 71 81 69 71 81 69 71 81 69 71 92 76 77 92 76 77 92 76 77 92 76 77 92 76 77 92 76 77 92 76 77 92 76 77 82 66 67 82 66 67 82 66 67 82 66 67 82 66 67 82 66 67 82 66 67 82 66 69 80 63 69 80 63 71 80 63 71 80 63 71 80 63 71 80 63 71 80 63 71 80 63 71 66 49 57 64 47 55 62 45 53 59 42 50 55 38 46 52 35 43 50 33 41 44 33 41 54 51 58 48 51 58 46 49 56 43 46 53 39 42 49 36 39 46 34 37 44 32 35 42 26 29 36 26 29 36
61 60 78 61 60 78 61 60 78 61 60 78 61 60 78 59 58 74 59 58 74 59 58 74 59 58 74 59 58 74 59 58 74 59 58 74 59 58 74 66 65 81 66 65 81 66 65 81 66 65 81 66 65 81 66 65 81 66 65 81 67 65 79 74 66 81 76 65 79 76 65 79 76 65 79 76 65 79 76 65 79 76 65 79 76 65 79 72 61 75 72 61 75 72 61 75 72 61 75 72 61 75 72 61 75 72 61 75 72 62 73 72 64 75 72 65 73 72 65 73 72 65 73 72 65 73 72 65 73 72 65 73 72 65 73 79 72 80 79 72 80 79 72 80 79 72 80 79 72 80 79 72 80 79 72 80 79 72 80 82 77 83 82 77 83 82 77 83 82 77 83 82 77 83 82 77 83 82 77 83 82 77 83 67 62 68 67 62 68 67 62 68 67 62 68 67 62 68 67 62 68 67 62 68 67 62 68 81 74 81 79 72 79 77 70 77 74 67 74 70 63 70 67 60 67 65 58 65 63 56 63 48 41 48 48 41 48 48 41 48 48 41 48 48 41 48 48 41 48 48 41 48 48 41 48 51 40 48 51 40 48 51 40 48 51 40 48 51 40 48 51 40 48 51 40 48 51 40 48 78 67 75 78 67 75 78 67 75 78 67 75 78 67 75 78 67 75 78 67 75 78 67 75 89 79 87 89 79 87 89 79 87 89 79 87 89 79 87 89 79 87 89 79 87 89 79 87 88 78 86 88 78 86 88 78 86 88 78 86 88 78 86 88 78 86 88 78 86 86 79 86 87 81 91 85 82 91 85 82 91 85 82 91 85 82 91 85 82 91 85 82 91 85 82 91 80 77 86 80 77 86 80 77 86 80 77 86 80 77 86 80 77 86 80 77 86 82 77 84 75 68 75 77 68 73 77 68 73 77 68 73 77 68 73 77 68 73 77 68 73 77 68 73 82 73 78 80 71 76 78 69 74 75 66 71 71 62 67 68 59 64 66 57 62 64 55 58 82 70 74 82 70 72 82 70 72 82 70 72 82 70 72 82 70 72 82 70 72 82 70 72 87 75 77 87 75 77 87 75 77 87 75 77 87 75 77 87 75 77 87 75 77 87 75 77 93 77 78 93 77 78 93 77 78 93 77 78 93 77 78 93 77 78 93 77 78 93 77 78 83 67 68 83 67 68 83 67 68 83 67 68 83 67 68 83 67 68 83 67 68 83 67 70 77 60 66 77 60 68 77 60 68 77 60 68 77 60 68 77 60 68 77 60 68 77 60 68 57 40 48 57 40 48 57 40 48 57 40 48 57 40 48 57 40 48 57 40 48 53 42 50 52 49 56 46 49 56 44 47 54 41 44 51 37 40 47 34 37 44 32 35 42 30 33 40 25 28 35 25 28 35
61 59 81 61 59 81 61 59 81 61 59 81 61 59 80 59 57 78 59 57 78 59 57 78 59 57 78 59 57 78 59 57 78 59 57 78 59 57 78 66 64 85 66 64 85 66 64 85 66 64 85 66 64 85 66 64 85 66 64 85 67 64 83 74 66 81 76 65 79 76 65 79 76 65 79 76 65 79 76 65 79 76 65 79 76 65 79 72 61 75 72 61 75 72 61 75 72 61 75 72 61 75 72 61 75 72 61 75 72 62 73 72 64 75 72 65 73 72 65 73 72 65 73 72 65 73 72 65 73 72 65 73 72 65 73 79 72 80 79 72 80 79 72 80 79 72 80 79 72 80 79 72 80 79 72 80 79 72 80 80 75 81 80 75 81 80 75 81 80 75 81 80 75 81 80 75 81 80 75 81 80 75 81 67 62 68 67 62 68 67 62 68 67 62 68 67 62 68 67 62 68 67 62 68 67 62 68 81 74 81 79 72 79 77 70 77 74 67 74 70 63 70 67 60 67 65 58 65 63 56 63 50 43 50 50 43 50 50 43 50 50 43 50 50 43 50 50 43 50 50 43 50 50 43 50 53 42 50 53 42 50 53 42 50 53 42 50 53 42 50 53 42 50 53 42 50 53 42 50 72 61 69 72 61 69 72 61 69 72 61 69 72 61 69 72 61 69 72 61 69 72 61 69 82 72 80 82 72 80 82 72 80 82 72 80 82 72 80 82 72 80 82 72 80 82 72 80 86 76 84 86 76 84 86 76 84 86 76 84 86 76 84 86 76 84 86 76 84 84 77 84 85 79 89 83 80 89 83 80 89 83 80 89 83 80 89 83 80 89 83 80 89 83 80 89 78 75 84 78 75 84 78 75 84 78 75 84 78 75 84 78 75 84 78 75 84 80 75 82 75 68 75 77 68 73 77 68 73 77 68 73 77 68 73 77 68 73 77 68 73 77 68 73 82 73 78 80 71 76 78 69 74 75 66 71 71 62 67 68 59 64 66 57 62 64 55 58 82 70 74 82 70 72 82 70 72 82 70 72 82 70 72 82 70 72 82 70 72 82 70 72 87 75 77 87 75 77 87 75 77 87 75 77 87 75 77 87 75 77 87 75 77 87 75 77 93 77 78 93 77 78 93 77 78 93 77 78 93 77 78 93 77 78 93 77 78 93 77 78 83 67 68 83 67 68 83 67 68 83 67 68 83 67 68 83 67 68 83 67 68 83 67 70 77 60 66 77 60 68 77 60 68 77 60 68 77 60 68 77 60 68 77 60 68 77 60 68 57 40 48 57 40 48 57 40 48 57 40 48 57 40 48 57 40 48 57 40 48 53 42 50 52 49 56 46 49 56 44 47 54 41 44 51 37 40 47 34 37 44 32 35 42 30 33 40 25 28 35 25 28 35
61 59 83 61 59 83 61 59 83 61 59 83 61 59 83 59 57 81 59 57 79 59 57 79 59 57 79 59 57 79 59 57 79 59 57 79 59 57 79 66 64 86 66 64 86 66 64 86 66 64 86 66 64 86 66 64 86 66 64 86 67 64 85 74 65 82 76 65 79 76 65 79 76 65 79 76 65 79 76 65 79 76 65 79 76 65 79 72 61 75 72 61 75 72 61 75 72 61 75 72 61 75 72 61 75 72 61 75 72 62 73 72 64 75 72 65 73 72 65 73 72 65 73 72 65 73 72 65 73 72 65 73 72 65 73 79 72 80 79 72 80 79 72 80 79 72 80 79 72 80 79 72 80 79 72 80 79 72 80 78 73 79 78 73 79 78 73 79 78 73 79 78 73 79 78 73 79 78 73 79 78 73 79 67 62 68 67 62 68 67 62 68 67 62 68 67 62 68 67 62 68 67 62 68 67 62 68 81 74 81 79 72 79 77 70 77 74 67 74 70 63 70 67 60 67 65 58 65 63 56 63 55 48 55 55 48 55 55 48 55 55 48 55 55 48 55 55 48 55 55 48 55 55 48 55 58 47 55 58 47 55 58 47 55 58 47 55 58 47 55 58 47 55 58 47 55 58 47 55 64 53 61 64 53 61 64 53 61 64 53 61 64 53 61 64 53 61 64 53 61 64 53 61 72 62 70 72 62 70 72 62 70 72 62 70 72 62 70 72 62 70 72 62 70 72 62 70 81 71 79 81 71 79 81 71 79 81 71 79 81 71 79 81 71 79 81 71 79 79 72 79 80 74 84 78 75 84 78 75 84 78 75 84 78 75 84 78 75 84 78 75 84 78 75 84 76 73 82 76 73 82 76 73 82 76 73 82 76 73 82 76 73 82 76 73 82 78 73 80 75 68 75 77 68 73 77 68 73 77 68 73 77 68 73 77 68 73 77 68 73 77 68 73 82 73 78 80 71 76 78 69 74 75 66 71 71 62 67 68 59 64 66 57 62 64 55 58 82 70 74 82 70 72 82 70 72 82 70 72 82 70 72 82 70 72 82 70 72 82 70 72 87 75 77 87 75 77 87 75 77 87 75 77 87 75 77 87 75 77 87 75 77 87 75 77 93 77 78 93 77 78 93 77 78 93 77 78 93 77 78 93 77 78 93 77 78 93 77 78 83 67 68 83 67 68 83 67 68 83 67 68 83 67 68 83 67 68 83 67 68 83 67 70 77 60 66 77 60 68 77 60 68 77 60 68 77 60 68 77 60 68 77 60 68 77 60 68 57 40 48 57 40 48 57 40 48 57 40 48 57 40 48 57 40 48 57 40 48 53 42 50 52 49 56 46 49 56 44 47 54 41 44 51 37 40 47 34 37 44 32 35 42 30 33 40 25 28 35 25 28 35
61 58 85 61 58 87 61 58 85 61 58 87 61 58 85 59 56 83 59 57 81 59 56 83 59 57 81 59 56 83 59 57 81 59 56 83 59 57 81 66 63 90 66 64 88 66 63 90 66 64 88 66 63 90 66 64 88 66 63 90 67 63 86 74 65 82 76 65 79 76 65 79 76 65 79 76 65 79 76 65 79 76 65 79 76 65 79 72 61 75 72 61 75 72 61 75 72 61 75 72 61 75 72 61 75 72 61 75 72 62 73 72 64 75 72 65 73 72 65 73 72 65 73 72 65 73 72 65 73 72 65 73 72 65 73 79 72 80 79 72 80 79 72 80 79 72 80 79 72 80 79 72 80 79 72 80 79 72 80 75 70 76 75 70 76 75 70 76 75 70 76 75 70 76 75 70 76 75 70 76 75 70 76 67 62 68 67 62 68 67 62 68 67 62 68 67 62 68 67 62 68 67 62 68 67 62 68 81 74 81 79 72 79 77 70 77 74 67 74 70 63 70 67 60 67 65 58 65 63 56 63 62 55 62 62 55 62 62 55 62 62 55 62 62 55 62 62 55 62 62 55 62 62 55 62 65 54 62 65 54 62 65 54 62 65 54 62 65 54 62 65 54 62 65 54 62 65 54 62 58 47 55 58 47 55 58 47 55 58 47 55 58 47 55 58 47 55 58 47 55 58 47 55 63 53 61 63 53 61 63 53 61 63 53 61 63 53 61 63 53 61 63 53 61 63 53 61 74 64 72 74 64 72 74 64 72 74 64 72 74 64 72 74 64 72 74 64 72 72 65 72 73 67 77 71 68 77 71 68 77 71 68 77 71 68 77 71 68 77 71 68 77 71 68 77 73 70 79 73 70 79 73 70 79 73 70 79 73 70 79 73 70 79 73 70 79 75 70 77 75 68 75 77 68 73 77 68 73 77 68 73 77 68 73 77 68 73 77 68 73 77 68 73 82 73 78 80 71 76 78 69 74 75 66 71 71 62 67 68 59 64 66 57 62 64 55 58 82 70 74 82 70 72 82 70 72 82 70 72 82 70 72 82 70 72 82 70 72 82 70 72 87 75 77 87 75 77 87 75 77 87 75 77 87 75 77 87 75 77 87 75 77 87 75 77 93 77 78 93 77 78 93 77 78 93 77 78 93 77 78 93 77 78 93 77 78 93 77 78 83 67 68 83 67 68 83 67 68 83 67 68 83 67 68 83 67 68 83 67 68 83 67 70 77 60 66 77 60 68 77 60 68 77 60 68 77 60 68 77 60 68 77 60 68 77 60 68 57 40 48 57 40 48 57 40 48 57 40 48 57 40 48 57 40 48 57 40 48 53 42 50 52 49 56 46 49 56 44 47 54 41 44 51 37 40 47 34 37 44 32 35 42 30 33 40 25 28 35 25 28 35
61 58 87 61 58 89 61 58 87 61 58 89 61 58 87 59 56 85 59 56 83 59 56 85 59 56 83 59 56 85 59 56 83 59 56 85 59 56 83 66 63 92 66 63 90 66 63 92 66 63 90 66 63 92 66 63 90 66 63 92 67 63 86 74 65 82 76 65 79 76 65 79 76 65 79 76 65 79 76 65 79 76 65 79 76 65 79 72 61 75 72 61 75 72 61 75 72 61 75 72 61 75 72 61 75 72 61 75 72 62 73 72 64 75 72 65 73 72 65 73 72 65 73 72 65 73 72 65 73 72 65 73 72 65 73 79 72 80 79 72 80 79 72 80 79 72 80 79 72 80 79 72 80 79 72 80 79 72 80 71 66 72 71 66 72 71 66 72 71 66 72 71 66 72 71 66 72 71 66 72 71 66 72 67 62 68 67 62 68 67 62 68 67 62 68 67 62 68 67 62 68 67 62 68 67 62 68 81 74 81 79 72 79 77 70 77 74 67 74 70 63 70 67 60 67 65 58 65 63 56 63 68 61 68 68 61 68 68 61 68 68 61 68 68 61 68 68 61 68 68 61 68 68 61 68 71 60 68 71 60 68 71 60 68 71 60 68 71 60 68 71 60 68 71 60 68 71 60 68 58 47 55 58 47 55 58 47 55 58 47 55 58 47 55 58 47 55 58 47 55 58 47 55 60 50 58 60 50 58 60 50 58 60 50 58 60 50 58 60 50 58 60 50 58 60 50 58 68 58 66 68 58 66 68 58 66 68 58 66 68 58 66 68 58 66 68 58 66 66 59 66 67 61 71 65 62 71 65 62 71 65 62 71 65 62 71 65 62 71 65 62 71 65 62 71 69 66 75 69 66 75 69 66 75 69 66 75 69 66 75 69 66 75 69 66 75 71 66 73 75 68 75 77 68 73 77 68 73 77 68 73 77 68 73 77 68 73 77 68 73 77 68 73 82 73 78 80 71 76 78 69 74 75 66 71 71 62 67 68 59 64 66 57 62 64 55 58 82 70 74 82 70 72 82 70 72 82 70 72 82 70 72 82 70 72 82 70 72 82 70 72 87 75 77 87 75 77 87 75 77 87 75 77 87 75 77 87 75 77 87 75 77 87 75 77 93 77 78 93 77 78 93 77 78 93 77 78 93 77 78 93 77 78 93 77 78 93 77 78 83 67 68 83 67 68 83 67 68 83 67 68 83 67 68 83 67 68 83 67 68 83 67 70 77 60 66 77 60 68 77 60 68 77 60 68 77 60 68 77 60 68 77 60 68 77 60 68 57 40 48 57 40 48 57 40 48 57 40 48 57 40 48 57 40 48 57 40 48 53 42 50 52 49 56 46 49 56 44 47 54 41 44 51 37 40 47 34 37 44 32 35 42 30 33 40 25 28 35 25 28 35
61 58 89 61 57 90 61 58 89 61 57 90 61 58 89 59 56 87 59 56 85 59 56 87 59 56 85 59 56 87 59 56 85 59 56 87 59 56 85 66 63 94 66 63 92 66 63 94 66 63 92 66 63 94 66 63 92 66 63 94 67 63 88 74 65 82 76 65 79 76 65 79 76 65 79 76 65 79 76 65 79 76 65 79 76 65 79 72 61 75 72 61 75 72 61 75 72 61 75 72 61 75 72 61 75 72 61 75 72 62 73 72 64 75 72 65 73 72 65 73 72 65 73 72 65 73 72 65 73 72 65 73 72 65 73 79 72 80 79 72 80 79 72 80 79 72 80 79 72 80 79 72 80 79 72 80 79 72 80 68 63 69 68 63 69 68 63 69 68 63 69 68 63 69 68 63 69 68 63 69 68 63 69 67 62 68 67 62 68 67 62 68 67 62 68 67 62 68 67 62 68 67 62 68 67 62 68 81 74 81 79 72 79 77 70 77 74 67 74 70 63 70 67 60 67 65 58 65 63 56 63 75 68 75 75 68 75 75 68 75 75 68 75 75 68 75 75 68 75 75 68 75 75 68 75 78 67 75 78 67 75 78 67 75 78 67 75 78 67 75 78 67 75 78 67 75 78 67 75 64 53 61 64 53 61 64 53 61 64 53 61 64 53 61 64 53 61 64 53 61 64 53 61 62 52 60 62 52 60 62 52 60 62 52 60 62 52 60 62 52 60 62 52 60 62 52 60 61 51 59 61 51 59 61 51 59 61 51 59 61 51 59 61 51 59 61 51 59 59 52 59 60 54 64 58 55 64 58 55 64 58 55 64 58 55 64 58 55 64 58 55 64 58 55 64 66 63 72 66 63 72 66 63 72 66 63 72 66 63 72 66 63 72 66 63 72 68 63 70 75 68 75 77 68 73 77 68 73 77 68 73 77 68 73 77 68 73 77 68 73 77 68 73 82 73 78 80 71 76 78 69 74 75 66 71 71 62 67 68 59 64 66 57 62 64 55 58 82 70 74 82 70 72 82 70 72 82 70 72 82 70 72 82 70 72 82 70 72 82 70 72 87 75 77 87 75 77 87 75 77 87 75 77 87 75 77 87 75 77 87 75 77 87 75 77 93 77 78 93 77 78 93 77 78 93 77 78 93 77 78 93 77 78 93 77 78 93 77 78 83 67 68 83 67 68 83 67 68 83 67 68 83 67 68 83 67 68 83 67 68 83 67 70 77 60 66 77 60 68 77 60 68 77 60 68 77 60 68 77 60 68 77 60 68 77 60 68 57 40 48 57 40 48 57 40 48 57 40 48 57 40 48 57 40 48 57 40 48 53 42 50 52 49 56 46 49 56 44 47 54 41 44 51 37 40 47 34 37 44 32 35 42 30 33 40 25 28 35 25 28 35
61 57 90 61 57 92 61 57 90 61 57 92 61 57 90 59 55 88 59 56 87 59 55 88 59 56 87 59 55 88 59 56 87 59 55 88 59 56 87 66 62 95 66 63 94 66 62 95 66 63 94 66 62 95 66 63 94 66 62 95 67 63 90 74 65 84 76 65 79 76 65 79 76 65 79 76 65 79 76 65 79 76 65 79 76 65 79 72 61 75 72 61 75 72 61 75 72 61 75 72 61 75 72 61 75 72 61 75 72 62 73 72 64 75 72 65 73 72 65 73 72 65 73 72 65 73 72 65 73 72 65 73 72 65 73 79 72 80 79 72 80 79 72 80 79 72 80 79 72 80 79 72 80 79 72 80 79 72 80 66 61 67 66 61 67 66 61 67 66 61 67 66 61 67 66 61 67 66 61 67 66 61 67 67 62 68 67 62 68 67 62 68 67 62 68 67 62 68 67 62 68 67 62 68 67 62 68 81 74 81 79 72 79 77 70 77 74 67 74 70 63 70 67 60 67 65 58 65 63 56 63 80 73 80 80 73 80 80 73 80 80 73 80 80 73 80 80 73 80 80 73 80 80 73 80 83 72 80 83 72 80 83 72 80 83 72 80 83 72 80 83 72 80 83 72 80 83 72 80 72 61 69 72 61 69 72 61 69 72 61 69 72 61 69 72 61 69 72 61 69 72 61 69 68 58 66 68 58 66 68 58 66 68 58 66 68 58 66 68 58 66 68 58 66 68 58 66 56 46 54 56 46 54 56 46 54 56 46 54 56 46 54 56 46 54 56 46 54 54 47 54 55 49 59 53 50 59 53 50 59 53 50 59 53 50 59 53 50 59 53 50 59 53 50 59 64 61 70 64 61 70 64 61 70 64 61 70 64 61 70 64 61 70 64 61 70 66 61 68 75 68 75 77 68 73 77 68 73 77 68 73 77 68 73 77 68 73 77 68 73 77 68 73 82 73 78 80 71 76 78 69 74 75 66 71 71 62 67 68 59 64 66 57 62 64 55 58 82 70 74 82 70 72 82 70 72 82 70 72 82 70 72 82 70 72 82 70 72 82 70 72 87 75 77 87 75 77 87 75 77 87 75 77 87 75 77 87 75 77 87 75 77 87 75 77 93 77 78 93 77 78 93 77 78 93 77 78 93 77 78 93 77 78 93 77 78 93 77 78 83 67 68 83 67 68 83 67 68 83 67 68 83 67 68 83 67 68 83 67 68 83 67 70 77 60 66 77 60 68 77 60 68 77 60 68 77 60 68 77 60 68 77 60 68 77 60 68 57 40 48 57 40 48 57 40 48 57 40 48 57 40 48 57 40 48 57 40 48 53 42 50 52 49 56 46 49 56 44 47 54 41 44 51 37 40 47 34 37 44 32 35 42 30 33 40 25 28 35 25 28 35
58 58 92 58 58 92 58 58 92 58 58 92 58 58 92 56 57 88 56 57 88 56 57 88 56 57 88 56 57 88 56 57 88 56 57 88 56 57 88 63 64 95 63 64 95 63 64 95 63 64 95 63 64 95 63 64 95 63 64 95 64 64 92 70 67 88 71 67 82 73 66 84 71 67 82 73 66 84 71 67 82 73 66 84 71 67 82 69 62 80 67 63 78 69 62 80 67 63 78 69 62 80 67 63 78 69 62 80 67 63 78 71 65 79 69 66 77 71 65 77 69 66 77 71 65 77 69 66 77 71 65 77 69 66 77 78 72 84 76 73 84 78 72 84 76 73 84 78 72 84 76 73 84 78 72 84 76 73 84 62 59 68 62 59 66 62 59 68 62 59 66 62 59 68 62 59 66 62 59 68 62 59 66 65 62 71 65 62 69 65 62 71 65 62 69 65 62 71 65 62 69 65 62 71 65 62 69 78 75 82 76 73 80 76 71 78 73 68 75 69 64 71 66 61 68 65 58 66 63 56 64 84 74 83 84 74 83 85 73 83 85 73 83 85 73 83 85 73 83 86 73 83 86 73 83 86 73 83 86 73 82 86 73 83 86 73 82 86 73 83 86 73 82 86 73 83 86 73 82 79 66 76 79 66 75 79 66 76 79 66 75 79 66 76 79 66 75 79 66 76 79 66 75 73 62 70 73 62 70 73 62 70 73 62 70 73 62 70 73 62 70 73 62 70 73 62 70 55 44 52 55 44 52 55 44 52 55 44 52 55 44 52 55 44 52 55 44 52 55 43 53 56 46 55 54 46 57 54 46 57 54 46 57 54 46 57 54 46 57 54 46 57 54 46 57 65 57 68 65 57 68 65 57 68 65 57 68 65 57 68 65 57 68 65 57 68 67 57 66 78 67 75 78 67 73 78 67 73 78 67 73 78 67 73 78 67 73 78 67 73 78 67 73 83 72 78 81 70 76 79 68 74 76 65 71 72 61 67 69 58 64 67 56 62 65 54 60 81 70 74 80 71 74 81 70 74 80 71 74 81 70 74 80 71 74 81 70 74 80 71 74 86 75 79 85 76 79 86 75 79 85 76 79 86 75 79 85 76 79 86 75 79 86 75 79 89 79 80 90 78 80 90 78 80 90 78 80 90 78 80 90 78 80 90 78 80 90 78 80 80 68 70 80 68 70 80 68 70 80 68 70 80 68 70 80 68 70 80 68 70 80 68 72 76 61 68 76 61 68 77 60 70 76 61 68 77 60 70 76 61 68 77 60 70 76 61 68 57 40 50 56 41 48 57 40 50 56 41 48 57 40 50 56 41 48 57 40 50 53 42 50 52 49 58 46 49 58 44 47 56 41 44 53 37 40 49 34 37 46 32 35 44 30 33 42 25 28 37 25 28 37
51 62 94 51 62 94 51 62 94 51 62 94 51 62 92 53 62 91 53 62 91 53 62 91 53 62 91 53 62 91 53 62 91 53 62 91 53 62 91 53 62 91 53 62 91 53 62 91 53 62 91 53 62 91 53 62 91 53 62 91 55 62 90 58 62 87 58 63 85 60 62 87 58 63 85 60 62 87 58 63 85 60 62 87 58 63 85 61 63 88 59 64 86 61 63 88 59 64 86 61 63 88 59 64 86 61 63 88 61 63 86 69 70 90 69 70 88 71 70 88 69 70 88 71 70 88 69 70 88 71 70 88 69 70 88 76 75 93 74 75 93 76 75 93 74 75 93 76 75 93 74 75 93 76 75 93 76 75 91 64 63 77 65 63 76 65 63 77 65 63 76 65 63 77 65 63 76 65 63 77 65 63 76 68 66 80 70 68 81 72 70 84 75 73 86 79 77 91 82 80 93 84 82 96 85 85 97 76 79 88 74 77 84 74 74 82 72 71 79 68 67 75 66 63 72 66 60 70 67 57 68 87 75 87 88 72 85 87 69 83 86 65 80 82 61 76 80 57 73 79 55 71 76 53 69 71 53 67 70 54 65 70 54 67 70 54 65 70 54 67 70 54 65 70 54 67 70 54 65 81 65 78 81 65 76 81 65 78 81 65 76 81 65 78 81 65 76 81 65 78 81 65 76 85 67 79 85 67 79 85 67 79 85 67 79 85 67 79 85 67 79 85 67 79 85 67 79 88 70 82 88 70 82 88 70 82 88 70 82 88 70 82 88 70 82 88 70 82 88 70 82 61 45 56 61 45 56 61 45 56 61 45 56 61 45 56 61 45 56 61 45 56 61 45 56 50 34 45 50 34 45 50 34 45 50 34 45 50 34 45 50 34 45 50 34 45 50 34 45 67 50 60 67 50 60 67 50 60 67 50 60 67 50 60 67 50 60 67 50 60 67 50 60 73 56 66 73 56 66 73 56 66 73 56 66 73 56 66 73 56 66 73 56 66 70 57 66 74 68 72 71 69 72 73 68 72 71 69 72 73 68 72 71 69 72 73 68 72 71 69 72 83 78 82 81 79 82 83 78 82 81 79 82 83 78 82 81 79 82 83 78 82 81 79 82 80 78 81 80 78 81 80 78 81 80 78 81 80 78 81 80 78 81 80 78 81 80 78 81 73 71 74 73 71 74 73 71 74 73 71 74 73 71 74 73 71 74 73 71 74 76 70 74 76 65 73 77 64 73 79 63 74 77 64 73 79 63 74 77 64 73 79 63 74 77 64 73 54 38 49 52 39 48 54 38 49 52 39 48 54 38 49 52 39 48 54 38 49 51 39 49 51 48 59 47 47 59 45 45 57 42 42 54 38 38 50 35 35 47 33 33 45 31 31 43 29 29 41 29 29 41
48 63 94 48 63 94 48 63 94 48 63 94 48 63 92 50 64 93 50 64 91 50 64 91 50 64 91 50 64 91 50 64 91 50 64 91 50 64 91 50 64 91 50 64 91 50 64 91 50 64 91 50 64 91 50 64 91 50 64 91 52 63 91 54 64 91 56 63 91 56 63 91 56 63 91 56 63 91 56 63 91 56 63 91 56 63 91 57 64 92 57 64 92 57 64 92 57 64 92 57 64 92 57 64 92 57 64 92 58 64 90 66 71 93 68 70 91 68 70 91 68 70 91 68 70 91 68 70 91 68 70 91 68 70 91 73 75 96 73 75 96 73 75 96 73 75 96 73 75 96 73 75 96 73 75 96 73 76 95 64 63 81 64 63 79 64 63 79 64 63 79 64 63 79 64 63 79 64 63 79 64 63 79 67 66 82 69 68 84 71 70 86 74 73 89 78 77 93 81 80 96 83 82 98 83 85 98 75 79 90 71 78 86 72 75 84 69 72 81 68 66 77 66 63 74 66 60 72 67 56 70 88 74 89 89 71 87 89 68 85 87 64 82 86 59 78 83 56 75 84 52 73 79 52 71 74 51 67 71 53 67 71 53 67 71 53 67 71 53 67 71 53 67 71 53 67 71 53 67 80 62 76 80 62 76 80 62 76 80 62 76 80 62 76 80 62 76 80 62 76 80 62 76 85 65 77 85 65 77 85 65 77 85 65 77 85 65 77 85 65 77 85 65 77 85 65 77 88 68 80 88 68 80 88 68 80 88 68 80 88 68 80 88 68 80 88 68 80 88 68 80 71 51 63 71 51 63 71 51 63 71 51 63 71 51 63 71 51 63 71 51 63 71 51 63 61 41 53 61 41 53 61 41 53 61 41 53 61 41 53 61 41 53 61 41 53 61 41 53 59 39 50 59 39 50 59 39 50 59 39 50 59 39 50 59 39 50 59 39 50 59 39 50 71 51 62 71 51 62 71 51 62 71 51 62 71 51 62 71 51 62 71 51 62 68 52 62 68 61 68 64 63 68 65 63 68 64 63 68 65 63 68 64 63 68 65 63 68 64 63 68 74 72 77 73 72 77 74 72 77 73 72 77 74 72 77 73 72 77 74 72 77 73 72 77 77 76 81 76 77 81 77 76 81 76 77 81 77 76 81 76 77 81 77 76 81 76 77 81 70 69 74 69 70 74 70 69 74 69 70 74 70 69 74 69 70 74 70 69 74 71 69 74 73 63 72 75 62 72 75 62 72 75 62 72 75 62 72 75 62 72 75 62 72 75 62 72 52 39 49 52 39 49 52 39 49 52 39 49 52 39 49 52 39 49 52 39 49 50 40 51 51 47 61 47 46 60 45 44 58 42 41 55 38 37 51 35 34 48 33 32 46 31 30 44 29 28 42 29 28 42
48 63 94 48 63 94 48 63 94 48 63 94 48 63 92 50 64 93 50 64 91 50 64 91 50 64 91 50 64 91 50 64 91 50 64 91 50 64 91 50 64 91 50 64 91 50 64 91 50 64 91 50 64 91 50 64 91 50 64 91 52 63 91 54 64 91 56 63 91 56 63 91 56 63 91 56 63 91 56 63 91 56 63 91 56 63 91 57 64 92 57 64 92 57 64 92 57 64 92 57 64 92 57 64 92 57 64 92 58 64 90 66 71 93 68 70 91 68 70 91 68 70 91 68 70 91 68 70 91 68 70 91 68 70 91 73 75 96 73 75 96 73 75 96 73 75 96 73 75 96 73 75 96 73 75 96 73 76 95 64 63 81 64 63 79 64 63 79 64 63 79 64 63 79 64 63 79 64 63 79 64 63 79 67 66 82 69 68 84 71 70 86 74 73 89 78 77 93 81 80 96 83 82 98 83 85 98 75 79 90 71 78 86 72 75 84 69 72 81 68 66 77 66 63 74 66 60 72 67 56 70 88 74 89 89 71 87 89 68 85 87 64 82 86 59 78 83 56 75 84 52 73 79 52 71 74 51 67 71 53 67 71 53 67 71 53 67 71 53 67 71 53 67 71 53 67 71 53 67 78 60 74 78 60 74 78 60 74 78 60 74 78 60 74 78 60 74 78 60 74 78 60 74 83 63 75 83 63 75 83 63 75 83 63 75 83 63 75 83 63 75 83 63 75 83 63 75 86 66 78 86 66 78 86 66 78 86 66 78 86 66 78 86 66 78 86 66 78 86 66 78 81 61 73 81 61 73 81 61 73 81 61 73 81 61 73 81 61 73 81 61 73 81 61 73 74 54 66 74 54 66 74 54 66 74 54 66 74 54 66 74 54 66 74 54 66 74 54 66 54 34 45 54 34 45 54 34 45 54 34 45 54 34 45 54 34 45 54 34 45 54 34 45 65 45 56 65 45 56 65 45 56 65 45 56 65 45 56 65 45 56 65 45 56 62 46 56 60 53 60 57 55 60 59 54 60 57 55 60 59 54 60 57 55 60 59 54 60 57 55 60 66 61 67 64 62 67 66 61 67 64 62 67 66 61 67 64 62 67 66 61 67 64 62 67 73 71 76 72 71 76 73 71 76 72 71 76 73 71 76 72 71 76 73 71 76 72 71 76 69 67 72 68 67 72 69 67 72 68 67 72 69 67 72 68 67 72 69 67 72 71 66 72 72 60 70 73 60 70 73 60 70 73 60 70 73 60 70 73 60 70 73 60 70 73 60 70 52 39 49 52 39 49 52 39 49 52 39 49 52 39 49 52 39 49 52 39 49 50 40 51 51 47 61 47 46 60 45 44 58 42 41 55 38 37 51 35 34 48 33 32 46 31 30 44 29 28 42 29 28 42
48 63 94 48 63 94 48 63 94 48 63 94 48 63 92 50 64 93 50 64 91 50 64 91 50 64 91 50 64 91 50 64 91 50 64 91 50 64 91 50 64 91 50 64 91 50 64 91 50 64 91 50 64 91 50 64 91 50 64 91 52 63 91 54 64 91 56 63 91 56 63 91 56 63 91 56 63 91 56 63 91 56 63 91 56 63 91 57 64 92 57 64 92 57 64 92 57 64 92 57 64 92 57 64 92 57 64 92 58 64 90 66 71 93 68 70 91 68 70 91 68 70 91 68 70 91 68 70 91 68 70 91 68 70 91 73 75 96 73 75 96 73 75 96 73 75 96 73 75 96 73 75 96 73 75 96 73 76 95 64 63 81 64 63 79 64 63 79 64 63 79 64 63 79 64 63 79 64 63 79 64 63 79 67 66 82 69 68 84 71 70 86 74 73 89 78 77 93 81 80 96 83 82 98 83 85 98 75 79 90 71 78 86 72 75 84 69 72 81 68 66 77 66 63 74 66 60 72 67 56 70 88 74 89 89 71 87 89 68 85 87 64 82 86 59 78 83 56 75 84 52 73 79 52 71 74 51 67 71 53 67 71 53 67 71 53 67 71 53 67 71 53 67 71 53 67 71 53 67 75 57 71 75 57 71 75 57 71 75 57 71 75 57 71 75 57 71 75 57 71 75 57 71 80 60 72 80 60 72 80 60 72 80 60 72 80 60 72 80 60 72 80 60 72 80 60 72 83 63 75 83 63 75 83 63 75 83 63 75 83 63 75 83 63 75 83 63 75 83 63 75 90 70 82 90 70 82 90 70 82 90 70 82 90 70 82 90 70 82 90 70 82 90 70 82 86 66 78 86 66 78 86 66 78 86 66 78 86 66 78 86 66 78 86 66 78 86 66 78 66 46 57 66 46 57 66 46 57 66 46 57 66 46 57 66 46 57 66 46 57 66 46 57 63 43 54 63 43 54 63 43 54 63 43 54 63 43 54 63 43 54 63 43 54 60 44 54 56 46 54 53 48 54 54 47 54 53 48 54 54 47 54 53 48 54 54 47 54 53 48 54 58 51 58 57 52 58 58 51 58 57 52 58 58 51 58 57 52 58 58 51 58 57 52 58 68 63 69 66 64 69 68 63 69 66 64 69 68 63 69 66 64 69 68 63 69 66 64 69 68 63 69 66 64 69 68 63 69 66 64 69 68 63 69 66 64 69 68 63 69 69 62 69 69 57 67 70 57 67 70 57 67 70 57 67 70 57 67 70 57 67 70 57 67 70 57 67 52 39 49 52 39 49 52 39 49 52 39 49 52 39 49 52 39 49 52 39 49 50 40 51 51 47 61 47 46 60 45 44 58 42 41 55 38 37 51 35 34 48 33 32 46 31 30 44 29 28 42 29 28 42
48 63 94 48 63 94 48 63 94 48 63 94 48 63 92 50 64 93 50 64 91 50 64 91 50 64 91 50 64 91 50 64 91 50 64 91 50 64 91 50 64 91 50 64 91 50 64 91 50 64 91 50 64 91 50 64 91 50 64 91 52 63 91 54 64 91 56 63 91 56 63 91 56 63 91 56 63 91 56 63 91 56 63 91 56 63 91 57 64 92 57 64 92 57 64 92 57 64 92 57 64 92 57 64 92 57 64 92 58 64 90 66 71 93 68 70 91 68 70 91 68 70 91 68 70 91 68 70 91 68 70 91 68 70 91 73 75 96 73 75 96 73 75 96 73 75 96 73 75 96 73 75 96 73 75 96 73 76 95 64 63 81 64 63 79 64 63 79 64 63 79 64 63 79 64 63 79 64 63 79 64 63 79 67 66 82 69 68 84 71 70 86 74 73 89 78 77 93 81 80 96 83 82 98 83 85 98 75 79 90 71 78 86 72 75 84 69 72 81 68 66 77 66 63 74 66 60 72 67 56 70 88 74 89 89 71 87 89 68 85 87 64 82 86 59 78 83 56 75 84 52 73 79 52 71 74 51 67 71 53 67 71 53 67 71 53 67 71 53 67 71 53 67 71 53 67 71 53 67 71 53 67 71 53 67 71 53 67 71 53 67 71 53 67 71 53 67 71 53 67 71 53 67 76 56 68 76 56 68 76 56 68 76 56 68 76 56 68 76 56 68 76 56 68 76 56 68 79 59 71 79 59 71 79 59 71 79 59 71 79 59 71 79 59 71 79 59 71 79 59 71 93 73 85 93 73 85 93 73 85 93 73 85 93 73 85 93 73 85 93 73 85 93 73 85 93 73 85 93 73 85 93 73 85 93 73 85 93 73 85 93 73 85 93 73 85 93 73 85 86 66 77 86 66 77 86 66 77 86 66 77 86 66 77 86 66 77 86 66 77 86 66 77 66 46 57 66 46 57 66 46 57 66 46 57 66 46 57 66 46 57 66 46 57 64 47 57 57 46 54 54 47 54 56 46 54 54 47 54 56 46 54 54 47 54 56 46 54 54 47 54 57 47 55 55 48 55 57 47 55 55 48 55 57 47 55 55 48 55 57 47 55 55 48 55 63 56 63 62 57 63 63 56 63 62 57 63 63 56 63 62 57 63 63 56 63 62 57 63 65 58 65 64 59 65 65 58 65 64 59 65 65 58 65 64 59 65 65 58 65 65 58 65 65 53 63 66 53 63 66 53 63 66 53 63 66 53 63 66 53 63 66 53 63 66 53 63 52 39 49 52 39 49 52 39 49 52 39 49 52 39 49 52 39 49 52 39 49 50 40 51 51 47 61 47 46 60 45 44 58 42 41 55 38 37 51 35 34 48 33 32 46 31 30 44 29 28 42 29 28 42
48 63 94 48 63 94 48 63 94 48 63 94 48 63 92 50 64 93 50 64 91 50 64 91 50 64 91 50 64 91 50 64 91 50 64 91 50 64 91 50 64 91 50 64 91 50 64 91 50 64 91 50 64 91 50 64 91 50 64 91 52 63 91 54 64 91 56 63 91 56 63 91 56 63 91 56 63 91 56 63 91 56 63 91 56 63 91 57 64 92 57 64 92 57 64 92 57 64 92 57 64 92 57 64 92 57 64 92 58 64 90 66 71 93 68 70 91 68 70 91 68 70 91 68 70 91 68 70 91 68 70 91 68 70 91 73 75 96 73 75 96 73 75 96 73 75 96 73 75 96 73 75 96 73 75 96 73 76 95 64 63 81 64 63 79 64 63 79 64 63 79 64 63 79 64 63 79 64 63 79 64 63 79 67 66 82 69 68 84 71 70 86 74 73 89 78 77 93 81 80 96 83 82 98 83 85 98 75 79 90 71 78 86 72 75 84 69 72 81 68 66 77 66 63 74 66 60 72 67 56 70 88 74 89 89 71 87 89 68 85 87 64 82 86 59 78 83 56 75 84 52 73 79 52 71 74 51 67 71 53 67 71 53 67 71 53 67 71 53 67 71 53 67 71 53 67 71 53 67 68 50 64 68 50 64 68 50 64 68 50 64 68 50 64 68 50 64 68 50 64 68 50 64 73 53 65 73 53 65 73 53 65 73 53 65 73 53 65 73 53 65 73 53 65 73 53 65 76 56 68 76 56 68 76 56 68 76 56 68 76 56 68 76 56 68 76 56 68 76 56 68 91 71 83 91 71 83 91 71 83 91 71 83 91 71 83 91 71 83 91 71 83 91 71 83 94 74 86 94 74 86 94 74 86 94 74 86 94 74 86 94 74 86 94 74 86 94 74 86 98 78 89 98 78 89 98 78 89 98 78 89 98 78 89 98 78 89 98 78 89 98 78 89 75 55 66 75 55 66 75 55 66 75 55 66 75 55 66 75 55 66 75 55 66 73 56 66 64 51 60 63 52 60 63 52 60 63 52 60 63 52 60 63 52 60 63 52 60 63 52 60 60 49 57 60 49 57 60 49 57 60 49 57 60 49 57 60 49 57 60 49 57 59 49 57 58 48 56 58 48 56 58 48 56 58 48 56 58 48 56 58 48 56 58 48 56 58 48 56 64 54 62 64 54 62 64 54 62 64 54 62 64 54 62 64 54 62 64 54 62 64 54 62 62 50 60 63 50 60 63 50 60 63 50 60 63 50 60 63 50 60 63 50 60 63 50 60 52 39 49 52 39 49 52 39 49 52 39 49 52 39 49 52 39 49 52 39 49 50 40 51 51 47 61 47 46 60 45 44 58 42 41 55 38 37 51 35 34 48 33 32 46 31 30 44 29 28 42 29 28 42
48 63 94 48 63 94 48 63 94 48 63 94 48 63 92 50 64 93 50 64 91 50 64 91 50 64 91 50 64 91 50 64 91 50 64 91 50 64 91 50 64 91 50 64 91 50 64 91 50 64 91 50 64 91 50 64 91 50 64 91 52 63 91 54 64 91 56 63 91 56 63 91 56 63 91 56 63 91 56 63 91 56 63 91 56 63 91 57 64 92 57 64 92 57 64 92 57 64 92 57 64 92 57 64 92 57 64 92 58 64 90 66 71 93 68 70 91 68 70 91 68 70 91 68 70 91 68 70 91 68 70 91 68 70 91 73 75 96 73 75 96 73 75 96 73 75 96 73 75 96 73 75 96 73 75 96 73 76 95 64 63 81 64 63 79 64 63 79 64 63 79 64 63 79 64 63 79 64 63 79 64 63 79 67 66 82 69 68 84 71 70 86 74 73 89 78 77 93 81 80 96 83 82 98 83 85 98 75 79 90 71 78 86 72 75 84 69 72 81 68 66 77 66 63 74 66 60 72 67 56 70 88 74 89 89 71 87 89 68 85 87 64 82 86 59 78 83 56 75 84 52 73 79 52 71 74 51 67 71 53 67 71 53 67 71 53 67 71 53 67 71 53 67 71 53 67 71 53 67 66 48 62 66 48 62 66 48 62 66 48 62 66 48 62 66 48 62 66 48 62 66 48 62 71 51 63 71 51 63 71 51 63 71 51 63 71 51 63 71 51 63 71 51 63 71 51 63 74 54 66 74 54 66 74 54 66 74 54 66 74 54 66 74 54 66 74 54 66 74 54 66 85 65 77 85 65 77 85 65 77 85 65 77 85 65 77 85 65 77 85 65 77 85 65 77 91 71 83 91 71 83 91 71 83 91 71 83 91 71 83 91 71 83 91 71 83 91 71 83 93 73 84 93 73 84 93 73 84 93 73 84 93 73 84 93 73 84 93 73 84 93 73 84 85 65 76 85 65 76 85 65 76 85 65 76 85 65 76 85 65 76 85 65 76 83 66 76 74 58 68 72 59 68 72 59 68 72 59 68 72 59 68 72 59 68 72 59 68 72 59 68 67 54 63 67 54 63 67 54 63 67 54 63 67 54 63 67 54 63 67 54 63 67 54 63 55 42 51 54 43 51 54 43 51 54 43 51 54 43 51 54 43 51 54 43 51 54 43 51 63 52 60 63 52 60 63 52 60 63 52 60 63 52 60 63 52 60 63 52 60 63 52 60 61 48 58 61 48 58 61 48 58 61 48 58 61 48 58 61 48 58 61 48 58 61 48 58 52 39 49 52 39 49 52 39 49 52 39 49 52 39 49 52 39 49 52 39 49 50 40 51 51 47 61 47 46 60 45 44 58 42 41 55 38 37 51 35 34 48 33 32 46 31 30 44 29 28 42 29 28 42
48 63 94 48 63 94 48 63 94 48 63 94 48 63 92 50 64 93 50 64 91 50 64 91 50 64 91 50 64 91 50 64 91 50 64 91 50 64 91 50 64 91 50 64 91 50 64 91 50 64 91 50 64 91 50 64 91 50 64 91 52 63 91 54 64 91 56 63 91 56 63 91 56 63 91 56 63 91 56 63 91 56 63 91 56 63 91 57 64 92 57 64 92 57 64 92 57 64 92 57 64 92 57 64 92 57 64 92 58 64 90 66 71 93 68 70 91 68 70 91 68 70 91 68 70 91 68 70 91 68 70 91 68 70 91 73 75 96 73 75 96 73 75 96 73 75 96 73 75 96 73 75 96 73 75 96 73 76 95 64 63 81 64 63 79 64 63 79 64 63 79 64 63 79 64 63 79 64 63 79 64 63 79 67 66 82 69 68 84 71 70 86 74 73 89 78 77 93 81 80 96 83 82 98 83 85 98 75 79 90 71 78 86 72 75 84 69 72 81 68 66 77 66 63 74 66 60 72 67 56 70 88 74 89 89 71 87 89 68 85 87 64 82 86 59 78 83 56 75 84 52 73 79 52 71 74 51 67 71 53 67 71 53 67 71 53 67 71 53 67 71 53 67 71 53 67 71 53 67 64 46 60 64 46 60 64 46 60 64 46 60 64 46 60 64 46 60 64 46 60 64 46 60 69 49 61 69 49 61 69 49 61 69 49 61 69 49 61 69 49 61 69 49 61 69 49 61 72 52 64 72 52 64 72 52 64 72 52 64 72 52 64 72 52 64 72 52 64 72 52 64 81 61 73 81 61 73 81 61 73 81 61 73 81 61 73 81 61 73 81 61 73 81 61 73 88 68 80 88 68 80 88 68 80 88 68 80 88 68 80 88 68 80 88 68 80 88 68 80 83 63 74 83 63 74 83 63 74 83 63 74 83 63 74 83 63 74 83 63 74 83 63 74 92 72 83 92 72 83 92 72 83 92 72 83 92 72 83 92 72 83 92 72 83 92 72 83 81 64 74 81 64 74 81 64 74 81 64 74 81 64 74 81 64 74 81 64 74 81 64 74 74 57 67 74 57 67 74 57 67 74 57 67 74 57 67 74 57 67 74 57 67 74 57 67 55 39 49 55 39 49 55 39 49 55 39 49 55 39 49 55 39 49 55 39 49 55 39 49 64 48 58 64 48 58 64 48 58 64 48 58 64 48 58 64 48 58 64 48 58 64 48 58 59 46 56 59 46 56 59 46 56 59 46 56 59 46 56 59 46 56 59 46 56 59 46 56 52 39 49 52 39 49 52 39 49 52 39 49 52 39 49 52 39 49 52 39 49 50 40 51 51 47 61 47 46 60 45 44 58 42 41 55 38 37 51 35 34 48 33 32 46 31 30 44 29 28 42 29 28 42
51 66 97 51 66 97 51 66 97 51 66 97 51 66 95 44 58 87 44 58 85 44 58 85 44 58 85 44 58 85 44 58 85 44 58 85 44 58 85 53 67 94 53 67 94 53 67 94 53 67 94 53 67 94 53 67 94 53 67 94 55 66 94 55 65 92 57 64 92 57 64 92 57 64 92 57 64 92 57 64 92 57 64 92 57 64 92 57 64 92 57 64 92 57 64 92 57 64 92 57 64 92 57 64 92 57 64 92 58 64 90 59 64 86 61 63 84 61 63 84 61 63 84 61 63 84 61 63 84 61 63 84 61 63 84 59 61 82 59 61 82 59 61 82 59 61 82 59 61 82 59 61 82 59 61 82 59 62 81 62 61 79 62 61 77 62 61 77 62 61 77 62 61 77 62 61 77 62 61 77 62 61 77 75 74 90 75 74 90 75 74 90 75 74 90 75 74 90 75 74 90 75 74 90 73 75 88 62 66 77 60 67 75 63 66 75 63 66 75 66 64 75 67 64 75 69 63 75 72 61 75 76 62 77 79 61 77 81 60 77 82 59 77 85 58 77 85 58 77 88 56 77 85 58 77 73 50 66 70 52 66 70 52 66 70 52 66 70 52 66 70 52 66 70 52 66 70 52 66 67 49 63 67 49 63 67 49 63 67 49 63 67 49 63 67 49 63 67 49 63 67 49 63 72 52 64 72 52 64 72 52 64 72 52 64 72 52 64 72 52 64 72 52 64 72 52 64 73 53 65 73 53 65 73 53 65 73 53 65 73 53 65 73 53 65 73 53 65 73 53 65 75 55 67 75 55 67 75 55 67 75 55 67 75 55 67 75 55 67 75 55 67 75 55 67 77 57 69 77 57 69 77 57 69 77 57 69 77 57 69 77 57 69 77 57 69 77 57 69 79 59 70 79 59 70 79 59 70 79 59 70 79 59 70 79 59 70 79 59 70 79 59 70 82 62 73 82 62 73 82 62 73 82 62 73 82 62 73 82 62 73 82 62 73 82 62 73 94 72 84 94 72 84 94 72 84 94 72 84 94 72 84 94 72 84 94 72 84 94 72 84 96 74 86 96 74 86 96 74 86 96 74 86 96 74 86 96 74 86 96 74 86 96 74 86 76 56 67 76 56 67 76 56 67 76 56 67 76 56 67 76 56 67 76 56 67 76 56 67 62 42 53 62 42 53 62 42 53 62 42 53 62 42 53 62 42 53 62 42 53 60 43 53 49 33 44 47 34 44 47 34 44 47 34 44 47 34 44 47 34 44 47 34 44 47 34 44 43 30 40 43 30 40 43 30 40 43 30 40 43 30 40 43 30 40 43 30 40 41 31 42 51 47 61 49 48 62 49 48 62 49 48 62 49 48 62 49 48 62 49 48 62 49 48 62 38 37 51 38 37 51
53 68 99 53 68 99 53 68 99 53 68 99 53 68 97 46 60 89 46 60 87 46 60 87 46 60 87 46 60 87 46 60 87 46 60 87 46 60 87 53 67 94 53 67 94 53 67 94 53 67 94 53 67 94 53 67 94 53 67 94 55 66 94 55 65 92 57 64 92 57 64 92 57 64 92 57 64 92 57 64 92 57 64 92 57 64 92 57 64 92 57 64 92 57 64 92 57 64 92 57 64 92 57 64 92 57 64 92 58 64 90 59 64 86 61 63 84 61 63 84 61 63 84 61 63 84 61 63 84 61 63 84 61 63 84 59 61 82 59 61 82 59 61 82 59 61 82 59 61 82 59 61 82 59 61 82 59 62 81 62 61 79 62 61 77 62 61 77 62 61 77 62 61 77 62 61 77 62 61 77 62 61 77 73 72 88 73 72 88 73 72 88 73 72 88 73 72 88 73 72 88 73 72 88 71 73 86 62 66 77 60 67 75 63 66 75 63 66 75 66 64 75 67 64 75 69 63 75 72 61 75 76 62 77 79 61 77 81 60 77 82 59 77 85 58 77 85 58 77 88 56 77 85 58 77 73 50 66 70 52 66 70 52 66 70 52 66 70 52 66 70 52 66 70 52 66 70 52 66 67 49 63 67 49 63 67 49 63 67 49 63 67 49 63 67 49 63 67 49 63 67 49 63 72 52 64 72 52 64 72 52 64 72 52 64 72 52 64 72 52 64 72 52 64 72 52 64 73 53 65 73 53 65 73 53 65 73 53 65 73 53 65 73 53 65 73 53 65 73 53 65 75 55 67 75 55 67 75 55 67 75 55 67 75 55 67 75 55 67 75 55 67 75 55 67 77 57 69 77 57 69 77 57 69 77 57 69 77 57 69 77 57 69 77 57 69 77 57 69 79 59 70 79 59 70 79 59 70 79 59 70 79 59 70 79 59 70 79 59 70 79 59 70 82 62 73 82 62 73 82 62 73 82 62 73 82 62 73 82 62 73 82 62 73 83 61 73 93 69 82 95 69 82 95 69 82 95 69 82 95 69 82 95 69 82 95 69 82 95 69 82 97 71 84 97 71 84 97 71 84 97 71 84 97 71 84 97 71 84 97 71 84 95 71 84 84 60 73 84 60 73 84 60 73 84 60 73 84 60 73 84 60 73 84 60 73 84 60 73 71 47 60 71 47 60 71 47 60 71 47 60 71 47 60 71 47 60 71 47 60 70 48 60 57 41 52 55 42 52 55 42 52 55 42 52 55 42 52 55 42 52 55 42 52 55 42 52 47 34 44 47 34 44 47 34 44 47 34 44 47 34 44 47 34 44 47 34 44 45 35 46 48 44 58 46 45 59 46 45 59 46 45 59 46 45 59 46 45 59 46 45 59 46 45 59 35 34 48 35 34 48
58 73 104 58 73 104 58 73 104 58 73 104 58 73 102 51 65 94 51 65 92 51 65 92 51 65 92 51 65 92 51 65 92 51 65 92 51 65 92 53 67 94 53 67 94 53 67 94 53 67 94 53 67 94 53 67 94 53 67 94 55 66 94 55 65 92 57 64 92 57 64 92 57 64 92 57 64 92 57 64 92 57 64 92 57 64 92 57 64 92 57 64 92 57 64 92 57 64 92 57 64 92 57 64 92 57 64 92 58 64 90 59 64 86 61 63 84 61 63 84 61 63 84 61 63 84 61 63 84 61 63 84 61 63 84 59 61 82 59 61 82 59 61 82 59 61 82 59 61 82 59 61 82 59 61 82 59 62 81 62 61 79 62 61 77 62 61 77 62 61 77 62 61 77 62 61 77 62 61 77 62 61 77 71 70 86 71 70 86 71 70 86 71 70 86 71 70 86 71 70 86 71 70 86 69 71 84 62 66 77 60 67 75 63 66 75 63 66 75 66 64 75 67 64 75 69 63 75 72 61 75 76 62 77 79 61 77 81 60 77 82 59 77 85 58 77 85 58 77 88 56 77 85 58 77 73 50 66 70 52 66 70 52 66 70 52 66 70 52 66 70 52 66 70 52 66 70 52 66 67 49 63 67 49 63 67 49 63 67 49 63 67 49 63 67 49 63 67 49 63 67 49 63 72 52 64 72 52 64 72 52 64 72 52 64 72 52 64 72 52 64 72 52 64 72 52 64 73 53 65 73 53 65 73 53 65 73 53 65 73 53 65 73 53 65 73 53 65 73 53 65 75 55 67 75 55 67 75 55 67 75 55 67 75 55 67 75 55 67 75 55 67 75 55 67 77 57 69 77 57 69 77 57 69 77 57 69 77 57 69 77 57 69 77 57 69 77 57 69 79 59 70 79 59 70 79 59 70 79 59 70 79 59 70 79 59 70 79 59 70 79 59 70 82 62 73 82 62 73 82 62 73 82 62 73 82 62 73 82 62 73 82 62 73 83 61 73 93 67 80 94 66 80 94 66 80 94 66 80 94 66 80 94 66 80 94 66 80 94 66 80 96 68 82 96 68 82 96 68 82 96 68 82 96 68 82 96 68 82 96 68 82 96 68 82 95 67 81 94 68 81 94 68 81 94 68 81 94 68 81 94 68 81 94 68 81 94 68 81 83 57 70 83 57 70 83 57 70 83 57 70 83 57 70 83 57 70 83 57 70 81 57 70 71 53 65 68 55 65 68 55 65 68 55 65 68 55 65 68 55 65 68 55 65 68 55 65 54 41 51 54 41 51 54 41 51 54 41 51 54 41 51 54 41 51 54 41 51 52 42 53 45 41 55 43 42 56 43 42 56 43 42 56 43 42 56 43 42 56 43 42 56 43 42 56 32 31 45 32 31 45
65 80 111 65 80 111 65 80 111 65 80 111 65 80 109 58 72 101 58 72 99 58 72 99 58 72 99 58 72 99 58 72 99 58 72 99 58 72 99 53 67 94 53 67 94 53 67 94 53 67 94 53 67 94 53 67 94 53 67 94 55 66 94 55 65 92 57 64 92 57 64 92 57 64 92 57 64 92 57 64 92 57 64 92 57 64 92 57 64 92 57 64 92 57 64 92 57 64 92 57 64 92 57 64 92 57 64 92 58 64 90 59 64 86 61 63 84 61 63 84 61 63 84 61 63 84 61 63 84 61 63 84 61 63 84 59 61 82 59 61 82 59 61 82 59 61 82 59 61 82 59 61 82 59 61 82 59 62 81 62 61 79 62 61 77 62 61 77 62 61 77 62 61 77 62 61 77 62 61 77 62 61 77 68 67 83 68 67 83 68 67 83 68 67 83 68 67 83 68 67 83 68 67 83 66 68 81 62 66 77 60 67 75 63 66 75 63 66 75 66 64 75 67 64 75 69 63 75 72 61 75 76 62 77 79 61 77 81 60 77 82 59 77 85 58 77 85 58 77 88 56 77 85 58 77 73 50 66 70 52 66 70 52 66 70 52 66 70 52 66 70 52 66 70 52 66 70 52 66 67 49 63 67 49 63 67 49 63 67 49 63 67 49 63 67 49 63 67 49 63 67 49 63 72 52 64 72 52 64 72 52 64 72 52 64 72 52 64 72 52 64 72 52 64 72 52 64 73 53 65 73 53 65 73 53 65 73 53 65 73 53 65 73 53 65 73 53 65 73 53 65 75 55 67 75 55 67 75 55 67 75 55 67 75 55 67 75 55 67 75 55 67 75 55 67 77 57 69 77 57 69 77 57 69 77 57 69 77 57 69 77 57 69 77 57 69 77 57 69 79 59 70 79 59 70 79 59 70 79 59 70 79 59 70 79 59 70 79 59 70 79 59 70 82 62 73 82 62 73 82 62 73 82 62 73 82 62 73 82 62 73 82 62 73 83 61 73 91 63 77 93 62 77 94 62 77 93 62 77 94 62 77 93 62 77 94 62 77 93 62 77 96 64 79 95 64 79 96 64 79 95 64 79 96 64 79 95 64 79 96 64 79 95 64 79 103 72 87 101 73 87 103 72 87 101 73 87 103 72 87 101 73 87 103 72 87 101 73 87 95 64 79 93 65 79 95 64 79 93 65 79 95 64 79 93 65 79 95 64 79 92 66 79 83 65 77 80 67 77 80 67 77 80 67 77 80 67 77 80 67 77 80 67 77 80 67 77 64 51 61 64 51 61 64 51 61 64 51 61 64 51 61 64 51 61 64 51 61 62 52 63 46 42 56 44 43 57 44 43 57 44 43 57 44 43 57 44 43 57 44 43 57 44 43 57 33 32 46 33 32 46
71 86 117 71 86 117 71 86 117 71 86 117 71 86 115 64 78 107 64 78 105 64 78 105 64 78 105 64 78 105 64 78 105 64 78 105 64 78 105 53 67 94 53 67 94 53 67 94 53 67 94 53 67 94 53 67 94 53 67 94 55 66 94 55 65 92 57 64 92 57 64 92 57 64 92 57 64 92 57 64 92 57 64 92 57 64 92 57 64 92 57 64 92 57 64 92 57 64 92 57 64 92 57 64 92 57 64 92 58 64 90 59 64 86 61 63 84 61 63 84 61 63 84 61 63 84 61 63 84 61 63 84 61 63 84 59 61 82 59 61 82 59 61 82 59 61 82 59 61 82 59 61 82 59 61 82 59 62 81 62 61 79 62 61 77 62 61 77 62 61 77 62 61 77 62 61 77 62 61 77 62 61 77 64 63 79 64 63 79 64 63 79 64 63 79 64 63 79 64 63 79 64 63 79 62 64 77 62 66 77 60 67 75 63 66 75 63 66 75 66 64 75 67 64 75 69 63 75 72 61 75 76 62 77 79 61 77 81 60 77 82 59 77 85 58 77 85 58 77 88 56 77 85 58 77 73 50 66 70 52 66 70 52 66 70 52 66 70 52 66 70 52 66 70 52 66 70 52 66 67 49 63 67 49 63 67 49 63 67 49 63 67 49 63 67 49 63 67 49 63 67 49 63 72 52 64 72 52 64 72 52 64 72 52 64 72 52 64 72 52 64 72 52 64 72 52 64 73 53 65 73 53 65 73 53 65 73 53 65 73 53 65 73 53 65 73 53 65 73 53 65 75 55 67 75 55 67 75 55 67 75 55 67 75 55 67 75 55 67 75 55 67 75 55 67 77 57 69 77 57 69 77 57 69 77 57 69 77 57 69 77 57 69 77 57 69 77 57 69 79 59 70 79 59 70 79 59 70 79 59 70 79 59 70 79 59 70 79 59 70 79 59 70 82 62 73 82 62 73 82 62 73 82 62 73 82 62 73 82 62 73 82 62 73 84 60 73 89 58 73 90 58 73 91 57 73 90 58 73 91 57 73 90 58 73 91 57 73 90 58 73 93 59 75 92 60 75 93 59 75 92 60 75 93 59 75 92 60 75 93 59 75 92 60 75 104 72 87 103 72 87 104 72 87 103 72 87 104 72 87 103 72 87 104 72 87 103 72 87 99 67 82 98 67 82 99 67 82 98 67 82 99 67 82 98 67 82 99 67 82 95 69 82 90 72 84 87 74 84 87 74 84 87 74 84 87 74 84 87 74 84 87 74 84 87 74 84 74 61 71 74 61 71 74 61 71 74 61 71 74 61 71 74 61 71 74 61 71 72 62 73 53 49 63 51 50 64 51 50 64 51 50 64 51 50 64 51 50 64 51 50 64 51 50 64 40 39 53 40 39 53
78 93 124 78 93 124 78 93 124 78 93 124 78 93 122 71 85 114 71 85 112 71 85 112 71 85 112 71 85 112 71 85 112 71 85 112 71 85 112 53 67 94 53 67 94 53 67 94 53 67 94 53 67 94 53 67 94 53 67 94 55 66 94 55 65 92 57 64 92 57 64 92 57 64 92 57 64 92 57 64 92 57 64 92 57 64 92 57 64 92 57 64 92 57 64 92 57 64 92 57 64 92 57 64 92 57 64 92 58 64 90 59 64 86 61 63 84 61 63 84 61 63 84 61 63 84 61 63 84 61 63 84 61 63 84 59 61 82 59 61 82 59 61 82 59 61 82 59 61 82 59 61 82 59 61 82 59 62 81 62 61 79 62 61 77 62 61 77 62 61 77 62 61 77 62 61 77 62 61 77 62 61 77 61 60 76 61 60 76 61 60 76 61 60 76 61 60 76 61 60 76 61 60 76 59 61 74 62 66 77 60 67 75 63 66 75 63 66 75 66 64 75 67 64 75 69 63 75 72 61 75 76 62 77 79 61 77 81 60 77 82 59 77 85 58 77 85 58 77 88 56 77 85 58 77 73 50 66 70 52 66 70 52 66 70 52 66 70 52 66 70 52 66 70 52 66 70 52 66 67 49 63 67 49 63 67 49 63 67 49 63 67 49 63 67 49 63 67 49 63 67 49 63 72 52 64 72 52 64 72 52 64 72 52 64 72 52 64 72 52 64 72 52 64 72 52 64 73 53 65 73 53 65 73 53 65 73 53 65 73 53 65 73 53 65 73 53 65 73 53 65 75 55 67 75 55 67 75 55 67 75 55 67 75 55 67 75 55 67 75 55 67 75 55 67 77 57 69 77 57 69 77 57 69 77 57 69 77 57 69 77 57 69 77 57 69 77 57 69 79 59 70 79 59 70 79 59 70 79 59 70 79 59 70 79 59 70 79 59 70 79 59 70 82 62 73 82 62 73 82 62 73 82 62 73 82 62 73 82 62 73 82 62 73 84 60 73 87 55 70 88 54 70 90 53 70 88 54 70 90 53 70 88 54 70 90 53 70 88 54 70 92 55 72 90 56 72 92 55 72 90 56 72 92 55 72 90 56 72 92 55 72 90 56 72 99 65 81 98 66 81 99 65 81 98 66 81 99 65 81 98 66 81 99 65 81 98 66 81 98 64 80 97 65 80 98 64 80 97 65 80 98 64 80 97 65 80 98 64 80 94 66 80 91 73 85 88 75 85 88 75 85 88 75 85 88 75 85 88 75 85 88 75 85 88 75 85 84 71 81 84 71 81 84 71 81 84 71 81 84 71 81 84 71 81 84 71 81 82 72 83 65 61 75 63 62 76 63 62 76 63 62 76 63 62 76 63 62 76 63 62 76 63 62 76 52 51 65 52 51 65
83 98 129 83 98 129 83 98 129 83 98 129 83 98 127 76 90 119 76 90 117 76 90 117 76 90 117 76 90 117 76 90 117 76 90 117 76 90 117 53 67 94 53 67 94 53 67 94 53 67 94 53 67 94 53 67 94 53 67 94 55 66 94 55 65 92 57 64 92 57 64 92 57 64 92 57 64 92 57 64 92 57 64 92 57 64 92 57 64 92 57 64 92 57 64 92 57 64 92 57 64 92 57 64 92 57 64 92 58 64 90 59 64 86 61 63 84 61 63 84 61 63 84 61 63 84 61 63 84 61 63 84 61 63 84 59 61 82 59 61 82 59 61 82 59 61 82 59 61 82 59 61 82 59 61 82 59 62 81 62 61 79 62 61 77 62 61 77 62 61 77 62 61 77 62 61 77 62 61 77 62 61 77 59 58 74 59 58 74 59 58 74 59 58 74 59 58 74 59 58 74 59 58 74 57 59 72 62 66 77 60 67 75 63 66 75 63 66 75 66 64 75 67 64 75 69 63 75 72 61 75 76 62 77 79 61 77 81 60 77 82 59 77 85 58 77 85 58 77 88 56 77 85 58 77 73 50 66 70 52 66 70 52 66 70 52 66 70 52 66 70 52 66 70 52 66 70 52 66 67 49 63 67 49 63 67 49 63 67 49 63 67 49 63 67 49 63 67 49 63 67 49 63 72 52 64 72 52 64 72 52 64 72 52 64 72 52 64 72 52 64 72 52 64 72 52 64 73 53 65 73 53 65 73 53 65 73 53 65 73 53 65 73 53 65 73 53 65 73 53 65 75 55 67 75 55 67 75 55 67 75 55 67 75 55 67 75 55 67 75 55 67 75 55 67 77 57 69 77 57 69 77 57 69 77 57 69 77 57 69 77 57 69 77 57 69 77 57 69 79 59 70 79 59 70 79 59 70 79 59 70 79 59 70 79 59 70 79 59 70 79 59 70 82 62 73 82 62 73 82 62 73 82 62 73 82 62 73 82 62 73 82 62 73 84 60 73 85 53 68 88 51 68 89 50 68 88 51 68 89 50 68 88 51 68 89 50 68 88 51 68 91 52 70 90 53 70 91 52 70 90 53 70 91 52 70 90 53 70 91 52 70 90 53 70 93 56 73 91 57 73 93 56 73 91 57 73 93 56 73 91 57 73 93 56 73 91 57 73 94 57 74 92 58 74 94 57 74 92 58 74 94 57 74 92 58 74 94 57 74 90 59 74 90 70 82 85 72 82 85 72 82 85 72 82 85 72 82 85 72 82 85 72 82 85 72 82 91 78 88 91 78 88 91 78 88 91 78 88 91 78 88 91 78 88 91 78 88 89 79 90 78 74 88 76 75 89 76 75 89 76 75 89 76 75 89 76 75 89 76 75 89 76 75 89 65 64 78 65 64 78
84 100 133 84 100 133 84 100 133 84 100 133 84 100 133 77 92 125 77 92 123 77 92 125 77 92 123 77 92 125 77 92 123 77 92 125 77 92 123 52 67 100 52 67 98 52 67 100 52 67 98 52 67 100 52 67 98 52 67 100 52 67 98 52 66 95 54 65 93 54 65 93 54 65 93 54 65 93 54 65 93 54 65 93 54 65 93 54 65 93 54 65 93 54 65 93 54 65 93 54 65 93 54 65 93 54 65 93 55 64 93 57 64 90 57 64 90 58 64 90 57 64 90 58 64 90 57 64 90 58 64 90 57 64 90 56 62 88 55 62 88 56 62 88 55 62 88 56 62 88 55 62 88 56 62 88 56 62 86 57 62 84 59 61 82 59 61 82 59 61 82 59 61 82 59 61 82 59 61 82 59 61 82 54 56 77 54 56 77 54 56 77 54 56 77 54 56 77 54 56 77 54 56 77 52 57 76 59 66 82 59 67 80 60 66 80 62 65 80 63 65 80 65 64 80 66 63 80 67 63 80 72 63 82 74 62 82 75 62 82 76 61 82 78 60 82 78 60 82 79 60 82 79 60 82 70 51 71 69 52 71 69 52 71 69 52 71 69 52 71 69 52 71 69 52 71 69 52 71 66 49 68 66 49 68 66 49 68 66 49 68 66 49 68 66 49 68 66 49 68 67 48 67 70 51 70 72 51 68 72 51 70 72 51 68 72 51 70 72 51 68 72 51 70 72 51 68 73 52 71 73 52 69 73 52 71 73 52 69 73 52 71 73 52 69 73 52 71 73 52 69 75 54 71 75 54 71 75 54 71 75 54 71 75 54 71 75 54 71 75 54 71 75 54 71 77 56 73 77 56 73 77 56 73 77 56 73 77 56 73 77 56 73 77 56 73 77 56 71 80 57 73 80 58 71 80 58 71 80 58 71 80 58 71 80 58 71 80 58 71 80 58 71 83 61 74 83 61 74 83 61 74 83 61 74 83 61 74 83 61 74 83 61 74 86 59 74 84 50 67 86 49 67 87 48 67 86 49 67 87 48 67 86 49 67 87 48 67 86 49 67 89 50 69 88 51 69 89 50 69 88 51 69 89 50 69 88 51 69 89 50 69 88 51 69 85 51 68 84 52 67 84 51 68 84 52 67 84 51 68 84 52 67 84 51 68 84 52 67 87 54 71 87 55 70 87 54 71 87 55 70 87 54 71 87 55 70 87 54 71 84 56 71 87 67 79 84 68 79 85 67 79 84 68 79 85 67 79 84 68 79 85 67 79 84 68 79 98 80 92 97 81 92 98 80 92 97 81 92 98 80 92 97 81 92 98 80 92 95 81 94 91 80 94 88 82 96 88 82 96 88 82 96 88 82 96 88 82 96 88 82 96 88 82 96 77 71 85 77 71 85
86 106 139 87 107 140 89 109 142 89 109 142 90 110 145 90 109 149 90 109 149 90 109 151 90 109 149 90 109 151 90 109 149 90 109 151 90 109 149 75 94 136 75 94 134 75 94 136 75 94 134 75 94 136 75 94 134 75 94 136 75 95 132 52 71 104 52 71 103 52 71 103 52 71 103 52 71 103 52 71 103 52 71 103 52 71 103 51 70 102 51 70 102 51 70 102 51 70 102 51 70 102 51 70 102 51 70 102 51 70 102 52 68 101 52 68 101 53 68 101 52 68 101 53 68 101 52 68 101 53 68 101 52 68 101 53 68 101 52 68 101 53 68 101 52 68 101 53 68 101 52 68 101 53 68 101 53 68 101 53 64 96 53 64 94 53 64 94 53 64 94 53 64 94 53 64 94 53 64 94 53 64 94 50 61 91 50 61 91 50 61 91 50 61 91 50 61 91 50 61 91 50 61 91 50 61 89 50 60 87 50 60 87 50 60 87 52 59 87 52 59 87 52 59 87 53 58 87 53 58 87 55 59 88 55 59 88 55 59 88 57 58 88 57 58 88 57 58 88 57 58 88 61 56 86 67 54 84 69 53 82 69 53 82 69 53 82 69 53 82 69 53 82 69 53 82 69 53 82 67 51 80 67 51 80 67 51 80 67 51 80 67 51 80 67 51 80 67 51 80 67 51 80 72 52 80 72 52 79 72 52 80 72 52 79 72 52 80 72 52 79 72 52 80 72 52 79 73 53 81 73 53 80 73 53 81 73 53 80 73 53 81 73 53 80 73 53 81 73 53 80 76 53 79 76 54 77 76 54 77 76 54 77 76 54 77 76 54 77 76 54 77 76 54 77 76 54 77 76 54 77 76 54 77 76 54 77 76 54 77 76 54 77 76 54 77 77 53 77 83 55 77 84 55 77 84 55 77 84 55 77 84 55 77 84 55 77 84 55 77 84 55 77 87 58 80 87 58 80 87 58 80 87 58 80 87 58 80 87 58 80 87 58 80 89 57 80 91 56 78 91 56 78 93 55 78 91 56 78 93 55 78 91 56 78 93 55 78 91 56 78 90 52 75 88 53 75 90 52 75 88 53 75 90 52 75 88 53 75 90 52 75 87 54 75 83 54 72 82 55 70 82 55 72 82 55 70 82 55 72 82 55 70 82 55 72 82 55 70 80 53 70 80 53 68 80 53 70 80 53 68 80 53 70 80 53 68 80 53 70 78 54 68 80 56 70 79 57 70 80 56 70 79 57 70 80 56 70 79 57 70 80 56 70 79 57 70 82 58 72 81 59 72 82 58 72 81 59 72 82 58 72 81 59 72 82 58 72 81 59 72 90 69 84 90 69 84 90 69 84 90 69 84 90 69 84 90 69 84 90 69 84 90 69 84 98 77 92 98 77 92
83 106 138 83 106 140 84 107 139 84 107 141 84 106 143 84 106 147 84 105 148 84 105 150 84 105 148 84 105 150 84 105 148 84 105 150 84 105 148 75 96 141 75 96 139 75 96 141 75 96 139 75 96 141 75 96 139 75 96 141 75 97 138 57 80 114 57 80 112 57 80 112 57 80 112 57 80 112 57 80 112 57 80 112 57 80 112 50 73 105 50 73 105 50 73 105 50 73 105 50 73 105 50 73 105 50 73 105 50 73 105 46 66 103 46 66 103 46 66 103 46 66 103 46 66 103 46 66 103 46 66 103 46 66 103 49 69 106 49 69 106 49 69 106 49 69 106 49 69 106 49 69 106 49 69 106 50 68 104 49 65 101 50 64 99 50 64 99 50 64 99 50 64 99 50 64 99 50 64 99 50 64 99 47 61 96 47 61 96 47 61 96 47 61 96 47 61 96 47 61 96 47 61 96 47 62 95 49 59 94 49 60 92 49 60 92 49 60 92 49 60 92 49 60 92 49 60 92 49 60 92 50 61 93 50 61 93 50 61 93 50 61 93 50 61 93 50 61 93 50 61 93 54 59 91 62 55 89 67 53 88 68 52 88 67 53 88 68 52 88 67 53 88 68 52 88 67 53 88 66 50 86 65 51 86 66 50 86 65 51 86 66 50 86 65 51 86 66 50 86 66 51 84 71 51 86 71 52 84 72 51 84 71 52 84 72 51 84 71 52 84 72 51 84 71 52 84 73 52 85 72 53 85 73 52 85 72 53 85 73 52 85 72 53 85 73 52 85 73 52 83 74 54 82 74 54 81 76 53 81 74 54 81 76 53 81 74 54 81 76 53 81 74 54 81 76 53 81 74 54 81 76 53 81 74 54 81 76 53 81 74 54 81 76 53 81 77 53 79 83 55 80 84 54 78 86 54 78 84 54 78 86 54 78 84 54 78 86 54 78 84 54 78 89 57 81 87 57 81 89 57 81 87 57 81 89 57 81 87 57 81 89 57 81 89 57 81 90 56 80 90 56 80 91 56 80 90 56 80 91 56 80 90 56 80 91 56 80 90 56 80 88 53 77 87 53 77 88 53 77 87 53 77 88 53 77 87 53 77 88 53 77 86 54 75 80 55 74 79 56 72 79 56 72 79 56 72 79 56 72 79 56 72 79 56 72 79 56 72 77 54 70 77 54 70 77 54 70 77 54 70 77 54 70 77 54 70 77 54 70 77 54 70 82 55 70 82 55 70 82 55 70 82 55 70 82 55 70 82 55 70 82 55 70 82 55 70 84 57 72 84 57 72 84 57 72 84 57 72 84 57 72 84 57 72 84 57 72 84 57 72 92 65 80 92 65 80 92 65 80 92 65 80 92 65 80 92 65 80 92 65 80 92 65 80 100 73 88 100 73 88
83 106 137 82 105 137 81 104 135 81 104 136 80 103 137 78 100 139 78 100 141 78 99 142 78 100 141 78 99 142 78 100 141 78 99 142 78 100 141 77 98 141 77 99 140 77 98 141 77 99 140 77 98 141 77 99 140 77 98 141 77 99 138 70 93 127 70 93 125 70 93 125 70 93 125 70 93 125 70 93 125 70 93 125 70 93 125 55 78 110 55 78 110 55 78 110 55 78 110 55 78 110 55 78 110 55 78 110 55 78 110 43 63 100 43 63 100 43 63 100 43 63 100 43 63 100 43 63 100 43 63 100 43 63 100 49 69 106 49 69 106 49 69 106 49 69 106 49 69 106 49 69 106 49 69 106 50 68 104 49 65 101 50 64 99 50 64 99 50 64 99 50 64 99 50 64 99 50 64 99 50 64 99 47 61 96 47 61 96 47 61 96 47 61 96 47 61 96 47 61 96 47 61 96 47 62 95 49 59 94 49 60 92 49 60 92 49 60 92 49 60 92 49 60 92 49 60 92 49 60 92 50 61 93 50 61 93 50 61 93 50 61 93 50 61 93 50 61 93 50 61 93 54 59 91 62 55 89 65 54 88 67 53 88 65 54 88 67 53 88 65 54 88 67 53 88 65 54 88 65 51 86 63 52 86 65 51 86 63 52 86 65 51 86 63 52 86 65 51 86 65 51 84 69 52 86 69 52 84 71 52 84 69 52 84 71 52 84 69 52 84 71 52 84 69 52 84 72 53 85 70 53 85 72 53 85 70 53 85 72 53 85 70 53 85 72 53 85 72 53 83 73 54 82 73 55 81 74 54 81 73 55 81 74 54 81 73 55 81 74 54 81 73 55 81 74 54 81 73 55 81 74 54 81 73 55 81 74 54 81 73 55 81 74 54 81 76 53 79 81 55 80 83 55 78 84 54 78 83 55 78 84 54 78 83 55 78 84 54 78 83 55 78 87 57 81 86 58 81 87 57 81 86 58 81 87 57 81 86 58 81 87 57 81 87 57 81 89 57 80 89 57 80 90 56 80 89 57 80 90 56 80 89 57 80 90 56 80 89 57 80 87 53 77 86 54 77 87 53 77 86 54 77 87 53 77 86 54 77 87 53 77 84 55 75 80 55 74 79 56 72 79 56 72 79 56 72 79 56 72 79 56 72 79 56 72 79 56 72 77 54 70 77 54 70 77 54 70 77 54 70 77 54 70 77 54 70 77 54 70 77 54 70 82 55 70 82 55 70 82 55 70 82 55 70 82 55 70 82 55 70 82 55 70 82 55 70 84 57 72 84 57 72 84 57 72 84 57 72 84 57 72 84 57 72 84 57 72 84 57 72 90 63 78 90 63 78 90 63 78 90 63 78 90 63 78 90 63 78 90 63 78 90 63 78 95 68 83 95 68 83
87 111 139 85 108 139 83 107 135 81 104 135 80 103 135 76 98 135 76 98 137 76 98 139 76 98 137 76 98 139 76 98 137 76 98 139 76 98 137 80 102 143 80 102 141 80 102 143 80 102 141 80 102 143 80 102 141 80 102 143 80 102 141 82 105 139 82 105 137 82 105 137 82 105 137 82 105 137 82 105 137 82 105 137 82 105 137 62 85 117 62 85 117 62 85 117 62 85 117 62 85 117 62 85 117 62 85 117 62 85 117 44 64 101 44 64 101 44 64 101 44 64 101 44 64 101 44 64 101 44 64 101 44 64 101 49 69 106 49 69 106 49 69 106 49 69 106 49 69 106 49 69 106 49 69 106 50 68 104 49 65 101 50 64 99 50 64 99 50 64 99 50 64 99 50 64 99 50 64 99 50 64 99 47 61 96 47 61 96 47 61 96 47 61 96 47 61 96 47 61 96 47 61 96 47 62 95 49 59 94 49 60 92 49 60 92 49 60 92 49 60 92 49 60 92 49 60 92 49 60 92 50 61 93 50 61 93 50 61 93 50 61 93 50 61 93 50 61 93 50 61 93 54 59 91 61 55 89 64 54 88 65 54 88 64 54 88 65 54 88 64 54 88 65 54 88 64 54 88 63 52 86 62 52 86 63 52 86 62 52 86 63 52 86 62 52 86 63 52 86 63 52 84 68 53 86 68 53 84 69 52 84 68 53 84 69 52 84 68 53 84 69 52 84 68 53 84 70 53 85 69 54 85 70 53 85 69 54 85 70 53 85 69 54 85 70 53 85 70 54 83 71 55 82 71 55 81 73 55 81 71 55 81 73 55 81 71 55 81 73 55 81 71 55 81 73 55 81 71 55 81 73 55 81 71 55 81 73 55 81 71 55 81 73 55 81 74 54 79 80 56 80 81 56 78 83 55 78 81 56 78 83 55 78 81 56 78 83 55 78 81 56 78 86 58 81 84 59 81 86 58 81 84 59 81 86 58 81 84 59 81 86 58 81 86 58 81 87 58 80 87 58 80 89 57 80 87 58 80 89 57 80 87 58 80 89 57 80 87 58 80 86 54 77 84 55 77 86 54 77 84 55 77 86 54 77 84 55 77 86 54 77 84 55 75 80 55 74 79 56 72 79 56 72 79 56 72 79 56 72 79 56 72 79 56 72 79 56 72 77 54 70 77 54 70 77 54 70 77 54 70 77 54 70 77 54 70 77 54 70 77 54 70 82 55 70 82 55 70 82 55 70 82 55 70 82 55 70 82 55 70 82 55 70 82 55 70 84 57 72 84 57 72 84 57 72 84 57 72 84 57 72 84 57 72 84 57 72 84 57 72 87 60 75 87 60 75 87 60 75 87 60 75 87 60 75 87 60 75 87 60 75 87 60 75 88 61 76 88 61 76
99 123 149 94 118 146 90 114 140 87 111 139 85 108 139 79 102 136 79 101 138 79 101 140 79 101 138 79 101 140 79 101 138 79 101 140 79 101 138 84 106 145 84 106 143 84 106 145 84 106 143 84 106 145 84 106 143 84 106 145 84 106 143 89 112 146 89 112 144 89 112 144 89 112 144 89 112 144 89 112 144 89 112 144 89 112 144 68 91 123 68 91 123 68 91 123 68 91 123 68 91 123 68 91 123 68 91 123 68 91 123 51 71 108 51 71 108 51 71 108 51 71 108 51 71 108 51 71 108 51 71 108 51 71 108 49 69 106 49 69 106 49 69 106 49 69 106 49 69 106 49 69 106 49 69 106 50 68 104 49 65 101 50 64 99 50 64 99 50 64 99 50 64 99 50 64 99 50 64 99 50 64 99 47 61 96 47 61 96 47 61 96 47 61 96 47 61 96 47 61 96 47 61 96 47 62 95 49 59 94 49 60 92 49 60 92 49 60 92 49 60 92 49 60 92 49 60 92 49 60 92 50 61 93 50 61 93 50 61 93 50 61 93 50 61 93 50 61 93 50 61 93 53 59 91 60 56 89 62 55 88 64 54 88 62 55 88 64 54 88 62 55 88 64 54 88 62 55 88 62 52 86 60 53 86 62 52 86 60 53 86 62 52 86 60 53 86 62 52 86 62 53 84 67 53 86 67 54 84 68 53 84 67 54 84 68 53 84 67 54 84 68 53 84 67 54 84 69 54 85 68 55 85 69 54 85 68 55 85 69 54 85 68 55 85 69 54 85 69 54 83 70 56 82 70 56 81 71 55 81 70 56 81 71 55 81 70 56 81 71 55 81 70 56 81 71 55 81 70 56 81 71 55 81 70 56 81 71 55 81 70 56 81 71 55 81 73 55 79 79 57 80 80 56 78 81 56 78 80 56 78 81 56 78 80 56 78 81 56 78 80 56 78 84 59 81 83 59 81 84 59 81 83 59 81 84 59 81 83 59 81 84 59 81 84 59 81 86 58 80 86 58 80 87 58 80 86 58 80 87 58 80 86 58 80 87 58 80 86 58 80 84 55 77 83 55 77 84 55 77 83 55 77 84 55 77 83 55 77 84 55 77 83 56 75 80 55 74 79 56 72 79 56 72 79 56 72 79 56 72 79 56 72 79 56 72 79 56 72 77 54 70 77 54 70 77 54 70 77 54 70 77 54 70 77 54 70 77 54 70 77 54 70 82 55 70 82 55 70 82 55 70 82 55 70 82 55 70 82 55 70 82 55 70 82 55 70 84 57 72 84 57 72 84 57 72 84 57 72 84 57 72 84 57 72 84 57 72 84 57 72 83 56 71 83 56 71 83 56 71 83 56 71 83 56 71 83 56 71 83 56 71 83 56 71 82 55 70 82 55 70
115 139 163 109 133 157 103 127 151 99 123 147 96 120 146 88 111 143 88 111 145 88 111 145 88 111 145 88 111 145 88 111 145 88 111 145 88 111 145 87 110 144 87 110 144 87 110 144 87 110 144 87 110 144 87 110 144 87 110 144 87 110 144 90 113 145 90 113 145 90 113 145 90 113 145 90 113 145 90 113 145 90 113 145 90 113 145 75 98 130 75 98 130 75 98 130 75 98 130 75 98 130 75 98 130 75 98 130 75 98 130 63 83 120 63 83 120 63 83 120 63 83 120 63 83 120 63 83 120 63 83 120 63 83 120 49 69 106 49 69 106 49 69 106 49 69 106 49 69 106 49 69 106 49 69 106 50 68 104 49 65 101 50 64 99 50 64 99 50 64 99 50 64 99 50 64 99 50 64 99 50 64 99 47 61 96 47 61 96 47 61 96 47 61 96 47 61 96 47 61 96 47 61 96 47 62 95 49 59 94 49 60 92 49 60 92 49 60 92 49 60 92 49 60 92 49 60 92 49 60 92 50 61 93 50 61 93 50 61 93 50 61 93 50 61 93 50 61 93 50 61 93 53 59 91 58 57 89 61 56 88 61 56 88 61 56 88 61 56 88 61 56 88 61 56 88 61 56 88 59 54 86 59 54 86 59 54 86 59 54 86 59 54 86 59 54 86 59 54 86 60 53 84 65 54 86 65 54 84 65 54 84 65 54 84 65 54 84 65 54 84 65 54 84 65 54 84 66 55 85 66 55 85 66 55 85 66 55 85 66 55 85 66 55 85 66 55 85 66 56 83 69 56 82 69 57 81 69 57 81 69 57 81 69 57 81 69 57 81 69 57 81 69 57 81 69 57 81 69 57 81 69 57 81 69 57 81 69 57 81 69 57 81 69 57 81 70 56 79 77 58 80 79 57 78 79 57 78 79 57 78 79 57 78 79 57 78 79 57 78 79 57 78 82 60 81 82 60 81 82 60 81 82 60 81 82 60 81 82 60 81 82 60 81 83 59 81 84 59 80 84 59 80 84 59 80 84 59 80 84 59 80 84 59 80 84 59 80 84 59 80 81 56 77 81 56 77 81 56 77 81 56 77 81 56 77 81 56 77 81 56 77 81 56 75 79 56 74 79 56 72 79 56 72 79 56 72 79 56 72 79 56 72 79 56 72 79 56 72 77 54 70 77 54 70 77 54 70 77 54 70 77 54 70 77 54 70 77 54 70 77 54 70 82 55 70 82 55 70 82 55 70 82 55 70 82 55 70 82 55 70 82 55 70 82 55 70 84 57 72 84 57 72 84 57 72 84 57 72 84 57 72 84 57 72 84 57 72 84 57 72 80 53 68 80 53 68 80 53 68 80 53 68 80 53 68 80 53 68 80 53 68 80 53 68 75 48 63 75 48 63
131 156 178 123 148 170 116 141 163 111 136 158 108 132 156 98 121 152 98 121 153 98 121 153 98 121 153 98 121 153 98 121 153 98 121 153 98 121 153 89 112 144 89 112 144 89 112 144 89 112 144 89 112 144 89 112 144 89 112 144 89 112 144 87 110 142 87 110 142 87 110 142 87 110 142 87 110 142 87 110 142 87 110 142 87 110 142 80 103 135 80 103 135 80 103 135 80 103 135 80 103 135 80 103 135 80 103 135 80 103 135 76 96 133 76 96 133 76 96 133 76 96 133 76 96 133 76 96 133 76 96 133 76 96 133 49 69 106 49 69 106 49 69 106 49 69 106 49 69 106 49 69 106 49 69 106 50 68 104 49 65 101 50 64 99 50 64 99 50 64 99 50 64 99 50 64 99 50 64 99 50 64 99 47 61 96 47 61 96 47 61 96 47 61 96 47 61 96 47 61 96 47 61 96 47 62 95 49 59 94 49 60 92 49 60 92 49 60 92 49 60 92 49 60 92 49 60 92 49 60 92 50 61 93 50 61 93 50 61 93 50 61 93 50 61 93 50 61 93 50 61 93 53 59 91 57 58 89 60 57 88 60 57 88 60 57 88 60 57 88 60 57 88 60 57 88 60 57 88 58 55 86 58 55 86 58 55 86 58 55 86 58 55 86 58 55 86 58 55 86 58 55 84 62 55 86 64 55 84 64 55 84 64 55 84 64 55 84 64 55 84 64 55 84 64 55 84 65 56 85 65 56 85 65 56 85 65 56 85 65 56 85 65 56 85 65 56 85 65 56 83 67 57 82 67 57 81 67 57 81 67 57 81 67 57 81 67 57 81 67 57 81 67 57 81 67 57 81 67 57 81 67 57 81 67 57 81 67 57 81 67 57 81 67 57 81 69 57 79 76 58 80 77 58 78 77 58 78 77 58 78 77 58 78 77 58 78 77 58 78 77 58 78 80 61 81 80 61 81 80 61 81 80 61 81 80 61 81 80 61 81 80 61 81 80 61 81 82 61 80 83 60 80 83 60 80 83 60 80 83 60 80 83 60 80 83 60 80 83 60 80 80 57 77 80 57 77 80 57 77 80 57 77 80 57 77 80 57 77 80 57 77 80 57 75 79 56 74 79 56 72 79 56 72 79 56 72 79 56 72 79 56 72 79 56 72 79 56 72 77 54 70 77 54 70 77 54 70 77 54 70 77 54 70 77 54 70 77 54 70 77 54 70 82 55 70 82 55 70 82 55 70 82 55 70 82 55 70 82 55 70 82 55 70 82 55 70 84 57 72 84 57 72 84 57 72 84 57 72 84 57 72 84 57 72 84 57 72 84 57 72 78 51 66 78 51 66 78 51 66 78 51 66 78 51 66 78 51 66 78 51 66 78 51 66 70 43 58 70 43 58
141 167 184 133 159 176 125 151 168 119 145 162 116 141 161 105 129 155 105 129 157 105 129 157 105 129 157 105 129 157 105 129 157 105 129 157 105 129 157 91 115 143 91 115 143 91 115 143 91 115 143 91 115 143 91 115 143 91 115 143 91 115 143 84 107 139 84 107 139 84 107 139 84 107 139 84 107 139 84 107 139 84 107 139 84 107 139 82 105 137 82 105 137 82 105 137 82 105 137 82 105 137 82 105 137 82 105 137 82 105 137 84 104 141 84 104 141 84 104 141 84 104 141 84 104 141 84 104 141 84 104 141 84 104 141 49 69 106 49 69 106 49 69 106 49 69 106 49 69 106 49 69 106 49 69 106 50 68 104 49 65 101 50 64 99 50 64 99 50 64 99 50 64 99 50 64 99 50 64 99 50 64 99 47 61 96 47 61 96 47 61 96 47 61 96 47 61 96 47 61 96 47 61 96 47 62 95 49 59 94 49 60 92 49 60 92 49 60 92 49 60 92 49 60 92 49 60 92 49 60 92 50 61 93 50 61 93 50 61 93 50 61 93 50 61 93 50 61 93 50 61 93 51 60 91 55 58 89 57 58 88 57 58 88 57 58 88 57 58 88 57 58 88 57 58 88 57 58 88 55 56 86 55 56 86 55 56 86 55 56 86 55 56 86 55 56 86 55 56 86 56 56 84 60 57 86 61 57 84 61 57 84 61 57 84 61 57 84 61 57 84 61 57 84 61 57 84 62 58 85 62 58 85 62 58 85 62 58 85 62 58 85 62 58 85 62 58 85 62 58 83 64 59 82 64 59 81 64 59 81 64 59 81 64 59 81 64 59 81 64 59 81 64 59 81 64 59 81 64 59 81 64 59 81 64 59 81 64 59 81 64 59 81 64 59 81 66 58 79 73 60 80 74 59 78 74 59 78 74 59 78 74 59 78 74 59 78 74 59 78 74 59 78 77 62 81 77 62 81 77 62 81 77 62 81 77 62 81 77 62 81 77 62 81 77 62 81 80 61 80 80 61 80 80 61 80 80 61 80 80 61 80 80 61 80 80 61 80 80 61 80 77 58 77 77 58 77 77 58 77 77 58 77 77 58 77 77 58 77 77 58 77 77 59 75 79 56 74 79 56 72 79 56 72 79 56 72 79 56 72 79 56 72 79 56 72 79 56 72 77 54 70 77 54 70 77 54 70 77 54 70 77 54 70 77 54 70 77 54 70 77 54 70 82 55 70 82 55 70 82 55 70 82 55 70 82 55 70 82 55 70 82 55 70 82 55 70 84 57 72 84 57 72 84 57 72 84 57 72 84 57 72 84 57 72 84 57 72 84 57 72 76 49 64 76 49 64 76 49 64 76 49 64 76 49 64 76 49 64 76 49 64 76 49 64 68 41 56 68 41 56
