P3
172 37
255
4 1 8 4 1 8 4 1 8 4 1 8 1 0 5 1 0 5 1 0 5 1 0 5 1 0 5 1 0 5 1 0 5 1 0 5 1 0 5 1 0 5 1 0 5 1 0 5 1 0 5 1 0 5 1 0 5 1 0 5 3 2 7 3 2 7 3 2 7 3 2 7 3 2 7 3 2 7 3 2 7 3 2 7 3 2 10 3 2 10 3 2 10 3 2 10 3 2 10 3 2 10 3 2 10 3 2 10 4 3 11 4 3 11 4 3 11 4 3 11 4 3 11 4 3 11 4 3 11 4 3 11 5 3 14 5 3 14 5 3 14 5 3 14 5 3 14 5 3 14 5 3 14 5 3 14 5 3 14 5 3 14 5 3 14 5 3 14 5 3 14 5 3 14 5 3 14 5 3 14 4 3 11 4 3 11 4 3 11 4 3 11 4 3 11 4 3 11 4 3 11 4 3 11 4 3 11 4 3 11 4 3 11 4 3 11 4 3 11 4 3 11 4 3 11 3 3 11 5 6 11 3 6 11 3 6 11 3 6 11 3 6 11 3 6 11 3 6 11 3 6 11 5 8 13 5 8 13 5 8 13 5 8 13 5 8 13 5 8 13 5 8 13 5 9 12 8 9 13 8 9 11 8 9 11 8 9 11 8 9 11 8 9 11 8 9 11 8 9 11 0 0 2 0 0 2 0 0 2 0 0 2 0 0 2 0 0 2 0 0 2 0 0 2 0 1 2 0 1 2 0 3 4 2 6 7 6 10 11 9 13 14 11 15 16 13 17 18 17 21 22 19 23 24 21 25 26 24 28 29 28 32 33 31 35 36 33 37 38 35 39 40 55 59 58 59 63 62 66 70 69 76 80 79 86 90 89 96 100 99 103 107 106 107 111 110 110 114 113 114 118 117 120 124 123 122 126 125 119 123 122 110 114 113 99 103 102 92 96 95 64 64 64 57 57 57 47 47 47 38 38 38 35 35 35 37 37 37 43 43 43 47 47 47 39 39 39 39 39 39 39 39 39 39 39 39 39 39 39 39 39 39 39 39 39 39 39 39 38 37 35 38 37 35 38 37 35 38 37 35 38 37 35 38 37 35 38 37 35 38 37 35 41 40 38 41 40 38 41 40 38 41 40 38 41 40 38 41 40 38 41 40 38 41 40 38
4 1 8 4 2 7 4 1 8 4 2 7 1 0 5 1 0 4 1 0 5 1 0 4 1 0 5 1 0 4 1 0 5 1 0 4 1 0 5 1 0 5 1 0 5 1 0 5 1 0 5 1 0 5 1 0 5 1 0 5 3 2 7 3 2 7 3 2 7 3 2 7 3 2 7 3 2 7 3 2 7 3 2 7 3 2 8 3 2 8 3 2 10 3 2 8 3 2 10 3 2 8 3 2 10 3 2 8 4 3 11 4 3 9 4 3 11 4 3 9 4 3 11 4 3 9 4 3 11 4 3 11 5 4 12 4 4 14 5 3 14 4 4 14 5 3 14 4 4 14 5 3 14 4 4 14 5 3 14 4 4 14 5 3 14 4 4 14 5 3 14 4 4 14 5 3 14 4 4 14 3 3 11 3 3 11 3 3 11 3 3 11 3 3 11 3 3 11 3 3 11 3 3 11 3 3 11 3 3 11 3 3 11 3 3 11 3 3 11 3 3 11 3 3 11 3 3 11 3 6 11 3 6 11 3 6 11 3 6 11 3 6 11 3 6 11 3 6 11 3 6 11 5 8 13 5 8 13 5 8 13 5 8 13 5 8 13 5 8 13 5 8 13 5 9 12 8 9 13 8 9 11 8 9 11 8 9 11 8 9 11 8 9 11 8 9 11 8 9 11 0 0 2 0 0 2 0 0 2 0 0 2 0 0 2 0 0 2 0 0 2 0 0 2 0 1 2 0 1 2 0 3 4 2 6 7 6 10 11 9 13 14 11 15 16 13 17 18 17 21 22 19 23 24 21 25 26 24 28 29 28 32 33 31 35 36 33 37 38 35 39 40 55 59 58 59 64 60 66 70 69 76 81 77 86 90 89 96 101 97 103 107 106 107 112 108 108 112 111 113 118 114 118 122 121 121 126 122 117 121 120 108 113 109 98 102 101 93 95 92 64 64 64 57 57 55 47 47 47 38 38 36 35 35 35 37 37 35 43 43 43 47 47 45 39 39 39 39 39 37 39 39 39 39 39 37 39 39 39 39 39 37 39 39 39 39 39 37 38 37 35 38 37 35 38 37 35 38 37 35 38 37 35 38 37 35 38 37 35 38 37 35 41 40 38 41 40 38 41 40 38 41 40 38 41 40 38 41 40 38 41 40 38 41 40 38
1 0 5 1 1 3 1 0 5 1 1 3 0 0 4 0 0 2 0 0 4 0 0 2 0 0 4 0 0 2 0 0 4 0 0 2 1 1 3 1 1 3 1 1 3 1 1 3 1 1 3 1 1 3 1 1 3 1 1 3 3 3 5 3 3 5 3 3 5 3 3 5 3 3 5 3 3 5 3 3 5 3 2 7 5 4 9 5 4 9 5 4 10 5 4 9 5 4 10 5 4 9 5 4 10 5 4 9 4 3 9 4 3 8 4 3 9 4 3 8 4 3 9 4 3 8 4 3 9 4 3 9 7 7 15 5 8 15 7 7 15 5 8 15 7 7 15 5 8 15 7 7 15 5 8 15 6 6 14 4 7 14 6 6 14 4 7 14 6 6 14 4 7 14 6 6 14 4 7 14 5 8 15 5 8 15 5 8 15 5 8 15 5 8 15 5 8 15 5 8 15 5 8 15 7 10 17 7 10 17 7 10 17 7 10 17 7 10 17 7 10 17 7 10 17 7 10 17 7 12 16 7 12 16 7 12 16 7 12 16 7 12 16 7 12 16 7 12 16 7 12 16 5 10 14 5 10 14 5 10 14 5 10 14 5 10 14 5 10 14 5 10 14 5 10 13 4 8 11 4 8 9 4 8 9 4 8 9 4 8 9 4 8 9 4 8 9 4 8 9 0 3 4 0 3 4 0 3 4 0 3 4 0 3 4 0 3 4 0 3 4 0 3 4 0 1 2 0 1 2 0 2 3 1 5 6 5 9 10 8 12 13 10 14 15 12 16 17 14 18 19 16 20 21 21 25 26 28 32 33 34 38 39 41 45 46 46 50 51 48 52 51 62 67 63 64 69 63 66 71 67 69 74 68 73 78 74 76 81 75 78 83 79 80 85 79 96 101 97 102 107 101 110 115 111 115 120 114 115 120 116 110 115 109 102 107 103 98 100 95 64 64 62 58 57 53 48 47 45 39 38 34 36 35 33 38 37 33 44 43 41 48 47 43 39 38 36 39 38 34 39 38 36 39 38 34 39 38 36 39 38 34 39 38 36 39 38 36 37 36 34 37 36 34 37 36 34 37 36 34 37 36 34 37 36 34 37 36 34 37 36 34 36 35 33 36 35 33 36 35 33 36 35 33 36 35 33 36 35 33 36 35 33 36 35 33
1 1 3 1 1 3 1 1 3 1 1 3 0 0 2 0 0 2 0 0 2 0 0 2 0 0 2 0 0 2 0 0 2 0 0 2 1 1 3 1 1 3 1 1 3 1 1 3 1 1 3 1 1 3 1 1 3 1 1 3 3 3 5 3 3 5 3 3 5 3 3 5 3 3 5 3 3 5 3 3 5 3 3 5 5 4 9 5 4 9 5 4 9 5 4 9 5 4 9 5 4 9 5 4 9 5 4 9 4 3 8 4 3 8 4 3 8 4 3 8 4 3 8 4 3 8 4 3 8 3 4 8 7 7 15 5 8 15 5 8 15 5 8 15 5 8 15 5 8 15 5 8 15 5 8 15 4 7 14 4 7 14 4 7 14 4 7 14 4 7 14 4 7 14 4 7 14 4 7 14 4 9 15 4 9 15 4 9 15 4 9 15 4 9 15 4 9 15 4 9 15 4 9 15 6 11 17 6 11 17 6 11 17 6 11 17 6 11 17 6 11 17 6 11 17 6 11 17 7 12 16 7 12 16 7 12 16 7 12 16 7 12 16 7 12 16 7 12 16 7 12 16 5 10 14 5 10 14 5 10 14 5 10 14 5 10 14 5 10 14 5 10 14 5 10 13 4 8 11 4 8 9 4 8 9 4 8 9 4 8 9 4 8 9 4 8 9 4 8 9 0 3 4 0 3 4 0 3 4 0 3 4 0 3 4 0 3 4 0 3 4 0 3 4 0 1 2 0 1 2 0 2 3 1 5 6 5 9 10 8 12 13 10 14 15 12 16 17 14 18 19 16 20 21 21 25 26 28 32 33 34 38 39 41 45 46 46 50 51 48 52 51 62 67 63 64 69 63 66 71 65 69 74 68 73 78 72 76 81 75 78 83 77 80 85 79 95 100 94 100 105 99 108 113 107 114 119 113 114 119 113 108 113 107 100 105 99 97 99 94 64 65 60 58 57 53 48 47 43 39 38 34 36 35 31 38 37 33 44 43 39 48 47 43 39 38 34 39 38 34 39 38 34 39 38 34 39 38 34 39 38 34 39 38 34 39 38 34 37 36 34 37 36 34 37 36 34 37 36 34 37 36 34 37 36 34 37 36 34 37 36 34 36 35 33 36 35 33 36 35 33 36 35 33 36 35 33 36 35 33 36 35 33 36 35 33
1 1 3 1 1 3 1 1 3 1 1 3 0 0 2 0 0 2 0 0 2 0 0 2 0 0 2 0 0 2 0 0 2 0 0 2 1 1 3 1 1 3 1 1 3 1 1 3 1 1 3 1 1 3 1 1 3 1 1 3 3 3 5 3 3 5 3 3 5 3 3 5 3 3 5 3 3 5 3 3 5 3 3 5 5 4 9 5 4 9 5 4 9 5 4 9 5 4 9 5 4 9 5 4 9 5 4 9 4 3 8 4 3 8 4 3 8 4 3 8 4 3 8 4 3 8 4 3 8 3 4 8 7 7 15 5 8 15 5 8 15 5 8 15 5 8 15 5 8 15 5 8 15 5 8 15 4 7 14 4 7 14 4 7 14 4 7 14 4 7 14 4 7 14 4 7 14 4 7 14 4 9 15 4 9 15 4 9 15 4 9 15 4 9 15 4 9 15 4 9 15 4 9 15 6 11 17 6 11 17 6 11 17 6 11 17 6 11 17 6 11 17 6 11 17 6 11 17 7 12 16 7 12 16 7 12 16 7 12 16 7 12 16 7 12 16 7 12 16 7 12 16 5 10 14 5 10 14 5 10 14 5 10 14 5 10 14 5 10 14 5 10 14 5 10 13 4 8 11 4 8 9 4 8 9 4 8 9 4 8 9 4 8 9 4 8 9 4 8 9 0 3 4 0 3 4 0 3 4 0 3 4 0 3 4 0 3 4 0 3 4 0 3 4 0 1 2 0 1 2 0 2 3 1 5 6 5 9 10 8 12 13 10 14 15 12 16 17 14 18 19 16 20 21 21 25 26 28 32 33 34 38 39 41 45 46 46 50 51 48 52 51 62 67 63 64 69 63 66 71 65 69 74 68 73 78 72 76 81 75 78 83 77 80 85 79 92 97 91 98 103 97 106 111 105 112 117 111 112 117 111 106 111 105 98 103 97 94 96 91 64 65 60 58 57 53 48 47 43 39 38 34 36 35 31 38 37 33 44 43 39 48 47 43 39 38 34 39 38 34 39 38 34 39 38 34 39 38 34 39 38 34 39 38 34 39 38 34 37 36 34 37 36 34 37 36 34 37 36 34 37 36 34 37 36 34 37 36 34 37 36 34 36 35 33 36 35 33 36 35 33 36 35 33 36 35 33 36 35 33 36 35 33 36 35 33
1 1 3 1 1 3 1 1 3 1 1 3 0 0 2 0 0 2 0 0 2 0 0 2 0 0 2 0 0 2 0 0 2 0 0 2 1 1 3 1 1 3 1 1 3 1 1 3 1 1 3 1 1 3 1 1 3 1 1 3 3 3 5 3 3 5 3 3 5 3 3 5 3 3 5 3 3 5 3 3 5 3 3 5 5 4 9 5 4 9 5 4 9 5 4 9 5 4 9 5 4 9 5 4 9 5 4 9 4 3 8 4 3 8 4 3 8 4 3 8 4 3 8 4 3 8 4 3 8 3 4 8 7 7 15 5 8 15 5 8 15 5 8 15 5 8 15 5 8 15 5 8 15 5 8 15 4 7 14 4 7 14 4 7 14 4 7 14 4 7 14 4 7 14 4 7 14 4 7 14 4 9 15 4 9 15 4 9 15 4 9 15 4 9 15 4 9 15 4 9 15 4 9 15 6 11 17 6 11 17 6 11 17 6 11 17 6 11 17 6 11 17 6 11 17 6 11 17 7 12 16 7 12 16 7 12 16 7 12 16 7 12 16 7 12 16 7 12 16 7 12 16 5 10 14 5 10 14 5 10 14 5 10 14 5 10 14 5 10 14 5 10 14 5 10 13 4 8 11 4 8 9 4 8 9 4 8 9 4 8 9 4 8 9 4 8 9 4 8 9 0 3 4 0 3 4 0 3 4 0 3 4 0 3 4 0 3 4 0 3 4 0 3 4 0 1 2 0 1 2 0 2 3 1 5 6 5 9 10 8 12 13 10 14 15 12 16 17 14 18 19 16 20 21 21 25 26 28 32 33 34 38 39 41 45 46 46 50 51 48 52 51 62 67 63 64 69 63 66 71 65 69 74 68 73 78 72 76 81 75 78 83 77 80 85 79 89 94 88 95 100 94 103 108 102 108 113 107 108 113 107 103 108 102 95 100 94 91 93 88 64 65 60 58 57 53 48 47 43 39 38 34 36 35 31 38 37 33 44 43 39 48 47 43 39 38 34 39 38 34 39 38 34 39 38 34 39 38 34 39 38 34 39 38 34 39 38 34 37 36 34 37 36 34 37 36 34 37 36 34 37 36 34 37 36 34 37 36 34 37 36 34 36 35 33 36 35 33 36 35 33 36 35 33 36 35 33 36 35 33 36 35 33 36 35 33
1 1 3 1 1 3 1 1 3 1 1 3 0 0 2 0 0 2 0 0 2 0 0 2 0 0 2 0 0 2 0 0 2 0 0 2 1 1 3 1 1 3 1 1 3 1 1 3 1 1 3 1 1 3 1 1 3 1 1 3 3 3 5 3 3 5 3 3 5 3 3 5 3 3 5 3 3 5 3 3 5 3 3 5 5 4 9 5 4 9 5 4 9 5 4 9 5 4 9 5 4 9 5 4 9 5 4 9 4 3 8 4 3 8 4 3 8 4 3 8 4 3 8 4 3 8 4 3 8 3 4 8 7 7 15 5 8 15 5 8 15 5 8 15 5 8 15 5 8 15 5 8 15 5 8 15 4 7 14 4 7 14 4 7 14 4 7 14 4 7 14 4 7 14 4 7 14 4 7 14 4 9 15 4 9 15 4 9 15 4 9 15 4 9 15 4 9 15 4 9 15 4 9 15 6 11 17 6 11 17 6 11 17 6 11 17 6 11 17 6 11 17 6 11 17 6 11 17 7 12 16 7 12 16 7 12 16 7 12 16 7 12 16 7 12 16 7 12 16 7 12 16 5 10 14 5 10 14 5 10 14 5 10 14 5 10 14 5 10 14 5 10 14 5 10 13 4 8 11 4 8 9 4 8 9 4 8 9 4 8 9 4 8 9 4 8 9 4 8 9 0 3 4 0 3 4 0 3 4 0 3 4 0 3 4 0 3 4 0 3 4 0 3 4 0 1 2 0 1 2 0 2 3 1 5 6 5 9 10 8 12 13 10 14 15 12 16 17 14 18 19 16 20 21 21 25 26 28 32 33 34 38 39 41 45 46 46 50 51 48 52 51 62 67 63 64 69 63 66 71 65 69 74 68 73 78 72 76 81 75 78 83 77 80 85 79 86 91 85 91 96 90 99 104 98 105 110 104 105 110 104 99 104 98 91 96 90 88 90 85 64 65 60 58 57 53 48 47 43 39 38 34 36 35 31 38 37 33 44 43 39 48 47 43 39 38 34 39 38 34 39 38 34 39 38 34 39 38 34 39 38 34 39 38 34 39 38 34 37 36 34 37 36 34 37 36 34 37 36 34 37 36 34 37 36 34 37 36 34 37 36 34 36 35 33 36 35 33 36 35 33 36 35 33 36 35 33 36 35 33 36 35 33 36 35 33
1 1 3 1 1 3 1 1 3 1 1 3 0 0 2 0 0 2 0 0 2 0 0 2 0 0 2 0 0 2 0 0 2 0 0 2 1 1 3 1 1 3 1 1 3 1 1 3 1 1 3 1 1 3 1 1 3 1 1 3 3 3 5 3 3 5 3 3 5 3 3 5 3 3 5 3 3 5 3 3 5 3 3 5 5 4 9 5 4 9 5 4 9 5 4 9 5 4 9 5 4 9 5 4 9 5 4 9 4 3 8 4 3 8 4 3 8 4 3 8 4 3 8 4 3 8 4 3 8 3 4 8 7 7 15 5 8 15 5 8 15 5 8 15 5 8 15 5 8 15 5 8 15 5 8 15 4 7 14 4 7 14 4 7 14 4 7 14 4 7 14 4 7 14 4 7 14 4 7 14 4 9 15 4 9 15 4 9 15 4 9 15 4 9 15 4 9 15 4 9 15 4 9 15 6 11 17 6 11 17 6 11 17 6 11 17 6 11 17 6 11 17 6 11 17 6 11 17 7 12 16 7 12 16 7 12 16 7 12 16 7 12 16 7 12 16 7 12 16 7 12 16 5 10 14 5 10 14 5 10 14 5 10 14 5 10 14 5 10 14 5 10 14 5 10 13 4 8 11 4 8 9 4 8 9 4 8 9 4 8 9 4 8 9 4 8 9 4 8 9 0 3 4 0 3 4 0 3 4 0 3 4 0 3 4 0 3 4 0 3 4 0 3 4 0 1 2 0 1 2 0 2 3 1 5 6 5 9 10 8 12 13 10 14 15 12 16 17 14 18 19 16 20 21 21 25 26 28 32 33 34 38 39 41 45 46 46 50 51 48 52 51 62 67 63 64 69 63 66 71 65 69 74 68 73 78 72 76 81 75 78 83 77 80 85 79 82 87 81 88 93 87 96 101 95 102 107 101 102 107 101 96 101 95 88 93 87 84 86 81 64 65 60 58 57 53 48 47 43 39 38 34 36 35 31 38 37 33 44 43 39 48 47 43 39 38 34 39 38 34 39 38 34 39 38 34 39 38 34 39 38 34 39 38 34 39 38 34 37 36 34 37 36 34 37 36 34 37 36 34 37 36 34 37 36 34 37 36 34 37 36 34 36 35 33 36 35 33 36 35 33 36 35 33 36 35 33 36 35 33 36 35 33 36 35 33
1 1 3 1 1 3 1 1 3 1 1 3 0 0 2 0 0 2 0 0 2 0 0 2 0 0 2 0 0 2 0 0 2 0 0 2 1 1 3 1 1 3 1 1 3 1 1 3 1 1 3 1 1 3 1 1 3 1 1 3 3 3 5 3 3 5 3 3 5 3 3 5 3 3 5 3 3 5 3 3 5 3 3 5 5 4 9 5 4 9 5 4 9 5 4 9 5 4 9 5 4 9 5 4 9 5 4 9 4 3 8 4 3 8 4 3 8 4 3 8 4 3 8 4 3 8 4 3 8 3 4 8 7 7 15 5 8 15 5 8 15 5 8 15 5 8 15 5 8 15 5 8 15 5 8 15 4 7 14 4 7 14 4 7 14 4 7 14 4 7 14 4 7 14 4 7 14 4 7 14 4 9 15 4 9 15 4 9 15 4 9 15 4 9 15 4 9 15 4 9 15 4 9 15 6 11 17 6 11 17 6 11 17 6 11 17 6 11 17 6 11 17 6 11 17 6 11 17 7 12 16 7 12 16 7 12 16 7 12 16 7 12 16 7 12 16 7 12 16 7 12 16 5 10 14 5 10 14 5 10 14 5 10 14 5 10 14 5 10 14 5 10 14 5 10 13 4 8 11 4 8 9 4 8 9 4 8 9 4 8 9 4 8 9 4 8 9 4 8 9 0 3 4 0 3 4 0 3 4 0 3 4 0 3 4 0 3 4 0 3 4 0 3 4 0 1 2 0 1 2 0 2 3 1 5 6 5 9 10 8 12 13 10 14 15 12 16 17 14 18 19 16 20 21 21 25 26 28 32 33 34 38 39 41 45 46 46 50 51 48 52 51 62 67 63 64 69 63 66 71 65 69 74 68 73 78 72 76 81 75 78 83 77 80 85 79 80 85 79 86 91 85 94 99 93 99 104 98 99 104 98 94 99 93 86 91 85 82 84 79 64 65 60 58 57 53 48 47 43 39 38 34 36 35 31 38 37 33 44 43 39 48 47 43 39 38 34 39 38 34 39 38 34 39 38 34 39 38 34 39 38 34 39 38 34 39 38 34 37 36 34 37 36 34 37 36 34 37 36 34 37 36 34 37 36 34 37 36 34 37 36 34 36 35 33 36 35 33 36 35 33 36 35 33 36 35 33 36 35 33 36 35 33 36 35 33
1 1 3 1 1 3 1 1 3 1 1 3 0 0 2 0 0 2 0 0 2 0 0 2 0 0 2 0 0 2 0 0 2 0 0 2 1 1 3 1 1 3 1 1 3 1 1 3 1 1 3 1 1 3 1 1 3 1 1 3 3 3 5 3 3 5 3 3 5 3 3 5 3 3 5 3 3 5 3 3 5 3 3 5 5 4 9 5 4 9 5 4 9 5 4 9 5 4 9 5 4 9 5 4 9 5 4 9 4 3 8 4 3 8 4 3 8 4 3 8 4 3 8 4 3 8 4 3 8 3 4 8 7 7 15 5 8 15 5 8 15 5 8 15 5 8 15 5 8 15 5 8 15 5 8 15 4 7 14 4 7 14 4 7 14 4 7 14 4 7 14 4 7 14 4 7 14 4 7 14 4 9 15 4 9 15 4 9 15 4 9 15 4 9 15 4 9 15 4 9 15 4 9 15 6 11 17 6 11 17 6 11 17 6 11 17 6 11 17 6 11 17 6 11 17 6 11 17 7 12 16 7 12 16 7 12 16 7 12 16 7 12 16 7 12 16 7 12 16 7 12 16 5 10 14 5 10 14 5 10 14 5 10 14 5 10 14 5 10 14 5 10 14 5 10 13 4 8 11 4 8 9 4 8 9 4 8 9 4 8 9 4 8 9 4 8 9 4 8 9 0 3 4 0 3 4 0 3 4 0 3 4 0 3 4 0 3 4 0 3 4 0 3 4 0 1 2 0 1 2 0 2 3 1 5 6 5 9 10 8 12 13 10 14 15 12 16 17 14 18 19 16 20 21 21 25 26 28 32 33 34 38 39 41 45 46 46 50 51 48 52 51 62 67 63 64 69 63 66 71 65 69 74 68 73 78 72 76 81 75 78 83 77 80 85 79 79 84 78 84 89 83 92 97 91 98 103 97 98 103 97 92 97 91 84 89 83 81 83 78 64 65 60 58 57 53 48 47 43 39 38 34 36 35 31 38 37 33 44 43 39 48 47 43 39 38 34 39 38 34 39 38 34 39 38 34 39 38 34 39 38 34 39 38 34 39 38 34 37 36 34 37 36 34 37 36 34 37 36 34 37 36 34 37 36 34 37 36 34 37 36 34 36 35 33 36 35 33 36 35 33 36 35 33 36 35 33 36 35 33 36 35 33 36 35 33
1 1 3 1 1 3 1 1 3 1 1 3 1 1 3 1 1 3 1 1 3 1 1 3 1 1 3 1 1 3 1 1 3 1 1 3 0 0 2 0 0 2 0 0 2 0 0 2 0 0 2 0 0 2 0 0 2 0 0 2 1 1 3 1 1 3 1 1 3 1 1 3 1 1 3 1 1 3 1 1 3 1 1 3 2 1 6 2 1 6 2 1 6 2 1 6 2 1 6 2 1 6 2 1 6 2 1 6 3 2 7 3 2 7 3 2 7 3 2 7 3 2 7 3 2 7 3 2 7 2 3 7 3 3 11 1 4 11 1 4 11 1 4 11 1 4 11 1 4 11 1 4 11 1 4 11 2 5 12 2 5 12 2 5 12 2 5 12 2 5 12 2 5 12 2 5 12 2 5 12 4 9 15 4 9 15 4 9 15 4 9 15 4 9 15 4 9 15 4 9 15 4 9 15 5 10 16 5 10 16 5 10 16 5 10 16 5 10 16 5 10 16 5 10 16 5 10 16 5 10 14 5 10 14 5 10 14 5 10 14 5 10 14 5 10 14 5 10 14 5 10 14 5 10 14 5 10 14 5 10 14 5 10 14 5 10 14 5 10 14 5 10 14 5 10 13 0 1 4 0 1 2 0 1 2 0 3 4 2 6 7 5 9 10 8 12 13 9 13 14 0 4 5 0 4 5 0 4 5 0 4 5 0 4 5 0 4 5 0 4 5 0 4 5 0 1 2 0 2 3 0 4 5 3 7 8 7 11 12 10 14 15 12 16 17 14 18 19 24 28 29 26 30 31 28 32 33 31 35 36 35 39 40 38 42 43 40 44 45 42 46 45 60 65 61 61 66 60 64 69 63 67 72 66 70 75 69 74 79 73 76 81 75 77 82 76 83 88 82 83 88 82 83 88 82 83 88 82 83 88 82 83 88 82 83 88 82 85 87 82 59 60 55 53 52 48 43 42 38 34 33 29 31 30 26 33 32 28 39 38 34 43 42 38 34 33 29 34 33 29 34 33 29 34 33 29 34 33 29 34 33 29 34 33 29 34 33 29 32 31 29 32 31 29 32 31 29 32 31 29 32 31 29 32 31 29 32 31 29 32 31 29 36 35 33 36 35 33 36 35 33 36 35 33 36 35 33 36 35 33 36 35 33 36 35 33
1 1 3 1 1 3 1 1 3 1 1 3 1 1 3 1 1 3 1 1 3 1 1 3 1 1 3 1 1 3 1 1 3 1 1 3 0 0 2 0 0 2 0 0 2 0 0 2 0 0 2 0 0 2 0 0 2 0 0 2 1 1 3 1 1 3 1 1 3 1 1 3 1 1 3 1 1 3 1 1 3 1 1 3 2 1 6 2 1 6 2 1 6 2 1 6 2 1 6 2 1 6 2 1 6 2 1 6 3 2 7 3 2 7 3 2 7 3 2 7 3 2 7 3 2 7 3 2 7 2 3 7 3 3 11 1 4 11 1 4 11 1 4 11 1 4 11 1 4 11 1 4 11 1 4 11 2 5 12 2 5 12 2 5 12 2 5 12 2 5 12 2 5 12 2 5 12 2 5 12 4 9 15 4 9 15 4 9 15 4 9 15 4 9 15 4 9 15 4 9 15 4 9 15 5 10 16 5 10 16 5 10 16 5 10 16 5 10 16 5 10 16 5 10 16 5 10 16 5 10 14 5 10 14 5 10 14 5 10 14 5 10 14 5 10 14 5 10 14 5 10 14 5 10 14 5 10 14 5 10 14 5 10 14 5 10 14 5 10 14 5 10 14 5 10 13 0 1 4 0 1 2 0 1 2 0 4 5 3 7 8 7 11 12 9 13 14 10 14 15 0 4 5 0 4 5 0 4 5 0 4 5 0 4 5 0 4 5 0 4 5 0 4 5 0 1 2 0 2 3 0 4 5 3 7 8 7 11 12 10 14 15 12 16 17 14 18 19 24 28 29 26 30 31 28 32 33 31 35 36 35 39 40 38 42 43 40 44 45 42 46 45 59 64 60 60 65 59 62 67 61 66 71 65 69 74 68 72 77 71 75 80 74 76 81 75 81 86 80 81 86 80 81 86 80 81 86 80 81 86 80 81 86 80 81 86 80 83 85 80 59 60 55 53 52 48 43 42 38 34 33 29 31 30 26 33 32 28 39 38 34 43 42 38 34 33 29 34 33 29 34 33 29 34 33 29 34 33 29 34 33 29 34 33 29 34 33 29 32 31 29 32 31 29 32 31 29 32 31 29 32 31 29 32 31 29 32 31 29 32 31 29 36 35 33 36 35 33 36 35 33 36 35 33 36 35 33 36 35 33 36 35 33 36 35 33
1 1 3 1 1 3 1 1 3 1 1 3 1 1 3 1 1 3 1 1 3 1 1 3 1 1 3 1 1 3 1 1 3 1 1 3 0 0 2 0 0 2 0 0 2 0 0 2 0 0 2 0 0 2 0 0 2 0 0 2 1 1 3 1 1 3 1 1 3 1 1 3 1 1 3 1 1 3 1 1 3 1 1 3 2 1 6 2 1 6 2 1 6 2 1 6 2 1 6 2 1 6 2 1 6 2 1 6 3 2 7 3 2 7 3 2 7 3 2 7 3 2 7 3 2 7 3 2 7 2 3 7 3 3 11 1 4 11 1 4 11 1 4 11 1 4 11 1 4 11 1 4 11 1 4 11 2 5 12 2 5 12 2 5 12 2 5 12 2 5 12 2 5 12 2 5 12 2 5 12 4 9 15 4 9 15 4 9 15 4 9 15 4 9 15 4 9 15 4 9 15 4 9 15 5 10 16 5 10 16 5 10 16 5 10 16 5 10 16 5 10 16 5 10 16 5 10 16 5 10 14 5 10 14 5 10 14 5 10 14 5 10 14 5 10 14 5 10 14 5 10 14 5 10 14 5 10 14 5 10 14 5 10 14 5 10 14 5 10 14 5 10 14 5 10 13 0 1 4 0 1 2 0 3 4 2 6 7 6 10 11 9 13 14 11 15 16 13 17 18 0 4 5 0 4 5 0 4 5 0 4 5 0 4 5 0 4 5 0 4 5 0 4 5 0 1 2 0 2 3 0 4 5 3 7 8 7 11 12 10 14 15 12 16 17 14 18 19 24 28 29 26 30 31 28 32 33 31 35 36 35 39 40 38 42 43 40 44 45 42 46 45 56 61 57 58 63 57 60 65 59 63 68 62 67 72 66 70 75 69 72 77 71 74 79 73 79 84 78 79 84 78 79 84 78 79 84 78 79 84 78 79 84 78 79 84 78 81 83 78 59 60 55 53 52 48 43 42 38 34 33 29 31 30 26 33 32 28 39 38 34 43 42 38 34 33 29 34 33 29 34 33 29 34 33 29 34 33 29 34 33 29 34 33 29 34 33 29 32 31 29 32 31 29 32 31 29 32 31 29 32 31 29 32 31 29 32 31 29 32 31 29 36 35 33 36 35 33 36 35 33 36 35 33 36 35 33 36 35 33 36 35 33 36 35 33
1 1 3 1 1 3 1 1 3 1 1 3 1 1 3 1 1 3 1 1 3 1 1 3 1 1 3 1 1 3 1 1 3 1 1 3 0 0 2 0 0 2 0 0 2 0 0 2 0 0 2 0 0 2 0 0 2 0 0 2 1 1 3 1 1 3 1 1 3 1 1 3 1 1 3 1 1 3 1 1 3 1 1 3 2 1 6 2 1 6 2 1 6 2 1 6 2 1 6 2 1 6 2 1 6 2 1 6 3 2 7 3 2 7 3 2 7 3 2 7 3 2 7 3 2 7 3 2 7 2 3 7 3 3 11 1 4 11 1 4 11 1 4 11 1 4 11 1 4 11 1 4 11 1 4 11 2 5 12 2 5 12 2 5 12 2 5 12 2 5 12 2 5 12 2 5 12 2 5 12 4 9 15 4 9 15 4 9 15 4 9 15 4 9 15 4 9 15 4 9 15 4 9 15 5 10 16 5 10 16 5 10 16 5 10 16 5 10 16 5 10 16 5 10 16 5 10 16 5 10 14 5 10 14 5 10 14 5 10 14 5 10 14 5 10 14 5 10 14 5 10 14 5 10 14 5 10 14 5 10 14 5 10 14 5 10 14 5 10 14 5 10 14 5 10 13 0 3 6 0 4 5 2 6 7 6 10 11 9 13 14 12 16 17 15 19 20 16 20 21 0 4 5 0 4 5 0 4 5 0 4 5 0 4 5 0 4 5 0 4 5 0 4 5 0 1 2 0 2 3 0 4 5 3 7 8 7 11 12 10 14 15 12 16 17 14 18 19 24 28 29 26 30 31 28 32 33 31 35 36 35 39 40 38 42 43 40 44 45 42 46 45 53 58 54 54 59 53 57 62 56 60 65 59 63 68 62 67 72 66 69 74 68 70 75 69 76 81 75 76 81 75 76 81 75 76 81 75 76 81 75 76 81 75 76 81 75 78 80 75 59 60 55 53 52 48 43 42 38 34 33 29 31 30 26 33 32 28 39 38 34 43 42 38 34 33 29 34 33 29 34 33 29 34 33 29 34 33 29 34 33 29 34 33 29 34 33 29 32 31 29 32 31 29 32 31 29 32 31 29 32 31 29 32 31 29 32 31 29 32 31 29 36 35 33 36 35 33 36 35 33 36 35 33 36 35 33 36 35 33 36 35 33 36 35 33
1 1 3 1 1 3 1 1 3 1 1 3 1 1 3 1 1 3 1 1 3 1 1 3 1 1 3 1 1 3 1 1 3 1 1 3 0 0 2 0 0 2 0 0 2 0 0 2 0 0 2 0 0 2 0 0 2 0 0 2 1 1 3 1 1 3 1 1 3 1 1 3 1 1 3 1 1 3 1 1 3 1 1 3 2 1 6 2 1 6 2 1 6 2 1 6 2 1 6 2 1 6 2 1 6 2 1 6 3 2 7 3 2 7 3 2 7 3 2 7 3 2 7 3 2 7 3 2 7 2 3 7 3 3 11 1 4 11 1 4 11 1 4 11 1 4 11 1 4 11 1 4 11 1 4 11 2 5 12 2 5 12 2 5 12 2 5 12 2 5 12 2 5 12 2 5 12 2 5 12 4 9 15 4 9 15 4 9 15 4 9 15 4 9 15 4 9 15 4 9 15 4 9 15 5 10 16 5 10 16 5 10 16 5 10 16 5 10 16 5 10 16 5 10 16 5 10 16 5 10 14 5 10 14 5 10 14 5 10 14 5 10 14 5 10 14 5 10 14 5 10 14 5 10 14 5 10 14 5 10 14 5 10 14 5 10 14 5 10 14 5 10 14 5 10 13 2 6 9 3 7 8 6 10 11 9 13 14 12 16 17 16 20 21 18 22 23 19 23 24 0 4 5 0 4 5 0 4 5 0 4 5 0 4 5 0 4 5 0 4 5 0 4 5 0 1 2 0 2 3 0 4 5 3 7 8 7 11 12 10 14 15 12 16 17 14 18 19 24 28 29 26 30 31 28 32 33 31 35 36 35 39 40 38 42 43 40 44 45 42 46 45 50 55 51 51 56 50 53 58 52 57 62 56 60 65 59 63 68 62 66 71 65 67 72 66 72 77 71 72 77 71 72 77 71 72 77 71 72 77 71 72 77 71 72 77 71 74 76 71 59 60 55 53 52 48 43 42 38 34 33 29 31 30 26 33 32 28 39 38 34 43 42 38 34 33 29 34 33 29 34 33 29 34 33 29 34 33 29 34 33 29 34 33 29 34 33 29 32 31 29 32 31 29 32 31 29 32 31 29 32 31 29 32 31 29 32 31 29 32 31 29 36 35 33 36 35 33 36 35 33 36 35 33 36 35 33 36 35 33 36 35 33 36 35 33
1 1 3 1 1 3 1 1 3 1 1 3 1 1 3 1 1 3 1 1 3 1 1 3 1 1 3 1 1 3 1 1 3 1 1 3 0 0 2 0 0 2 0 0 2 0 0 2 0 0 2 0 0 2 0 0 2 0 0 2 1 1 3 1 1 3 1 1 3 1 1 3 1 1 3 1 1 3 1 1 3 1 1 3 2 1 6 2 1 6 2 1 6 2 1 6 2 1 6 2 1 6 2 1 6 2 1 6 3 2 7 3 2 7 3 2 7 3 2 7 3 2 7 3 2 7 3 2 7 2 3 7 3 3 11 1 4 11 1 4 11 1 4 11 1 4 11 1 4 11 1 4 11 1 4 11 2 5 12 2 5 12 2 5 12 2 5 12 2 5 12 2 5 12 2 5 12 2 5 12 4 9 15 4 9 15 4 9 15 4 9 15 4 9 15 4 9 15 4 9 15 4 9 15 5 10 16 5 10 16 5 10 16 5 10 16 5 10 16 5 10 16 5 10 16 5 10 16 5 10 14 5 10 14 5 10 14 5 10 14 5 10 14 5 10 14 5 10 14 5 10 14 5 10 14 5 10 14 5 10 14 5 10 14 5 10 14 5 10 14 5 10 14 5 10 13 5 9 12 7 11 12 9 13 14 12 16 17 16 20 21 19 23 24 21 25 26 23 27 28 0 4 5 0 4 5 0 4 5 0 4 5 0 4 5 0 4 5 0 4 5 0 4 5 0 1 2 0 2 3 0 4 5 3 7 8 7 11 12 10 14 15 12 16 17 14 18 19 24 28 29 26 30 31 28 32 33 31 35 36 35 39 40 38 42 43 40 44 45 42 46 45 46 51 47 48 53 47 50 55 49 53 58 52 57 62 56 60 65 59 62 67 61 64 69 63 69 74 68 69 74 68 69 74 68 69 74 68 69 74 68 69 74 68 69 74 68 71 73 68 59 60 55 53 52 48 43 42 38 34 33 29 31 30 26 33 32 28 39 38 34 43 42 38 34 33 29 34 33 29 34 33 29 34 33 29 34 33 29 34 33 29 34 33 29 34 33 29 32 31 29 32 31 29 32 31 29 32 31 29 32 31 29 32 31 29 32 31 29 32 31 29 36 35 33 36 35 33 36 35 33 36 35 33 36 35 33 36 35 33 36 35 33 36 35 33
1 1 3 1 1 3 1 1 3 1 1 3 1 1 3 1 1 3 1 1 3 1 1 3 1 1 3 1 1 3 1 1 3 1 1 3 0 0 2 0 0 2 0 0 2 0 0 2 0 0 2 0 0 2 0 0 2 0 0 2 1 1 3 1 1 3 1 1 3 1 1 3 1 1 3 1 1 3 1 1 3 1 1 3 2 1 6 2 1 6 2 1 6 2 1 6 2 1 6 2 1 6 2 1 6 2 1 6 3 2 7 3 2 7 3 2 7 3 2 7 3 2 7 3 2 7 3 2 7 2 3 7 3 3 11 1 4 11 1 4 11 1 4 11 1 4 11 1 4 11 1 4 11 1 4 11 2 5 12 2 5 12 2 5 12 2 5 12 2 5 12 2 5 12 2 5 12 2 5 12 4 9 15 4 9 15 4 9 15 4 9 15 4 9 15 4 9 15 4 9 15 4 9 15 5 10 16 5 10 16 5 10 16 5 10 16 5 10 16 5 10 16 5 10 16 5 10 16 5 10 14 5 10 14 5 10 14 5 10 14 5 10 14 5 10 14 5 10 14 5 10 14 5 10 14 5 10 14 5 10 14 5 10 14 5 10 14 5 10 14 5 10 14 5 10 13 8 12 15 9 13 14 11 15 16 15 19 20 18 22 23 21 25 26 24 28 29 25 29 30 0 4 5 0 4 5 0 4 5 0 4 5 0 4 5 0 4 5 0 4 5 0 4 5 0 1 2 0 2 3 0 4 5 3 7 8 7 11 12 10 14 15 12 16 17 14 18 19 24 28 29 26 30 31 28 32 33 31 35 36 35 39 40 38 42 43 40 44 45 42 46 45 44 49 45 45 50 44 48 53 47 51 56 50 54 59 53 58 63 57 60 65 59 61 66 60 67 72 66 67 72 66 67 72 66 67 72 66 67 72 66 67 72 66 67 72 66 69 71 66 59 60 55 53 52 48 43 42 38 34 33 29 31 30 26 33 32 28 39 38 34 43 42 38 34 33 29 34 33 29 34 33 29 34 33 29 34 33 29 34 33 29 34 33 29 34 33 29 32 31 29 32 31 29 32 31 29 32 31 29 32 31 29 32 31 29 32 31 29 32 31 29 36 35 33 36 35 33 36 35 33 36 35 33 36 35 33 36 35 33 36 35 33 36 35 33
1 1 3 1 1 3 1 1 3 1 1 3 1 1 3 1 1 3 1 1 3 1 1 3 1 1 3 1 1 3 1 1 3 1 1 3 0 0 2 0 0 2 0 0 2 0 0 2 0 0 2 0 0 2 0 0 2 0 0 2 1 1 3 1 1 3 1 1 3 1 1 3 1 1 3 1 1 3 1 1 3 1 1 3 2 1 6 2 1 6 2 1 6 2 1 6 2 1 6 2 1 6 2 1 6 2 1 6 3 2 7 3 2 7 3 2 7 3 2 7 3 2 7 3 2 7 3 2 7 3 2 7 3 4 9 1 4 11 1 4 11 1 4 11 1 4 11 1 4 11 1 4 11 1 4 11 2 5 12 2 5 12 2 5 12 2 5 12 2 5 12 2 5 12 2 5 12 2 5 12 4 9 13 4 9 13 4 9 13 4 9 13 4 9 13 4 9 13 4 9 13 4 9 13 5 10 14 5 10 14 5 10 14 5 10 14 5 10 14 5 10 14 5 10 14 5 10 14 5 10 14 5 10 14 5 10 14 5 10 14 5 10 14 5 10 14 5 10 14 5 10 14 5 10 14 5 10 14 5 10 14 5 10 14 5 10 14 5 10 14 5 10 14 5 10 13 8 13 16 9 15 15 13 17 18 15 21 21 19 23 24 22 28 28 25 29 30 25 31 31 0 4 5 0 5 5 0 4 5 0 5 5 0 4 5 0 5 5 0 4 5 0 4 5 0 1 2 0 2 3 0 4 5 3 7 8 7 11 12 10 14 15 12 16 17 14 18 19 24 28 29 26 30 31 28 32 33 31 35 36 35 39 40 38 42 43 40 44 45 42 46 45 43 48 44 44 49 43 46 51 45 50 55 49 53 58 52 56 61 55 59 64 58 60 65 59 65 70 64 65 70 64 65 70 64 65 70 64 65 70 64 65 70 64 65 70 64 67 69 64 59 60 55 53 52 48 43 42 38 34 33 29 31 30 26 33 32 28 39 38 34 43 42 38 34 33 29 34 33 29 34 33 29 34 33 29 34 33 29 34 33 29 34 33 29 34 33 29 32 31 27 32 31 27 34 30 29 32 31 27 34 30 29 32 31 27 34 30 29 32 31 27 38 34 33 36 35 31 38 34 33 36 35 31 38 34 33 36 35 31 38 34 33 36 35 33
0 0 0 0 0 0 0 0 0 0 0 0 0 0 0 0 0 0 0 0 0 0 0 0 0 0 0 0 0 0 0 0 0 0 0 0 0 0 0 0 0 0 0 0 0 0 0 0 0 0 0 0 0 0 0 0 0 0 0 0 1 1 1 1 1 1 1 1 1 1 1 1 1 1 1 1 1 1 1 1 1 1 1 3 2 1 6 2 1 6 2 1 6 2 1 6 2 1 6 2 1 6 2 1 6 2 1 6 3 2 7 3 2 7 3 2 7 3 2 7 3 2 7 3 2 7 3 2 7 3 2 7 1 2 7 1 2 7 1 2 7 1 2 7 1 2 7 1 2 7 1 2 7 1 2 7 5 6 11 5 6 11 5 6 11 5 6 11 5 6 11 5 6 11 5 6 11 3 6 11 3 8 11 3 8 11 3 8 11 3 8 11 3 8 11 3 8 11 3 8 11 3 8 11 5 10 13 5 10 13 5 10 13 5 10 13 5 10 13 5 10 13 5 10 13 5 10 13 12 20 22 11 19 21 7 15 17 3 11 13 0 6 8 0 2 4 0 2 4 0 2 4 0 2 4 0 3 5 1 9 11 9 17 19 17 25 27 24 32 34 30 38 40 33 41 43 31 39 41 31 39 41 33 38 41 31 39 41 33 38 41 31 39 41 33 38 41 31 39 41 15 20 23 11 19 21 11 16 19 6 14 16 4 9 12 0 7 9 0 4 7 0 2 5 0 2 2 0 4 4 0 6 6 3 9 9 7 13 13 10 16 16 12 18 18 14 20 20 19 25 25 21 27 27 23 29 29 26 32 32 30 36 36 33 39 39 35 41 41 37 43 41 54 60 56 54 60 56 54 60 56 54 60 56 54 60 56 54 60 56 54 60 56 54 60 56 60 66 62 60 66 62 60 66 62 60 66 62 60 66 62 60 66 62 60 66 62 61 66 62 46 45 43 46 42 41 44 40 39 41 37 36 37 33 32 34 30 29 32 28 27 30 26 25 34 30 29 34 30 29 34 30 29 34 30 29 34 30 29 34 30 29 34 30 29 34 30 27 34 30 27 34 31 26 35 30 27 34 31 26 35 30 27 34 31 26 35 30 27 34 31 26 37 32 29 36 33 28 37 32 29 36 33 28 37 32 29 36 33 28 37 32 29 36 32 29
0 0 0 0 0 0 0 0 0 0 0 0 0 0 0 0 0 0 0 0 0 0 0 0 0 0 0 0 0 0 0 0 0 0 0 0 0 0 0 0 0 0 0 0 0 0 0 0 0 0 0 0 0 0 0 0 0 0 0 0 1 1 1 1 1 1 1 1 1 1 1 1 1 1 1 1 1 1 1 1 1 1 1 1 2 1 6 2 1 6 2 1 6 2 1 6 2 1 6 2 1 6 2 1 6 2 1 6 3 2 7 3 2 7 3 2 7 3 2 7 3 2 7 3 2 7 3 2 7 3 2 7 1 2 7 1 2 7 1 2 7 1 2 7 1 2 7 1 2 7 1 2 7 1 2 7 5 6 11 5 6 11 5 6 11 5 6 11 5 6 11 5 6 11 5 6 11 3 7 10 4 8 11 3 9 9 3 9 9 3 9 9 3 9 9 3 9 9 3 9 9 3 9 9 5 11 11 5 11 11 5 11 11 5 11 11 5 11 11 5 11 11 5 11 11 5 11 11 12 20 22 10 18 20 7 15 17 4 12 14 0 8 10 0 4 6 0 2 4 0 2 4 0 4 6 0 7 9 5 13 15 12 20 22 19 27 29 26 34 36 31 39 41 34 42 44 31 39 41 31 39 41 31 39 41 31 39 41 31 39 41 31 39 41 31 39 41 31 39 41 13 21 23 11 19 21 9 17 19 6 14 16 2 10 12 0 7 9 0 5 7 0 3 5 0 2 2 0 4 4 0 6 6 3 9 9 7 13 13 10 16 16 12 18 18 14 20 20 19 25 25 21 27 27 23 29 29 26 32 32 30 36 36 33 39 39 35 41 41 37 43 41 52 58 56 52 58 54 52 58 54 52 58 54 52 58 54 52 58 54 52 58 54 52 58 54 58 64 60 58 64 60 58 64 60 58 64 60 58 64 60 58 64 60 58 64 60 59 64 60 46 45 43 46 42 41 44 40 39 41 37 36 37 33 32 34 30 29 32 28 27 30 26 25 34 30 29 34 30 29 34 30 29 34 30 29 34 30 29 34 30 29 34 30 29 34 30 27 35 30 27 35 30 26 35 30 26 35 30 26 35 30 26 35 30 26 35 30 26 35 30 26 37 32 28 37 32 28 37 32 28 37 32 28 37 32 28 37 32 28 37 32 28 37 32 28
0 0 0 0 0 0 0 0 0 0 0 0 0 0 0 0 0 0 0 0 0 0 0 0 0 0 0 0 0 0 0 0 0 0 0 0 0 0 0 0 0 0 0 0 0 0 0 0 0 0 0 0 0 0 0 0 0 0 0 0 1 1 1 1 1 1 1 1 1 1 1 1 1 1 1 1 1 1 1 1 1 1 1 1 2 1 6 2 1 6 2 1 6 2 1 6 2 1 6 2 1 6 2 1 6 2 1 6 3 2 7 3 2 7 3 2 7 3 2 7 3 2 7 3 2 7 3 2 7 3 2 7 1 2 7 1 2 7 1 2 7 1 2 7 1 2 7 1 2 7 1 2 7 1 2 7 5 6 11 5 6 11 5 6 11 5 6 11 5 6 11 5 6 11 5 6 11 3 7 10 4 8 11 3 9 9 3 9 9 3 9 9 3 9 9 3 9 9 3 9 9 3 9 9 5 11 11 5 11 11 5 11 11 5 11 11 5 11 11 5 11 11 5 11 11 5 11 11 11 19 21 10 18 20 8 16 18 5 13 15 3 11 13 0 8 10 0 6 8 0 5 7 5 13 15 7 15 17 11 19 21 17 25 27 23 31 33 29 37 39 33 41 43 36 44 46 31 39 41 31 39 41 31 39 41 31 39 41 31 39 41 31 39 41 31 39 41 31 39 41 13 21 23 11 19 21 9 17 19 6 14 16 2 10 12 0 7 9 0 5 7 0 3 5 0 2 2 0 4 4 0 6 6 3 9 9 7 13 13 10 16 16 12 18 18 14 20 20 19 25 25 21 27 27 23 29 29 26 32 32 30 36 36 33 39 39 35 41 41 37 43 41 50 56 54 50 56 52 50 56 52 50 56 52 50 56 52 50 56 52 50 56 52 50 56 52 56 62 58 56 62 58 56 62 58 56 62 58 56 62 58 56 62 58 56 62 58 57 62 58 46 45 43 46 42 41 44 40 39 41 37 36 37 33 32 34 30 29 32 28 27 30 26 25 34 30 29 34 30 29 34 30 29 34 30 29 34 30 29 34 30 29 34 30 29 34 30 27 35 30 27 35 30 26 35 30 26 35 30 26 35 30 26 35 30 26 35 30 26 35 30 26 37 32 28 37 32 28 37 32 28 37 32 28 37 32 28 37 32 28 37 32 28 37 32 28
0 0 0 0 0 0 0 0 0 0 0 0 0 0 0 0 0 0 0 0 0 0 0 0 0 0 0 0 0 0 0 0 0 0 0 0 0 0 0 0 0 0 0 0 0 0 0 0 0 0 0 0 0 0 0 0 0 0 0 0 1 1 1 1 1 1 1 1 1 1 1 1 1 1 1 1 1 1 1 1 1 1 1 1 2 1 6 2 1 6 2 1 6 2 1 6 2 1 6 2 1 6 2 1 6 2 1 6 3 2 7 3 2 7 3 2 7 3 2 7 3 2 7 3 2 7 3 2 7 3 2 7 1 2 7 1 2 7 1 2 7 1 2 7 1 2 7 1 2 7 1 2 7 1 2 7 5 6 11 5 6 11 5 6 11 5 6 11 5 6 11 5 6 11 5 6 11 3 7 10 4 8 11 3 9 9 3 9 9 3 9 9 3 9 9 3 9 9 3 9 9 3 9 9 5 11 11 5 11 11 5 11 11 5 11 11 5 11 11 5 11 11 5 11 11 5 11 11 10 18 20 9 17 19 9 17 19 8 16 18 7 15 17 6 14 16 5 13 15 5 13 15 16 24 26 17 25 27 20 28 30 24 32 34 29 37 39 33 41 43 36 44 46 38 46 48 31 39 41 31 39 41 31 39 41 31 39 41 31 39 41 31 39 41 31 39 41 31 39 41 13 21 23 11 19 21 9 17 19 6 14 16 2 10 12 0 7 9 0 5 7 0 3 5 0 2 2 0 4 4 0 6 6 3 9 9 7 13 13 10 16 16 12 18 18 14 20 20 19 25 25 21 27 27 23 29 29 26 32 32 30 36 36 33 39 39 35 41 41 37 43 41 47 53 51 47 53 49 47 53 49 47 53 49 47 53 49 47 53 49 47 53 49 47 53 49 53 59 55 53 59 55 53 59 55 53 59 55 53 59 55 53 59 55 53 59 55 54 59 55 46 45 43 46 42 41 44 40 39 41 37 36 37 33 32 34 30 29 32 28 27 30 26 25 34 30 29 34 30 29 34 30 29 34 30 29 34 30 29 34 30 29 34 30 29 34 30 27 35 30 27 35 30 26 35 30 26 35 30 26 35 30 26 35 30 26 35 30 26 35 30 26 37 32 28 37 32 28 37 32 28 37 32 28 37 32 28 37 32 28 37 32 28 37 32 28
0 0 0 0 0 0 0 0 0 0 0 0 0 0 0 0 0 0 0 0 0 0 0 0 0 0 0 0 0 0 0 0 0 0 0 0 0 0 0 0 0 0 0 0 0 0 0 0 0 0 0 0 0 0 0 0 0 0 0 0 1 1 1 1 1 1 1 1 1 1 1 1 1 1 1 1 1 1 1 1 1 1 1 1 2 1 6 2 1 6 2 1 6 2 1 6 2 1 6 2 1 6 2 1 6 2 1 6 3 2 7 3 2 7 3 2 7 3 2 7 3 2 7 3 2 7 3 2 7 3 2 7 1 2 7 1 2 7 1 2 7 1 2 7 1 2 7 1 2 7 1 2 7 1 2 7 5 6 11 5 6 11 5 6 11 5 6 11 5 6 11 5 6 11 5 6 11 3 7 10 4 8 11 3 9 9 3 9 9 3 9 9 3 9 9 3 9 9 3 9 9 3 9 9 5 11 11 5 11 11 5 11 11 5 11 11 5 11 11 5 11 11 5 11 11 5 11 11 8 16 18 9 17 19 9 17 19 10 18 20 11 19 21 12 20 22 13 21 23 13 21 23 27 35 37 28 36 38 30 38 40 32 40 42 35 43 45 37 45 47 39 47 49 40 48 50 31 39 41 31 39 41 31 39 41 31 39 41 31 39 41 31 39 41 31 39 41 31 39 41 13 21 23 11 19 21 9 17 19 6 14 16 2 10 12 0 7 9 0 5 7 0 3 5 0 2 2 0 4 4 0 6 6 3 9 9 7 13 13 10 16 16 12 18 18 14 20 20 19 25 25 21 27 27 23 29 29 26 32 32 30 36 36 33 39 39 35 41 41 37 43 41 43 49 47 43 49 45 43 49 45 43 49 45 43 49 45 43 49 45 43 49 45 43 49 45 49 55 51 49 55 51 49 55 51 49 55 51 49 55 51 49 55 51 49 55 51 50 55 51 46 45 43 46 42 41 44 40 39 41 37 36 37 33 32 34 30 29 32 28 27 30 26 25 34 30 29 34 30 29 34 30 29 34 30 29 34 30 29 34 30 29 34 30 29 34 30 27 35 30 27 35 30 26 35 30 26 35 30 26 35 30 26 35 30 26 35 30 26 35 30 26 37 32 28 37 32 28 37 32 28 37 32 28 37 32 28 37 32 28 37 32 28 37 32 28
0 0 0 0 0 0 0 0 0 0 0 0 0 0 0 0 0 0 0 0 0 0 0 0 0 0 0 0 0 0 0 0 0 0 0 0 0 0 0 0 0 0 0 0 0 0 0 0 0 0 0 0 0 0 0 0 0 0 0 0 1 1 1 1 1 1 1 1 1 1 1 1 1 1 1 1 1 1 1 1 1 1 1 1 2 1 6 2 1 6 2 1 6 2 1 6 2 1 6 2 1 6 2 1 6 2 1 6 3 2 7 3 2 7 3 2 7 3 2 7 3 2 7 3 2 7 3 2 7 3 2 7 1 2 7 1 2 7 1 2 7 1 2 7 1 2 7 1 2 7 1 2 7 1 2 7 5 6 11 5 6 11 5 6 11 5 6 11 5 6 11 5 6 11 5 6 11 3 7 10 4 8 11 3 9 9 3 9 9 3 9 9 3 9 9 3 9 9 3 9 9 3 9 9 5 11 11 5 11 11 5 11 11 5 11 11 5 11 11 5 11 11 5 11 11 5 11 11 7 15 17 8 16 18 10 18 20 13 21 23 15 23 25 18 26 28 20 28 30 21 29 31 38 46 48 38 46 48 39 47 49 39 47 49 40 48 50 41 49 51 41 49 51 42 50 52 31 39 41 31 39 41 31 39 41 31 39 41 31 39 41 31 39 41 31 39 41 31 39 41 13 21 23 11 19 21 9 17 19 6 14 16 2 10 12 0 7 9 0 5 7 0 3 5 0 2 2 0 4 4 0 6 6 3 9 9 7 13 13 10 16 16 12 18 18 14 20 20 19 25 25 21 27 27 23 29 29 26 32 32 30 36 36 33 39 39 35 41 41 37 43 41 40 46 44 40 46 42 40 46 42 40 46 42 40 46 42 40 46 42 40 46 42 40 46 42 46 52 48 46 52 48 46 52 48 46 52 48 46 52 48 46 52 48 46 52 48 47 52 48 46 45 43 46 42 41 44 40 39 41 37 36 37 33 32 34 30 29 32 28 27 30 26 25 34 30 29 34 30 29 34 30 29 34 30 29 34 30 29 34 30 29 34 30 29 34 30 27 35 30 27 35 30 26 35 30 26 35 30 26 35 30 26 35 30 26 35 30 26 35 30 26 37 32 28 37 32 28 37 32 28 37 32 28 37 32 28 37 32 28 37 32 28 37 32 28
0 0 0 0 0 0 0 0 0 0 0 0 0 0 0 0 0 0 0 0 0 0 0 0 0 0 0 0 0 0 0 0 0 0 0 0 0 0 0 0 0 0 0 0 0 0 0 0 0 0 0 0 0 0 0 0 0 0 0 0 1 1 1 1 1 1 1 1 1 1 1 1 1 1 1 1 1 1 1 1 1 1 1 1 2 1 6 2 1 6 2 1 6 2 1 6 2 1 6 2 1 6 2 1 6 2 1 6 3 2 7 3 2 7 3 2 7 3 2 7 3 2 7 3 2 7 3 2 7 3 2 7 1 2 7 1 2 7 1 2 7 1 2 7 1 2 7 1 2 7 1 2 7 1 2 7 5 6 11 5 6 11 5 6 11 5 6 11 5 6 11 5 6 11 5 6 11 3 7 10 4 8 11 3 9 9 3 9 9 3 9 9 3 9 9 3 9 9 3 9 9 3 9 9 5 11 11 5 11 11 5 11 11 5 11 11 5 11 11 5 11 11 5 11 11 5 11 11 6 14 16 8 16 18 11 19 21 14 22 24 18 26 28 22 30 32 25 33 35 27 35 37 46 54 56 46 54 56 46 54 56 45 53 55 44 52 54 44 52 54 43 51 53 43 51 53 31 39 41 31 39 41 31 39 41 31 39 41 31 39 41 31 39 41 31 39 41 31 39 41 13 21 23 11 19 21 9 17 19 6 14 16 2 10 12 0 7 9 0 5 7 0 3 5 0 2 2 0 4 4 0 6 6 3 9 9 7 13 13 10 16 16 12 18 18 14 20 20 19 25 25 21 27 27 23 29 29 26 32 32 30 36 36 33 39 39 35 41 41 37 43 41 38 44 42 38 44 40 38 44 40 38 44 40 38 44 40 38 44 40 38 44 40 38 44 40 44 50 46 44 50 46 44 50 46 44 50 46 44 50 46 44 50 46 44 50 46 45 50 46 46 45 43 46 42 41 44 40 39 41 37 36 37 33 32 34 30 29 32 28 27 30 26 25 34 30 29 34 30 29 34 30 29 34 30 29 34 30 29 34 30 29 34 30 29 34 30 27 35 30 27 35 30 26 35 30 26 35 30 26 35 30 26 35 30 26 35 30 26 35 30 26 37 32 28 37 32 28 37 32 28 37 32 28 37 32 28 37 32 28 37 32 28 37 32 28
0 0 0 0 0 0 0 0 0 0 0 0 0 0 0 0 0 0 0 0 0 0 0 0 0 0 0 0 0 0 0 0 0 0 0 0 0 0 0 0 0 0 0 0 0 0 0 0 0 0 0 0 0 0 0 0 0 0 0 0 1 1 1 1 1 1 1 1 1 1 1 1 1 1 1 1 1 1 1 1 1 1 1 1 2 1 6 2 1 6 2 1 6 2 1 6 2 1 6 2 1 6 2 1 6 2 1 6 3 2 7 3 2 7 3 2 7 3 2 7 3 2 7 3 2 7 3 2 7 3 2 7 1 2 7 1 2 7 1 2 7 1 2 7 1 2 7 1 2 7 1 2 7 1 2 7 5 6 11 5 6 11 5 6 11 5 6 11 5 6 11 5 6 11 5 6 11 3 7 10 4 8 11 3 9 9 3 9 9 3 9 9 3 9 9 3 9 9 3 9 9 3 9 9 5 11 11 5 11 11 5 11 11 5 11 11 5 11 11 5 11 11 5 11 11 5 11 11 6 14 16 7 15 17 11 19 21 15 23 25 20 28 30 24 32 34 28 36 38 30 38 40 51 59 61 50 58 60 49 57 59 48 56 58 47 55 57 45 53 55 45 53 55 44 52 54 31 39 41 31 39 41 31 39 41 31 39 41 31 39 41 31 39 41 31 39 41 31 39 41 13 21 23 11 19 21 9 17 19 6 14 16 2 10 12 0 7 9 0 5 7 0 3 5 0 2 2 0 4 4 0 6 6 3 9 9 7 13 13 10 16 16 12 18 18 14 20 20 19 25 25 21 27 27 23 29 29 26 32 32 30 36 36 33 39 39 35 41 41 37 43 41 36 42 40 36 42 38 36 42 38 36 42 38 36 42 38 36 42 38 36 42 38 36 42 38 42 48 44 42 48 44 42 48 44 42 48 44 42 48 44 42 48 44 42 48 44 43 48 44 46 45 43 46 42 41 44 40 39 41 37 36 37 33 32 34 30 29 32 28 27 30 26 25 34 30 29 34 30 29 34 30 29 34 30 29 34 30 29 34 30 29 34 30 29 34 30 27 35 30 27 35 30 26 35 30 26 35 30 26 35 30 26 35 30 26 35 30 26 35 30 26 37 32 28 37 32 28 37 32 28 37 32 28 37 32 28 37 32 28 37 32 28 37 32 28
0 0 0 0 0 0 0 0 0 0 0 0 0 0 0 0 0 0 0 0 0 0 0 0 0 0 0 0 0 0 0 0 0 0 0 0 0 0 0 0 0 0 0 0 0 0 0 0 0 0 0 0 0 0 0 0 0 0 0 0 0 0 0 0 0 0 0 0 0 0 0 0 0 0 0 0 0 0 0 0 0 0 0 0 2 1 6 2 1 6 2 1 6 2 1 6 2 1 6 2 1 6 2 1 6 2 1 6 3 2 7 3 2 7 3 2 7 3 2 7 3 2 7 3 2 7 3 2 7 3 2 7 1 2 7 1 2 7 1 2 7 1 2 7 1 2 7 1 2 7 1 2 7 1 2 7 4 5 10 4 5 10 4 5 10 4 5 10 4 5 10 4 5 10 4 5 10 2 6 9 9 13 16 8 14 14 8 14 14 8 14 14 8 14 14 8 14 14 8 14 14 8 14 14 0 6 6 1 7 7 4 10 10 7 13 13 10 16 16 14 20 20 16 22 22 17 23 23 24 32 34 25 33 35 28 36 38 31 39 41 34 42 44 38 46 48 40 48 50 41 49 51 52 60 62 52 60 62 52 60 62 52 60 62 52 60 62 52 60 62 52 60 62 52 60 62 52 60 62 50 58 60 48 56 58 45 53 55 41 49 51 38 46 48 36 44 46 34 42 44 6 14 16 6 14 16 6 14 16 6 14 16 6 14 16 6 14 16 6 14 16 6 14 16 0 6 6 2 8 8 4 10 10 7 13 13 11 17 17 14 20 20 16 22 22 18 24 24 23 29 29 23 29 29 23 29 29 23 29 29 23 29 29 23 29 29 23 29 29 23 29 27 32 38 36 32 38 34 32 38 34 32 38 34 32 38 34 32 38 34 32 38 34 32 38 34 42 48 44 42 48 44 42 48 44 42 48 44 42 48 44 42 48 44 42 48 44 43 48 44 31 30 28 33 29 28 33 29 28 33 29 28 33 29 28 33 29 28 33 29 28 33 29 28 33 29 28 33 29 28 33 29 28 33 29 28 33 29 28 33 29 28 33 29 28 33 29 26 35 30 27 35 30 26 35 30 26 35 30 26 35 30 26 35 30 26 35 30 26 35 30 26 36 31 27 36 31 27 36 31 27 36 31 27 36 31 27 36 31 27 36 31 27 36 31 27
0 0 0 0 0 0 0 0 0 0 0 0 0 0 0 0 0 0 0 0 0 0 0 0 0 0 0 0 0 0 0 0 0 0 0 0 0 0 0 0 0 0 0 0 0 0 0 0 0 0 0 0 0 0 0 0 0 0 0 0 0 0 0 0 0 0 0 0 0 0 0 0 0 0 0 0 0 0 0 0 0 0 0 0 2 1 6 2 1 6 2 1 6 2 1 6 2 1 6 2 1 6 2 1 6 2 1 6 3 2 7 3 2 7 3 2 7 3 2 7 3 2 7 3 2 7 3 2 7 3 2 7 1 2 7 1 2 7 1 2 7 1 2 7 1 2 7 1 2 7 1 2 7 1 2 7 4 5 10 4 5 10 4 5 10 4 5 10 4 5 10 4 5 10 4 5 10 2 6 9 9 13 16 8 14 14 8 14 14 8 14 14 8 14 14 8 14 14 8 14 14 8 14 14 3 9 9 4 10 10 6 12 12 10 16 16 13 19 19 16 22 22 19 25 25 20 26 26 27 35 37 28 36 38 30 38 40 34 42 44 37 45 47 40 48 50 43 51 53 44 52 54 54 62 64 54 62 64 54 62 64 54 62 64 54 62 64 54 62 64 54 62 64 54 62 64 52 60 62 50 58 60 48 56 58 45 53 55 41 49 51 38 46 48 36 44 46 34 42 44 6 14 16 6 14 16 6 14 16 6 14 16 6 14 16 6 14 16 6 14 16 6 14 16 0 6 6 2 8 8 4 10 10 7 13 13 11 17 17 14 20 20 16 22 22 18 24 24 23 29 29 23 29 29 23 29 29 23 29 29 23 29 29 23 29 29 23 29 29 23 29 27 32 38 36 32 38 34 32 38 34 32 38 34 32 38 34 32 38 34 32 38 34 32 38 34 40 46 42 40 46 42 40 46 42 40 46 42 40 46 42 40 46 42 40 46 42 41 46 42 31 30 28 33 29 28 33 29 28 33 29 28 33 29 28 33 29 28 33 29 28 33 29 28 33 29 28 33 29 28 33 29 28 33 29 28 33 29 28 33 29 28 33 29 28 33 29 26 35 30 27 35 30 26 35 30 26 35 30 26 35 30 26 35 30 26 35 30 26 35 30 26 36 31 27 36 31 27 36 31 27 36 31 27 36 31 27 36 31 27 36 31 27 36 31 27
0 0 0 0 0 0 0 0 0 0 0 0 0 0 0 0 0 0 0 0 0 0 0 0 0 0 0 0 0 0 0 0 0 0 0 0 0 0 0 0 0 0 0 0 0 0 0 0 0 0 0 0 0 0 0 0 0 0 0 0 0 0 0 0 0 0 0 0 0 0 0 0 0 0 0 0 0 0 0 0 0 0 0 0 2 1 6 2 1 6 2 1 6 2 1 6 2 1 6 2 1 6 2 1 6 2 1 6 3 2 7 3 2 7 3 2 7 3 2 7 3 2 7 3 2 7 3 2 7 3 2 7 1 2 7 1 2 7 1 2 7 1 2 7 1 2 7 1 2 7 1 2 7 1 2 7 4 5 10 4 5 10 4 5 10 4 5 10 4 5 10 4 5 10 4 5 10 2 6 9 9 13 16 8 14 14 8 14 14 8 14 14 8 14 14 8 14 14 8 14 14 8 14 14 8 14 14 9 15 15 11 17 17 14 20 20 18 24 24 21 27 27 24 30 30 25 31 31 32 40 42 33 41 43 35 43 45 38 46 48 42 50 52 45 53 55 48 56 58 49 57 59 56 64 66 56 64 66 56 64 66 56 64 66 56 64 66 56 64 66 56 64 66 56 64 66 52 60 62 50 58 60 48 56 58 45 53 55 41 49 51 38 46 48 36 44 46 34 42 44 6 14 16 6 14 16 6 14 16 6 14 16 6 14 16 6 14 16 6 14 16 6 14 16 0 6 6 2 8 8 4 10 10 7 13 13 11 17 17 14 20 20 16 22 22 18 24 24 23 29 29 23 29 29 23 29 29 23 29 29 23 29 29 23 29 29 23 29 29 23 29 27 32 38 36 32 38 34 32 38 34 32 38 34 32 38 34 32 38 34 32 38 34 32 38 34 38 44 40 38 44 40 38 44 40 38 44 40 38 44 40 38 44 40 38 44 40 39 44 40 31 30 28 33 29 28 33 29 28 33 29 28 33 29 28 33 29 28 33 29 28 33 29 28 33 29 28 33 29 28 33 29 28 33 29 28 33 29 28 33 29 28 33 29 28 33 29 26 35 30 27 35 30 26 35 30 26 35 30 26 35 30 26 35 30 26 35 30 26 35 30 26 36 31 27 36 31 27 36 31 27 36 31 27 36 31 27 36 31 27 36 31 27 36 31 27
0 0 0 0 0 0 0 0 0 0 0 0 0 0 0 0 0 0 0 0 0 0 0 0 0 0 0 0 0 0 0 0 0 0 0 0 0 0 0 0 0 0 0 0 0 0 0 0 0 0 0 0 0 0 0 0 0 0 0 0 0 0 0 0 0 0 0 0 0 0 0 0 0 0 0 0 0 0 0 0 0 0 0 0 2 1 6 2 1 6 2 1 6 2 1 6 2 1 6 2 1 6 2 1 6 2 1 6 3 2 7 3 2 7 3 2 7 3 2 7 3 2 7 3 2 7 3 2 7 3 2 7 1 2 7 1 2 7 1 2 7 1 2 7 1 2 7 1 2 7 1 2 7 1 2 7 4 5 10 4 5 10 4 5 10 4 5 10 4 5 10 4 5 10 4 5 10 2 6 9 9 13 16 8 14 14 8 14 14 8 14 14 8 14 14 8 14 14 8 14 14 8 14 14 14 20 20 15 21 21 18 24 24 21 27 27 24 30 30 27 33 33 30 36 36 31 37 37 38 46 48 39 47 49 42 50 52 45 53 55 48 56 58 51 59 61 54 62 64 55 63 65 59 67 69 59 67 69 59 67 69 59 67 69 59 67 69 59 67 69 59 67 69 59 67 69 52 60 62 50 58 60 48 56 58 45 53 55 41 49 51 38 46 48 36 44 46 34 42 44 6 14 16 6 14 16 6 14 16 6 14 16 6 14 16 6 14 16 6 14 16 6 14 16 0 6 6 2 8 8 4 10 10 7 13 13 11 17 17 14 20 20 16 22 22 18 24 24 23 29 29 23 29 29 23 29 29 23 29 29 23 29 29 23 29 29 23 29 29 23 29 27 32 38 36 32 38 34 32 38 34 32 38 34 32 38 34 32 38 34 32 38 34 32 38 34 35 41 37 35 41 37 35 41 37 35 41 37 35 41 37 35 41 37 35 41 37 36 41 37 31 30 28 33 29 28 33 29 28 33 29 28 33 29 28 33 29 28 33 29 28 33 29 28 33 29 28 33 29 28 33 29 28 33 29 28 33 29 28 33 29 28 33 29 28 33 29 26 35 30 27 35 30 26 35 30 26 35 30 26 35 30 26 35 30 26 35 30 26 35 30 26 36 31 27 36 31 27 36 31 27 36 31 27 36 31 27 36 31 27 36 31 27 36 31 27
0 0 0 0 0 0 0 0 0 0 0 0 0 0 0 0 0 0 0 0 0 0 0 0 0 0 0 0 0 0 0 0 0 0 0 0 0 0 0 0 0 0 0 0 0 0 0 0 0 0 0 0 0 0 0 0 0 0 0 0 0 0 0 0 0 0 0 0 0 0 0 0 0 0 0 0 0 0 0 0 0 0 0 0 2 1 6 2 1 6 2 1 6 2 1 6 2 1 6 2 1 6 2 1 6 2 1 6 3 2 7 3 2 7 3 2 7 3 2 7 3 2 7 3 2 7 3 2 7 3 2 7 1 2 7 1 2 7 1 2 7 1 2 7 1 2 7 1 2 7 1 2 7 1 2 7 4 5 10 4 5 10 4 5 10 4 5 10 4 5 10 4 5 10 4 5 10 2 6 9 9 13 16 8 14 14 8 14 14 8 14 14 8 14 14 8 14 14 8 14 14 8 14 14 21 27 27 22 28 28 25 31 31 28 34 34 31 37 37 34 40 40 37 43 43 38 44 44 45 53 55 46 54 56 49 57 59 52 60 62 55 63 65 58 66 68 61 69 71 62 70 72 63 71 73 63 71 73 63 71 73 63 71 73 63 71 73 63 71 73 63 71 73 63 71 73 52 60 62 50 58 60 48 56 58 45 53 55 41 49 51 38 46 48 36 44 46 34 42 44 6 14 16 6 14 16 6 14 16 6 14 16 6 14 16 6 14 16 6 14 16 6 14 16 0 6 6 2 8 8 4 10 10 7 13 13 11 17 17 14 20 20 16 22 22 18 24 24 23 29 29 23 29 29 23 29 29 23 29 29 23 29 29 23 29 29 23 29 29 23 29 27 32 38 36 32 38 34 32 38 34 32 38 34 32 38 34 32 38 34 32 38 34 32 38 34 31 37 33 31 37 33 31 37 33 31 37 33 31 37 33 31 37 33 31 37 33 32 37 33 31 30 28 33 29 28 33 29 28 33 29 28 33 29 28 33 29 28 33 29 28 33 29 28 33 29 28 33 29 28 33 29 28 33 29 28 33 29 28 33 29 28 33 29 28 33 29 26 35 30 27 35 30 26 35 30 26 35 30 26 35 30 26 35 30 26 35 30 26 35 30 26 36 31 27 36 31 27 36 31 27 36 31 27 36 31 27 36 31 27 36 31 27 36 31 27
0 0 0 0 0 0 0 0 0 0 0 0 0 0 0 0 0 0 0 0 0 0 0 0 0 0 0 0 0 0 0 0 0 0 0 0 0 0 0 0 0 0 0 0 0 0 0 0 0 0 0 0 0 0 0 0 0 0 0 0 0 0 0 0 0 0 0 0 0 0 0 0 0 0 0 0 0 0 0 0 0 0 0 0 2 1 6 2 1 6 2 1 6 2 1 6 2 1 6 2 1 6 2 1 6 2 1 6 3 2 7 3 2 7 3 2 7 3 2 7 3 2 7 3 2 7 3 2 7 3 2 7 1 2 7 1 2 7 1 2 7 1 2 7 1 2 7 1 2 7 1 2 7 1 2 7 4 5 10 4 5 10 4 5 10 4 5 10 4 5 10 4 5 10 4 5 10 2 6 9 9 13 16 8 14 14 8 14 14 8 14 14 8 14 14 8 14 14 8 14 14 8 14 14 27 33 33 28 34 34 31 37 37 34 40 40 38 44 44 41 47 47 43 49 49 44 50 50 51 59 61 52 60 62 55 63 65 58 66 68 62 70 72 65 73 75 67 75 77 68 76 78 66 74 76 66 74 76 66 74 76 66 74 76 66 74 76 66 74 76 66 74 76 66 74 76 52 60 62 50 58 60 48 56 58 45 53 55 41 49 51 38 46 48 36 44 46 34 42 44 6 14 16 6 14 16 6 14 16 6 14 16 6 14 16 6 14 16 6 14 16 6 14 16 0 6 6 2 8 8 4 10 10 7 13 13 11 17 17 14 20 20 16 22 22 18 24 24 23 29 29 23 29 29 23 29 29 23 29 29 23 29 29 23 29 29 23 29 29 23 29 27 32 38 36 32 38 34 32 38 34 32 38 34 32 38 34 32 38 34 32 38 34 32 38 34 28 34 30 28 34 30 28 34 30 28 34 30 28 34 30 28 34 30 28 34 30 29 34 30 31 30 28 33 29 28 33 29 28 33 29 28 33 29 28 33 29 28 33 29 28 33 29 28 33 29 28 33 29 28 33 29 28 33 29 28 33 29 28 33 29 28 33 29 28 33 29 26 35 30 27 35 30 26 35 30 26 35 30 26 35 30 26 35 30 26 35 30 26 35 30 26 36 31 27 36 31 27 36 31 27 36 31 27 36 31 27 36 31 27 36 31 27 36 31 27
0 0 0 0 0 0 0 0 0 0 0 0 0 0 0 0 0 0 0 0 0 0 0 0 0 0 0 0 0 0 0 0 0 0 0 0 0 0 0 0 0 0 0 0 0 0 0 0 0 0 0 0 0 0 0 0 0 0 0 0 0 0 0 0 0 0 0 0 0 0 0 0 0 0 0 0 0 0 0 0 0 0 0 0 2 1 6 2 1 6 2 1 6 2 1 6 2 1 6 2 1 6 2 1 6 2 1 6 3 2 7 3 2 7 3 2 7 3 2 7 3 2 7 3 2 7 3 2 7 3 2 7 1 2 7 1 2 7 1 2 7 1 2 7 1 2 7 1 2 7 1 2 7 1 2 7 4 5 10 4 5 10 4 5 10 4 5 10 4 5 10 4 5 10 4 5 10 2 6 9 9 13 16 8 14 14 8 14 14 8 14 14 8 14 14 8 14 14 8 14 14 8 14 14 32 38 38 33 39 39 36 42 42 39 45 45 42 48 48 46 52 52 48 54 54 49 55 55 56 64 66 57 65 67 60 68 70 63 71 73 66 74 76 70 78 80 72 80 82 73 81 83 68 76 78 68 76 78 68 76 78 68 76 78 68 76 78 68 76 78 68 76 78 68 76 78 52 60 62 50 58 60 48 56 58 45 53 55 41 49 51 38 46 48 36 44 46 34 42 44 6 14 16 6 14 16 6 14 16 6 14 16 6 14 16 6 14 16 6 14 16 6 14 16 0 6 6 2 8 8 4 10 10 7 13 13 11 17 17 14 20 20 16 22 22 18 24 24 23 29 29 23 29 29 23 29 29 23 29 29 23 29 29 23 29 29 23 29 29 23 29 27 32 38 36 32 38 34 32 38 34 32 38 34 32 38 34 32 38 34 32 38 34 32 38 34 26 32 28 26 32 28 26 32 28 26 32 28 26 32 28 26 32 28 26 32 28 27 32 28 31 30 28 33 29 28 33 29 28 33 29 28 33 29 28 33 29 28 33 29 28 33 29 28 33 29 28 33 29 28 33 29 28 33 29 28 33 29 28 33 29 28 33 29 28 33 29 26 35 30 27 35 30 26 35 30 26 35 30 26 35 30 26 35 30 26 35 30 26 35 30 26 36 31 27 36 31 27 36 31 27 36 31 27 36 31 27 36 31 27 36 31 27 36 31 27
0 0 0 0 0 0 0 0 0 0 0 0 0 0 0 0 0 0 0 0 0 0 0 0 0 0 0 0 0 0 0 0 0 0 0 0 0 0 0 0 0 0 0 0 0 0 0 0 0 0 0 0 0 0 0 0 0 0 0 0 0 0 0 0 0 0 0 0 0 0 0 0 0 0 0 0 0 0 0 0 0 0 0 0 2 2 4 1 2 6 2 1 6 1 2 6 2 1 6 1 2 6 2 1 6 1 2 6 3 2 7 2 3 7 3 2 7 2 3 7 3 2 7 2 3 7 3 2 7 2 3 7 1 2 7 0 2 7 0 2 7 0 2 7 0 2 7 0 2 7 0 2 7 0 2 7 2 5 10 2 5 10 2 5 10 2 5 10 2 5 10 2 5 10 2 5 10 2 5 10 8 13 16 8 14 14 8 13 16 8 14 14 8 13 16 8 14 14 8 13 16 8 14 14 35 40 43 36 42 42 38 43 46 42 48 48 45 50 53 48 54 54 51 56 59 52 57 60 59 67 69 60 68 70 62 70 72 66 74 76 69 77 79 72 80 82 75 83 85 76 84 86 70 78 80 70 78 80 70 78 80 70 78 80 70 78 80 70 78 80 70 78 80 70 78 80 52 60 62 50 58 60 48 56 58 45 53 55 41 49 51 38 46 48 36 44 46 34 42 44 6 14 16 6 14 16 6 14 16 6 14 16 6 14 16 6 14 16 6 14 16 6 14 16 0 6 6 2 8 8 4 10 10 7 13 13 11 17 17 14 20 20 16 22 22 18 24 24 23 29 29 23 29 29 23 29 29 23 29 29 23 29 29 23 29 29 23 29 29 23 29 29 32 38 36 32 38 36 32 38 36 32 38 36 32 38 36 32 38 36 32 38 36 32 38 36 24 30 28 24 30 28 24 30 28 24 30 28 24 30 28 24 30 28 24 30 28 25 30 26 31 30 28 33 29 28 34 28 28 33 29 28 34 28 28 33 29 28 34 28 28 33 29 28 34 28 28 33 29 28 34 28 28 33 29 28 34 28 28 33 29 28 34 28 28 34 29 26 35 30 26 35 30 26 35 30 26 35 30 26 35 30 26 35 30 26 35 30 26 35 30 26 36 31 27 36 31 27 36 31 27 36 31 27 36 31 27 36 31 27 36 31 27 36 31 27
1 1 1 1 1 1 1 1 1 1 1 1 0 0 0 0 0 0 0 0 0 0 0 0 0 0 0 0 0 0 0 0 0 0 0 0 0 0 0 0 0 0 0 0 0 0 0 0 0 0 0 0 0 0 0 0 0 0 0 0 0 0 0 0 0 0 0 0 0 0 0 0 0 0 0 0 0 0 0 0 0 0 0 0 0 1 3 0 2 3 0 1 3 0 2 3 0 1 3 0 2 3 0 1 3 0 2 3 3 4 6 1 5 6 3 4 6 1 5 6 3 4 6 1 5 6 3 4 6 1 5 8 0 1 5 0 1 5 0 1 5 0 1 5 0 1 5 0 1 5 0 1 5 0 1 5 0 2 6 0 3 7 1 6 10 4 9 13 7 12 16 11 16 20 13 18 22 14 19 23 20 28 31 21 29 31 24 32 35 27 35 37 30 38 41 34 42 44 36 44 47 37 45 47 56 64 67 56 64 66 56 64 67 56 64 66 56 64 67 56 64 66 56 64 67 56 64 66 75 83 85 75 83 85 75 83 85 75 83 85 75 83 85 75 83 85 75 83 85 75 83 85 72 80 82 72 80 82 72 80 82 72 80 82 72 80 82 72 80 82 72 80 82 72 80 82 63 71 73 61 69 71 56 64 66 49 57 59 43 51 53 36 44 46 31 39 41 29 37 39 6 14 16 6 14 16 6 14 16 6 14 16 6 14 16 6 14 16 6 14 16 6 14 16 9 17 19 9 17 19 9 17 19 9 17 19 9 17 19 9 17 19 9 17 19 9 17 19 21 29 31 21 29 31 21 29 31 21 29 31 21 29 31 21 29 31 21 29 31 21 29 31 24 30 30 24 30 30 24 30 30 24 30 30 24 30 30 24 30 30 24 30 30 24 30 30 22 28 28 22 28 28 22 28 28 22 28 28 22 28 28 22 28 28 22 28 28 25 27 26 30 26 25 31 26 23 33 25 23 31 26 23 33 25 23 31 26 23 33 25 23 31 26 23 36 28 26 34 29 26 36 28 26 34 29 26 36 28 26 34 29 26 36 28 26 36 28 26 36 28 25 36 28 25 36 28 25 36 28 25 36 28 25 36 28 25 36 28 25 36 28 25 37 29 26 37 29 26 37 29 26 37 29 26 37 29 26 37 29 26 37 29 26 37 29 26
1 1 1 1 1 1 1 1 1 1 1 1 0 0 0 0 0 0 0 0 0 0 0 0 0 0 0 0 0 0 0 0 0 0 0 0 0 0 0 0 0 0 0 0 0 0 0 0 0 0 0 0 0 0 0 0 0 0 0 0 0 0 0 0 0 0 0 0 0 0 0 0 0 0 0 0 0 0 0 0 0 0 1 0 0 1 3 0 2 3 0 2 3 0 2 3 0 2 3 0 2 3 0 2 3 0 2 3 1 5 6 1 5 6 1 5 6 1 5 6 1 5 6 1 5 6 1 5 6 0 6 6 0 3 7 0 4 7 0 4 7 0 4 7 0 4 7 0 4 7 0 4 7 0 4 7 0 6 9 0 7 10 1 9 12 5 13 16 8 16 19 11 19 22 14 22 25 15 23 26 23 31 34 24 32 35 26 34 37 30 38 41 33 41 44 36 44 47 39 47 50 40 48 51 58 66 69 58 66 69 58 66 69 58 66 69 58 66 69 58 66 69 58 66 69 58 66 69 75 83 85 75 83 85 75 83 85 75 83 85 75 83 85 75 83 85 75 83 85 75 83 85 72 80 82 72 80 82 72 80 82 72 80 82 72 80 82 72 80 82 72 80 82 72 80 82 63 71 73 61 69 71 56 64 66 49 57 59 43 51 53 36 44 46 31 39 41 29 37 39 6 14 16 6 14 16 6 14 16 6 14 16 6 14 16 6 14 16 6 14 16 6 14 16 9 17 19 9 17 19 9 17 19 9 17 19 9 17 19 9 17 19 9 17 19 9 17 19 21 29 31 21 29 31 21 29 31 21 29 31 21 29 31 21 29 31 21 29 31 21 29 31 24 29 32 24 29 32 24 29 32 24 29 32 24 29 32 24 29 32 24 29 32 24 29 32 22 27 30 22 27 30 22 27 30 22 27 30 22 27 30 22 27 30 22 27 30 25 26 28 30 26 25 33 25 23 33 25 23 33 25 23 33 25 23 33 25 23 33 25 23 33 25 23 36 28 26 36 28 26 36 28 26 36 28 26 36 28 26 36 28 26 36 28 26 36 28 26 36 28 25 36 28 25 36 28 25 36 28 25 36 28 25 36 28 25 36 28 25 36 28 25 37 29 26 37 29 26 37 29 26 37 29 26 37 29 26 37 29 26 37 29 26 37 29 26
1 1 1 1 1 1 1 1 1 1 1 1 0 0 0 0 0 0 0 0 0 0 0 0 0 0 0 0 0 0 0 0 0 0 0 0 0 0 0 0 0 0 0 0 0 0 0 0 0 0 0 0 0 0 0 0 0 0 0 0 0 0 0 0 0 0 0 0 0 0 0 0 0 0 0 0 0 0 0 0 0 0 1 0 0 1 3 0 2 3 0 2 3 0 2 3 0 2 3 0 2 3 0 2 3 0 2 3 1 5 6 1 5 6 1 5 6 1 5 6 1 5 6 1 5 6 1 5 6 0 6 6 0 5 9 0 6 9 0 6 9 0 6 9 0 6 9 0 6 9 0 6 9 0 6 9 3 11 14 4 12 15 6 14 17 9 17 20 13 21 24 16 24 27 19 27 30 20 28 31 28 36 39 29 37 40 31 39 42 34 42 45 38 46 49 41 49 52 44 52 55 45 53 56 60 68 71 60 68 71 60 68 71 60 68 71 60 68 71 60 68 71 60 68 71 60 68 71 75 83 85 75 83 85 75 83 85 75 83 85 75 83 85 75 83 85 75 83 85 75 83 85 72 80 82 72 80 82 72 80 82 72 80 82 72 80 82 72 80 82 72 80 82 72 80 82 63 71 73 61 69 71 56 64 66 49 57 59 43 51 53 36 44 46 31 39 41 29 37 39 6 14 16 6 14 16 6 14 16 6 14 16 6 14 16 6 14 16 6 14 16 6 14 16 9 17 19 9 17 19 9 17 19 9 17 19 9 17 19 9 17 19 9 17 19 9 17 19 21 29 31 21 29 31 21 29 31 21 29 31 21 29 31 21 29 31 21 29 31 21 29 31 24 29 32 24 29 32 24 29 32 24 29 32 24 29 32 24 29 32 24 29 32 24 29 32 22 27 30 22 27 30 22 27 30 22 27 30 22 27 30 22 27 30 22 27 30 25 26 28 30 26 25 33 25 23 33 25 23 33 25 23 33 25 23 33 25 23 33 25 23 33 25 23 36 28 26 36 28 26 36 28 26 36 28 26 36 28 26 36 28 26 36 28 26 36 28 26 36 28 25 36 28 25 36 28 25 36 28 25 36 28 25 36 28 25 36 28 25 36 28 25 37 29 26 37 29 26 37 29 26 37 29 26 37 29 26 37 29 26 37 29 26 37 29 26
