P3
172 37
255
81 76 99 91 86 108 98 93 116 102 97 119 127 122 145 127 122 144 127 122 145 126 121 143 125 120 143 125 120 142 124 119 142 124 120 137 129 126 135 129 127 132 131 126 132 129 127 132 131 126 132 129 127 132 131 126 132 129 127 132 129 124 130 127 125 130 129 124 130 127 125 130 129 124 130 127 125 130 129 124 130 130 123 130 130 117 124 133 116 124 133 116 124 133 116 124 133 116 124 133 116 124 133 116 124 133 116 124 133 116 124 131 114 122 129 112 120 126 109 117 122 105 113 119 102 110 117 100 108 114 99 106 107 94 103 102 91 99 94 83 91 84 73 81 73 62 70 63 52 60 55 44 52 51 40 48 26 15 23 25 14 22 23 12 20 21 10 18 18 7 15 15 4 12 13 2 10 11 1 9 12 10 13 11 11 13 11 11 13 11 11 13 11 11 13 11 11 13 11 11 13 11 11 13 12 12 14 12 12 14 12 12 14 12 12 14 12 12 14 12 12 14 12 12 14 8 14 14 0 16 9 0 18 9 0 18 9 0 18 9 0 18 9 0 18 9 0 18 9 0 18 9 0 21 12 0 21 12 0 21 12 0 21 12 0 21 12 0 21 12 0 21 12 0 21 12 0 23 14 0 23 14 0 23 14 0 23 14 0 23 14 0 23 14 0 23 14 0 23 14 17 43 34 14 40 31 9 35 26 2 28 19 0 21 12 0 14 5 0 9 0 0 9 0 0 17 6 0 17 6 0 17 6 0 17 6 0 17 6 0 17 6 0 17 6 0 17 6 0 24 13 0 26 15 2 28 17 5 31 20 9 35 24 12 38 27 14 40 29 16 42 31 35 58 48 37 60 50 42 65 55 49 72 62 55 78 68 62 85 75 67 90 80 69 92 82 81 104 94 82 105 95 85 108 98 88 111 101 91 114 104 95 118 108 97 120 110 98 121 111 94 117 107 83 106 96 66 89 79 47 70 60 33 56 46 26 49 39 25 48 38 25 48 38 27 50 40 27 50 40 27 50 40 27 50 40 27 50 40 27 50 40 27 50 40 27 50 40 24 46 34 24 46 34 24 46 34 24 46 34 24 46 34 24 46 34 24 46 34 24 46 34 28 50 38 28 50 38 28 50 38 28 50 38 28 50 38 28 50 38 28 50 38 31 48 38
85 80 102 95 90 112 102 97 119 106 101 123 132 127 149 131 126 148 130 125 147 129 124 146 128 123 145 126 121 143 126 121 143 124 121 138 127 127 137 125 128 133 125 128 133 125 128 133 125 128 133 125 128 133 125 128 133 125 128 133 123 126 131 123 126 131 123 126 131 123 126 131 123 126 131 123 126 131 123 126 131 126 125 131 128 118 126 130 117 126 130 117 126 130 117 126 130 117 126 130 117 126 130 117 126 130 117 126 130 117 126 128 115 124 126 113 122 123 110 119 119 106 115 116 103 112 114 101 110 111 100 108 102 95 103 97 92 99 88 83 90 77 72 79 66 61 68 55 50 57 47 42 49 42 37 44 18 13 20 17 12 19 16 11 18 14 9 16 12 7 14 10 5 12 8 3 10 7 2 9 14 9 15 14 9 15 14 9 15 14 9 15 14 9 15 14 9 15 14 9 15 14 9 15 15 10 16 15 10 16 15 10 16 15 10 16 15 10 16 15 10 16 15 10 16 9 13 16 0 15 11 0 18 11 0 18 11 0 18 11 0 18 11 0 18 11 0 18 11 0 18 11 0 21 14 0 21 14 0 21 14 0 21 14 0 21 14 0 21 14 0 21 14 0 21 14 0 22 16 0 22 16 0 22 16 0 22 16 0 22 16 0 22 16 0 22 16 0 22 16 20 45 39 17 42 36 11 36 30 4 29 23 0 21 15 0 13 7 0 8 2 0 8 2 0 17 8 0 17 8 0 17 8 0 17 8 0 17 8 0 17 8 0 17 8 0 17 8 0 24 15 0 26 17 2 28 19 5 31 22 9 35 26 12 38 29 14 40 31 16 42 33 35 58 48 37 60 50 42 65 55 49 72 62 55 78 68 62 85 75 67 90 80 69 92 82 80 103 93 81 104 94 83 106 96 87 110 100 90 113 103 93 116 106 96 119 109 97 120 110 95 116 107 84 105 96 67 88 79 48 69 60 34 55 46 27 48 39 26 47 38 26 47 38 28 49 40 28 49 40 28 49 40 28 49 40 28 49 40 28 49 40 28 49 40 28 49 40 24 45 36 24 46 34 25 45 36 24 46 34 25 45 36 24 46 34 25 45 36 24 46 34 29 49 40 28 50 38 29 49 40 28 50 38 29 49 40 28 50 38 29 49 40 31 48 40
114 95 115 122 103 123 128 109 129 131 112 132 133 114 134 133 114 134 133 114 134 133 114 134 133 114 134 133 114 134 133 114 134 132 115 134 129 115 132 128 116 130 128 116 130 128 116 130 128 116 130 128 116 130 128 116 130 128 116 130 132 120 134 132 120 134 132 120 134 132 120 134 132 120 134 132 120 134 132 120 134 133 119 134 142 124 140 142 121 138 140 119 136 137 116 133 133 112 129 130 109 126 128 107 124 126 105 122 129 108 125 128 107 124 126 105 122 122 101 118 119 98 115 116 95 112 113 92 109 109 92 108 97 86 100 89 83 95 78 72 84 64 58 70 49 43 55 35 29 41 24 18 30 18 12 24 11 5 17 11 5 17 11 5 17 11 5 17 11 5 17 11 5 17 11 5 17 9 6 17 9 8 16 8 9 14 8 9 14 8 9 14 8 9 14 8 9 14 8 9 14 8 9 14 10 11 16 10 11 16 10 11 16 10 11 16 10 11 16 10 11 16 10 11 16 7 12 16 6 16 18 5 16 18 5 16 18 5 16 18 5 16 18 5 16 18 5 16 18 5 16 18 6 17 19 6 17 19 6 17 19 6 17 19 6 17 19 6 17 19 6 17 19 6 17 19 3 13 15 3 13 15 3 13 15 3 13 15 3 13 15 3 13 15 3 13 15 3 13 15 27 37 39 25 35 37 20 30 32 13 23 25 7 17 19 0 10 12 0 5 7 0 3 5 0 7 8 0 7 8 0 7 8 0 7 8 0 7 8 0 7 8 0 7 8 0 7 8 0 10 11 2 12 13 7 17 18 14 24 25 20 30 31 27 37 38 32 42 43 34 44 43 44 55 51 46 57 53 48 59 55 51 62 58 55 66 62 58 69 65 60 71 67 62 73 69 80 91 87 81 92 88 84 95 91 87 98 94 90 101 97 94 105 101 96 107 103 98 107 104 93 99 97 83 89 87 68 74 72 53 59 57 42 48 46 38 44 42 39 45 43 41 47 45 36 42 40 36 42 40 36 42 40 36 42 40 36 42 40 36 42 40 36 42 40 36 42 40 35 41 39 35 41 37 36 40 39 35 41 37 36 40 39 35 41 37 36 40 39 35 41 37 34 38 37 33 39 35 34 38 37 33 39 35 34 38 37 33 39 35 34 38 37 34 38 37
119 94 115 126 101 122 132 107 128 135 110 131 137 112 133 137 112 133 137 112 133 137 112 133 137 112 133 137 112 133 137 112 133 136 113 133 135 112 132 134 113 132 134 113 132 134 113 132 134 113 132 134 113 132 134 113 132 134 113 132 138 117 136 138 117 136 138 117 136 138 117 136 138 117 136 138 117 136 138 117 136 138 117 136 145 122 142 143 120 140 141 118 138 138 115 135 134 111 131 131 108 128 129 106 126 127 104 124 129 106 126 128 105 125 125 102 122 122 99 119 119 96 116 115 92 112 113 90 110 109 90 109 93 82 98 84 78 92 74 68 82 61 55 69 46 40 54 33 27 41 23 17 31 17 11 25 11 5 19 11 5 19 11 5 19 11 5 19 11 5 19 11 5 19 11 5 19 9 6 17 6 9 18 5 10 16 5 10 16 5 10 16 5 10 16 5 10 16 5 10 16 5 10 16 7 12 18 7 12 18 7 12 18 7 12 18 7 12 18 7 12 18 7 12 18 7 12 18 9 14 20 9 14 20 9 14 20 9 14 20 9 14 20 9 14 20 9 14 20 9 14 20 10 15 21 10 15 21 10 15 21 10 15 21 10 15 21 10 15 21 10 15 21 10 15 21 9 12 19 9 12 19 9 12 19 9 12 19 9 12 19 9 12 19 9 12 19 9 12 19 31 34 41 29 32 39 24 27 34 17 20 27 11 14 21 4 7 14 0 2 9 0 0 7 1 4 9 1 4 9 1 4 9 1 4 9 1 4 9 1 4 9 1 4 9 1 4 9 4 7 12 6 9 14 11 14 19 18 21 26 24 27 32 31 34 39 36 39 44 38 42 45 48 52 53 50 54 53 52 56 55 55 59 58 59 63 62 62 66 65 64 68 67 66 70 69 83 87 86 84 88 87 86 90 89 90 94 93 93 97 96 96 100 99 99 103 102 102 104 103 97 97 97 88 86 87 73 71 72 58 56 57 47 45 46 43 41 42 44 42 43 46 44 45 41 39 40 41 39 40 41 39 40 41 39 40 41 39 40 41 39 40 41 39 40 41 39 40 40 38 39 40 38 39 40 38 39 40 38 39 40 38 39 40 38 39 40 38 39 40 38 39 38 36 37 38 36 37 38 36 37 38 36 37 38 36 37 38 36 37 38 36 37 38 36 37
121 96 117 127 102 123 131 106 127 134 109 130 137 112 133 137 112 133 137 112 133 137 112 133 137 112 133 137 112 133 137 112 133 136 113 133 135 112 132 134 113 132 134 113 132 134 113 132 134 113 132 134 113 132 134 113 132 134 113 132 138 117 136 138 117 136 138 117 136 138 117 136 138 117 136 138 117 136 138 117 136 138 117 136 145 122 142 143 120 140 141 118 138 138 115 135 134 111 131 131 108 128 129 106 126 127 104 124 127 104 124 125 102 122 123 100 120 120 97 117 116 93 113 113 90 110 111 88 108 106 87 106 85 74 90 77 71 85 67 61 75 55 49 63 42 36 50 30 24 38 21 15 29 16 10 24 11 5 19 11 5 19 11 5 19 11 5 19 11 5 19 11 5 19 11 5 19 9 6 17 6 9 18 5 10 16 5 10 16 5 10 16 5 10 16 5 10 16 5 10 16 5 10 16 7 12 18 7 12 18 7 12 18 7 12 18 7 12 18 7 12 18 7 12 18 7 12 18 9 14 20 9 14 20 9 14 20 9 14 20 9 14 20 9 14 20 9 14 20 9 14 20 10 15 21 10 15 21 10 15 21 10 15 21 10 15 21 10 15 21 10 15 21 10 15 21 11 14 21 11 14 21 11 14 21 11 14 21 11 14 21 11 14 21 11 14 21 11 14 21 31 34 41 29 32 39 24 27 34 17 20 27 11 14 21 4 7 14 0 2 9 0 0 7 1 4 9 1 4 9 1 4 9 1 4 9 1 4 9 1 4 9 1 4 9 1 4 9 4 7 12 6 9 14 11 14 19 18 21 26 24 27 32 31 34 39 36 39 44 38 42 45 48 52 53 50 54 53 52 56 55 55 59 58 59 63 62 62 66 65 64 68 67 66 70 69 80 84 83 82 86 85 84 88 87 87 91 90 91 95 94 94 98 97 96 100 99 100 102 101 97 97 97 88 86 87 73 71 72 58 56 57 47 45 46 43 41 42 44 42 43 46 44 45 41 39 40 41 39 40 41 39 40 41 39 40 41 39 40 41 39 40 41 39 40 41 39 40 40 38 39 40 38 39 40 38 39 40 38 39 40 38 39 40 38 39 40 38 39 40 38 39 38 36 37 38 36 37 38 36 37 38 36 37 38 36 37 38 36 37 38 36 37 38 36 37
123 98 119 128 103 124 131 106 127 132 107 128 137 112 133 137 112 133 137 112 133 137 112 133 137 112 133 137 112 133 137 112 133 136 113 133 135 112 132 134 113 132 134 113 132 134 113 132 134 113 132 134 113 132 134 113 132 134 113 132 138 117 136 138 117 136 138 117 136 138 117 136 138 117 136 138 117 136 138 117 136 138 117 136 145 122 142 143 120 140 141 118 138 138 115 135 134 111 131 131 108 128 129 106 126 127 104 124 123 100 120 122 99 119 120 97 117 116 93 113 113 90 110 110 87 107 107 84 104 103 84 103 74 63 79 67 61 75 59 53 67 48 42 56 37 31 45 26 20 34 18 12 26 14 8 22 11 5 19 11 5 19 11 5 19 11 5 19 11 5 19 11 5 19 11 5 19 9 6 17 6 9 18 5 10 16 5 10 16 5 10 16 5 10 16 5 10 16 5 10 16 5 10 16 7 12 18 7 12 18 7 12 18 7 12 18 7 12 18 7 12 18 7 12 18 7 12 18 9 14 20 9 14 20 9 14 20 9 14 20 9 14 20 9 14 20 9 14 20 9 14 20 10 15 21 10 15 21 10 15 21 10 15 21 10 15 21 10 15 21 10 15 21 10 15 21 14 17 24 14 17 24 14 17 24 14 17 24 14 17 24 14 17 24 14 17 24 14 17 24 31 34 41 29 32 39 24 27 34 17 20 27 11 14 21 4 7 14 0 2 9 0 0 7 1 4 9 1 4 9 1 4 9 1 4 9 1 4 9 1 4 9 1 4 9 1 4 9 4 7 12 6 9 14 11 14 19 18 21 26 24 27 32 31 34 39 36 39 44 38 42 45 48 52 53 50 54 53 52 56 55 55 59 58 59 63 62 62 66 65 64 68 67 66 70 69 77 81 80 78 82 81 81 85 84 84 88 87 87 91 90 91 95 94 93 97 96 96 98 97 97 97 97 88 86 87 73 71 72 58 56 57 47 45 46 43 41 42 44 42 43 46 44 45 41 39 40 41 39 40 41 39 40 41 39 40 41 39 40 41 39 40 41 39 40 41 39 40 40 38 39 40 38 39 40 38 39 40 38 39 40 38 39 40 38 39 40 38 39 40 38 39 38 36 37 38 36 37 38 36 37 38 36 37 38 36 37 38 36 37 38 36 37 38 36 37
126 101 122 128 103 124 130 105 126 131 106 127 137 112 133 137 112 133 137 112 133 137 112 133 137 112 133 137 112 133 137 112 133 136 113 133 135 112 132 134 113 132 134 113 132 134 113 132 134 113 132 134 113 132 134 113 132 134 113 132 138 117 136 138 117 136 138 117 136 138 117 136 138 117 136 138 117 136 138 117 136 138 117 136 145 122 142 143 120 140 141 118 138 138 115 135 134 111 131 131 108 128 129 106 126 127 104 124 120 97 117 119 96 116 116 93 113 113 90 110 110 87 107 106 83 103 104 81 101 100 81 100 62 51 67 56 50 64 49 43 57 40 34 48 31 25 39 22 16 30 16 10 24 12 6 20 11 5 19 11 5 19 11 5 19 11 5 19 11 5 19 11 5 19 11 5 19 9 6 17 6 9 18 5 10 16 5 10 16 5 10 16 5 10 16 5 10 16 5 10 16 5 10 16 7 12 18 7 12 18 7 12 18 7 12 18 7 12 18 7 12 18 7 12 18 7 12 18 9 14 20 9 14 20 9 14 20 9 14 20 9 14 20 9 14 20 9 14 20 9 14 20 10 15 21 10 15 21 10 15 21 10 15 21 10 15 21 10 15 21 10 15 21 10 15 21 18 21 28 18 21 28 18 21 28 18 21 28 18 21 28 18 21 28 18 21 28 18 21 28 31 34 41 29 32 39 24 27 34 17 20 27 11 14 21 4 7 14 0 2 9 0 0 7 1 4 9 1 4 9 1 4 9 1 4 9 1 4 9 1 4 9 1 4 9 1 4 9 4 7 12 6 9 14 11 14 19 18 21 26 24 27 32 31 34 39 36 39 44 38 42 45 48 52 53 50 54 53 52 56 55 55 59 58 59 63 62 62 66 65 64 68 67 66 70 69 74 78 77 75 79 78 77 81 80 81 85 84 84 88 87 87 91 90 90 94 93 93 95 94 97 97 97 88 86 87 73 71 72 58 56 57 47 45 46 43 41 42 44 42 43 46 44 45 41 39 40 41 39 40 41 39 40 41 39 40 41 39 40 41 39 40 41 39 40 41 39 40 40 38 39 40 38 39 40 38 39 40 38 39 40 38 39 40 38 39 40 38 39 40 38 39 38 36 37 38 36 37 38 36 37 38 36 37 38 36 37 38 36 37 38 36 37 38 36 37
128 103 124 129 104 125 129 104 125 130 105 126 137 112 133 137 112 133 137 112 133 137 112 133 137 112 133 137 112 133 137 112 133 136 113 133 135 112 132 134 113 132 134 113 132 134 113 132 134 113 132 134 113 132 134 113 132 134 113 132 138 117 136 138 117 136 138 117 136 138 117 136 138 117 136 138 117 136 138 117 136 138 117 136 145 122 142 143 120 140 141 118 138 138 115 135 134 111 131 131 108 128 129 106 126 127 104 124 117 94 114 115 92 112 113 90 110 110 87 107 106 83 103 103 80 100 101 78 98 96 77 96 51 40 56 45 39 53 40 34 48 33 27 41 25 19 33 18 12 26 13 7 21 10 4 18 11 5 19 11 5 19 11 5 19 11 5 19 11 5 19 11 5 19 11 5 19 9 6 17 6 9 18 5 10 16 5 10 16 5 10 16 5 10 16 5 10 16 5 10 16 5 10 16 7 12 18 7 12 18 7 12 18 7 12 18 7 12 18 7 12 18 7 12 18 7 12 18 9 14 20 9 14 20 9 14 20 9 14 20 9 14 20 9 14 20 9 14 20 9 14 20 10 15 21 10 15 21 10 15 21 10 15 21 10 15 21 10 15 21 10 15 21 10 15 21 21 24 31 21 24 31 21 24 31 21 24 31 21 24 31 21 24 31 21 24 31 21 24 31 31 34 41 29 32 39 24 27 34 17 20 27 11 14 21 4 7 14 0 2 9 0 0 7 1 4 9 1 4 9 1 4 9 1 4 9 1 4 9 1 4 9 1 4 9 1 4 9 4 7 12 6 9 14 11 14 19 18 21 26 24 27 32 31 34 39 36 39 44 38 42 45 48 52 53 50 54 53 52 56 55 55 59 58 59 63 62 62 66 65 64 68 67 66 70 69 70 74 73 72 76 75 74 78 77 77 81 80 81 85 84 84 88 87 86 90 89 90 92 91 97 97 97 88 86 87 73 71 72 58 56 57 47 45 46 43 41 42 44 42 43 46 44 45 41 39 40 41 39 40 41 39 40 41 39 40 41 39 40 41 39 40 41 39 40 41 39 40 40 38 39 40 38 39 40 38 39 40 38 39 40 38 39 40 38 39 40 38 39 40 38 39 38 36 37 38 36 37 38 36 37 38 36 37 38 36 37 38 36 37 38 36 37 38 36 37
130 105 126 129 104 125 129 104 125 129 104 125 137 112 133 137 112 133 137 112 133 137 112 133 137 112 133 137 112 133 137 112 133 136 113 133 135 112 132 134 113 132 134 113 132 134 113 132 134 113 132 134 113 132 134 113 132 134 113 132 138 117 136 138 117 136 138 117 136 138 117 136 138 117 136 138 117 136 138 117 136 138 117 136 145 122 142 143 120 140 141 118 138 138 115 135 134 111 131 131 108 128 129 106 126 127 104 124 114 91 111 113 90 110 111 88 108 107 84 104 104 81 101 101 78 98 98 75 95 94 75 94 43 32 48 38 32 46 33 27 41 27 21 35 21 15 29 15 9 23 11 5 19 8 2 16 11 5 19 11 5 19 11 5 19 11 5 19 11 5 19 11 5 19 11 5 19 9 6 17 6 9 18 5 10 16 5 10 16 5 10 16 5 10 16 5 10 16 5 10 16 5 10 16 7 12 18 7 12 18 7 12 18 7 12 18 7 12 18 7 12 18 7 12 18 7 12 18 9 14 20 9 14 20 9 14 20 9 14 20 9 14 20 9 14 20 9 14 20 9 14 20 10 15 21 10 15 21 10 15 21 10 15 21 10 15 21 10 15 21 10 15 21 10 15 21 23 26 33 23 26 33 23 26 33 23 26 33 23 26 33 23 26 33 23 26 33 23 26 33 31 34 41 29 32 39 24 27 34 17 20 27 11 14 21 4 7 14 0 2 9 0 0 7 1 4 9 1 4 9 1 4 9 1 4 9 1 4 9 1 4 9 1 4 9 1 4 9 4 7 12 6 9 14 11 14 19 18 21 26 24 27 32 31 34 39 36 39 44 38 42 45 48 52 53 50 54 53 52 56 55 55 59 58 59 63 62 62 66 65 64 68 67 66 70 69 68 72 71 69 73 72 72 76 75 75 79 78 78 82 81 82 86 85 84 88 87 87 89 88 97 97 97 88 86 87 73 71 72 58 56 57 47 45 46 43 41 42 44 42 43 46 44 45 41 39 40 41 39 40 41 39 40 41 39 40 41 39 40 41 39 40 41 39 40 41 39 40 40 38 39 40 38 39 40 38 39 40 38 39 40 38 39 40 38 39 40 38 39 40 38 39 38 36 37 38 36 37 38 36 37 38 36 37 38 36 37 38 36 37 38 36 37 38 36 37
131 106 127 130 105 126 129 104 125 128 103 124 137 112 133 137 112 133 137 112 133 137 112 133 137 112 133 137 112 133 137 112 133 136 113 133 135 112 132 134 113 132 134 113 132 134 113 132 134 113 132 134 113 132 134 113 132 134 113 132 138 117 136 138 117 136 138 117 136 138 117 136 138 117 136 138 117 136 138 117 136 138 117 136 145 122 142 143 120 140 141 118 138 138 115 135 134 111 131 131 108 128 129 106 126 127 104 124 113 90 110 112 89 109 109 86 106 106 83 103 103 80 100 99 76 96 97 74 94 93 74 93 39 28 44 34 28 42 30 24 38 24 18 32 19 13 27 14 8 22 10 4 18 8 2 16 11 5 19 11 5 19 11 5 19 11 5 19 11 5 19 11 5 19 11 5 19 9 6 17 6 9 18 5 10 16 5 10 16 5 10 16 5 10 16 5 10 16 5 10 16 5 10 16 7 12 18 7 12 18 7 12 18 7 12 18 7 12 18 7 12 18 7 12 18 7 12 18 9 14 20 9 14 20 9 14 20 9 14 20 9 14 20 9 14 20 9 14 20 9 14 20 10 15 21 10 15 21 10 15 21 10 15 21 10 15 21 10 15 21 10 15 21 10 15 21 25 28 35 25 28 35 25 28 35 25 28 35 25 28 35 25 28 35 25 28 35 25 28 35 31 34 41 29 32 39 24 27 34 17 20 27 11 14 21 4 7 14 0 2 9 0 0 7 1 4 9 1 4 9 1 4 9 1 4 9 1 4 9 1 4 9 1 4 9 1 4 9 4 7 12 6 9 14 11 14 19 18 21 26 24 27 32 31 34 39 36 39 44 38 42 45 48 52 53 50 54 53 52 56 55 55 59 58 59 63 62 62 66 65 64 68 67 66 70 69 67 71 70 68 72 71 70 74 73 74 78 77 77 81 80 80 84 83 83 87 86 86 88 87 97 97 97 88 86 87 73 71 72 58 56 57 47 45 46 43 41 42 44 42 43 46 44 45 41 39 40 41 39 40 41 39 40 41 39 40 41 39 40 41 39 40 41 39 40 41 39 40 40 38 39 40 38 39 40 38 39 40 38 39 40 38 39 40 38 39 40 38 39 40 38 39 38 36 37 38 36 37 38 36 37 38 36 37 38 36 37 38 36 37 38 36 37 38 36 37
138 113 134 138 113 134 138 113 134 138 113 134 140 115 136 139 114 135 136 111 132 133 108 129 130 105 126 126 101 122 124 99 120 122 99 119 125 102 122 125 104 123 127 106 125 129 108 127 131 110 129 133 112 131 134 113 132 135 114 133 144 123 142 144 123 142 144 123 142 144 123 142 144 123 142 144 123 142 144 123 142 144 123 142 145 122 142 144 121 141 142 119 139 138 115 135 135 112 132 132 109 129 129 106 126 128 105 125 128 105 125 122 99 119 113 90 110 100 77 97 86 63 83 73 50 70 64 41 61 55 36 55 15 4 20 12 6 20 12 6 20 12 6 20 12 6 20 12 6 20 12 6 20 12 6 20 10 4 18 10 4 18 10 4 18 10 4 18 10 4 18 10 4 18 10 4 18 8 5 16 7 10 19 6 11 17 6 11 17 6 11 17 6 11 17 6 11 17 6 11 17 6 11 17 7 12 18 7 12 18 7 12 18 7 12 18 7 12 18 7 12 18 7 12 18 7 12 18 9 14 20 9 14 20 9 14 20 9 14 20 9 14 20 9 14 20 9 14 20 9 14 20 6 11 17 7 12 18 9 14 20 13 18 24 16 21 27 19 24 30 22 27 33 23 28 34 33 36 43 33 36 43 33 36 43 33 36 43 33 36 43 33 36 43 33 36 43 33 36 43 19 22 29 17 20 27 15 18 25 12 15 22 8 11 18 5 8 15 3 6 13 1 4 11 3 6 11 3 6 11 3 6 11 3 6 11 3 6 11 3 6 11 3 6 11 3 6 11 11 14 19 13 16 21 15 18 23 18 21 26 22 25 30 25 28 33 27 30 35 29 33 36 40 44 45 42 46 45 44 48 47 47 51 50 51 55 54 54 58 57 56 60 59 58 62 61 73 77 76 73 77 76 73 77 76 73 77 76 73 77 76 73 77 76 73 77 76 75 77 76 72 72 72 71 69 70 66 64 65 59 57 58 53 51 52 46 44 45 41 39 40 39 37 38 34 32 33 34 32 33 34 32 33 34 32 33 34 32 33 34 32 33 34 32 33 34 32 33 35 33 34 35 33 34 35 33 34 35 33 34 35 33 34 35 33 34 35 33 34 35 33 34 38 36 37 38 36 37 38 36 37 38 36 37 38 36 37 38 36 37 38 36 37 38 36 37
136 111 132 136 111 132 136 111 132 136 111 132 137 112 133 136 111 132 134 109 130 130 105 126 127 102 123 124 99 120 121 96 117 119 96 116 118 95 115 118 97 116 120 99 118 123 102 121 125 104 123 128 107 126 130 109 128 131 110 129 144 123 142 144 123 142 144 123 142 144 123 142 144 123 142 144 123 142 144 123 142 144 123 142 144 121 141 143 120 140 140 117 137 137 114 134 134 111 131 130 107 127 128 105 125 127 104 124 124 101 121 118 95 115 109 86 106 96 73 93 82 59 79 69 46 66 60 37 57 51 32 51 15 4 20 12 6 20 12 6 20 12 6 20 12 6 20 12 6 20 12 6 20 12 6 20 10 4 18 10 4 18 10 4 18 10 4 18 10 4 18 10 4 18 10 4 18 8 5 16 7 10 19 6 11 17 6 11 17 6 11 17 6 11 17 6 11 17 6 11 17 6 11 17 7 12 18 7 12 18 7 12 18 7 12 18 7 12 18 7 12 18 7 12 18 7 12 18 9 14 20 9 14 20 9 14 20 9 14 20 9 14 20 9 14 20 9 14 20 9 14 20 7 12 18 8 13 19 11 16 22 14 19 25 17 22 28 21 26 32 23 28 34 24 29 35 33 36 43 33 36 43 33 36 43 33 36 43 33 36 43 33 36 43 33 36 43 33 36 43 19 22 29 17 20 27 15 18 25 12 15 22 8 11 18 5 8 15 3 6 13 1 4 11 3 6 11 3 6 11 3 6 11 3 6 11 3 6 11 3 6 11 3 6 11 3 6 11 11 14 19 13 16 21 15 18 23 18 21 26 22 25 30 25 28 33 27 30 35 29 33 36 40 44 45 42 46 45 44 48 47 47 51 50 51 55 54 54 58 57 56 60 59 58 62 61 71 75 74 71 75 74 71 75 74 71 75 74 71 75 74 71 75 74 71 75 74 73 75 74 72 72 72 71 69 70 66 64 65 59 57 58 53 51 52 46 44 45 41 39 40 39 37 38 34 32 33 34 32 33 34 32 33 34 32 33 34 32 33 34 32 33 34 32 33 34 32 33 35 33 34 35 33 34 35 33 34 35 33 34 35 33 34 35 33 34 35 33 34 35 33 34 38 36 37 38 36 37 38 36 37 38 36 37 38 36 37 38 36 37 38 36 37 38 36 37
134 109 130 134 109 130 134 109 130 134 109 130 132 107 128 131 106 127 129 104 125 126 101 122 122 97 118 119 94 115 116 91 112 114 91 111 106 83 103 107 86 105 110 89 108 114 93 112 118 97 116 122 101 120 125 104 123 127 106 125 144 123 142 144 123 142 144 123 142 144 123 142 144 123 142 144 123 142 144 123 142 144 123 142 142 119 139 140 117 137 138 115 135 135 112 132 131 108 128 128 105 125 126 103 123 124 101 121 116 93 113 111 88 108 101 78 98 89 66 86 75 52 72 62 39 59 52 29 49 44 25 44 15 4 20 12 6 20 12 6 20 12 6 20 12 6 20 12 6 20 12 6 20 12 6 20 10 4 18 10 4 18 10 4 18 10 4 18 10 4 18 10 4 18 10 4 18 8 5 16 7 10 19 6 11 17 6 11 17 6 11 17 6 11 17 6 11 17 6 11 17 6 11 17 7 12 18 7 12 18 7 12 18 7 12 18 7 12 18 7 12 18 7 12 18 7 12 18 9 14 20 9 14 20 9 14 20 9 14 20 9 14 20 9 14 20 9 14 20 9 14 20 9 14 20 11 16 22 13 18 24 16 21 27 20 25 31 23 28 34 25 30 36 27 32 38 33 36 43 33 36 43 33 36 43 33 36 43 33 36 43 33 36 43 33 36 43 33 36 43 19 22 29 17 20 27 15 18 25 12 15 22 8 11 18 5 8 15 3 6 13 1 4 11 3 6 11 3 6 11 3 6 11 3 6 11 3 6 11 3 6 11 3 6 11 3 6 11 11 14 19 13 16 21 15 18 23 18 21 26 22 25 30 25 28 33 27 30 35 29 33 36 40 44 45 42 46 45 44 48 47 47 51 50 51 55 54 54 58 57 56 60 59 58 62 61 69 73 72 69 73 72 69 73 72 69 73 72 69 73 72 69 73 72 69 73 72 71 73 72 72 72 72 71 69 70 66 64 65 59 57 58 53 51 52 46 44 45 41 39 40 39 37 38 34 32 33 34 32 33 34 32 33 34 32 33 34 32 33 34 32 33 34 32 33 34 32 33 35 33 34 35 33 34 35 33 34 35 33 34 35 33 34 35 33 34 35 33 34 35 33 34 38 36 37 38 36 37 38 36 37 38 36 37 38 36 37 38 36 37 38 36 37 38 36 37
131 106 127 131 106 127 131 106 127 131 106 127 126 101 122 125 100 121 122 97 118 119 94 115 116 91 112 113 88 109 110 85 106 108 85 105 96 73 93 98 77 96 102 81 100 107 86 105 113 92 111 119 98 117 123 102 121 125 104 123 144 123 142 144 123 142 144 123 142 144 123 142 144 123 142 144 123 142 144 123 142 144 123 142 138 115 135 137 114 134 135 112 132 131 108 128 128 105 125 125 102 122 122 99 119 121 98 118 107 84 104 102 79 99 92 69 89 79 56 76 65 42 62 53 30 50 43 20 40 35 16 35 15 4 20 12 6 20 12 6 20 12 6 20 12 6 20 12 6 20 12 6 20 12 6 20 10 4 18 10 4 18 10 4 18 10 4 18 10 4 18 10 4 18 10 4 18 8 5 16 7 10 19 6 11 17 6 11 17 6 11 17 6 11 17 6 11 17 6 11 17 6 11 17 7 12 18 7 12 18 7 12 18 7 12 18 7 12 18 7 12 18 7 12 18 7 12 18 9 14 20 9 14 20 9 14 20 9 14 20 9 14 20 9 14 20 9 14 20 9 14 20 13 18 24 14 19 25 16 21 27 20 25 31 23 28 34 26 31 37 29 34 40 30 35 41 33 36 43 33 36 43 33 36 43 33 36 43 33 36 43 33 36 43 33 36 43 33 36 43 19 22 29 17 20 27 15 18 25 12 15 22 8 11 18 5 8 15 3 6 13 1 4 11 3 6 11 3 6 11 3 6 11 3 6 11 3 6 11 3 6 11 3 6 11 3 6 11 11 14 19 13 16 21 15 18 23 18 21 26 22 25 30 25 28 33 27 30 35 29 33 36 40 44 45 42 46 45 44 48 47 47 51 50 51 55 54 54 58 57 56 60 59 58 62 61 66 70 69 66 70 69 66 70 69 66 70 69 66 70 69 66 70 69 66 70 69 68 70 69 72 72 72 71 69 70 66 64 65 59 57 58 53 51 52 46 44 45 41 39 40 39 37 38 34 32 33 34 32 33 34 32 33 34 32 33 34 32 33 34 32 33 34 32 33 34 32 33 35 33 34 35 33 34 35 33 34 35 33 34 35 33 34 35 33 34 35 33 34 35 33 34 38 36 37 38 36 37 38 36 37 38 36 37 38 36 37 38 36 37 38 36 37 38 36 37
127 102 123 127 102 123 127 102 123 127 102 123 119 94 115 118 93 114 115 90 111 112 87 108 109 84 105 106 81 102 103 78 99 101 78 98 92 69 89 94 73 92 99 78 97 106 85 104 114 93 112 122 101 120 127 106 125 130 109 128 144 123 142 144 123 142 144 123 142 144 123 142 144 123 142 144 123 142 144 123 142 144 123 142 135 112 132 134 111 131 131 108 128 128 105 125 125 102 122 121 98 118 119 96 116 118 95 115 96 73 93 91 68 88 81 58 78 69 46 66 55 32 52 42 19 39 32 9 29 24 5 24 15 4 20 12 6 20 12 6 20 12 6 20 12 6 20 12 6 20 12 6 20 12 6 20 10 4 18 10 4 18 10 4 18 10 4 18 10 4 18 10 4 18 10 4 18 8 5 16 7 10 19 6 11 17 6 11 17 6 11 17 6 11 17 6 11 17 6 11 17 6 11 17 7 12 18 7 12 18 7 12 18 7 12 18 7 12 18 7 12 18 7 12 18 7 12 18 9 14 20 9 14 20 9 14 20 9 14 20 9 14 20 9 14 20 9 14 20 9 14 20 16 21 27 17 22 28 20 25 31 23 28 34 26 31 37 30 35 41 32 37 43 33 38 44 33 36 43 33 36 43 33 36 43 33 36 43 33 36 43 33 36 43 33 36 43 33 36 43 19 22 29 17 20 27 15 18 25 12 15 22 8 11 18 5 8 15 3 6 13 1 4 11 3 6 11 3 6 11 3 6 11 3 6 11 3 6 11 3 6 11 3 6 11 3 6 11 11 14 19 13 16 21 15 18 23 18 21 26 22 25 30 25 28 33 27 30 35 29 33 36 40 44 45 42 46 45 44 48 47 47 51 50 51 55 54 54 58 57 56 60 59 58 62 61 62 66 65 62 66 65 62 66 65 62 66 65 62 66 65 62 66 65 62 66 65 64 66 65 72 72 72 71 69 70 66 64 65 59 57 58 53 51 52 46 44 45 41 39 40 39 37 38 34 32 33 34 32 33 34 32 33 34 32 33 34 32 33 34 32 33 34 32 33 34 32 33 35 33 34 35 33 34 35 33 34 35 33 34 35 33 34 35 33 34 35 33 34 35 33 34 38 36 37 38 36 37 38 36 37 38 36 37 38 36 37 38 36 37 38 36 37 38 36 37
124 99 120 124 99 120 124 99 120 124 99 120 113 88 109 112 87 108 109 84 105 106 81 102 102 77 98 99 74 95 97 72 93 95 72 92 93 70 90 96 75 94 102 81 100 111 90 109 121 100 119 130 109 128 136 115 134 140 119 138 144 123 142 144 123 142 144 123 142 144 123 142 144 123 142 144 123 142 144 123 142 144 123 142 132 109 129 130 107 127 128 105 125 125 102 122 121 98 118 118 95 115 116 93 113 114 91 111 87 64 84 82 59 79 72 49 69 59 36 56 45 22 42 33 10 30 23 0 20 15 0 15 15 4 20 12 6 20 12 6 20 12 6 20 12 6 20 12 6 20 12 6 20 12 6 20 10 4 18 10 4 18 10 4 18 10 4 18 10 4 18 10 4 18 10 4 18 8 5 16 7 10 19 6 11 17 6 11 17 6 11 17 6 11 17 6 11 17 6 11 17 6 11 17 7 12 18 7 12 18 7 12 18 7 12 18 7 12 18 7 12 18 7 12 18 7 12 18 9 14 20 9 14 20 9 14 20 9 14 20 9 14 20 9 14 20 9 14 20 9 14 20 19 24 30 21 26 32 23 28 34 26 31 37 30 35 41 33 38 44 35 40 46 37 42 48 33 36 43 33 36 43 33 36 43 33 36 43 33 36 43 33 36 43 33 36 43 33 36 43 19 22 29 17 20 27 15 18 25 12 15 22 8 11 18 5 8 15 3 6 13 1 4 11 3 6 11 3 6 11 3 6 11 3 6 11 3 6 11 3 6 11 3 6 11 3 6 11 11 14 19 13 16 21 15 18 23 18 21 26 22 25 30 25 28 33 27 30 35 29 33 36 40 44 45 42 46 45 44 48 47 47 51 50 51 55 54 54 58 57 56 60 59 58 62 61 59 63 62 59 63 62 59 63 62 59 63 62 59 63 62 59 63 62 59 63 62 61 63 62 72 72 72 71 69 70 66 64 65 59 57 58 53 51 52 46 44 45 41 39 40 39 37 38 34 32 33 34 32 33 34 32 33 34 32 33 34 32 33 34 32 33 34 32 33 34 32 33 35 33 34 35 33 34 35 33 34 35 33 34 35 33 34 35 33 34 35 33 34 35 33 34 38 36 37 38 36 37 38 36 37 38 36 37 38 36 37 38 36 37 38 36 37 38 36 37
122 97 118 122 97 118 122 97 118 122 97 118 108 83 104 107 82 103 104 79 100 101 76 97 98 73 94 94 69 90 92 67 88 90 67 87 97 74 94 101 80 99 108 87 106 119 98 117 129 108 127 140 119 138 147 126 145 152 131 150 144 123 142 144 123 142 144 123 142 144 123 142 144 123 142 144 123 142 144 123 142 144 123 142 129 106 126 128 105 125 126 103 123 122 99 119 119 96 116 116 93 113 113 90 110 112 89 109 80 57 77 74 51 71 65 42 62 52 29 49 38 15 35 25 2 22 16 0 13 11 0 11 15 4 20 12 6 20 12 6 20 12 6 20 12 6 20 12 6 20 12 6 20 12 6 20 10 4 18 10 4 18 10 4 18 10 4 18 10 4 18 10 4 18 10 4 18 8 5 16 7 10 19 6 11 17 6 11 17 6 11 17 6 11 17 6 11 17 6 11 17 6 11 17 7 12 18 7 12 18 7 12 18 7 12 18 7 12 18 7 12 18 7 12 18 7 12 18 9 14 20 9 14 20 9 14 20 9 14 20 9 14 20 9 14 20 9 14 20 9 14 20 22 27 33 23 28 34 25 30 36 29 34 40 32 37 43 35 40 46 38 43 49 39 44 50 33 36 43 33 36 43 33 36 43 33 36 43 33 36 43 33 36 43 33 36 43 33 36 43 19 22 29 17 20 27 15 18 25 12 15 22 8 11 18 5 8 15 3 6 13 1 4 11 3 6 11 3 6 11 3 6 11 3 6 11 3 6 11 3 6 11 3 6 11 3 6 11 11 14 19 13 16 21 15 18 23 18 21 26 22 25 30 25 28 33 27 30 35 29 33 36 40 44 45 42 46 45 44 48 47 47 51 50 51 55 54 54 58 57 56 60 59 58 62 61 57 61 60 57 61 60 57 61 60 57 61 60 57 61 60 57 61 60 57 61 60 59 61 60 72 72 72 71 69 70 66 64 65 59 57 58 53 51 52 46 44 45 41 39 40 39 37 38 34 32 33 34 32 33 34 32 33 34 32 33 34 32 33 34 32 33 34 32 33 34 32 33 35 33 34 35 33 34 35 33 34 35 33 34 35 33 34 35 33 34 35 33 34 35 33 34 38 36 37 38 36 37 38 36 37 38 36 37 38 36 37 38 36 37 38 36 37 38 36 37
120 95 116 120 95 116 120 95 116 120 95 116 105 80 101 104 79 100 102 77 98 98 73 94 95 70 91 92 67 88 89 64 85 87 64 84 101 78 98 105 84 101 113 92 111 124 103 120 135 114 133 146 125 142 155 134 153 159 138 155 144 123 142 144 123 140 144 123 142 144 123 140 144 123 142 144 123 140 144 123 142 144 123 142 125 106 125 124 105 124 121 102 121 118 99 118 115 96 115 111 92 111 109 90 109 108 89 108 73 54 73 67 48 67 58 39 58 45 26 45 31 12 31 18 0 18 11 0 11 8 0 11 13 5 20 10 6 20 10 6 20 10 6 20 10 6 20 10 6 20 10 6 20 10 6 20 8 4 18 8 4 18 8 4 18 8 4 18 8 4 18 8 4 18 8 4 18 7 5 16 7 10 19 6 11 17 6 10 19 6 11 17 6 10 19 6 11 17 6 10 19 6 11 17 7 11 20 7 12 18 7 11 20 7 12 18 7 11 20 7 12 18 7 11 20 7 12 18 9 14 20 9 14 20 9 14 20 9 14 20 9 14 20 9 14 20 9 14 20 9 14 20 23 28 34 24 29 35 27 32 38 30 35 41 33 38 44 37 42 48 39 44 50 40 45 51 32 37 43 32 37 43 33 36 43 32 37 43 33 36 43 32 37 43 33 36 43 32 37 43 19 22 29 16 21 27 15 18 25 11 16 22 8 11 18 4 9 15 3 6 13 1 4 11 3 6 11 3 6 11 3 6 11 3 6 11 3 6 11 3 6 11 3 6 11 3 6 11 11 14 19 13 16 21 15 18 23 18 21 26 22 25 30 25 28 33 27 30 35 29 33 36 40 44 45 42 46 45 44 48 47 47 51 50 51 55 54 54 58 57 56 60 59 58 62 61 55 59 58 55 59 58 55 59 58 55 59 58 55 59 58 55 59 58 55 59 58 57 59 58 72 72 72 71 69 70 66 64 65 59 57 58 53 51 52 46 44 45 41 39 40 39 37 38 34 32 33 34 32 33 34 32 33 34 32 33 34 32 33 34 32 33 34 32 33 34 32 33 35 34 32 35 34 32 37 33 32 35 34 32 37 33 32 35 34 32 37 33 32 35 34 32 40 36 35 38 37 35 40 36 35 38 37 35 40 36 35 38 37 35 40 36 35 38 37 35
115 90 111 112 87 108 110 85 106 108 83 104 95 70 91 97 72 93 99 74 95 102 77 98 106 81 102 109 84 105 111 86 107 112 89 109 113 90 108 115 94 109 121 100 117 128 107 122 136 115 132 144 123 138 150 129 146 153 132 147 140 119 136 141 120 135 142 121 138 143 122 137 144 123 140 146 125 140 146 125 142 145 127 143 131 118 135 124 113 129 115 104 120 102 91 107 88 77 93 75 64 80 66 55 71 60 49 65 25 14 30 25 14 30 25 14 30 25 14 30 25 14 30 25 14 30 25 14 30 23 15 30 6 4 15 5 5 15 5 5 15 5 5 15 5 5 15 5 5 15 5 5 15 5 5 15 5 5 15 5 5 15 5 5 15 5 5 15 5 5 15 5 5 15 5 5 15 3 6 15 8 11 20 7 11 20 7 11 22 7 11 20 7 11 22 7 11 20 7 11 22 7 11 20 8 12 23 8 12 21 8 12 23 8 12 21 8 12 23 8 12 21 8 12 23 8 12 21 2 9 17 3 10 18 5 12 20 7 14 22 9 16 24 11 18 26 12 19 27 13 20 28 48 55 63 48 55 63 48 55 63 48 55 63 48 55 63 48 55 63 48 55 63 48 55 63 37 44 50 37 44 50 39 44 50 37 44 50 39 44 50 37 44 50 39 44 50 37 44 50 21 26 32 17 24 30 17 22 28 12 19 25 10 15 21 5 12 18 5 10 16 3 8 14 0 5 9 0 5 9 0 5 9 0 5 9 0 5 9 0 5 9 0 5 9 0 5 9 8 13 17 10 15 19 12 17 21 15 20 24 19 24 28 22 27 31 24 29 33 26 31 34 38 44 44 38 44 44 38 44 44 38 44 44 38 44 44 38 44 44 38 44 44 38 44 44 55 61 61 55 61 61 55 61 61 55 61 61 55 61 61 55 61 61 55 61 61 56 60 59 52 52 52 51 50 48 49 48 46 46 45 43 42 41 39 39 38 36 37 36 34 35 34 32 33 32 30 33 32 30 33 32 30 33 32 30 33 32 30 33 32 30 33 32 30 33 32 30 37 33 30 37 33 30 38 33 30 37 33 30 38 33 30 37 33 30 38 33 30 37 33 30 38 33 30 37 33 30 38 33 30 37 33 30 38 33 30 37 33 30 38 33 30 37 33 30
111 86 107 108 83 104 105 80 101 104 79 100 91 66 87 92 67 88 95 70 91 98 73 94 101 76 97 105 80 101 107 82 103 107 84 102 116 93 111 118 97 112 123 102 117 130 109 124 137 116 131 144 123 138 150 129 144 153 132 147 141 120 135 141 120 135 141 120 135 142 121 136 143 122 137 143 122 137 144 123 138 141 125 138 126 115 131 117 111 125 108 102 116 95 89 103 81 75 89 68 62 76 59 53 67 53 47 61 20 14 28 20 14 28 20 14 28 20 14 28 20 14 28 20 14 28 20 14 28 18 14 28 5 5 15 3 6 15 3 6 15 3 6 15 3 6 15 3 6 15 3 6 15 3 6 15 3 6 15 3 6 15 3 6 15 3 6 15 3 6 15 3 6 15 3 6 15 3 6 15 7 11 22 7 11 22 7 11 22 7 11 22 7 11 22 7 11 22 7 11 22 7 11 22 8 12 23 8 12 23 8 12 23 8 12 23 8 12 23 8 12 23 8 12 23 8 12 23 3 10 18 4 11 19 6 13 21 9 16 24 12 19 27 14 21 29 16 23 31 17 24 32 48 55 63 48 55 63 48 55 63 48 55 63 48 55 63 48 55 63 48 55 63 48 55 63 37 44 50 37 44 50 37 44 50 37 44 50 37 44 50 37 44 50 37 44 50 37 44 50 19 26 32 17 24 30 15 22 28 12 19 25 8 15 21 5 12 18 3 10 16 1 8 14 0 5 9 0 5 9 0 5 9 0 5 9 0 5 9 0 5 9 0 5 9 0 5 9 8 13 17 10 15 19 12 17 21 15 20 24 19 24 28 22 27 31 24 29 33 26 31 34 38 43 46 38 44 44 38 44 44 38 44 44 38 44 44 38 44 44 38 44 44 38 44 44 53 59 59 53 59 59 53 59 59 53 59 59 53 59 59 53 59 59 53 59 59 54 58 57 52 52 52 51 50 48 49 48 46 46 45 43 42 41 39 39 38 36 37 36 34 35 34 32 33 32 30 33 32 30 33 32 30 33 32 30 33 32 30 33 32 30 33 32 30 33 32 28 38 33 30 38 33 29 38 33 29 38 33 29 38 33 29 38 33 29 38 33 29 38 33 29 38 33 29 38 33 29 38 33 29 38 33 29 38 33 29 38 33 29 38 33 29 38 33 30
105 80 101 102 77 98 100 75 96 98 73 94 85 60 81 87 62 83 89 64 85 92 67 88 96 71 92 99 74 95 101 76 97 102 79 97 122 99 117 123 102 117 127 106 121 133 112 127 139 118 133 145 124 139 149 128 143 152 131 146 142 121 136 141 120 135 141 120 135 140 119 134 140 119 134 139 118 133 138 117 132 135 119 132 118 107 123 110 104 118 100 94 108 88 82 96 74 68 82 61 55 69 51 45 59 46 40 54 18 12 26 18 12 26 18 12 26 18 12 26 18 12 26 18 12 26 18 12 26 16 12 26 5 5 15 3 6 15 3 6 15 3 6 15 3 6 15 3 6 15 3 6 15 3 6 15 3 6 15 3 6 15 3 6 15 3 6 15 3 6 15 3 6 15 3 6 15 3 6 15 7 11 22 7 11 22 7 11 22 7 11 22 7 11 22 7 11 22 7 11 22 7 11 22 8 12 23 8 12 23 8 12 23 8 12 23 8 12 23 8 12 23 8 12 23 8 12 23 5 12 20 6 13 21 9 16 24 13 20 28 17 24 32 21 28 36 24 31 39 26 33 41 48 55 63 48 55 63 48 55 63 48 55 63 48 55 63 48 55 63 48 55 63 48 55 63 37 44 50 37 44 50 37 44 50 37 44 50 37 44 50 37 44 50 37 44 50 37 44 50 19 26 32 17 24 30 15 22 28 12 19 25 8 15 21 5 12 18 3 10 16 1 8 14 0 5 9 0 5 9 0 5 9 0 5 9 0 5 9 0 5 9 0 5 9 0 5 9 8 13 17 10 15 19 12 17 21 15 20 24 19 24 28 22 27 31 24 29 33 26 31 34 38 43 46 38 44 44 38 44 44 38 44 44 38 44 44 38 44 44 38 44 44 38 44 44 51 57 57 51 57 57 51 57 57 51 57 57 51 57 57 51 57 57 51 57 57 52 56 55 52 52 52 51 50 48 49 48 46 46 45 43 42 41 39 39 38 36 37 36 34 35 34 32 33 32 30 33 32 30 33 32 30 33 32 30 33 32 30 33 32 30 33 32 30 33 32 28 38 33 30 38 33 29 38 33 29 38 33 29 38 33 29 38 33 29 38 33 29 38 33 29 38 33 29 38 33 29 38 33 29 38 33 29 38 33 29 38 33 29 38 33 29 38 33 30
103 78 99 100 75 96 97 72 93 96 71 92 83 58 79 84 59 80 87 62 83 90 65 86 93 68 89 97 72 93 99 74 95 99 76 94 129 106 124 130 109 124 133 112 127 137 116 131 141 120 135 146 125 140 149 128 143 150 129 144 143 122 137 142 121 136 140 119 134 138 117 132 135 114 129 133 112 127 131 110 125 127 111 124 109 98 114 101 95 109 91 85 99 78 72 86 64 58 72 52 46 60 42 36 50 37 31 45 15 9 23 15 9 23 15 9 23 15 9 23 15 9 23 15 9 23 15 9 23 13 9 23 5 5 15 3 6 15 3 6 15 3 6 15 3 6 15 3 6 15 3 6 15 3 6 15 3 6 15 3 6 15 3 6 15 3 6 15 3 6 15 3 6 15 3 6 15 3 6 15 7 11 22 7 11 22 7 11 22 7 11 22 7 11 22 7 11 22 7 11 22 7 11 22 8 12 23 8 12 23 8 12 23 8 12 23 8 12 23 8 12 23 8 12 23 8 12 23 7 14 22 9 16 24 13 20 28 19 26 34 25 32 40 30 37 45 34 41 49 37 44 52 48 55 63 48 55 63 48 55 63 48 55 63 48 55 63 48 55 63 48 55 63 48 55 63 37 44 50 37 44 50 37 44 50 37 44 50 37 44 50 37 44 50 37 44 50 37 44 50 19 26 32 17 24 30 15 22 28 12 19 25 8 15 21 5 12 18 3 10 16 1 8 14 0 5 9 0 5 9 0 5 9 0 5 9 0 5 9 0 5 9 0 5 9 0 5 9 8 13 17 10 15 19 12 17 21 15 20 24 19 24 28 22 27 31 24 29 33 26 31 34 38 43 46 38 44 44 38 44 44 38 44 44 38 44 44 38 44 44 38 44 44 38 44 44 48 54 54 48 54 54 48 54 54 48 54 54 48 54 54 48 54 54 48 54 54 49 53 52 52 52 52 51 50 48 49 48 46 46 45 43 42 41 39 39 38 36 37 36 34 35 34 32 33 32 30 33 32 30 33 32 30 33 32 30 33 32 30 33 32 30 33 32 30 33 32 28 38 33 30 38 33 29 38 33 29 38 33 29 38 33 29 38 33 29 38 33 29 38 33 29 38 33 29 38 33 29 38 33 29 38 33 29 38 33 29 38 33 29 38 33 29 38 33 30
106 81 102 103 78 99 101 76 97 99 74 95 86 61 82 88 63 84 90 65 86 93 68 89 97 72 93 100 75 96 102 77 98 103 80 98 137 114 132 137 116 131 139 118 133 141 120 135 144 123 138 146 125 140 148 127 142 149 128 143 144 123 138 143 122 137 140 119 134 135 114 129 131 110 125 127 106 121 124 103 118 119 103 116 98 87 103 90 84 98 80 74 88 68 62 76 54 48 62 41 35 49 31 25 39 26 20 34 11 5 19 11 5 19 11 5 19 11 5 19 11 5 19 11 5 19 11 5 19 9 5 19 5 5 15 3 6 15 3 6 15 3 6 15 3 6 15 3 6 15 3 6 15 3 6 15 3 6 15 3 6 15 3 6 15 3 6 15 3 6 15 3 6 15 3 6 15 3 6 15 7 11 22 7 11 22 7 11 22 7 11 22 7 11 22 7 11 22 7 11 22 7 11 22 8 12 23 8 12 23 8 12 23 8 12 23 8 12 23 8 12 23 8 12 23 8 12 23 9 16 24 12 19 27 17 24 32 25 32 40 32 39 47 40 47 55 45 52 60 48 55 63 48 55 63 48 55 63 48 55 63 48 55 63 48 55 63 48 55 63 48 55 63 48 55 63 37 44 50 37 44 50 37 44 50 37 44 50 37 44 50 37 44 50 37 44 50 37 44 50 19 26 32 17 24 30 15 22 28 12 19 25 8 15 21 5 12 18 3 10 16 1 8 14 0 5 9 0 5 9 0 5 9 0 5 9 0 5 9 0 5 9 0 5 9 0 5 9 8 13 17 10 15 19 12 17 21 15 20 24 19 24 28 22 27 31 24 29 33 26 31 34 38 43 46 38 44 44 38 44 44 38 44 44 38 44 44 38 44 44 38 44 44 38 44 44 44 50 50 44 50 50 44 50 50 44 50 50 44 50 50 44 50 50 44 50 50 45 49 48 52 52 52 51 50 48 49 48 46 46 45 43 42 41 39 39 38 36 37 36 34 35 34 32 33 32 30 33 32 30 33 32 30 33 32 30 33 32 30 33 32 30 33 32 30 33 32 28 38 33 30 38 33 29 38 33 29 38 33 29 38 33 29 38 33 29 38 33 29 38 33 29 38 33 29 38 33 29 38 33 29 38 33 29 38 33 29 38 33 29 38 33 29 38 33 30
115 90 111 112 87 108 110 85 106 108 83 104 95 70 91 97 72 93 99 74 95 102 77 98 106 81 102 109 84 105 111 86 107 112 89 107 145 122 140 144 123 138 145 124 139 146 125 140 146 125 140 147 126 141 147 126 141 148 127 142 146 125 140 143 122 137 139 118 133 133 112 127 127 106 121 121 100 115 117 96 111 112 96 109 89 78 94 81 75 89 71 65 79 58 52 66 44 38 52 32 26 40 22 16 30 17 11 25 8 2 16 8 2 16 8 2 16 8 2 16 8 2 16 8 2 16 8 2 16 6 2 16 5 5 15 3 6 15 3 6 15 3 6 15 3 6 15 3 6 15 3 6 15 3 6 15 3 6 15 3 6 15 3 6 15 3 6 15 3 6 15 3 6 15 3 6 15 3 6 15 7 11 22 7 11 22 7 11 22 7 11 22 7 11 22 7 11 22 7 11 22 7 11 22 8 12 23 8 12 23 8 12 23 8 12 23 8 12 23 8 12 23 8 12 23 8 12 23 11 18 26 14 21 29 21 28 36 30 37 45 40 47 55 48 55 63 55 62 70 59 66 74 48 55 63 48 55 63 48 55 63 48 55 63 48 55 63 48 55 63 48 55 63 48 55 63 37 44 50 37 44 50 37 44 50 37 44 50 37 44 50 37 44 50 37 44 50 37 44 50 19 26 32 17 24 30 15 22 28 12 19 25 8 15 21 5 12 18 3 10 16 1 8 14 0 5 9 0 5 9 0 5 9 0 5 9 0 5 9 0 5 9 0 5 9 0 5 9 8 13 17 10 15 19 12 17 21 15 20 24 19 24 28 22 27 31 24 29 33 26 31 34 38 43 46 38 44 44 38 44 44 38 44 44 38 44 44 38 44 44 38 44 44 38 44 44 41 47 47 41 47 47 41 47 47 41 47 47 41 47 47 41 47 47 41 47 47 42 46 45 52 52 52 51 50 48 49 48 46 46 45 43 42 41 39 39 38 36 37 36 34 35 34 32 33 32 30 33 32 30 33 32 30 33 32 30 33 32 30 33 32 30 33 32 30 33 32 28 38 33 30 38 33 29 38 33 29 38 33 29 38 33 29 38 33 29 38 33 29 38 33 29 38 33 29 38 33 29 38 33 29 38 33 29 38 33 29 38 33 29 38 33 29 38 33 30
126 101 122 122 97 118 120 95 116 119 94 115 106 81 102 107 82 103 109 84 105 113 88 109 116 91 112 119 94 115 122 97 118 122 99 117 151 128 146 150 129 144 149 128 143 149 128 143 148 127 142 147 126 141 147 126 141 147 126 141 147 126 141 144 123 138 138 117 132 131 110 125 124 103 118 117 96 111 112 91 106 106 90 103 82 71 87 73 67 81 64 58 72 51 45 59 37 31 45 24 18 32 15 9 23 9 3 17 6 0 14 6 0 14 6 0 14 6 0 14 6 0 14 6 0 14 6 0 14 4 0 14 5 5 15 3 6 15 3 6 15 3 6 15 3 6 15 3 6 15 3 6 15 3 6 15 3 6 15 3 6 15 3 6 15 3 6 15 3 6 15 3 6 15 3 6 15 3 6 15 7 11 22 7 11 22 7 11 22 7 11 22 7 11 22 7 11 22 7 11 22 7 11 22 8 12 23 8 12 23 8 12 23 8 12 23 8 12 23 8 12 23 8 12 23 8 12 23 12 19 27 16 23 31 24 31 39 34 41 49 45 52 60 55 62 70 63 70 78 67 74 82 48 55 63 48 55 63 48 55 63 48 55 63 48 55 63 48 55 63 48 55 63 48 55 63 37 44 50 37 44 50 37 44 50 37 44 50 37 44 50 37 44 50 37 44 50 37 44 50 19 26 32 17 24 30 15 22 28 12 19 25 8 15 21 5 12 18 3 10 16 1 8 14 0 5 9 0 5 9 0 5 9 0 5 9 0 5 9 0 5 9 0 5 9 0 5 9 8 13 17 10 15 19 12 17 21 15 20 24 19 24 28 22 27 31 24 29 33 26 31 34 38 43 46 38 44 44 38 44 44 38 44 44 38 44 44 38 44 44 38 44 44 38 44 44 39 45 45 39 45 45 39 45 45 39 45 45 39 45 45 39 45 45 39 45 45 40 44 43 52 52 52 51 50 48 49 48 46 46 45 43 42 41 39 39 38 36 37 36 34 35 34 32 33 32 30 33 32 30 33 32 30 33 32 30 33 32 30 33 32 30 33 32 30 33 32 28 38 33 30 38 33 29 38 33 29 38 33 29 38 33 29 38 33 29 38 33 29 38 33 29 38 33 29 38 33 29 38 33 29 38 33 29 38 33 29 38 33 29 38 33 29 38 33 30
133 108 129 129 104 125 127 102 123 126 101 122 113 88 109 114 89 110 116 91 112 120 95 116 123 98 119 126 101 122 129 104 125 129 106 124 154 131 149 152 131 146 152 131 146 150 129 144 149 128 143 148 127 142 147 126 141 146 125 140 147 126 141 144 123 138 138 117 132 130 109 124 122 101 116 115 94 109 109 88 103 103 87 100 78 67 83 69 63 77 60 54 68 47 41 55 33 27 41 20 14 28 11 5 19 5 0 13 4 0 12 4 0 12 4 0 12 4 0 12 4 0 12 4 0 12 4 0 12 2 0 12 5 5 15 3 6 15 3 6 15 3 6 15 3 6 15 3 6 15 3 6 15 3 6 15 3 6 15 3 6 15 3 6 15 3 6 15 3 6 15 3 6 15 3 6 15 3 6 15 7 11 22 7 11 22 7 11 22 7 11 22 7 11 22 7 11 22 7 11 22 7 11 22 8 12 23 8 12 23 8 12 23 8 12 23 8 12 23 8 12 23 8 12 23 8 12 23 13 20 28 17 24 32 26 33 41 37 44 52 48 55 63 59 66 74 67 74 82 72 79 87 48 55 63 48 55 63 48 55 63 48 55 63 48 55 63 48 55 63 48 55 63 48 55 63 37 44 50 37 44 50 37 44 50 37 44 50 37 44 50 37 44 50 37 44 50 37 44 50 19 26 32 17 24 30 15 22 28 12 19 25 8 15 21 5 12 18 3 10 16 1 8 14 0 5 9 0 5 9 0 5 9 0 5 9 0 5 9 0 5 9 0 5 9 0 5 9 8 13 17 10 15 19 12 17 21 15 20 24 19 24 28 22 27 31 24 29 33 26 31 34 38 43 46 38 44 44 38 44 44 38 44 44 38 44 44 38 44 44 38 44 44 38 44 44 37 43 43 37 43 43 37 43 43 37 43 43 37 43 43 37 43 43 37 43 43 38 42 41 52 52 52 51 50 48 49 48 46 46 45 43 42 41 39 39 38 36 37 36 34 35 34 32 33 32 30 33 32 30 33 32 30 33 32 30 33 32 30 33 32 30 33 32 30 33 32 28 38 33 30 38 33 29 38 33 29 38 33 29 38 33 29 38 33 29 38 33 29 38 33 29 38 33 29 38 33 29 38 33 29 38 33 29 38 33 29 38 33 29 38 33 29 38 33 30
148 123 144 148 123 144 148 123 144 148 123 144 148 123 144 148 123 144 148 123 144 148 123 144 148 123 144 148 123 144 148 123 144 147 124 142 144 121 139 144 123 138 145 124 139 146 125 140 147 126 141 149 128 143 149 128 143 150 129 144 135 114 129 131 110 125 124 103 118 115 94 109 104 83 98 95 74 89 87 66 81 80 64 77 52 41 57 46 40 54 40 34 48 33 27 41 25 19 33 17 11 25 11 5 19 8 2 16 10 4 18 10 4 18 10 4 18 10 4 18 10 4 18 10 4 18 10 4 18 8 4 18 6 6 16 4 7 16 4 7 16 4 7 16 4 7 16 4 7 16 4 7 16 4 7 16 5 8 17 5 8 17 5 8 17 5 8 17 5 8 17 5 8 17 5 8 17 5 8 17 8 12 23 8 12 23 8 12 23 8 12 23 8 12 23 8 12 23 8 12 23 8 12 23 14 18 29 14 18 29 15 19 30 15 19 30 16 20 31 17 21 32 17 21 32 18 22 33 56 63 71 56 63 71 56 63 71 56 63 71 56 63 71 56 63 71 56 63 71 56 63 71 62 69 77 60 67 75 58 65 73 55 62 70 51 58 66 48 55 63 46 53 61 44 51 59 46 53 59 44 51 57 42 49 55 39 46 52 35 42 48 32 39 45 30 37 43 28 35 41 19 26 32 17 24 30 15 22 28 12 19 25 8 15 21 5 12 18 3 10 16 1 8 14 6 11 15 6 11 15 6 11 15 6 11 15 6 11 15 6 11 15 6 11 15 6 11 15 9 14 18 11 16 20 13 18 22 16 21 25 20 25 29 23 28 32 25 30 34 27 32 35 29 34 37 29 35 35 29 35 35 29 35 35 29 35 35 29 35 35 29 35 35 29 35 35 33 39 39 33 39 39 33 39 39 33 39 39 33 39 39 33 39 39 33 39 39 34 38 37 33 33 33 34 33 31 34 33 31 34 33 31 34 33 31 34 33 31 34 33 31 34 33 31 32 31 29 32 31 29 32 31 29 32 31 29 32 31 29 32 31 29 32 31 29 32 31 27 37 32 29 37 32 28 37 32 28 37 32 28 37 32 28 37 32 28 37 32 28 37 32 28 37 32 28 37 32 28 37 32 28 37 32 28 37 32 28 37 32 28 37 32 28 37 32 29
148 123 144 148 123 144 148 123 144 148 123 144 148 123 144 148 123 144 148 123 144 148 123 144 148 123 144 148 123 144 148 123 144 147 124 142 145 122 140 144 123 138 144 123 138 145 124 139 146 125 140 146 125 140 147 126 141 147 126 141 133 112 127 129 108 123 121 100 115 112 91 106 102 81 96 92 71 86 85 64 79 78 62 75 49 38 54 43 37 51 38 32 46 31 25 39 24 18 32 17 11 25 11 5 19 8 2 16 10 4 18 10 4 18 10 4 18 10 4 18 10 4 18 10 4 18 10 4 18 8 4 18 6 6 16 4 7 16 4 7 16 4 7 16 4 7 16 4 7 16 4 7 16 4 7 16 5 8 17 5 8 17 5 8 17 5 8 17 5 8 17 5 8 17 5 8 17 5 8 17 8 12 23 8 12 23 8 12 23 8 12 23 8 12 23 8 12 23 8 12 23 8 12 23 7 11 22 9 13 24 12 16 27 16 20 31 20 24 35 25 29 40 28 32 43 29 33 44 56 63 71 56 63 71 56 63 71 56 63 71 56 63 71 56 63 71 56 63 71 56 63 71 62 69 77 60 67 75 58 65 73 55 62 70 51 58 66 48 55 63 46 53 61 44 51 59 46 53 59 44 51 57 42 49 55 39 46 52 35 42 48 32 39 45 30 37 43 28 35 41 19 26 32 17 24 30 15 22 28 12 19 25 8 15 21 5 12 18 3 10 16 1 8 14 6 11 15 6 11 15 6 11 15 6 11 15 6 11 15 6 11 15 6 11 15 6 11 15 9 14 18 11 16 20 13 18 22 16 21 25 20 25 29 23 28 32 25 30 34 27 32 35 29 34 37 29 35 35 29 35 35 29 35 35 29 35 35 29 35 35 29 35 35 29 35 35 33 39 39 33 39 39 33 39 39 33 39 39 33 39 39 33 39 39 33 39 39 34 38 37 33 33 33 34 33 31 34 33 31 34 33 31 34 33 31 34 33 31 34 33 31 34 33 31 32 31 29 32 31 29 32 31 29 32 31 29 32 31 29 32 31 29 32 31 29 32 31 27 37 32 29 37 32 28 37 32 28 37 32 28 37 32 28 37 32 28 37 32 28 37 32 28 37 32 28 37 32 28 37 32 28 37 32 28 37 32 28 37 32 28 37 32 28 37 32 29
148 123 144 148 123 144 148 123 144 148 123 144 148 123 144 148 123 144 148 123 144 148 123 144 148 123 144 148 123 144 148 123 144 147 124 142 146 123 141 144 123 138 144 123 138 143 122 137 143 122 137 142 121 136 141 120 135 141 120 135 128 107 122 124 103 118 117 96 111 107 86 101 97 76 91 87 66 81 80 59 74 73 57 70 43 32 48 38 32 46 34 28 42 28 22 36 22 16 30 16 10 24 12 6 20 9 3 17 10 4 18 10 4 18 10 4 18 10 4 18 10 4 18 10 4 18 10 4 18 8 4 18 6 6 16 4 7 16 4 7 16 4 7 16 4 7 16 4 7 16 4 7 16 4 7 16 5 8 17 5 8 17 5 8 17 5 8 17 5 8 17 5 8 17 5 8 17 5 8 17 8 12 23 8 12 23 8 12 23 8 12 23 8 12 23 8 12 23 8 12 23 8 12 23 0 3 14 3 7 18 10 14 25 18 22 33 28 32 43 37 41 52 43 47 58 47 51 62 56 63 71 56 63 71 56 63 71 56 63 71 56 63 71 56 63 71 56 63 71 56 63 71 62 69 77 60 67 75 58 65 73 55 62 70 51 58 66 48 55 63 46 53 61 44 51 59 46 53 59 44 51 57 42 49 55 39 46 52 35 42 48 32 39 45 30 37 43 28 35 41 19 26 32 17 24 30 15 22 28 12 19 25 8 15 21 5 12 18 3 10 16 1 8 14 6 11 15 6 11 15 6 11 15 6 11 15 6 11 15 6 11 15 6 11 15 6 11 15 9 14 18 11 16 20 13 18 22 16 21 25 20 25 29 23 28 32 25 30 34 27 32 35 29 34 37 29 35 35 29 35 35 29 35 35 29 35 35 29 35 35 29 35 35 29 35 35 33 39 39 33 39 39 33 39 39 33 39 39 33 39 39 33 39 39 33 39 39 34 38 37 33 33 33 34 33 31 34 33 31 34 33 31 34 33 31 34 33 31 34 33 31 34 33 31 32 31 29 32 31 29 32 31 29 32 31 29 32 31 29 32 31 29 32 31 29 32 31 27 37 32 29 37 32 28 37 32 28 37 32 28 37 32 28 37 32 28 37 32 28 37 32 28 37 32 28 37 32 28 37 32 28 37 32 28 37 32 28 37 32 28 37 32 28 37 32 29
148 123 144 148 123 144 148 123 144 148 123 144 148 123 144 148 123 144 148 123 144 148 123 144 148 123 144 148 123 144 148 123 144 147 124 142 147 124 142 145 124 139 143 122 137 141 120 135 138 117 132 136 115 130 134 113 128 133 112 127 121 100 115 117 96 111 110 89 104 101 80 95 90 69 84 81 60 75 73 52 67 66 50 63 36 25 41 31 25 39 28 22 36 24 18 32 20 14 28 15 9 23 12 6 20 11 5 19 10 4 18 10 4 18 10 4 18 10 4 18 10 4 18 10 4 18 10 4 18 8 4 18 6 6 16 4 7 16 4 7 16 4 7 16 4 7 16 4 7 16 4 7 16 4 7 16 5 8 17 5 8 17 5 8 17 5 8 17 5 8 17 5 8 17 5 8 17 5 8 17 8 12 23 8 12 23 8 12 23 8 12 23 8 12 23 8 12 23 8 12 23 8 12 23 0 1 12 2 6 17 11 15 26 23 27 38 36 40 51 48 52 63 57 61 72 62 66 77 56 63 71 56 63 71 56 63 71 56 63 71 56 63 71 56 63 71 56 63 71 56 63 71 62 69 77 60 67 75 58 65 73 55 62 70 51 58 66 48 55 63 46 53 61 44 51 59 46 53 59 44 51 57 42 49 55 39 46 52 35 42 48 32 39 45 30 37 43 28 35 41 19 26 32 17 24 30 15 22 28 12 19 25 8 15 21 5 12 18 3 10 16 1 8 14 6 11 15 6 11 15 6 11 15 6 11 15 6 11 15 6 11 15 6 11 15 6 11 15 9 14 18 11 16 20 13 18 22 16 21 25 20 25 29 23 28 32 25 30 34 27 32 35 29 34 37 29 35 35 29 35 35 29 35 35 29 35 35 29 35 35 29 35 35 29 35 35 33 39 39 33 39 39 33 39 39 33 39 39 33 39 39 33 39 39 33 39 39 34 38 37 33 33 33 34 33 31 34 33 31 34 33 31 34 33 31 34 33 31 34 33 31 34 33 31 32 31 29 32 31 29 32 31 29 32 31 29 32 31 29 32 31 29 32 31 29 32 31 27 37 32 29 37 32 28 37 32 28 37 32 28 37 32 28 37 32 28 37 32 28 37 32 28 37 32 28 37 32 28 37 32 28 37 32 28 37 32 28 37 32 28 37 32 28 37 32 29
148 123 144 148 123 144 148 123 144 148 123 144 148 123 144 148 123 144 148 123 144 148 123 144 148 123 144 148 123 144 148 123 144 147 124 142 148 125 143 146 125 140 143 122 137 138 117 132 134 113 128 130 109 124 127 106 121 125 104 119 115 94 109 111 90 105 103 82 97 94 73 88 83 62 77 74 53 68 67 46 61 60 44 57 28 17 33 24 18 32 22 16 30 20 14 28 17 11 25 15 9 23 13 7 21 12 6 20 10 4 18 10 4 18 10 4 18 10 4 18 10 4 18 10 4 18 10 4 18 8 4 18 6 6 16 4 7 16 4 7 16 4 7 16 4 7 16 4 7 16 4 7 16 4 7 16 5 8 17 5 8 17 5 8 17 5 8 17 5 8 17 5 8 17 5 8 17 5 8 17 8 12 23 8 12 23 8 12 23 8 12 23 8 12 23 8 12 23 8 12 23 8 12 23 4 8 19 9 13 24 18 22 33 30 34 45 43 47 58 55 59 70 64 68 79 69 73 84 56 63 71 56 63 71 56 63 71 56 63 71 56 63 71 56 63 71 56 63 71 56 63 71 62 69 77 60 67 75 58 65 73 55 62 70 51 58 66 48 55 63 46 53 61 44 51 59 46 53 59 44 51 57 42 49 55 39 46 52 35 42 48 32 39 45 30 37 43 28 35 41 19 26 32 17 24 30 15 22 28 12 19 25 8 15 21 5 12 18 3 10 16 1 8 14 6 11 15 6 11 15 6 11 15 6 11 15 6 11 15 6 11 15 6 11 15 6 11 15 9 14 18 11 16 20 13 18 22 16 21 25 20 25 29 23 28 32 25 30 34 27 32 35 29 34 37 29 35 35 29 35 35 29 35 35 29 35 35 29 35 35 29 35 35 29 35 35 33 39 39 33 39 39 33 39 39 33 39 39 33 39 39 33 39 39 33 39 39 34 38 37 33 33 33 34 33 31 34 33 31 34 33 31 34 33 31 34 33 31 34 33 31 34 33 31 32 31 29 32 31 29 32 31 29 32 31 29 32 31 29 32 31 29 32 31 29 32 31 27 37 32 29 37 32 28 37 32 28 37 32 28 37 32 28 37 32 28 37 32 28 37 32 28 37 32 28 37 32 28 37 32 28 37 32 28 37 32 28 37 32 28 37 32 28 37 32 29
148 123 144 148 123 144 148 123 144 148 123 144 148 123 144 148 123 144 148 123 144 148 123 144 148 123 144 148 123 144 148 123 144 147 124 142 150 127 145 146 125 140 142 121 136 136 115 130 130 109 124 124 103 118 120 99 114 118 97 112 108 87 102 104 83 98 97 76 91 87 66 81 77 56 71 67 46 61 60 39 54 53 37 50 20 9 25 17 11 25 16 10 24 15 9 23 15 9 23 14 8 22 14 8 22 13 7 21 10 4 18 10 4 18 10 4 18 10 4 18 10 4 18 10 4 18 10 4 18 8 4 18 6 6 16 4 7 16 4 7 16 4 7 16 4 7 16 4 7 16 4 7 16 4 7 16 5 8 17 5 8 17 5 8 17 5 8 17 5 8 17 5 8 17 5 8 17 5 8 17 8 12 23 8 12 23 8 12 23 8 12 23 8 12 23 8 12 23 8 12 23 8 12 23 19 23 34 23 27 38 29 33 44 38 42 53 48 52 63 56 60 71 63 67 78 67 71 82 56 63 71 56 63 71 56 63 71 56 63 71 56 63 71 56 63 71 56 63 71 56 63 71 62 69 77 60 67 75 58 65 73 55 62 70 51 58 66 48 55 63 46 53 61 44 51 59 46 53 59 44 51 57 42 49 55 39 46 52 35 42 48 32 39 45 30 37 43 28 35 41 19 26 32 17 24 30 15 22 28 12 19 25 8 15 21 5 12 18 3 10 16 1 8 14 6 11 15 6 11 15 6 11 15 6 11 15 6 11 15 6 11 15 6 11 15 6 11 15 9 14 18 11 16 20 13 18 22 16 21 25 20 25 29 23 28 32 25 30 34 27 32 35 29 34 37 29 35 35 29 35 35 29 35 35 29 35 35 29 35 35 29 35 35 29 35 35 33 39 39 33 39 39 33 39 39 33 39 39 33 39 39 33 39 39 33 39 39 34 38 37 33 33 33 34 33 31 34 33 31 34 33 31 34 33 31 34 33 31 34 33 31 34 33 31 32 31 29 32 31 29 32 31 29 32 31 29 32 31 29 32 31 29 32 31 29 32 31 27 37 32 29 37 32 28 37 32 28 37 32 28 37 32 28 37 32 28 37 32 28 37 32 28 37 32 28 37 32 28 37 32 28 37 32 28 37 32 28 37 32 28 37 32 28 37 32 29
148 123 144 148 123 144 148 123 144 148 123 144 148 123 144 148 123 144 148 123 144 148 123 144 148 123 144 148 123 144 148 123 144 147 124 142 151 128 146 147 126 141 141 120 135 134 113 128 127 106 121 120 99 114 115 94 109 112 91 106 103 82 97 99 78 93 92 71 86 82 61 76 72 51 66 63 42 57 55 34 49 48 32 45 14 3 19 11 5 19 12 6 20 12 6 20 13 7 21 14 8 22 14 8 22 14 8 22 10 4 18 10 4 18 10 4 18 10 4 18 10 4 18 10 4 18 10 4 18 8 4 18 6 6 16 4 7 16 4 7 16 4 7 16 4 7 16 4 7 16 4 7 16 4 7 16 5 8 17 5 8 17 5 8 17 5 8 17 5 8 17 5 8 17 5 8 17 5 8 17 8 12 23 8 12 23 8 12 23 8 12 23 8 12 23 8 12 23 8 12 23 8 12 23 37 41 52 38 42 53 41 45 56 46 50 61 50 54 65 54 58 69 57 61 72 59 63 74 56 63 71 56 63 71 56 63 71 56 63 71 56 63 71 56 63 71 56 63 71 56 63 71 62 69 77 60 67 75 58 65 73 55 62 70 51 58 66 48 55 63 46 53 61 44 51 59 46 53 59 44 51 57 42 49 55 39 46 52 35 42 48 32 39 45 30 37 43 28 35 41 19 26 32 17 24 30 15 22 28 12 19 25 8 15 21 5 12 18 3 10 16 1 8 14 6 11 15 6 11 15 6 11 15 6 11 15 6 11 15 6 11 15 6 11 15 6 11 15 9 14 18 11 16 20 13 18 22 16 21 25 20 25 29 23 28 32 25 30 34 27 32 35 29 34 37 29 35 35 29 35 35 29 35 35 29 35 35 29 35 35 29 35 35 29 35 35 33 39 39 33 39 39 33 39 39 33 39 39 33 39 39 33 39 39 33 39 39 34 38 37 33 33 33 34 33 31 34 33 31 34 33 31 34 33 31 34 33 31 34 33 31 34 33 31 32 31 29 32 31 29 32 31 29 32 31 29 32 31 29 32 31 29 32 31 29 32 31 27 37 32 29 37 32 28 37 32 28 37 32 28 37 32 28 37 32 28 37 32 28 37 32 28 37 32 28 37 32 28 37 32 28 37 32 28 37 32 28 37 32 28 37 32 28 37 32 29
147 124 144 146 125 144 147 124 144 146 125 144 147 124 144 146 125 144 147 124 144 146 125 144 147 124 144 146 125 144 147 124 144 146 125 142 148 130 146 144 128 141 139 121 135 130 114 127 123 105 119 115 99 112 110 92 106 106 90 103 99 81 95 94 78 91 87 69 83 77 61 74 67 49 63 57 41 54 51 33 47 44 30 45 9 1 16 7 3 17 9 3 17 9 5 19 12 6 20 11 7 21 14 8 22 13 9 23 10 4 18 8 4 18 10 4 18 8 4 18 10 4 18 8 4 18 10 4 18 8 4 18 6 6 16 4 7 16 4 7 16 4 7 16 4 7 16 4 7 16 4 7 16 4 7 16 5 8 17 5 8 17 5 8 17 5 8 17 5 8 17 5 8 17 5 8 17 5 8 17 8 12 21 8 12 21 8 12 23 8 12 21 8 12 23 8 12 21 8 12 23 8 12 21 48 52 63 49 53 62 49 53 64 50 54 63 51 55 66 51 55 64 52 56 67 52 56 65 56 63 71 56 63 71 56 63 71 56 63 71 56 63 71 56 63 71 56 63 71 56 63 71 62 69 77 60 67 75 58 65 73 55 62 70 51 58 66 48 55 63 46 53 61 44 51 59 46 53 59 44 51 57 42 49 55 39 46 52 35 42 48 32 39 45 30 37 43 28 35 41 19 26 32 17 24 30 15 22 28 12 19 25 8 15 21 5 12 18 3 10 16 1 8 14 4 12 15 4 12 15 6 11 15 4 12 15 6 11 15 4 12 15 6 11 15 4 12 15 9 14 18 9 17 20 13 18 22 14 22 25 20 25 29 21 29 32 25 30 34 27 32 36 29 34 37 29 35 35 29 34 37 29 35 35 29 34 37 29 35 35 29 34 37 29 35 35 33 38 41 33 39 39 33 38 41 33 39 39 33 38 41 33 39 39 33 38 41 34 38 39 33 33 33 34 33 31 34 33 31 34 33 31 34 33 31 34 33 31 34 33 31 34 33 31 32 31 29 32 31 29 32 31 29 32 31 29 32 31 29 32 31 29 32 31 29 34 30 29 37 32 29 37 32 28 37 32 29 37 32 28 37 32 29 37 32 28 37 32 29 37 32 28 37 32 29 37 32 28 37 32 29 37 32 28 37 32 29 37 32 28 37 32 29 37 32 29
124 107 123 125 111 126 129 112 128 129 115 130 134 117 133 132 118 133 134 117 133 132 118 133 134 117 133 132 118 133 134 117 133 132 118 133 124 112 126 121 110 124 117 105 119 109 98 112 104 92 106 96 85 99 92 80 94 89 78 92 77 65 79 71 60 74 64 52 66 52 41 55 42 30 44 30 19 33 22 10 24 15 7 20 7 1 15 4 2 15 5 1 15 4 2 15 5 1 15 4 2 15 5 1 15 4 2 15 5 1 15 4 2 15 5 1 15 4 2 15 5 1 15 4 2 15 5 1 15 4 2 15 4 7 16 3 7 16 3 7 16 3 7 16 3 7 16 3 7 16 3 7 16 3 7 16 3 7 16 2 6 15 1 5 14 0 4 13 0 3 12 0 1 10 0 1 10 0 0 9 18 22 31 19 24 30 21 25 34 25 30 36 28 32 41 31 36 42 34 38 47 35 40 46 55 59 68 55 60 66 55 59 68 55 60 66 55 59 68 55 60 66 55 59 68 55 60 66 64 69 75 64 69 75 64 69 75 64 69 75 64 69 75 64 69 75 64 69 75 64 69 75 59 64 70 59 64 70 59 64 70 59 64 70 59 64 70 59 64 70 59 64 70 59 64 70 57 62 68 57 62 68 57 62 68 57 62 68 57 62 68 57 62 68 57 62 68 57 62 68 26 31 37 21 26 32 13 18 24 9 14 20 10 15 21 17 22 28 26 31 37 30 37 43 3 11 14 3 13 15 4 12 15 5 15 17 7 15 18 7 17 19 9 17 20 9 19 21 5 13 16 6 16 18 9 17 20 11 21 23 16 24 27 18 28 30 21 29 32 23 31 34 22 30 33 22 30 32 22 30 33 22 30 32 22 30 33 22 30 32 22 30 33 22 30 32 20 28 31 20 28 30 20 28 31 20 28 30 20 28 31 20 28 30 20 28 31 22 27 30 27 27 27 28 27 25 28 27 25 28 27 25 28 27 25 28 27 25 28 27 25 28 27 25 32 31 29 32 31 29 32 31 29 32 31 29 32 31 29 32 31 29 32 31 29 34 30 29 37 31 31 39 31 29 39 30 31 39 31 29 39 30 31 39 31 29 39 30 31 39 31 29 36 27 28 36 28 26 36 27 28 36 28 26 36 27 28 36 28 26 36 27 28 34 28 28
121 109 123 124 112 126 127 115 129 128 116 130 127 115 129 127 115 129 127 115 129 127 115 129 127 115 129 127 115 129 127 115 129 126 115 129 119 108 122 115 107 120 110 102 115 104 96 109 97 89 102 90 82 95 85 77 90 83 75 88 69 61 74 65 57 70 57 49 62 47 39 52 36 28 41 26 18 31 18 10 23 13 7 19 5 1 15 4 2 15 4 2 15 4 2 15 4 2 15 4 2 15 4 2 15 4 2 15 4 2 15 4 2 15 4 2 15 4 2 15 4 2 15 4 2 15 4 2 15 3 3 15 4 7 16 3 7 16 3 7 16 3 7 16 3 7 16 3 7 16 3 7 16 3 7 16 2 6 15 2 6 15 2 6 15 1 5 14 0 4 13 0 4 13 0 3 12 0 3 12 19 24 30 20 25 31 23 28 34 26 31 37 29 34 40 33 38 44 35 40 46 36 41 47 55 60 66 55 60 66 55 60 66 55 60 66 55 60 66 55 60 66 55 60 66 55 60 66 64 69 75 64 69 75 64 69 75 64 69 75 64 69 75 64 69 75 64 69 75 64 69 75 61 66 72 61 66 72 61 66 72 61 66 72 61 66 72 61 66 72 61 66 72 61 66 72 59 64 70 59 64 70 59 64 70 59 64 70 59 64 70 59 64 70 59 64 70 59 64 70 29 34 40 23 28 34 16 21 27 11 16 22 11 16 22 18 23 29 26 31 37 30 37 43 6 14 17 5 15 17 6 16 18 6 16 18 7 17 19 8 18 20 8 18 20 8 18 20 4 14 16 6 16 18 8 18 20 11 21 23 15 25 27 18 28 30 20 30 32 22 32 34 22 30 33 22 30 33 22 30 33 22 30 33 22 30 33 22 30 33 22 30 33 22 30 33 20 28 31 20 28 31 20 28 31 20 28 31 20 28 31 20 28 31 20 28 31 22 27 30 27 27 27 28 27 25 28 27 25 28 27 25 28 27 25 28 27 25 28 27 25 28 27 25 32 31 29 32 31 29 32 31 29 32 31 29 32 31 29 32 31 29 32 31 29 34 30 29 37 31 31 39 30 31 39 30 31 39 30 31 39 30 31 39 30 31 39 30 31 39 30 31 36 27 28 36 27 28 36 27 28 36 27 28 36 27 28 36 27 28 36 27 28 36 27 28
119 107 121 123 111 125 125 113 127 126 114 128 120 108 122 120 108 122 120 108 122 120 108 122 120 108 122 120 108 122 120 108 122 119 108 122 112 101 115 107 99 112 103 95 108 96 88 101 89 81 94 83 75 88 78 70 83 75 67 80 61 53 66 57 49 62 50 42 55 42 34 47 32 24 37 23 15 28 16 8 21 12 6 18 5 1 15 4 2 15 4 2 15 4 2 15 4 2 15 4 2 15 4 2 15 4 2 15 4 2 15 4 2 15 4 2 15 4 2 15 4 2 15 4 2 15 4 2 15 3 3 15 4 7 16 3 7 16 3 7 16 3 7 16 3 7 16 3 7 16 3 7 16 3 7 16 1 5 14 2 6 15 2 6 15 3 7 16 3 7 16 4 8 17 5 9 18 5 9 18 21 26 32 23 28 34 25 30 36 28 33 39 32 37 43 35 40 46 37 42 48 39 44 50 55 60 66 55 60 66 55 60 66 55 60 66 55 60 66 55 60 66 55 60 66 55 60 66 64 69 75 64 69 75 64 69 75 64 69 75 64 69 75 64 69 75 64 69 75 64 69 75 63 68 74 63 68 74 63 68 74 63 68 74 63 68 74 63 68 74 63 68 74 63 68 74 61 66 72 61 66 72 61 66 72 61 66 72 61 66 72 61 66 72 61 66 72 61 66 72 35 40 46 29 34 40 20 25 31 14 19 25 13 18 24 18 23 29 26 31 37 29 36 42 12 20 23 11 21 23 10 20 22 9 19 21 9 19 21 8 18 20 8 18 20 7 17 19 4 14 16 6 16 18 8 18 20 11 21 23 15 25 27 18 28 30 20 30 32 22 32 34 22 30 33 22 30 33 22 30 33 22 30 33 22 30 33 22 30 33 22 30 33 22 30 33 20 28 31 20 28 31 20 28 31 20 28 31 20 28 31 20 28 31 20 28 31 22 27 30 27 27 27 28 27 25 28 27 25 28 27 25 28 27 25 28 27 25 28 27 25 28 27 25 32 31 29 32 31 29 32 31 29 32 31 29 32 31 29 32 31 29 32 31 29 34 30 29 37 31 31 39 30 31 39 30 31 39 30 31 39 30 31 39 30 31 39 30 31 39 30 31 36 27 28 36 27 28 36 27 28 36 27 28 36 27 28 36 27 28 36 27 28 36 27 28
