P3
172 37
255
0 0 2 0 0 2 0 0 2 0 0 2 1 1 3 1 1 3 1 1 3 1 1 3 1 1 3 1 1 3 1 1 3 1 1 3 0 0 0 0 0 0 0 0 0 0 0 0 0 0 0 0 0 0 0 0 0 0 0 0 0 0 0 0 0 0 0 0 0 0 0 0 0 0 0 0 0 0 0 0 0 0 0 0 0 0 0 0 0 0 0 0 0 0 0 0 0 0 0 0 0 0 0 0 0 0 0 0 0 0 0 0 0 0 0 0 0 0 0 0 0 0 0 0 0 0 0 0 0 0 0 2 2 1 6 2 1 7 2 1 7 2 1 7 2 1 7 2 1 7 2 1 7 2 1 7 3 2 8 3 2 8 3 2 8 3 2 8 3 2 8 3 2 8 3 2 8 3 2 7 2 1 6 2 2 4 2 2 4 2 2 4 2 2 4 2 2 4 2 2 4 2 2 4 0 0 2 0 0 2 0 0 2 0 0 2 0 0 2 0 0 2 0 0 2 0 0 2 1 1 3 1 1 3 1 1 3 1 1 3 1 1 3 1 1 3 1 1 3 1 1 3 16 16 18 19 19 21 24 24 26 30 30 32 37 37 39 43 43 45 48 48 50 52 50 53 57 51 55 59 50 55 59 50 55 59 50 55 59 50 55 59 50 55 59 50 55 59 50 55 80 71 76 80 71 76 80 71 76 80 71 76 80 71 76 80 71 76 80 71 76 81 70 76 101 84 90 103 84 90 103 84 90 103 84 90 103 84 90 103 84 90 103 84 90 103 84 90 106 87 93 106 87 93 106 87 93 106 87 93 106 87 93 106 87 93 106 87 93 106 87 93 105 88 94 105 88 94 105 88 94 105 88 94 105 88 94 105 88 94 105 88 94 105 88 94 106 89 95 106 89 95 106 89 95 106 89 95 106 89 95 106 89 95 106 89 95 106 89 95 98 83 90 98 83 90 98 83 90 98 83 90 98 83 90 98 83 90 98 83 90 98 83 90 80 65 72 77 62 69 72 57 64 66 51 58 59 44 51 53 38 45 48 33 40 43 30 37 41 35 37 40 36 37 40 36 37 40 36 37 40 36 37 40 36 37 40 36 37 40 36 37 43 39 40 43 39 40 43 39 40 43 39 40 43 39 40 43 39 40 43 39 40 43 39 40
0 0 2 0 0 2 0 0 2 0 0 2 1 1 3 1 1 3 1 1 3 1 1 3 1 1 3 1 1 3 1 1 3 1 1 3 0 0 0 0 0 0 0 0 0 0 0 0 0 0 0 0 0 0 0 0 0 0 0 0 0 0 0 0 0 0 0 0 0 0 0 0 0 0 0 0 0 0 0 0 0 0 0 0 0 0 0 0 0 0 0 0 0 0 0 0 0 0 0 0 0 0 0 0 0 0 0 0 0 0 0 0 0 0 0 0 0 0 0 0 0 0 0 0 0 0 0 0 0 0 0 2 2 1 6 2 1 7 2 1 7 2 1 7 2 1 7 2 1 7 2 1 7 2 1 7 3 2 8 3 2 8 3 2 8 3 2 8 3 2 8 3 2 8 3 2 8 3 2 7 2 2 4 2 2 4 2 2 4 2 2 4 2 2 4 2 2 4 2 2 4 2 2 4 0 0 2 0 0 2 0 0 2 0 0 2 0 0 2 0 0 2 0 0 2 0 0 2 1 1 3 1 1 3 1 1 3 1 1 3 1 1 3 1 1 3 1 1 3 1 1 3 17 17 19 20 20 22 25 25 27 31 31 33 38 38 40 44 44 46 49 49 51 55 50 54 59 50 55 60 49 53 61 48 55 60 49 53 61 48 55 60 49 53 61 48 55 60 49 53 82 69 76 81 70 74 82 69 76 81 70 74 82 69 76 81 70 74 82 69 76 84 69 74 103 84 90 104 83 88 104 83 90 104 83 88 104 83 90 104 83 88 104 83 90 104 83 88 107 86 93 107 86 91 107 86 93 107 86 91 107 86 93 107 86 91 107 86 93 107 86 93 107 88 94 107 88 94 107 88 94 107 88 94 107 88 94 107 88 94 107 88 94 107 88 94 108 89 95 108 89 95 108 89 95 108 89 95 108 89 95 108 89 95 108 89 95 106 89 95 98 83 90 98 83 90 98 83 90 98 83 90 98 83 90 98 83 90 98 83 90 98 83 90 79 64 71 76 61 68 71 56 63 65 50 57 58 43 50 52 37 44 47 32 39 42 29 36 41 35 37 40 36 37 40 36 37 40 36 37 40 36 37 40 36 37 40 36 37 40 36 37 43 39 40 43 39 40 43 39 40 43 39 40 43 39 40 43 39 40 43 39 40 43 39 40
0 0 0 0 0 0 0 0 0 0 0 0 0 0 0 0 0 0 0 0 0 0 0 0 0 0 0 0 0 0 0 0 0 0 0 0 0 0 2 0 0 2 0 0 2 0 0 2 0 0 2 0 0 2 0 0 2 0 0 2 0 0 2 0 0 2 0 0 2 0 0 2 0 0 2 0 0 2 0 0 2 0 0 2 0 0 2 0 0 2 0 0 2 0 0 2 0 0 2 0 0 2 0 0 2 0 0 2 0 0 2 0 0 2 0 0 2 0 0 2 0 0 2 0 0 2 0 0 2 0 0 2 2 1 6 2 1 6 2 1 6 2 1 6 2 1 6 2 1 6 2 1 6 2 1 6 2 1 6 2 1 6 2 1 6 2 1 6 2 1 6 2 1 6 2 1 6 2 1 6 1 1 3 1 1 3 1 1 3 1 1 3 1 1 3 1 1 3 1 1 3 1 1 3 0 0 2 0 0 2 0 0 2 0 0 2 0 0 2 0 0 2 0 0 2 0 0 2 3 1 2 3 1 2 3 1 2 3 1 2 3 1 2 3 1 2 3 1 2 3 1 2 28 26 27 30 28 29 32 30 31 35 33 34 39 37 38 42 40 41 44 42 43 49 43 45 62 47 52 65 49 52 69 50 56 70 54 57 76 57 63 77 61 64 81 62 68 81 65 68 93 74 80 91 75 78 93 74 80 91 75 78 93 74 80 91 75 78 93 74 80 93 74 78 97 74 80 99 77 80 101 78 84 104 82 85 108 85 91 111 89 92 113 90 96 115 93 96 110 87 93 110 88 91 110 87 93 110 88 91 110 87 93 110 88 91 110 87 93 110 87 93 108 85 93 108 85 93 108 85 93 108 85 93 108 85 93 108 85 93 108 85 93 108 85 93 104 81 89 104 81 89 104 81 89 104 81 89 104 81 89 104 81 89 104 81 89 103 82 89 98 83 88 95 83 87 93 81 85 89 77 81 86 74 78 83 71 75 80 68 72 79 67 71 50 38 42 50 38 42 50 38 42 50 38 42 50 38 42 50 38 42 50 38 42 49 38 42 41 35 37 40 36 37 40 36 37 40 36 37 40 36 37 40 36 37 40 36 37 40 36 37 38 34 35 38 34 35 38 34 35 38 34 35 38 34 35 38 34 35 38 34 35 38 34 35
0 0 0 0 0 0 0 0 0 0 0 0 0 0 0 0 0 0 0 0 0 0 0 0 0 0 0 0 0 0 0 0 0 0 0 0 0 0 2 0 0 2 0 0 2 0 0 2 0 0 2 0 0 2 0 0 2 0 0 2 0 0 2 0 0 2 0 0 2 0 0 2 0 0 2 0 0 2 0 0 2 0 0 2 0 0 2 0 0 2 0 0 2 0 0 2 0 0 2 0 0 2 0 0 2 0 0 2 0 0 2 0 0 2 0 0 2 0 0 2 0 0 2 0 0 2 0 0 2 0 0 2 2 1 6 2 1 6 2 1 6 2 1 6 2 1 6 2 1 6 2 1 6 2 1 6 2 1 6 2 1 6 2 1 6 2 1 6 2 1 6 2 1 6 2 1 6 2 1 6 1 1 3 1 1 3 1 1 3 1 1 3 1 1 3 1 1 3 1 1 3 1 1 3 0 0 2 0 0 2 0 0 2 0 0 2 0 0 2 0 0 2 0 0 2 0 0 2 3 1 2 3 1 2 3 1 2 3 1 2 3 1 2 3 1 2 3 1 2 3 1 2 28 26 27 30 28 29 32 30 31 35 33 34 39 37 38 42 40 41 44 42 43 49 43 45 63 47 50 68 47 52 70 49 54 73 52 57 77 56 61 80 59 64 82 61 66 84 63 68 94 73 78 94 73 78 94 73 78 94 73 78 94 73 78 94 73 78 94 73 78 94 73 78 99 74 78 101 76 80 103 78 82 106 81 85 110 85 89 113 88 92 115 90 94 117 92 96 112 87 91 112 87 91 112 87 91 112 87 91 112 87 91 112 87 91 112 87 91 112 87 91 110 84 93 110 84 93 110 84 93 110 84 93 110 84 93 110 84 93 110 84 93 110 84 93 106 80 89 106 80 89 106 80 89 106 80 89 106 80 89 106 80 89 106 80 89 103 82 89 98 81 87 94 82 86 91 79 83 88 76 80 85 73 77 81 69 73 79 67 71 78 66 70 50 38 42 50 38 42 50 38 42 50 38 42 50 38 42 50 38 42 50 38 42 49 38 42 41 35 37 40 36 37 40 36 37 40 36 37 40 36 37 40 36 37 40 36 37 40 36 37 38 34 35 38 34 35 38 34 35 38 34 35 38 34 35 38 34 35 38 34 35 38 34 35
0 0 0 0 0 0 0 0 0 0 0 0 0 0 0 0 0 0 0 0 0 0 0 0 0 0 0 0 0 0 0 0 0 0 0 0 0 0 2 0 0 2 0 0 2 0 0 2 0 0 2 0 0 2 0 0 2 0 0 2 0 0 2 0 0 2 0 0 2 0 0 2 0 0 2 0 0 2 0 0 2 0 0 2 0 0 2 0 0 2 0 0 2 0 0 2 0 0 2 0 0 2 0 0 2 0 0 2 0 0 2 0 0 2 0 0 2 0 0 2 0 0 2 0 0 2 0 0 2 0 0 2 2 1 6 2 1 6 2 1 6 2 1 6 2 1 6 2 1 6 2 1 6 2 1 6 2 1 6 2 1 6 2 1 6 2 1 6 2 1 6 2 1 6 2 1 6 2 1 6 1 1 3 1 1 3 1 1 3 1 1 3 1 1 3 1 1 3 1 1 3 1 1 3 0 0 2 0 0 2 0 0 2 0 0 2 0 0 2 0 0 2 0 0 2 0 0 2 3 1 2 3 1 2 3 1 2 3 1 2 3 1 2 3 1 2 3 1 2 3 1 2 28 26 27 30 28 29 32 30 31 35 33 34 39 37 38 42 40 41 44 42 43 49 43 45 63 47 50 68 47 52 70 49 54 73 52 57 77 56 61 80 59 64 82 61 66 84 63 68 94 73 78 94 73 78 94 73 78 94 73 78 94 73 78 94 73 78 94 73 78 94 73 78 99 74 78 101 76 80 103 78 82 106 81 85 110 85 89 113 88 92 115 90 94 117 92 96 112 87 91 112 87 91 112 87 91 112 87 91 112 87 91 112 87 91 112 87 91 112 87 91 110 84 93 110 84 93 110 84 93 110 84 93 110 84 93 110 84 93 110 84 93 110 84 93 106 80 89 106 80 89 106 80 89 106 80 89 106 80 89 106 80 89 106 80 89 103 82 89 96 79 85 91 79 83 89 77 81 86 74 78 82 70 74 79 67 71 77 65 69 75 63 67 50 38 42 50 38 42 50 38 42 50 38 42 50 38 42 50 38 42 50 38 42 49 38 42 41 35 37 40 36 37 40 36 37 40 36 37 40 36 37 40 36 37 40 36 37 40 36 37 38 34 35 38 34 35 38 34 35 38 34 35 38 34 35 38 34 35 38 34 35 38 34 35
0 0 0 0 0 0 0 0 0 0 0 0 0 0 0 0 0 0 0 0 0 0 0 0 0 0 0 0 0 0 0 0 0 0 0 0 0 0 2 0 0 2 0 0 2 0 0 2 0 0 2 0 0 2 0 0 2 0 0 2 0 0 2 0 0 2 0 0 2 0 0 2 0 0 2 0 0 2 0 0 2 0 0 2 0 0 2 0 0 2 0 0 2 0 0 2 0 0 2 0 0 2 0 0 2 0 0 2 0 0 2 0 0 2 0 0 2 0 0 2 0 0 2 0 0 2 0 0 2 0 0 2 2 1 6 2 1 6 2 1 6 2 1 6 2 1 6 2 1 6 2 1 6 2 1 6 2 1 6 2 1 6 2 1 6 2 1 6 2 1 6 2 1 6 2 1 6 2 1 6 1 1 3 1 1 3 1 1 3 1 1 3 1 1 3 1 1 3 1 1 3 1 1 3 0 0 2 0 0 2 0 0 2 0 0 2 0 0 2 0 0 2 0 0 2 0 0 2 3 1 2 3 1 2 3 1 2 3 1 2 3 1 2 3 1 2 3 1 2 3 1 2 28 26 27 30 28 29 32 30 31 35 33 34 39 37 38 42 40 41 44 42 43 49 43 45 63 47 50 68 47 52 70 49 54 73 52 57 77 56 61 80 59 64 82 61 66 84 63 68 94 73 78 94 73 78 94 73 78 94 73 78 94 73 78 94 73 78 94 73 78 94 73 78 99 74 78 101 76 80 103 78 82 106 81 85 110 85 89 113 88 92 115 90 94 117 92 96 112 87 91 112 87 91 112 87 91 112 87 91 112 87 91 112 87 91 112 87 91 112 87 91 110 84 93 110 84 93 110 84 93 110 84 93 110 84 93 110 84 93 110 84 93 110 84 93 106 80 89 106 80 89 106 80 89 106 80 89 106 80 89 106 80 89 106 80 89 103 82 89 92 75 81 88 76 80 86 74 78 82 70 74 79 67 71 76 64 68 73 61 65 72 60 64 50 38 42 50 38 42 50 38 42 50 38 42 50 38 42 50 38 42 50 38 42 49 38 42 41 35 37 40 36 37 40 36 37 40 36 37 40 36 37 40 36 37 40 36 37 40 36 37 38 34 35 38 34 35 38 34 35 38 34 35 38 34 35 38 34 35 38 34 35 38 34 35
0 0 0 0 0 0 0 0 0 0 0 0 0 0 0 0 0 0 0 0 0 0 0 0 0 0 0 0 0 0 0 0 0 0 0 0 0 0 2 0 0 2 0 0 2 0 0 2 0 0 2 0 0 2 0 0 2 0 0 2 0 0 2 0 0 2 0 0 2 0 0 2 0 0 2 0 0 2 0 0 2 0 0 2 0 0 2 0 0 2 0 0 2 0 0 2 0 0 2 0 0 2 0 0 2 0 0 2 0 0 2 0 0 2 0 0 2 0 0 2 0 0 2 0 0 2 0 0 2 0 0 2 2 1 6 2 1 6 2 1 6 2 1 6 2 1 6 2 1 6 2 1 6 2 1 6 2 1 6 2 1 6 2 1 6 2 1 6 2 1 6 2 1 6 2 1 6 2 1 6 1 1 3 1 1 3 1 1 3 1 1 3 1 1 3 1 1 3 1 1 3 1 1 3 0 0 2 0 0 2 0 0 2 0 0 2 0 0 2 0 0 2 0 0 2 0 0 2 3 1 2 3 1 2 3 1 2 3 1 2 3 1 2 3 1 2 3 1 2 3 1 2 28 26 27 30 28 29 32 30 31 35 33 34 39 37 38 42 40 41 44 42 43 49 43 45 63 47 50 68 47 52 70 49 54 73 52 57 77 56 61 80 59 64 82 61 66 84 63 68 94 73 78 94 73 78 94 73 78 94 73 78 94 73 78 94 73 78 94 73 78 94 73 78 99 74 78 101 76 80 103 78 82 106 81 85 110 85 89 113 88 92 115 90 94 117 92 96 112 87 91 112 87 91 112 87 91 112 87 91 112 87 91 112 87 91 112 87 91 112 87 91 110 84 93 110 84 93 110 84 93 110 84 93 110 84 93 110 84 93 110 84 93 110 84 93 106 80 89 106 80 89 106 80 89 106 80 89 106 80 89 106 80 89 106 80 89 103 82 89 89 72 78 85 73 77 82 70 74 79 67 71 76 64 68 72 60 64 70 58 62 69 57 61 50 38 42 50 38 42 50 38 42 50 38 42 50 38 42 50 38 42 50 38 42 49 38 42 41 35 37 40 36 37 40 36 37 40 36 37 40 36 37 40 36 37 40 36 37 40 36 37 38 34 35 38 34 35 38 34 35 38 34 35 38 34 35 38 34 35 38 34 35 38 34 35
0 0 0 0 0 0 0 0 0 0 0 0 0 0 0 0 0 0 0 0 0 0 0 0 0 0 0 0 0 0 0 0 0 0 0 0 0 0 2 0 0 2 0 0 2 0 0 2 0 0 2 0 0 2 0 0 2 0 0 2 0 0 2 0 0 2 0 0 2 0 0 2 0 0 2 0 0 2 0 0 2 0 0 2 0 0 2 0 0 2 0 0 2 0 0 2 0 0 2 0 0 2 0 0 2 0 0 2 0 0 2 0 0 2 0 0 2 0 0 2 0 0 2 0 0 2 0 0 2 0 0 2 2 1 6 2 1 6 2 1 6 2 1 6 2 1 6 2 1 6 2 1 6 2 1 6 2 1 6 2 1 6 2 1 6 2 1 6 2 1 6 2 1 6 2 1 6 2 1 6 1 1 3 1 1 3 1 1 3 1 1 3 1 1 3 1 1 3 1 1 3 1 1 3 0 0 2 0 0 2 0 0 2 0 0 2 0 0 2 0 0 2 0 0 2 0 0 2 3 1 2 3 1 2 3 1 2 3 1 2 3 1 2 3 1 2 3 1 2 3 1 2 28 26 27 30 28 29 32 30 31 35 33 34 39 37 38 42 40 41 44 42 43 49 43 45 63 47 50 68 47 52 70 49 54 73 52 57 77 56 61 80 59 64 82 61 66 84 63 68 94 73 78 94 73 78 94 73 78 94 73 78 94 73 78 94 73 78 94 73 78 94 73 78 99 74 78 101 76 80 103 78 82 106 81 85 110 85 89 113 88 92 115 90 94 117 92 96 112 87 91 112 87 91 112 87 91 112 87 91 112 87 91 112 87 91 112 87 91 112 87 91 110 84 93 110 84 93 110 84 93 110 84 93 110 84 93 110 84 93 110 84 93 110 84 93 106 80 89 106 80 89 106 80 89 106 80 89 106 80 89 106 80 89 106 80 89 103 82 89 86 69 75 81 69 73 79 67 71 76 64 68 72 60 64 69 57 61 67 55 59 65 53 57 50 38 42 50 38 42 50 38 42 50 38 42 50 38 42 50 38 42 50 38 42 49 38 42 41 35 37 40 36 37 40 36 37 40 36 37 40 36 37 40 36 37 40 36 37 40 36 37 38 34 35 38 34 35 38 34 35 38 34 35 38 34 35 38 34 35 38 34 35 38 34 35
0 0 0 0 0 0 0 0 0 0 0 0 0 0 0 0 0 0 0 0 0 0 0 0 0 0 0 0 0 0 0 0 0 0 0 0 0 0 2 0 0 2 0 0 2 0 0 2 0 0 2 0 0 2 0 0 2 0 0 2 0 0 2 0 0 2 0 0 2 0 0 2 0 0 2 0 0 2 0 0 2 0 0 2 0 0 2 0 0 2 0 0 2 0 0 2 0 0 2 0 0 2 0 0 2 0 0 2 0 0 2 0 0 2 0 0 2 0 0 2 0 0 2 0 0 2 0 0 2 0 0 2 2 1 6 2 1 6 2 1 6 2 1 6 2 1 6 2 1 6 2 1 6 2 1 6 2 1 6 2 1 6 2 1 6 2 1 6 2 1 6 2 1 6 2 1 6 2 1 6 1 1 3 1 1 3 1 1 3 1 1 3 1 1 3 1 1 3 1 1 3 1 1 3 0 0 2 0 0 2 0 0 2 0 0 2 0 0 2 0 0 2 0 0 2 0 0 2 3 1 2 3 1 2 3 1 2 3 1 2 3 1 2 3 1 2 3 1 2 3 1 2 28 26 27 30 28 29 32 30 31 35 33 34 39 37 38 42 40 41 44 42 43 49 43 45 63 47 50 68 47 52 70 49 54 73 52 57 77 56 61 80 59 64 82 61 66 84 63 68 94 73 78 94 73 78 94 73 78 94 73 78 94 73 78 94 73 78 94 73 78 94 73 78 99 74 78 101 76 80 103 78 82 106 81 85 110 85 89 113 88 92 115 90 94 117 92 96 112 87 91 112 87 91 112 87 91 112 87 91 112 87 91 112 87 91 112 87 91 112 87 91 110 84 93 110 84 93 110 84 93 110 84 93 110 84 93 110 84 93 110 84 93 110 84 93 106 80 89 106 80 89 106 80 89 106 80 89 106 80 89 106 80 89 106 80 89 103 82 89 83 66 72 79 67 71 77 65 69 73 61 65 70 58 62 67 55 59 64 52 56 63 51 55 50 38 42 50 38 42 50 38 42 50 38 42 50 38 42 50 38 42 50 38 42 49 38 42 41 35 37 40 36 37 40 36 37 40 36 37 40 36 37 40 36 37 40 36 37 40 36 37 38 34 35 38 34 35 38 34 35 38 34 35 38 34 35 38 34 35 38 34 35 38 34 35
0 0 0 0 0 0 0 0 0 0 0 0 0 0 0 0 0 0 0 0 0 0 0 0 0 0 0 0 0 0 0 0 0 0 0 0 0 0 2 0 0 2 0 0 2 0 0 2 0 0 2 0 0 2 0 0 2 0 0 2 0 0 2 0 0 2 0 0 2 0 0 2 0 0 2 0 0 2 0 0 2 0 0 2 0 0 2 0 0 2 0 0 2 0 0 2 0 0 2 0 0 2 0 0 2 0 0 2 0 0 2 0 0 2 0 0 2 0 0 2 0 0 2 0 0 2 0 0 2 0 0 2 2 1 6 2 1 6 2 1 6 2 1 6 2 1 6 2 1 6 2 1 6 2 1 6 2 1 6 2 1 6 2 1 6 2 1 6 2 1 6 2 1 6 2 1 6 2 1 6 1 1 3 1 1 3 1 1 3 1 1 3 1 1 3 1 1 3 1 1 3 1 1 3 0 0 2 0 0 2 0 0 2 0 0 2 0 0 2 0 0 2 0 0 2 0 0 2 3 1 2 3 1 2 3 1 2 3 1 2 3 1 2 3 1 2 3 1 2 3 1 2 28 26 27 30 28 29 32 30 31 35 33 34 39 37 38 42 40 41 44 42 43 49 43 45 63 47 50 68 47 52 70 49 54 73 52 57 77 56 61 80 59 64 82 61 66 84 63 68 94 73 78 94 73 78 94 73 78 94 73 78 94 73 78 94 73 78 94 73 78 94 73 78 99 74 78 101 76 80 103 78 82 106 81 85 110 85 89 113 88 92 115 90 94 117 92 96 112 87 91 112 87 91 112 87 91 112 87 91 112 87 91 112 87 91 112 87 91 112 87 91 110 84 93 110 84 93 110 84 93 110 84 93 110 84 93 110 84 93 110 84 93 110 84 93 106 80 89 106 80 89 106 80 89 106 80 89 106 80 89 106 80 89 106 80 89 103 82 89 82 65 71 78 66 70 75 63 67 72 60 64 69 57 61 65 53 57 63 51 55 62 50 54 50 38 42 50 38 42 50 38 42 50 38 42 50 38 42 50 38 42 50 38 42 49 38 42 41 35 37 40 36 37 40 36 37 40 36 37 40 36 37 40 36 37 40 36 37 40 36 37 38 34 35 38 34 35 38 34 35 38 34 35 38 34 35 38 34 35 38 34 35 38 34 35
0 0 0 0 0 0 0 0 0 0 0 0 0 0 0 0 0 0 0 0 0 0 0 0 0 0 0 0 0 0 0 0 0 0 0 0 1 1 3 1 1 3 1 1 3 1 1 3 1 1 3 1 1 3 1 1 3 1 1 3 1 1 3 1 1 3 1 1 3 1 1 3 1 1 3 1 1 3 1 1 3 1 1 3 1 1 3 1 1 3 1 1 3 1 1 3 1 1 3 1 1 3 1 1 3 1 1 3 1 1 3 1 1 3 1 1 3 1 1 3 1 1 3 1 1 3 1 1 3 1 1 3 0 0 4 0 0 4 0 0 4 0 0 4 0 0 4 0 0 4 0 0 4 0 0 4 0 0 4 0 0 4 0 0 4 0 0 4 0 0 4 0 0 4 0 0 4 0 0 4 0 0 2 0 0 2 0 0 2 0 0 2 0 0 2 0 0 2 0 0 2 0 0 2 0 0 2 0 0 2 0 0 2 0 0 2 0 0 2 0 0 2 0 0 2 0 0 2 1 0 0 1 0 0 1 0 0 1 0 0 4 2 3 7 5 6 10 8 9 11 9 10 32 30 31 33 31 32 35 33 34 39 37 38 42 40 41 45 43 44 48 46 47 52 46 48 75 59 62 80 59 64 82 61 66 85 64 69 89 68 73 92 71 76 94 73 78 96 75 80 100 79 84 100 79 84 100 79 84 100 79 84 100 79 84 100 79 84 100 79 84 100 79 84 112 87 91 112 87 91 112 87 91 112 87 91 112 87 91 112 87 91 112 87 91 112 87 91 111 86 90 111 86 90 111 86 90 111 86 90 111 86 90 111 86 90 111 86 90 111 86 90 112 86 95 112 86 95 112 86 95 112 86 95 112 86 95 112 86 95 112 86 95 112 86 95 110 84 93 108 82 91 106 80 89 103 77 86 99 73 82 96 70 79 94 68 77 89 68 75 87 70 76 81 69 73 76 64 68 70 58 62 63 51 55 57 45 49 52 40 44 49 37 41 41 29 33 41 29 33 41 29 33 41 29 33 41 29 33 41 29 33 41 29 33 40 29 33 35 29 31 34 30 31 34 30 31 34 30 31 34 30 31 34 30 31 34 30 31 34 30 31 39 35 36 39 35 36 39 35 36 39 35 36 39 35 36 39 35 36 39 35 36 39 35 36
0 0 0 0 0 0 0 0 0 0 0 0 0 0 0 0 0 0 0 0 0 0 0 0 0 0 0 0 0 0 0 0 0 0 0 0 1 1 3 1 1 3 1 1 3 1 1 3 1 1 3 1 1 3 1 1 3 1 1 3 1 1 3 1 1 3 1 1 3 1 1 3 1 1 3 1 1 3 1 1 3 1 1 3 1 1 3 1 1 3 1 1 3 1 1 3 1 1 3 1 1 3 1 1 3 1 1 3 1 1 3 1 1 3 1 1 3 1 1 3 1 1 3 1 1 3 1 1 3 1 1 3 0 0 4 0 0 4 0 0 4 0 0 4 0 0 4 0 0 4 0 0 4 0 0 4 0 0 4 0 0 4 0 0 4 0 0 4 0 0 4 0 0 4 0 0 4 0 0 4 0 0 2 0 0 2 0 0 2 0 0 2 0 0 2 0 0 2 0 0 2 0 0 2 0 0 2 0 0 2 0 0 2 0 0 2 0 0 2 0 0 2 0 0 2 0 0 2 1 0 0 1 0 0 1 0 0 2 0 1 5 3 4 9 7 8 11 9 10 12 10 11 33 31 32 34 32 33 37 35 36 40 38 39 43 41 42 47 45 46 49 47 48 53 47 49 75 59 62 80 59 64 82 61 66 85 64 69 89 68 73 92 71 76 94 73 78 96 75 80 100 79 84 100 79 84 100 79 84 100 79 84 100 79 84 100 79 84 100 79 84 100 79 84 112 87 91 112 87 91 112 87 91 112 87 91 112 87 91 112 87 91 112 87 91 112 87 91 111 86 90 111 86 90 111 86 90 111 86 90 111 86 90 111 86 90 111 86 90 111 86 90 112 86 95 112 86 95 112 86 95 112 86 95 112 86 95 112 86 95 112 86 95 112 86 95 110 84 93 108 82 91 106 80 89 103 77 86 99 73 82 96 70 79 94 68 77 89 68 75 86 69 75 80 68 72 75 63 67 69 57 61 62 50 54 56 44 48 51 39 43 48 36 40 41 29 33 41 29 33 41 29 33 41 29 33 41 29 33 41 29 33 41 29 33 40 29 33 35 29 31 34 30 31 34 30 31 34 30 31 34 30 31 34 30 31 34 30 31 34 30 31 39 35 36 39 35 36 39 35 36 39 35 36 39 35 36 39 35 36 39 35 36 39 35 36
0 0 0 0 0 0 0 0 0 0 0 0 0 0 0 0 0 0 0 0 0 0 0 0 0 0 0 0 0 0 0 0 0 0 0 0 1 1 3 1 1 3 1 1 3 1 1 3 1 1 3 1 1 3 1 1 3 1 1 3 1 1 3 1 1 3 1 1 3 1 1 3 1 1 3 1 1 3 1 1 3 1 1 3 1 1 3 1 1 3 1 1 3 1 1 3 1 1 3 1 1 3 1 1 3 1 1 3 1 1 3 1 1 3 1 1 3 1 1 3 1 1 3 1 1 3 1 1 3 1 1 3 0 0 4 0 0 4 0 0 4 0 0 4 0 0 4 0 0 4 0 0 4 0 0 4 0 0 4 0 0 4 0 0 4 0 0 4 0 0 4 0 0 4 0 0 4 0 0 4 0 0 2 0 0 2 0 0 2 0 0 2 0 0 2 0 0 2 0 0 2 0 0 2 0 0 2 0 0 2 0 0 2 0 0 2 0 0 2 0 0 2 0 0 2 0 0 2 1 0 0 1 0 0 1 0 0 4 2 3 8 6 7 11 9 10 13 11 12 15 13 14 35 33 34 37 35 36 39 37 38 42 40 41 46 44 45 49 47 48 51 49 50 56 50 52 75 59 62 80 59 64 82 61 66 85 64 69 89 68 73 92 71 76 94 73 78 96 75 80 100 79 84 100 79 84 100 79 84 100 79 84 100 79 84 100 79 84 100 79 84 100 79 84 112 87 91 112 87 91 112 87 91 112 87 91 112 87 91 112 87 91 112 87 91 112 87 91 111 86 90 111 86 90 111 86 90 111 86 90 111 86 90 111 86 90 111 86 90 111 86 90 112 86 95 112 86 95 112 86 95 112 86 95 112 86 95 112 86 95 112 86 95 112 86 95 110 84 93 108 82 91 106 80 89 103 77 86 99 73 82 96 70 79 94 68 77 89 68 75 83 66 72 78 66 70 73 61 65 66 54 58 59 47 51 53 41 45 48 36 40 46 34 38 41 29 33 41 29 33 41 29 33 41 29 33 41 29 33 41 29 33 41 29 33 40 29 33 35 29 31 34 30 31 34 30 31 34 30 31 34 30 31 34 30 31 34 30 31 34 30 31 39 35 36 39 35 36 39 35 36 39 35 36 39 35 36 39 35 36 39 35 36 39 35 36
0 0 0 0 0 0 0 0 0 0 0 0 0 0 0 0 0 0 0 0 0 0 0 0 0 0 0 0 0 0 0 0 0 0 0 0 1 1 3 1 1 3 1 1 3 1 1 3 1 1 3 1 1 3 1 1 3 1 1 3 1 1 3 1 1 3 1 1 3 1 1 3 1 1 3 1 1 3 1 1 3 1 1 3 1 1 3 1 1 3 1 1 3 1 1 3 1 1 3 1 1 3 1 1 3 1 1 3 1 1 3 1 1 3 1 1 3 1 1 3 1 1 3 1 1 3 1 1 3 1 1 3 0 0 4 0 0 4 0 0 4 0 0 4 0 0 4 0 0 4 0 0 4 0 0 4 0 0 4 0 0 4 0 0 4 0 0 4 0 0 4 0 0 4 0 0 4 0 0 4 0 0 2 0 0 2 0 0 2 0 0 2 0 0 2 0 0 2 0 0 2 0 0 2 0 0 2 0 0 2 0 0 2 0 0 2 0 0 2 0 0 2 0 0 2 0 0 2 1 0 0 2 0 1 4 2 3 8 6 7 11 9 10 14 12 13 17 15 16 18 16 17 39 37 38 40 38 39 42 40 41 46 44 45 49 47 48 52 50 51 55 53 54 59 53 55 75 59 62 80 59 64 82 61 66 85 64 69 89 68 73 92 71 76 94 73 78 96 75 80 100 79 84 100 79 84 100 79 84 100 79 84 100 79 84 100 79 84 100 79 84 100 79 84 112 87 91 112 87 91 112 87 91 112 87 91 112 87 91 112 87 91 112 87 91 112 87 91 111 86 90 111 86 90 111 86 90 111 86 90 111 86 90 111 86 90 111 86 90 111 86 90 112 86 95 112 86 95 112 86 95 112 86 95 112 86 95 112 86 95 112 86 95 112 86 95 110 84 93 108 82 91 106 80 89 103 77 86 99 73 82 96 70 79 94 68 77 89 68 75 80 63 69 74 62 66 70 58 62 63 51 55 56 44 48 50 38 42 45 33 37 42 30 34 41 29 33 41 29 33 41 29 33 41 29 33 41 29 33 41 29 33 41 29 33 40 29 33 35 29 31 34 30 31 34 30 31 34 30 31 34 30 31 34 30 31 34 30 31 34 30 31 39 35 36 39 35 36 39 35 36 39 35 36 39 35 36 39 35 36 39 35 36 39 35 36
0 0 0 0 0 0 0 0 0 0 0 0 0 0 0 0 0 0 0 0 0 0 0 0 0 0 0 0 0 0 0 0 0 0 0 0 1 1 3 1 1 3 1 1 3 1 1 3 1 1 3 1 1 3 1 1 3 1 1 3 1 1 3 1 1 3 1 1 3 1 1 3 1 1 3 1 1 3 1 1 3 1 1 3 1 1 3 1 1 3 1 1 3 1 1 3 1 1 3 1 1 3 1 1 3 1 1 3 1 1 3 1 1 3 1 1 3 1 1 3 1 1 3 1 1 3 1 1 3 1 1 3 0 0 4 0 0 4 0 0 4 0 0 4 0 0 4 0 0 4 0 0 4 0 0 4 0 0 4 0 0 4 0 0 4 0 0 4 0 0 4 0 0 4 0 0 4 0 0 4 0 0 2 0 0 2 0 0 2 0 0 2 0 0 2 0 0 2 0 0 2 0 0 2 0 0 2 0 0 2 0 0 2 0 0 2 0 0 2 0 0 2 0 0 2 0 0 2 4 2 3 5 3 4 8 6 7 11 9 10 14 12 13 18 16 17 20 18 19 21 19 20 42 40 41 43 41 42 46 44 45 49 47 48 52 50 51 56 54 55 58 56 57 62 56 58 75 59 62 80 59 64 82 61 66 85 64 69 89 68 73 92 71 76 94 73 78 96 75 80 100 79 84 100 79 84 100 79 84 100 79 84 100 79 84 100 79 84 100 79 84 100 79 84 112 87 91 112 87 91 112 87 91 112 87 91 112 87 91 112 87 91 112 87 91 112 87 91 111 86 90 111 86 90 111 86 90 111 86 90 111 86 90 111 86 90 111 86 90 111 86 90 112 86 95 112 86 95 112 86 95 112 86 95 112 86 95 112 86 95 112 86 95 112 86 95 110 84 93 108 82 91 106 80 89 103 77 86 99 73 82 96 70 79 94 68 77 89 68 75 77 60 66 71 59 63 66 54 58 60 48 52 53 41 45 46 34 38 42 30 34 39 27 31 41 29 33 41 29 33 41 29 33 41 29 33 41 29 33 41 29 33 41 29 33 40 29 33 35 29 31 34 30 31 34 30 31 34 30 31 34 30 31 34 30 31 34 30 31 34 30 31 39 35 36 39 35 36 39 35 36 39 35 36 39 35 36 39 35 36 39 35 36 39 35 36
0 0 0 0 0 0 0 0 0 0 0 0 0 0 0 0 0 0 0 0 0 0 0 0 0 0 0 0 0 0 0 0 0 0 0 0 1 1 3 1 1 3 1 1 3 1 1 3 1 1 3 1 1 3 1 1 3 1 1 3 1 1 3 1 1 3 1 1 3 1 1 3 1 1 3 1 1 3 1 1 3 1 1 3 1 1 3 1 1 3 1 1 3 1 1 3 1 1 3 1 1 3 1 1 3 1 1 3 1 1 3 1 1 3 1 1 3 1 1 3 1 1 3 1 1 3 1 1 3 1 1 3 0 0 4 0 0 4 0 0 4 0 0 4 0 0 4 0 0 4 0 0 4 0 0 4 0 0 4 0 0 4 0 0 4 0 0 4 0 0 4 0 0 4 0 0 4 0 0 4 0 0 2 0 0 2 0 0 2 0 0 2 0 0 2 0 0 2 0 0 2 0 0 2 0 0 2 0 0 2 0 0 2 0 0 2 0 0 2 0 0 2 0 0 2 0 0 2 7 5 6 9 7 8 11 9 10 14 12 13 18 16 17 21 19 20 23 21 22 25 23 24 45 43 44 47 45 46 49 47 48 52 50 51 56 54 55 59 57 58 61 59 60 66 60 62 75 59 62 80 59 64 82 61 66 85 64 69 89 68 73 92 71 76 94 73 78 96 75 80 100 79 84 100 79 84 100 79 84 100 79 84 100 79 84 100 79 84 100 79 84 100 79 84 112 87 91 112 87 91 112 87 91 112 87 91 112 87 91 112 87 91 112 87 91 112 87 91 111 86 90 111 86 90 111 86 90 111 86 90 111 86 90 111 86 90 111 86 90 111 86 90 112 86 95 112 86 95 112 86 95 112 86 95 112 86 95 112 86 95 112 86 95 112 86 95 110 84 93 108 82 91 106 80 89 103 77 86 99 73 82 96 70 79 94 68 77 89 68 75 73 56 62 68 56 60 63 51 55 57 45 49 50 38 42 43 31 35 38 26 30 36 24 28 41 29 33 41 29 33 41 29 33 41 29 33 41 29 33 41 29 33 41 29 33 40 29 33 35 29 31 34 30 31 34 30 31 34 30 31 34 30 31 34 30 31 34 30 31 34 30 31 39 35 36 39 35 36 39 35 36 39 35 36 39 35 36 39 35 36 39 35 36 39 35 36
0 0 0 0 0 0 0 0 0 0 0 0 0 0 0 0 0 0 0 0 0 0 0 0 0 0 0 0 0 0 0 0 0 0 0 0 1 1 3 1 1 3 1 1 3 1 1 3 1 1 3 1 1 3 1 1 3 1 1 3 1 1 3 1 1 3 1 1 3 1 1 3 1 1 3 1 1 3 1 1 3 1 1 3 1 1 3 1 1 3 1 1 3 1 1 3 1 1 3 1 1 3 1 1 3 1 1 3 1 1 3 1 1 3 1 1 3 1 1 3 1 1 3 1 1 3 1 1 3 1 1 3 0 0 4 0 0 4 0 0 4 0 0 4 0 0 4 0 0 4 0 0 4 0 0 4 0 0 4 0 0 4 0 0 4 0 0 4 0 0 4 0 0 4 0 0 4 0 0 4 0 0 2 0 0 2 0 0 2 0 0 2 0 0 2 0 0 2 0 0 2 0 0 2 0 0 2 0 0 2 0 0 2 0 0 2 0 0 2 0 0 2 0 0 2 0 0 2 10 8 9 11 9 10 13 11 12 17 15 16 20 18 19 23 21 22 26 24 25 27 25 26 48 46 47 49 47 48 51 49 50 55 53 54 58 56 57 61 59 60 64 62 63 68 62 64 75 59 62 80 59 64 82 61 66 85 64 69 89 68 73 92 71 76 94 73 78 96 75 80 100 79 84 100 79 84 100 79 84 100 79 84 100 79 84 100 79 84 100 79 84 100 79 84 112 87 91 112 87 91 112 87 91 112 87 91 112 87 91 112 87 91 112 87 91 112 87 91 111 86 90 111 86 90 111 86 90 111 86 90 111 86 90 111 86 90 111 86 90 111 86 90 112 86 95 112 86 95 112 86 95 112 86 95 112 86 95 112 86 95 112 86 95 112 86 95 110 84 93 108 82 91 106 80 89 103 77 86 99 73 82 96 70 79 94 68 77 89 68 75 71 54 60 65 53 57 60 48 52 54 42 46 47 35 39 41 29 33 36 24 28 33 21 25 41 29 33 41 29 33 41 29 33 41 29 33 41 29 33 41 29 33 41 29 33 40 29 33 35 29 31 34 30 31 34 30 31 34 30 31 34 30 31 34 30 31 34 30 31 34 30 31 39 35 36 39 35 36 39 35 36 39 35 36 39 35 36 39 35 36 39 35 36 39 35 36
0 0 0 0 0 0 0 0 0 0 0 0 0 0 0 0 0 0 0 0 0 0 0 0 0 0 0 0 0 0 0 0 0 0 0 0 1 1 3 1 1 3 1 1 3 1 1 3 1 1 3 1 1 3 1 1 3 1 1 3 1 1 3 1 1 3 1 1 3 1 1 3 1 1 3 1 1 3 1 1 3 1 1 3 1 1 3 1 1 3 1 1 3 1 1 3 1 1 3 1 1 3 1 1 3 1 1 3 1 1 3 1 1 3 1 1 3 1 1 3 1 1 3 1 1 3 1 1 3 1 1 3 0 0 2 0 0 2 0 0 4 0 0 2 0 0 4 0 0 2 0 0 4 0 0 2 0 0 4 0 0 2 0 0 4 0 0 2 0 0 4 0 0 2 0 0 4 0 0 2 0 0 2 0 0 2 0 0 2 0 0 2 0 0 2 0 0 2 0 0 2 0 0 2 0 0 2 0 0 2 0 0 2 0 0 2 0 0 2 0 0 2 0 0 2 0 0 0 13 9 10 14 10 11 17 13 14 20 16 17 23 19 20 27 23 24 29 25 26 30 26 27 51 47 48 52 48 49 55 51 52 58 54 55 61 57 58 65 61 62 67 63 64 71 62 63 75 59 62 80 59 64 83 60 66 85 64 69 90 67 73 92 71 76 95 72 78 96 75 80 101 78 84 100 79 84 101 78 84 100 79 84 101 78 84 100 79 84 101 78 84 101 78 84 112 87 91 112 87 91 112 87 91 112 87 91 112 87 91 112 87 91 112 87 91 112 87 91 111 86 90 111 86 90 111 86 90 111 86 90 111 86 90 111 86 90 111 86 90 111 86 90 110 87 95 110 87 95 110 87 95 110 87 95 110 87 95 110 87 95 110 87 95 110 87 95 108 85 93 106 83 91 104 81 89 101 78 86 97 74 82 94 71 79 92 69 77 88 69 75 69 54 59 63 53 54 58 47 51 52 42 43 45 34 38 39 29 30 34 23 27 31 21 22 40 29 33 40 30 31 40 29 33 40 30 31 40 29 33 40 30 31 40 29 33 39 30 31 35 29 31 34 30 29 35 29 31 34 30 29 35 29 31 34 30 29 35 29 31 34 30 29 40 34 36 39 35 34 40 34 36 39 35 34 40 34 36 39 35 34 40 34 36 39 35 34
0 0 2 0 0 2 0 0 2 0 0 2 0 0 2 0 0 2 0 0 2 0 0 2 0 0 2 0 0 2 0 0 2 0 0 2 1 1 3 1 1 3 1 1 3 1 1 3 1 1 3 1 1 3 1 1 3 1 1 3 1 1 3 1 1 3 1 1 3 1 1 3 1 1 3 1 1 3 1 1 3 1 1 3 0 0 0 0 0 0 0 0 0 0 0 0 0 0 0 0 0 0 0 0 0 0 0 0 0 0 0 0 0 0 0 0 0 0 0 0 0 0 0 0 0 0 0 0 0 0 0 0 0 0 0 0 0 0 0 0 2 0 0 0 0 0 2 0 0 0 0 0 2 0 0 0 0 0 2 0 0 0 0 0 2 0 0 0 0 0 2 0 0 0 0 0 2 0 0 0 0 0 0 0 0 0 0 0 0 0 0 0 0 0 0 0 0 0 0 0 0 0 0 0 0 0 0 0 0 0 0 0 0 0 0 0 0 0 0 0 0 0 0 0 0 1 0 0 5 0 1 10 1 2 15 6 7 21 12 13 28 19 20 34 25 26 39 30 31 42 33 34 60 51 52 62 53 54 64 55 56 67 58 59 71 62 63 74 65 66 76 67 68 80 68 70 85 64 69 88 66 69 92 67 71 93 71 74 99 74 78 100 78 81 104 79 83 104 82 85 109 84 88 107 85 88 109 84 88 107 85 88 109 84 88 107 85 88 109 84 88 109 84 88 115 90 94 115 90 94 115 90 94 115 90 94 115 90 94 115 90 94 115 90 94 115 90 94 116 91 95 116 91 95 116 91 95 116 91 95 116 91 95 116 91 95 116 91 95 114 92 95 105 84 91 104 85 91 104 85 91 104 85 91 104 85 91 104 85 91 104 85 91 104 85 91 101 82 88 98 79 85 93 74 80 87 68 74 80 61 67 74 55 61 69 50 56 63 48 53 59 49 50 54 49 46 52 46 46 49 44 41 45 39 39 42 37 34 40 34 34 38 33 30 35 29 29 35 30 27 35 29 29 35 30 27 35 29 29 35 30 27 35 29 29 35 30 27 36 30 30 36 31 28 38 29 30 36 31 28 38 29 30 36 31 28 38 29 30 36 31 28 40 31 32 38 33 30 40 31 32 38 33 30 40 31 32 38 33 30 40 31 32 38 33 30
0 0 2 0 0 2 0 0 2 0 0 2 0 0 2 0 0 2 0 0 2 0 0 2 0 0 2 0 0 2 0 0 2 0 0 2 1 1 3 1 1 3 1 1 3 1 1 3 1 1 3 1 1 3 1 1 3 1 1 3 1 1 3 1 1 3 1 1 3 1 1 3 1 1 3 1 1 3 1 1 3 1 1 3 0 0 0 0 0 0 0 0 0 0 0 0 0 0 0 0 0 0 0 0 0 0 0 0 0 0 0 0 0 0 0 0 0 0 0 0 0 0 0 0 0 0 0 0 0 0 0 0 0 0 0 0 0 0 0 0 0 0 0 0 0 0 0 0 0 0 0 0 0 0 0 0 0 0 0 0 0 0 0 0 0 0 0 0 0 0 0 0 0 0 0 0 0 0 0 0 0 0 0 0 0 0 0 0 0 0 0 0 0 0 0 0 0 0 0 0 0 0 0 0 0 0 0 0 0 0 0 0 0 0 0 0 0 0 0 0 0 0 0 0 0 1 0 0 8 0 0 12 2 3 17 7 8 23 13 14 30 20 21 36 26 27 41 31 32 44 34 35 61 51 52 63 53 54 65 55 56 68 58 59 72 62 63 75 65 66 77 67 68 82 67 70 85 65 67 90 65 69 92 67 71 95 70 74 99 74 78 102 77 81 104 79 83 106 81 85 109 84 88 109 84 88 109 84 88 109 84 88 109 84 88 109 84 88 109 84 88 109 84 88 115 90 94 115 90 94 115 90 94 115 90 94 115 90 94 115 90 94 115 90 94 115 90 94 116 91 95 116 91 95 116 91 95 116 91 95 116 91 95 116 91 95 116 91 95 114 92 95 104 85 91 102 85 91 102 85 91 102 85 91 102 85 91 102 85 91 102 85 91 102 85 91 98 81 87 95 78 84 90 73 79 84 67 73 77 60 66 71 54 60 66 49 55 60 48 50 58 49 50 53 49 46 51 47 44 48 44 41 44 40 37 41 37 34 39 35 32 37 33 30 34 30 27 34 30 27 34 30 27 34 30 27 34 30 27 34 30 27 34 30 27 34 30 27 38 30 28 38 30 28 38 30 28 38 30 28 38 30 28 38 30 28 38 30 28 38 30 28 40 32 30 40 32 30 40 32 30 40 32 30 40 32 30 40 32 30 40 32 30 40 32 30
0 0 2 0 0 2 0 0 2 0 0 2 0 0 2 0 0 2 0 0 2 0 0 2 0 0 2 0 0 2 0 0 2 0 0 2 1 1 3 1 1 3 1 1 3 1 1 3 1 1 3 1 1 3 1 1 3 1 1 3 1 1 3 1 1 3 1 1 3 1 1 3 1 1 3 1 1 3 1 1 3 1 1 3 0 0 0 0 0 0 0 0 0 0 0 0 0 0 0 0 0 0 0 0 0 0 0 0 0 0 0 0 0 0 0 0 0 0 0 0 0 0 0 0 0 0 0 0 0 0 0 0 0 0 0 0 0 0 0 0 0 0 0 0 0 0 0 0 0 0 0 0 0 0 0 0 0 0 0 0 0 0 0 0 0 0 0 0 0 0 0 0 0 0 0 0 0 0 0 0 0 0 0 0 0 0 0 0 0 0 0 0 0 0 0 0 0 0 0 0 0 0 0 0 0 0 0 0 0 0 0 0 0 0 0 0 0 0 0 0 0 0 0 0 0 1 0 0 11 2 3 14 4 5 19 9 10 26 16 17 33 23 24 39 29 30 44 34 35 46 36 37 61 51 52 63 53 54 65 55 56 68 58 59 72 62 63 75 65 66 77 67 68 82 67 70 85 65 67 90 65 69 92 67 71 95 70 74 99 74 78 102 77 81 104 79 83 106 81 85 109 84 88 109 84 88 109 84 88 109 84 88 109 84 88 109 84 88 109 84 88 109 84 88 115 90 94 115 90 94 115 90 94 115 90 94 115 90 94 115 90 94 115 90 94 115 90 94 116 91 95 116 91 95 116 91 95 116 91 95 116 91 95 116 91 95 116 91 95 114 92 95 104 85 91 102 85 91 102 85 91 102 85 91 102 85 91 102 85 91 102 85 91 102 85 91 95 78 84 93 76 82 88 71 77 81 64 70 74 57 63 68 51 57 63 46 52 58 46 48 58 49 50 53 49 46 51 47 44 48 44 41 44 40 37 41 37 34 39 35 32 37 33 30 34 30 27 34 30 27 34 30 27 34 30 27 34 30 27 34 30 27 34 30 27 34 30 27 38 30 28 38 30 28 38 30 28 38 30 28 38 30 28 38 30 28 38 30 28 38 30 28 40 32 30 40 32 30 40 32 30 40 32 30 40 32 30 40 32 30 40 32 30 40 32 30
0 0 2 0 0 2 0 0 2 0 0 2 0 0 2 0 0 2 0 0 2 0 0 2 0 0 2 0 0 2 0 0 2 0 0 2 1 1 3 1 1 3 1 1 3 1 1 3 1 1 3 1 1 3 1 1 3 1 1 3 1 1 3 1 1 3 1 1 3 1 1 3 1 1 3 1 1 3 1 1 3 1 1 3 0 0 0 0 0 0 0 0 0 0 0 0 0 0 0 0 0 0 0 0 0 0 0 0 0 0 0 0 0 0 0 0 0 0 0 0 0 0 0 0 0 0 0 0 0 0 0 0 0 0 0 0 0 0 0 0 0 0 0 0 0 0 0 0 0 0 0 0 0 0 0 0 0 0 0 0 0 0 0 0 0 0 0 0 0 0 0 0 0 0 0 0 0 0 0 0 0 0 0 0 0 0 0 0 0 0 0 0 0 0 0 0 0 0 0 0 0 0 0 0 0 0 0 0 0 0 0 0 0 0 0 0 0 0 0 0 0 0 0 0 0 1 0 0 14 5 6 18 8 9 22 12 13 29 19 20 36 26 27 42 32 33 47 37 38 50 40 41 61 51 52 63 53 54 65 55 56 68 58 59 72 62 63 75 65 66 77 67 68 82 67 70 85 65 67 90 65 69 92 67 71 95 70 74 99 74 78 102 77 81 104 79 83 106 81 85 109 84 88 109 84 88 109 84 88 109 84 88 109 84 88 109 84 88 109 84 88 109 84 88 115 90 94 115 90 94 115 90 94 115 90 94 115 90 94 115 90 94 115 90 94 115 90 94 116 91 95 116 91 95 116 91 95 116 91 95 116 91 95 116 91 95 116 91 95 114 92 95 104 85 91 102 85 91 102 85 91 102 85 91 102 85 91 102 85 91 102 85 91 102 85 91 92 75 81 89 72 78 85 68 74 78 61 67 71 54 60 65 48 54 60 43 49 54 42 44 58 49 50 53 49 46 51 47 44 48 44 41 44 40 37 41 37 34 39 35 32 37 33 30 34 30 27 34 30 27 34 30 27 34 30 27 34 30 27 34 30 27 34 30 27 34 30 27 38 30 28 38 30 28 38 30 28 38 30 28 38 30 28 38 30 28 38 30 28 38 30 28 40 32 30 40 32 30 40 32 30 40 32 30 40 32 30 40 32 30 40 32 30 40 32 30
0 0 2 0 0 2 0 0 2 0 0 2 0 0 2 0 0 2 0 0 2 0 0 2 0 0 2 0 0 2 0 0 2 0 0 2 1 1 3 1 1 3 1 1 3 1 1 3 1 1 3 1 1 3 1 1 3 1 1 3 1 1 3 1 1 3 1 1 3 1 1 3 1 1 3 1 1 3 1 1 3 1 1 3 0 0 0 0 0 0 0 0 0 0 0 0 0 0 0 0 0 0 0 0 0 0 0 0 0 0 0 0 0 0 0 0 0 0 0 0 0 0 0 0 0 0 0 0 0 0 0 0 0 0 0 0 0 0 0 0 0 0 0 0 0 0 0 0 0 0 0 0 0 0 0 0 0 0 0 0 0 0 0 0 0 0 0 0 0 0 0 0 0 0 0 0 0 0 0 0 0 0 0 0 0 0 0 0 0 0 0 0 0 0 0 0 0 0 0 0 0 0 0 0 0 0 0 0 0 0 0 0 0 0 0 0 0 0 0 0 0 0 0 0 0 1 0 0 17 8 9 21 11 12 26 16 17 32 22 23 39 29 30 46 36 37 50 40 41 53 43 44 61 51 52 63 53 54 65 55 56 68 58 59 72 62 63 75 65 66 77 67 68 82 67 70 85 65 67 90 65 69 92 67 71 95 70 74 99 74 78 102 77 81 104 79 83 106 81 85 109 84 88 109 84 88 109 84 88 109 84 88 109 84 88 109 84 88 109 84 88 109 84 88 115 90 94 115 90 94 115 90 94 115 90 94 115 90 94 115 90 94 115 90 94 115 90 94 116 91 95 116 91 95 116 91 95 116 91 95 116 91 95 116 91 95 116 91 95 114 92 95 104 85 91 102 85 91 102 85 91 102 85 91 102 85 91 102 85 91 102 85 91 102 85 91 89 72 78 86 69 75 81 64 70 75 58 64 68 51 57 61 44 50 57 40 46 51 39 41 58 49 50 53 49 46 51 47 44 48 44 41 44 40 37 41 37 34 39 35 32 37 33 30 34 30 27 34 30 27 34 30 27 34 30 27 34 30 27 34 30 27 34 30 27 34 30 27 38 30 28 38 30 28 38 30 28 38 30 28 38 30 28 38 30 28 38 30 28 38 30 28 40 32 30 40 32 30 40 32 30 40 32 30 40 32 30 40 32 30 40 32 30 40 32 30
0 0 2 0 0 2 0 0 2 0 0 2 0 0 2 0 0 2 0 0 2 0 0 2 0 0 2 0 0 2 0 0 2 0 0 2 1 1 3 1 1 3 1 1 3 1 1 3 1 1 3 1 1 3 1 1 3 1 1 3 1 1 3 1 1 3 1 1 3 1 1 3 1 1 3 1 1 3 1 1 3 1 1 3 0 0 0 0 0 0 0 0 0 0 0 0 0 0 0 0 0 0 0 0 0 0 0 0 0 0 0 0 0 0 0 0 0 0 0 0 0 0 0 0 0 0 0 0 0 0 0 0 0 0 0 0 0 0 0 0 0 0 0 0 0 0 0 0 0 0 0 0 0 0 0 0 0 0 0 0 0 0 0 0 0 0 0 0 0 0 0 0 0 0 0 0 0 0 0 0 0 0 0 0 0 0 0 0 0 0 0 0 0 0 0 0 0 0 0 0 0 0 0 0 0 0 0 0 0 0 0 0 0 0 0 0 0 0 0 0 0 0 0 0 0 1 0 0 21 12 13 24 14 15 29 19 20 35 25 26 42 32 33 49 39 40 54 44 45 56 46 47 61 51 52 63 53 54 65 55 56 68 58 59 72 62 63 75 65 66 77 67 68 82 67 70 85 65 67 90 65 69 92 67 71 95 70 74 99 74 78 102 77 81 104 79 83 106 81 85 109 84 88 109 84 88 109 84 88 109 84 88 109 84 88 109 84 88 109 84 88 109 84 88 115 90 94 115 90 94 115 90 94 115 90 94 115 90 94 115 90 94 115 90 94 115 90 94 116 91 95 116 91 95 116 91 95 116 91 95 116 91 95 116 91 95 116 91 95 114 92 95 104 85 91 102 85 91 102 85 91 102 85 91 102 85 91 102 85 91 102 85 91 102 85 91 85 68 74 83 66 72 78 61 67 72 55 61 65 48 54 58 41 47 53 36 42 48 36 38 58 49 50 53 49 46 51 47 44 48 44 41 44 40 37 41 37 34 39 35 32 37 33 30 34 30 27 34 30 27 34 30 27 34 30 27 34 30 27 34 30 27 34 30 27 34 30 27 38 30 28 38 30 28 38 30 28 38 30 28 38 30 28 38 30 28 38 30 28 38 30 28 40 32 30 40 32 30 40 32 30 40 32 30 40 32 30 40 32 30 40 32 30 40 32 30
0 0 2 0 0 2 0 0 2 0 0 2 0 0 2 0 0 2 0 0 2 0 0 2 0 0 2 0 0 2 0 0 2 0 0 2 1 1 3 1 1 3 1 1 3 1 1 3 1 1 3 1 1 3 1 1 3 1 1 3 1 1 3 1 1 3 1 1 3 1 1 3 1 1 3 1 1 3 1 1 3 1 1 3 0 0 0 0 0 0 0 0 0 0 0 0 0 0 0 0 0 0 0 0 0 0 0 0 0 0 0 0 0 0 0 0 0 0 0 0 0 0 0 0 0 0 0 0 0 0 0 0 0 0 0 0 0 0 0 0 0 0 0 0 0 0 0 0 0 0 0 0 0 0 0 0 0 0 0 0 0 0 0 0 0 0 0 0 0 0 0 0 0 0 0 0 0 0 0 0 0 0 0 0 0 0 0 0 0 0 0 0 0 0 0 0 0 0 0 0 0 0 0 0 0 0 0 0 0 0 0 0 0 0 0 0 0 0 0 0 0 0 0 0 0 1 0 0 23 14 15 27 17 18 32 22 23 38 28 29 45 35 36 51 41 42 56 46 47 59 49 50 61 51 52 63 53 54 65 55 56 68 58 59 72 62 63 75 65 66 77 67 68 82 67 70 85 65 67 90 65 69 92 67 71 95 70 74 99 74 78 102 77 81 104 79 83 106 81 85 109 84 88 109 84 88 109 84 88 109 84 88 109 84 88 109 84 88 109 84 88 109 84 88 115 90 94 115 90 94 115 90 94 115 90 94 115 90 94 115 90 94 115 90 94 115 90 94 116 91 95 116 91 95 116 91 95 116 91 95 116 91 95 116 91 95 116 91 95 114 92 95 104 85 91 102 85 91 102 85 91 102 85 91 102 85 91 102 85 91 102 85 91 102 85 91 83 66 72 80 63 69 75 58 64 69 52 58 62 45 51 56 39 45 51 34 40 45 33 35 58 49 50 53 49 46 51 47 44 48 44 41 44 40 37 41 37 34 39 35 32 37 33 30 34 30 27 34 30 27 34 30 27 34 30 27 34 30 27 34 30 27 34 30 27 34 30 27 38 30 28 38 30 28 38 30 28 38 30 28 38 30 28 38 30 28 38 30 28 38 30 28 40 32 30 40 32 30 40 32 30 40 32 30 40 32 30 40 32 30 40 32 30 40 32 30
0 0 2 0 0 2 0 0 2 0 0 2 0 0 2 0 0 2 0 0 2 0 0 2 0 0 2 0 0 2 0 0 2 0 0 2 1 1 3 1 1 3 1 1 3 1 1 3 1 1 3 1 1 3 1 1 3 1 1 3 1 1 3 1 1 3 1 1 3 1 1 3 1 1 3 1 1 3 1 1 3 1 1 3 0 0 0 0 0 0 0 0 0 0 0 0 0 0 0 0 0 0 0 0 0 0 0 0 0 0 0 0 0 0 0 0 0 0 0 0 0 0 0 0 0 0 0 0 0 0 0 0 0 0 0 0 0 0 0 0 0 0 0 0 0 0 0 0 0 0 0 0 0 0 0 0 0 0 0 0 0 0 0 0 0 0 0 0 0 0 0 0 0 0 0 0 0 0 0 0 0 0 0 0 0 0 0 0 0 0 0 0 0 0 0 0 0 0 0 0 0 0 0 0 0 0 0 0 0 0 0 0 0 0 0 0 0 0 0 0 0 0 0 0 0 1 0 0 24 15 16 28 18 19 33 23 24 39 29 30 46 36 37 52 42 43 57 47 48 60 50 51 61 51 52 63 53 54 65 55 56 68 58 59 72 62 63 75 65 66 77 67 68 82 67 70 85 65 67 90 65 69 92 67 71 95 70 74 99 74 78 102 77 81 104 79 83 106 81 85 109 84 88 109 84 88 109 84 88 109 84 88 109 84 88 109 84 88 109 84 88 109 84 88 115 90 94 115 90 94 115 90 94 115 90 94 115 90 94 115 90 94 115 90 94 115 90 94 116 91 95 116 91 95 116 91 95 116 91 95 116 91 95 116 91 95 116 91 95 114 92 95 104 85 91 102 85 91 102 85 91 102 85 91 102 85 91 102 85 91 102 85 91 102 85 91 82 65 71 79 62 68 74 57 63 68 51 57 61 44 50 55 38 44 50 33 39 44 32 34 58 49 50 53 49 46 51 47 44 48 44 41 44 40 37 41 37 34 39 35 32 37 33 30 34 30 27 34 30 27 34 30 27 34 30 27 34 30 27 34 30 27 34 30 27 34 30 27 38 30 28 38 30 28 38 30 28 38 30 28 38 30 28 38 30 28 38 30 28 38 30 28 40 32 30 40 32 30 40 32 30 40 32 30 40 32 30 40 32 30 40 32 30 40 32 30
1 1 3 1 1 3 1 1 3 1 1 3 0 0 2 0 0 2 0 0 2 0 0 2 0 0 2 0 0 2 0 0 2 0 0 2 0 0 2 0 0 2 0 0 2 0 0 2 0 0 2 0 0 2 0 0 2 0 0 2 0 0 2 0 0 2 0 0 2 0 0 2 0 0 2 0 0 2 0 0 2 0 0 2 0 0 0 0 0 0 0 0 0 0 0 0 0 0 0 0 0 0 0 0 0 0 0 0 0 0 0 0 0 0 0 0 0 0 0 0 0 0 0 0 0 0 0 0 0 0 0 0 0 0 0 0 0 0 0 0 0 0 0 0 0 0 0 0 0 0 0 0 0 0 0 0 0 0 0 0 0 0 0 0 0 0 0 0 0 0 0 0 0 0 0 0 0 0 0 0 0 0 0 0 0 0 0 0 0 0 0 0 0 0 0 0 0 0 0 0 0 0 0 0 3 3 3 2 2 2 1 1 1 0 0 0 0 0 0 0 0 0 0 0 0 1 0 0 38 29 30 40 30 31 42 32 33 46 36 37 49 39 40 52 42 43 55 45 46 56 46 47 69 59 60 71 61 62 73 63 64 76 66 67 80 70 71 83 73 74 85 75 76 90 75 78 94 74 76 99 74 78 101 76 80 104 79 83 108 83 87 111 86 90 113 88 92 115 90 94 114 89 93 114 89 93 114 89 93 114 89 93 114 89 93 114 89 93 114 89 93 114 89 93 118 93 97 118 93 97 118 93 97 118 93 97 118 93 97 118 93 97 118 93 97 118 93 97 116 91 95 116 91 95 116 91 95 116 91 95 116 91 95 116 91 95 116 91 95 114 92 95 100 81 87 97 80 86 96 79 85 94 77 83 92 75 81 90 73 79 88 71 77 87 70 76 59 42 48 59 42 48 59 42 48 59 42 48 59 42 48 59 42 48 59 42 48 56 44 46 40 31 32 37 33 30 37 33 30 37 33 30 37 33 30 37 33 30 37 33 30 37 33 30 34 30 27 34 30 27 34 30 27 34 30 27 34 30 27 34 30 27 34 30 27 34 30 27 37 29 27 37 29 27 37 29 27 37 29 27 37 29 27 37 29 27 37 29 27 37 29 27 39 31 29 39 31 29 39 31 29 39 31 29 39 31 29 39 31 29 39 31 29 39 31 29
1 1 3 1 1 3 1 1 3 1 1 3 0 0 2 0 0 2 0 0 2 0 0 2 0 0 2 0 0 2 0 0 2 0 0 2 0 0 2 0 0 2 0 0 2 0 0 2 0 0 2 0 0 2 0 0 2 0 0 2 0 0 2 0 0 2 0 0 2 0 0 2 0 0 2 0 0 2 0 0 2 0 0 2 0 0 0 0 0 0 0 0 0 0 0 0 0 0 0 0 0 0 0 0 0 0 0 0 0 0 0 0 0 0 0 0 0 0 0 0 0 0 0 0 0 0 0 0 0 0 0 0 0 0 0 0 0 0 0 0 0 0 0 0 0 0 0 0 0 0 0 0 0 0 0 0 0 0 0 0 0 0 0 0 0 0 0 0 0 0 0 0 0 0 0 0 0 0 0 0 0 0 0 0 0 0 0 0 0 0 0 0 0 0 0 0 0 0 0 0 0 0 0 0 2 2 2 2 2 2 2 2 2 1 1 1 0 0 0 0 0 0 0 0 0 1 0 0 39 30 31 41 31 32 44 34 35 47 37 38 50 40 41 54 44 45 56 46 47 57 47 48 69 59 60 71 61 62 73 63 64 76 66 67 80 70 71 83 73 74 85 75 76 90 75 78 94 74 76 99 74 78 101 76 80 104 79 83 108 83 87 111 86 90 113 88 92 115 90 94 114 89 93 114 89 93 114 89 93 114 89 93 114 89 93 114 89 93 114 89 93 114 89 93 118 93 97 118 93 97 118 93 97 118 93 97 118 93 97 118 93 97 118 93 97 118 93 97 116 91 95 116 91 95 116 91 95 116 91 95 116 91 95 116 91 95 116 91 95 114 92 95 100 81 87 97 80 86 95 78 84 93 76 82 90 73 79 87 70 76 85 68 74 84 67 73 57 40 46 57 40 46 57 40 46 57 40 46 57 40 46 57 40 46 57 40 46 54 42 44 40 31 32 37 33 30 37 33 30 37 33 30 37 33 30 37 33 30 37 33 30 37 33 30 34 30 27 34 30 27 34 30 27 34 30 27 34 30 27 34 30 27 34 30 27 34 30 27 37 29 27 37 29 27 37 29 27 37 29 27 37 29 27 37 29 27 37 29 27 37 29 27 39 31 29 39 31 29 39 31 29 39 31 29 39 31 29 39 31 29 39 31 29 39 31 29
1 1 3 1 1 3 1 1 3 1 1 3 0 0 2 0 0 2 0 0 2 0 0 2 0 0 2 0 0 2 0 0 2 0 0 2 0 0 2 0 0 2 0 0 2 0 0 2 0 0 2 0 0 2 0 0 2 0 0 2 0 0 2 0 0 2 0 0 2 0 0 2 0 0 2 0 0 2 0 0 2 0 0 2 0 0 0 0 0 0 0 0 0 0 0 0 0 0 0 0 0 0 0 0 0 0 0 0 0 0 0 0 0 0 0 0 0 0 0 0 0 0 0 0 0 0 0 0 0 0 0 0 0 0 0 0 0 0 0 0 0 0 0 0 0 0 0 0 0 0 0 0 0 0 0 0 0 0 0 0 0 0 0 0 0 0 0 0 0 0 0 0 0 0 0 0 0 0 0 0 0 0 0 0 0 0 0 0 0 0 0 0 0 0 0 0 0 0 0 0 0 0 0 0 1 1 1 2 2 2 2 2 2 3 3 3 3 3 3 4 4 4 5 5 5 6 4 5 41 32 33 44 34 35 46 36 37 49 39 40 53 43 44 56 46 47 58 48 49 60 50 51 69 59 60 71 61 62 73 63 64 76 66 67 80 70 71 83 73 74 85 75 76 90 75 78 94 74 76 99 74 78 101 76 80 104 79 83 108 83 87 111 86 90 113 88 92 115 90 94 114 89 93 114 89 93 114 89 93 114 89 93 114 89 93 114 89 93 114 89 93 114 89 93 118 93 97 118 93 97 118 93 97 118 93 97 118 93 97 118 93 97 118 93 97 118 93 97 116 91 95 116 91 95 116 91 95 116 91 95 116 91 95 116 91 95 116 91 95 114 92 95 101 82 88 98 81 87 95 78 84 91 74 80 87 70 76 83 66 72 80 63 69 78 61 67 55 38 44 55 38 44 55 38 44 55 38 44 55 38 44 55 38 44 55 38 44 52 40 42 40 31 32 37 33 30 37 33 30 37 33 30 37 33 30 37 33 30 37 33 30 37 33 30 34 30 27 34 30 27 34 30 27 34 30 27 34 30 27 34 30 27 34 30 27 34 30 27 37 29 27 37 29 27 37 29 27 37 29 27 37 29 27 37 29 27 37 29 27 37 29 27 39 31 29 39 31 29 39 31 29 39 31 29 39 31 29 39 31 29 39 31 29 39 31 29
1 1 3 1 1 3 1 1 3 1 1 3 0 0 2 0 0 2 0 0 2 0 0 2 0 0 2 0 0 2 0 0 2 0 0 2 0 0 2 0 0 2 0 0 2 0 0 2 0 0 2 0 0 2 0 0 2 0 0 2 0 0 2 0 0 2 0 0 2 0 0 2 0 0 2 0 0 2 0 0 2 0 0 2 0 0 0 0 0 0 0 0 0 0 0 0 0 0 0 0 0 0 0 0 0 0 0 0 0 0 0 0 0 0 0 0 0 0 0 0 0 0 0 0 0 0 0 0 0 0 0 0 0 0 0 0 0 0 0 0 0 0 0 0 0 0 0 0 0 0 0 0 0 0 0 0 0 0 0 0 0 0 0 0 0 0 0 0 0 0 0 0 0 0 0 0 0 0 0 0 0 0 0 0 0 0 0 0 0 0 0 0 0 0 0 0 0 0 0 0 0 0 0 0 0 0 0 1 1 1 3 3 3 5 5 5 8 8 8 10 10 10 12 12 12 14 12 13 45 36 37 47 37 38 49 39 40 53 43 44 56 46 47 59 49 50 62 52 53 63 53 54 69 59 60 71 61 62 73 63 64 76 66 67 80 70 71 83 73 74 85 75 76 90 75 78 94 74 76 99 74 78 101 76 80 104 79 83 108 83 87 111 86 90 113 88 92 115 90 94 114 89 93 114 89 93 114 89 93 114 89 93 114 89 93 114 89 93 114 89 93 114 89 93 118 93 97 118 93 97 118 93 97 118 93 97 118 93 97 118 93 97 118 93 97 118 93 97 116 91 95 116 91 95 116 91 95 116 91 95 116 91 95 116 91 95 116 91 95 114 92 95 103 84 90 98 81 87 94 77 83 89 72 78 83 66 72 77 60 66 73 56 62 71 54 60 52 35 41 52 35 41 52 35 41 52 35 41 52 35 41 52 35 41 52 35 41 49 37 39 40 31 32 37 33 30 37 33 30 37 33 30 37 33 30 37 33 30 37 33 30 37 33 30 34 30 27 34 30 27 34 30 27 34 30 27 34 30 27 34 30 27 34 30 27 34 30 27 37 29 27 37 29 27 37 29 27 37 29 27 37 29 27 37 29 27 37 29 27 37 29 27 39 31 29 39 31 29 39 31 29 39 31 29 39 31 29 39 31 29 39 31 29 39 31 29
1 1 3 1 1 3 1 1 3 1 1 3 0 0 2 0 0 2 0 0 2 0 0 2 0 0 2 0 0 2 0 0 2 0 0 2 0 0 2 0 0 2 0 0 2 0 0 2 0 0 2 0 0 2 0 0 2 0 0 2 0 0 2 0 0 2 0 0 2 0 0 2 0 0 2 0 0 2 0 0 2 0 0 2 0 0 0 0 0 0 0 0 0 0 0 0 0 0 0 0 0 0 0 0 0 0 0 0 0 0 0 0 0 0 0 0 0 0 0 0 0 0 0 0 0 0 0 0 0 0 0 0 0 0 0 0 0 0 0 0 0 0 0 0 0 0 0 0 0 0 0 0 0 0 0 0 0 0 0 0 0 0 0 0 0 0 0 0 0 0 0 0 0 0 0 0 0 0 0 0 0 0 0 0 0 0 0 0 0 0 0 0 0 0 0 0 0 0 0 0 0 0 0 0 0 0 0 0 0 0 3 3 3 8 8 8 12 12 12 16 16 16 19 19 19 22 20 21 48 39 40 50 40 41 53 43 44 56 46 47 59 49 50 63 53 54 65 55 56 66 56 57 69 59 60 71 61 62 73 63 64 76 66 67 80 70 71 83 73 74 85 75 76 90 75 78 94 74 76 99 74 78 101 76 80 104 79 83 108 83 87 111 86 90 113 88 92 115 90 94 114 89 93 114 89 93 114 89 93 114 89 93 114 89 93 114 89 93 114 89 93 114 89 93 118 93 97 118 93 97 118 93 97 118 93 97 118 93 97 118 93 97 118 93 97 118 93 97 116 91 95 116 91 95 116 91 95 116 91 95 116 91 95 116 91 95 116 91 95 114 92 95 104 85 91 99 82 88 93 76 82 86 69 75 78 61 67 71 54 60 66 49 55 63 46 52 48 31 37 48 31 37 48 31 37 48 31 37 48 31 37 48 31 37 48 31 37 45 33 35 40 31 32 37 33 30 37 33 30 37 33 30 37 33 30 37 33 30 37 33 30 37 33 30 34 30 27 34 30 27 34 30 27 34 30 27 34 30 27 34 30 27 34 30 27 34 30 27 37 29 27 37 29 27 37 29 27 37 29 27 37 29 27 37 29 27 37 29 27 37 29 27 39 31 29 39 31 29 39 31 29 39 31 29 39 31 29 39 31 29 39 31 29 39 31 29
1 1 3 1 1 3 1 1 3 1 1 3 0 0 2 0 0 2 0 0 2 0 0 2 0 0 2 0 0 2 0 0 2 0 0 2 0 0 2 0 0 2 0 0 2 0 0 2 0 0 2 0 0 2 0 0 2 0 0 2 0 0 2 0 0 2 0 0 2 0 0 2 0 0 2 0 0 2 0 0 2 0 0 2 0 0 0 0 0 0 0 0 0 0 0 0 0 0 0 0 0 0 0 0 0 0 0 0 0 0 0 0 0 0 0 0 0 0 0 0 0 0 0 0 0 0 0 0 0 0 0 0 0 0 0 0 0 0 0 0 0 0 0 0 0 0 0 0 0 0 0 0 0 0 0 0 0 0 0 0 0 0 0 0 0 0 0 0 0 0 0 0 0 0 0 0 0 0 0 0 0 0 0 0 0 0 0 0 0 0 0 0 0 0 0 0 0 0 0 0 0 0 0 0 0 0 0 0 0 0 4 4 4 10 10 10 16 16 16 22 22 22 26 26 26 29 27 28 51 42 43 54 44 45 56 46 47 59 49 50 63 53 54 66 56 57 68 58 59 70 60 61 69 59 60 71 61 62 73 63 64 76 66 67 80 70 71 83 73 74 85 75 76 90 75 78 94 74 76 99 74 78 101 76 80 104 79 83 108 83 87 111 86 90 113 88 92 115 90 94 114 89 93 114 89 93 114 89 93 114 89 93 114 89 93 114 89 93 114 89 93 114 89 93 118 93 97 118 93 97 118 93 97 118 93 97 118 93 97 118 93 97 118 93 97 118 93 97 116 91 95 116 91 95 116 91 95 116 91 95 116 91 95 116 91 95 116 91 95 114 92 95 105 86 92 100 83 89 93 76 82 84 67 73 74 57 63 65 48 54 59 42 48 55 38 44 45 28 34 45 28 34 45 28 34 45 28 34 45 28 34 45 28 34 45 28 34 42 30 32 40 31 32 37 33 30 37 33 30 37 33 30 37 33 30 37 33 30 37 33 30 37 33 30 34 30 27 34 30 27 34 30 27 34 30 27 34 30 27 34 30 27 34 30 27 34 30 27 37 29 27 37 29 27 37 29 27 37 29 27 37 29 27 37 29 27 37 29 27 37 29 27 39 31 29 39 31 29 39 31 29 39 31 29 39 31 29 39 31 29 39 31 29 39 31 29
1 1 3 1 1 3 1 1 3 1 1 3 0 0 2 0 0 2 0 0 2 0 0 2 0 0 2 0 0 2 0 0 2 0 0 2 0 0 2 0 0 2 0 0 2 0 0 2 0 0 2 0 0 2 0 0 2 0 0 2 0 0 2 0 0 2 0 0 2 0 0 2 0 0 2 0 0 2 0 0 2 0 0 2 0 0 0 0 0 0 0 0 0 0 0 0 0 0 0 0 0 0 0 0 0 0 0 0 0 0 0 0 0 0 0 0 0 0 0 0 0 0 0 0 0 0 0 0 0 0 0 0 0 0 0 0 0 0 0 0 0 0 0 0 0 0 0 0 0 0 0 0 0 0 0 0 0 0 0 0 0 0 0 0 0 0 0 0 0 0 0 0 0 0 0 0 0 0 0 0 0 0 0 0 0 0 0 0 0 0 0 0 0 0 0 0 0 0 0 0 0 0 0 0 0 0 0 0 0 0 5 5 5 12 12 12 19 19 19 26 26 26 31 31 31 35 33 34 54 45 46 56 46 47 58 48 49 62 52 53 65 55 56 68 58 59 71 61 62 72 62 63 69 59 60 71 61 62 73 63 64 76 66 67 80 70 71 83 73 74 85 75 76 90 75 78 94 74 76 99 74 78 101 76 80 104 79 83 108 83 87 111 86 90 113 88 92 115 90 94 114 89 93 114 89 93 114 89 93 114 89 93 114 89 93 114 89 93 114 89 93 114 89 93 118 93 97 118 93 97 118 93 97 118 93 97 118 93 97 118 93 97 118 93 97 118 93 97 116 91 95 116 91 95 116 91 95 116 91 95 116 91 95 116 91 95 116 91 95 114 92 95 106 87 93 100 83 89 92 75 81 82 65 71 71 54 60 61 44 50 53 36 42 49 32 38 43 26 32 43 26 32 43 26 32 43 26 32 43 26 32 43 26 32 43 26 32 40 28 30 40 31 32 37 33 30 37 33 30 37 33 30 37 33 30 37 33 30 37 33 30 37 33 30 34 30 27 34 30 27 34 30 27 34 30 27 34 30 27 34 30 27 34 30 27 34 30 27 37 29 27 37 29 27 37 29 27 37 29 27 37 29 27 37 29 27 37 29 27 37 29 27 39 31 29 39 31 29 39 31 29 39 31 29 39 31 29 39 31 29 39 31 29 39 31 29
1 1 3 1 1 3 1 1 3 1 1 3 0 0 2 0 0 2 0 0 2 0 0 2 0 0 2 0 0 2 0 0 2 0 0 2 0 0 2 0 0 2 0 0 2 0 0 2 0 0 2 0 0 2 0 0 2 0 0 2 0 0 2 0 0 2 0 0 2 0 0 2 0 0 2 0 0 2 0 0 2 0 0 2 0 0 0 0 0 0 0 0 0 0 0 0 0 0 0 0 0 0 0 0 0 0 0 0 0 0 0 0 0 0 0 0 0 0 0 0 0 0 0 0 0 0 0 0 0 0 0 0 0 0 0 0 0 0 0 0 0 0 0 0 0 0 0 0 0 0 0 0 0 0 0 0 0 0 0 0 0 0 0 0 0 0 0 0 0 0 0 0 0 0 0 0 0 0 0 0 0 0 0 0 0 0 0 0 0 0 0 0 0 0 0 0 0 0 0 0 0 0 0 0 0 0 0 0 0 0 5 5 5 13 13 13 21 21 21 28 28 28 34 34 34 40 36 35 56 46 47 58 46 46 61 49 49 64 52 52 67 55 55 71 59 59 73 61 61 74 62 62 70 58 58 72 60 60 74 62 62 77 65 65 81 69 69 84 72 72 86 74 74 91 75 76 95 73 76 99 74 78 101 76 80 104 79 83 108 83 87 111 86 90 113 88 92 115 90 94 114 89 93 114 89 93 114 89 93 114 89 93 114 89 93 114 89 93 114 89 93 114 89 93 118 93 97 118 93 97 118 93 97 118 93 97 118 93 97 118 93 97 118 93 97 118 93 97 116 91 95 116 91 95 116 91 95 116 91 95 116 91 95 116 91 95 116 91 95 113 93 95 105 89 92 97 85 89 89 77 81 78 66 70 67 55 59 56 44 48 47 35 39 43 31 35 38 26 30 38 26 30 38 26 30 38 26 30 38 26 30 38 26 30 38 26 30 37 26 30 38 32 32 37 33 30 38 33 30 37 33 30 38 33 30 37 33 30 38 33 30 37 33 30 35 30 27 34 30 27 35 30 27 34 30 27 35 30 27 34 30 27 35 30 27 35 30 27 37 29 27 37 29 27 37 29 27 37 29 27 37 29 27 37 29 27 37 29 27 37 29 27 39 31 29 39 31 29 39 31 29 39 31 29 39 31 29 39 31 29 39 31 29 39 31 29
0 0 0 0 0 0 0 0 0 0 0 0 0 0 0 0 0 0 0 0 0 0 0 0 0 0 0 0 0 0 0 0 0 0 0 0 0 0 0 0 0 0 0 0 0 0 0 0 0 0 0 0 0 0 0 0 0 0 0 0 0 0 0 0 0 0 0 0 0 0 0 0 0 0 0 0 0 0 0 0 0 0 0 0 0 0 0 0 0 0 0 0 0 0 0 0 0 0 0 0 0 0 0 0 0 0 0 0 0 0 0 0 0 0 0 0 0 0 0 0 0 0 0 0 0 0 0 0 0 0 0 0 0 0 0 0 0 0 0 0 0 0 0 0 0 0 0 0 0 0 0 0 0 0 0 0 0 0 0 0 0 0 0 0 0 0 0 0 0 0 0 0 0 0 0 0 0 0 0 0 1 0 0 1 0 0 1 0 0 1 0 0 1 0 0 1 0 0 1 0 0 1 0 0 1 0 0 4 3 1 9 8 6 15 14 12 22 21 19 28 27 25 33 32 30 39 33 33 66 52 51 69 51 51 69 51 51 69 51 51 69 51 51 69 51 51 69 51 51 69 51 51 85 67 67 87 69 69 89 71 71 92 74 74 96 78 78 99 81 81 101 83 83 104 84 85 110 88 90 112 87 90 112 87 90 112 87 90 112 87 90 112 87 90 112 87 90 112 87 90 117 92 95 117 92 95 117 92 95 117 92 95 117 92 95 117 92 95 117 92 95 117 92 95 116 91 94 116 91 94 116 91 94 116 91 94 116 91 94 116 91 94 116 91 94 116 91 94 120 95 98 119 94 97 117 92 95 113 88 91 110 85 88 107 82 85 104 79 82 99 80 82 86 76 77 78 74 75 69 65 66 58 54 55 47 43 44 36 32 33 28 24 25 23 19 20 31 27 28 31 27 28 31 27 28 31 27 28 31 27 28 31 27 28 31 27 28 31 27 28 30 24 24 30 24 24 32 23 24 30 24 24 32 23 24 30 24 24 32 23 24 30 24 24 36 27 28 34 28 28 36 27 28 34 28 28 36 27 28 34 28 28 36 27 28 36 28 26 37 29 27 37 29 26 37 29 26 37 29 26 37 29 26 37 29 26 37 29 26 37 29 26 37 29 26 37 29 26 37 29 26 37 29 26 37 29 26 37 29 26 37 29 26 37 29 26
0 0 0 0 0 0 0 0 0 0 0 0 0 0 0 0 0 0 0 0 0 0 0 0 0 0 0 0 0 0 0 0 0 0 0 0 0 0 0 0 0 0 0 0 0 0 0 0 0 0 0 0 0 0 0 0 0 0 0 0 0 0 0 0 0 0 0 0 0 0 0 0 0 0 0 0 0 0 0 0 0 0 0 0 0 0 0 0 0 0 0 0 0 0 0 0 0 0 0 0 0 0 0 0 0 0 0 0 0 0 0 0 0 0 0 0 0 0 0 0 0 0 0 0 0 0 0 0 0 0 0 0 0 0 0 0 0 0 0 0 0 0 0 0 0 0 0 0 0 0 0 0 0 0 0 0 0 0 0 0 0 0 0 0 0 0 0 0 0 0 0 0 0 0 0 0 0 0 0 0 1 0 0 1 0 0 1 0 0 1 0 0 1 0 0 1 0 0 1 0 0 1 0 0 2 1 0 5 4 2 10 9 7 16 15 13 23 22 20 29 28 26 34 33 31 40 35 32 69 53 53 72 52 51 72 52 51 72 52 51 72 52 51 72 52 51 72 52 51 72 52 51 86 66 65 88 68 67 90 70 69 93 73 72 97 77 76 100 80 79 102 82 81 104 84 83 112 87 90 112 87 90 112 87 90 112 87 90 112 87 90 112 87 90 112 87 90 112 87 90 117 92 95 117 92 95 117 92 95 117 92 95 117 92 95 117 92 95 117 92 95 117 92 95 116 91 94 116 91 94 116 91 94 116 91 94 116 91 94 116 91 94 116 91 94 116 91 94 119 94 97 118 93 96 115 90 93 112 87 90 109 84 87 105 80 83 103 78 81 98 79 81 80 74 74 72 72 72 64 64 64 54 54 54 43 43 43 33 33 33 25 25 25 21 21 21 28 28 28 28 28 28 28 28 28 28 28 28 28 28 28 28 28 28 28 28 28 29 27 28 30 24 24 32 23 24 32 23 24 32 23 24 32 23 24 32 23 24 32 23 24 32 23 24 36 27 28 36 27 28 36 27 28 36 27 28 36 27 28 36 27 28 36 27 28 36 28 26 37 29 27 37 29 26 37 29 26 37 29 26 37 29 26 37 29 26 37 29 26 37 29 26 37 29 26 37 29 26 37 29 26 37 29 26 37 29 26 37 29 26 37 29 26 37 29 26
0 0 0 0 0 0 0 0 0 0 0 0 0 0 0 0 0 0 0 0 0 0 0 0 0 0 0 0 0 0 0 0 0 0 0 0 0 0 0 0 0 0 0 0 0 0 0 0 0 0 0 0 0 0 0 0 0 0 0 0 0 0 0 0 0 0 0 0 0 0 0 0 0 0 0 0 0 0 0 0 0 0 0 0 0 0 0 0 0 0 0 0 0 0 0 0 0 0 0 0 0 0 0 0 0 0 0 0 0 0 0 0 0 0 0 0 0 0 0 0 0 0 0 0 0 0 0 0 0 0 0 0 0 0 0 0 0 0 0 0 0 0 0 0 0 0 0 0 0 0 0 0 0 0 0 0 0 0 0 0 0 0 0 0 0 0 0 0 0 0 0 0 0 0 0 0 0 0 0 0 1 0 0 1 0 0 1 0 0 1 0 0 1 0 0 1 0 0 1 0 0 1 0 0 5 4 2 7 6 4 12 11 9 19 18 16 26 25 23 32 31 29 37 36 34 42 37 34 71 55 55 74 54 53 74 54 53 74 54 53 74 54 53 74 54 53 74 54 53 74 54 53 86 66 65 88 68 67 90 70 69 93 73 72 97 77 76 100 80 79 102 82 81 104 84 83 112 87 90 112 87 90 112 87 90 112 87 90 112 87 90 112 87 90 112 87 90 112 87 90 117 92 95 117 92 95 117 92 95 117 92 95 117 92 95 117 92 95 117 92 95 117 92 95 116 91 94 116 91 94 116 91 94 116 91 94 116 91 94 116 91 94 116 91 94 116 91 94 117 92 95 115 90 93 113 88 91 110 85 88 106 81 84 103 78 81 101 76 79 95 76 78 74 68 68 66 66 66 60 60 60 51 51 51 41 41 41 32 32 32 25 25 25 22 22 22 28 28 28 28 28 28 28 28 28 28 28 28 28 28 28 28 28 28 28 28 28 29 27 28 30 24 24 32 23 24 32 23 24 32 23 24 32 23 24 32 23 24 32 23 24 32 23 24 36 27 28 36 27 28 36 27 28 36 27 28 36 27 28 36 27 28 36 27 28 36 28 26 37 29 27 37 29 26 37 29 26 37 29 26 37 29 26 37 29 26 37 29 26 37 29 26 37 29 26 37 29 26 37 29 26 37 29 26 37 29 26 37 29 26 37 29 26 37 29 26
