P3
207 145
255
82 67 70 79 64 67 75 60 63 73 58 61 73 57 60 62 39 45 64 39 45 64 39 45 64 39 45 64 39 45 64 39 45 64 39 45 64 39 45 68 43 49 70 45 51 72 47 53 75 50 56 79 54 60 82 57 63 84 59 65 84 61 67 68 51 57 65 50 55 63 48 53 60 45 50 56 41 46 53 38 43 51 36 41 49 34 39 54 39 44 54 39 44 54 39 44 54 39 44 54 39 44 54 39 44 54 39 44 51 40 46 59 52 59 58 55 62 60 57 64 63 60 67 67 64 71 70 67 74 72 69 76 74 71 78 56 53 60 53 50 57 48 45 52 42 39 46 35 32 39 29 26 33 24 21 28 20 19 27 33 31 42 32 32 44 32 32 44 32 32 44 32 32 44 32 32 44 32 32 44 32 32 44 28 28 40 30 30 42 32 32 44 35 35 47 39 39 51 42 42 54 44 44 56 48 45 54 58 45 54 61 44 50 61 44 50 61 44 50 61 44 50 61 44 50 61 44 50 61 44 50 61 44 50 62 45 51 65 48 54 68 51 57 71 54 60 75 58 64 77 60 66 77 62 67 81 70 78 80 70 78 80 70 78 80 70 78 80 70 78 80 70 78 80 70 78 80 70 78 70 60 68 68 58 66 66 56 64 63 53 61 59 49 57 56 46 54 54 44 52 49 44 50 48 47 52 45 49 52 48 47 52 48 47 52 51 46 52 52 45 52 54 44 52 56 43 52 63 46 56 66 44 56 67 43 56 69 43 56 72 41 56 72 41 56 74 40 56 72 41 56 69 48 57 66 49 57 66 49 57 66 49 57 66 49 57 66 49 57 66 49 57 66 49 57 97 80 88 98 81 89 100 83 91 104 87 95 107 90 98 110 93 101 113 96 104 110 99 105 92 89 96 88 91 96 88 91 96 88 91 96 88 91 96 88 91 96 88 91 96 88 91 96 96 99 104 96 99 104 96 99 104 96 99 104 96 99 104 96 99 104 96 99 104 98 99 103 104 100 101 105 99 99 105 99 99 105 99 99 105 99 99 105 99 99 105 99 99 105 99 99 98 92 92 99 93 93 100 94 94 101 95 95 102 96 96 104 98 98 104 98 98 108 98 97 106 90 91 109 89 90 109 89 90 109 89 90 109 89 90 109 89 90 109 89 90 109 89 90 96 76 77 96 76 77 96 76 77 96 76 77 96 76 77 96 76 77 96 76 77 97 75 77 112 86 89 114 85 89 114 85 89 114 85 89 114 85 89 114 85 89 114 85 89 114 85 89 106 77 81 106 77 81 106 77 81 106 77 81 106 77 81 106 77 81 106 77 81 110 75 82 98 50 64 101 48 66 101 48 66 98 50 66 98 50 66 95 51 66 94 52 66 91 53 66 83 50 61 74 44 54
74 59 62 70 55 58 67 52 55 65 50 53 64 48 51 66 43 49 68 43 49 68 43 49 68 43 49 68 43 49 68 43 49 68 43 49 68 43 49 73 48 54 73 48 54 73 48 54 73 48 54 73 48 54 73 48 54 73 48 54 71 48 54 62 45 51 59 44 49 57 42 47 54 39 44 50 35 40 47 32 37 45 30 35 43 28 33 54 39 44 54 39 44 54 39 44 54 39 44 54 39 44 54 39 44 54 39 44 51 40 46 38 31 38 35 32 39 35 32 39 35 32 39 35 32 39 35 32 39 35 32 39 35 32 39 31 28 35 31 28 35 31 28 35 31 28 35 31 28 35 31 28 35 31 28 35 30 29 37 28 26 37 27 27 39 27 27 39 27 27 39 27 27 39 27 27 39 27 27 39 27 27 39 38 38 50 38 38 50 38 38 50 38 38 50 38 38 50 38 38 50 38 38 50 40 37 46 52 39 48 57 40 46 59 42 48 62 45 51 66 49 55 69 52 58 71 54 60 73 56 62 50 33 39 52 35 41 56 39 45 60 43 49 65 48 54 69 52 58 73 56 62 73 58 63 84 73 81 83 73 81 83 73 81 83 73 81 83 73 81 83 73 81 83 73 81 83 73 81 58 48 56 56 46 54 54 44 52 51 41 49 47 37 45 44 34 42 42 32 40 37 32 38 40 39 44 37 41 44 40 39 44 40 39 44 43 38 44 44 37 44 46 36 44 48 35 44 48 31 41 52 30 42 55 31 44 61 35 48 67 36 51 70 39 54 75 41 57 72 44 58 69 49 58 67 54 61 73 60 67 80 67 74 88 75 82 96 83 90 102 89 96 105 92 99 98 85 92 98 85 92 98 85 92 98 85 92 98 85 92 98 85 92 98 85 92 96 87 92 89 88 94 86 89 94 86 89 94 86 89 94 86 89 94 86 89 94 86 89 94 86 89 94 94 97 102 94 97 102 94 97 102 94 97 102 94 97 102 94 97 102 94 97 102 96 97 101 103 99 100 104 98 98 104 98 98 104 98 98 104 98 98 104 98 98 104 98 98 104 98 98 88 82 82 88 82 82 88 82 82 88 82 82 88 82 82 88 82 82 88 82 82 91 81 80 119 103 104 120 100 101 116 96 97 112 92 93 107 87 88 103 83 84 99 79 80 98 78 79 98 78 79 97 77 78 94 74 75 91 71 72 88 68 69 84 64 65 82 62 63 82 60 62 84 58 61 88 59 63 90 61 65 93 64 68 97 68 72 100 71 75 102 73 77 104 75 79 114 85 89 112 83 87 110 81 85 107 78 82 103 74 78 100 71 75 98 69 73 100 65 72 107 59 73 108 55 73 106 53 71 100 52 68 96 48 64 90 46 61 87 45 59 82 44 57 62 29 40 60 30 40
74 59 62 70 55 58 67 52 55 65 50 53 64 48 51 66 43 49 68 43 49 68 43 49 68 43 49 68 43 49 68 43 49 68 43 49 68 43 49 73 48 54 73 48 54 73 48 54 73 48 54 73 48 54 73 48 54 73 48 54 71 48 54 62 45 51 59 44 49 57 42 47 54 39 44 50 35 40 47 32 37 45 30 35 43 28 33 52 37 42 52 37 42 52 37 42 52 37 42 52 37 42 52 37 42 52 37 42 49 38 44 38 31 38 35 32 39 35 32 39 35 32 39 35 32 39 35 32 39 35 32 39 35 32 39 31 28 35 31 28 35 31 28 35 31 28 35 31 28 35 31 28 35 31 28 35 30 29 37 30 28 39 29 29 41 29 29 41 29 29 41 29 29 41 29 29 41 29 29 41 29 29 41 38 38 50 38 38 50 38 38 50 38 38 50 38 38 50 38 38 50 38 38 50 40 37 46 52 39 48 57 40 46 59 42 48 62 45 51 66 49 55 69 52 58 71 54 60 73 56 62 53 36 42 55 38 44 58 41 47 62 45 51 66 49 55 69 52 58 72 55 61 73 58 63 76 65 73 75 65 73 75 65 73 75 65 73 75 65 73 75 65 73 75 65 73 75 65 73 58 48 56 56 46 54 54 44 52 51 41 49 47 37 45 44 34 42 42 32 40 37 32 38 40 39 44 37 41 44 40 39 44 40 39 44 43 38 44 44 37 44 46 36 44 48 35 44 49 32 42 53 31 43 57 33 46 62 36 49 68 37 52 72 41 56 76 42 58 73 45 59 69 54 61 68 59 64 73 64 69 80 71 76 87 78 83 94 85 90 100 91 96 103 94 99 96 87 92 96 87 92 96 87 92 96 87 92 96 87 92 96 87 92 96 87 92 94 88 92 89 88 94 86 89 94 86 89 94 86 89 94 86 89 94 86 89 94 86 89 94 86 89 94 94 97 102 94 97 102 94 97 102 94 97 102 94 97 102 94 97 102 94 97 102 96 97 101 103 99 100 104 98 98 104 98 98 104 98 98 104 98 98 104 98 98 104 98 98 104 98 98 86 80 80 86 80 80 86 80 80 86 80 80 86 80 80 86 80 80 86 80 80 89 79 78 116 100 101 117 97 98 114 94 95 110 90 91 106 86 87 103 83 84 100 80 81 98 78 79 99 79 80 98 78 79 96 76 77 92 72 73 89 69 70 86 66 67 83 63 64 83 61 63 84 58 61 88 59 63 90 61 65 93 64 68 97 68 72 100 71 75 102 73 77 104 75 79 114 85 89 112 83 87 110 81 85 107 78 82 103 74 78 100 71 75 98 69 73 100 65 72 107 59 73 108 55 73 106 53 71 100 52 68 96 48 64 90 46 61 87 45 59 82 44 57 62 29 40 60 30 40
74 59 62 70 55 58 67 52 55 65 50 53 64 48 51 66 43 49 68 43 49 68 43 49 68 43 49 68 43 49 68 43 49 68 43 49 68 43 49 73 48 54 73 48 54 73 48 54 73 48 54 73 48 54 73 48 54 73 48 54 71 48 54 62 45 51 59 44 49 57 42 47 54 39 44 50 35 40 47 32 37 45 30 35 43 28 33 50 35 40 50 35 40 50 35 40 50 35 40 50 35 40 50 35 40 50 35 40 47 36 42 38 31 38 35 32 39 35 32 39 35 32 39 35 32 39 35 32 39 35 32 39 35 32 39 31 28 35 31 28 35 31 28 35 31 28 35 31 28 35 31 28 35 31 28 35 30 29 37 32 30 41 31 31 43 31 31 43 31 31 43 31 31 43 31 31 43 31 31 43 31 31 43 38 38 50 38 38 50 38 38 50 38 38 50 38 38 50 38 38 50 38 38 50 40 37 46 52 39 48 57 40 46 59 42 48 62 45 51 66 49 55 69 52 58 71 54 60 73 56 62 59 42 48 60 43 49 62 45 51 65 48 54 67 50 56 70 53 59 72 55 61 72 57 62 63 52 60 62 52 60 62 52 60 62 52 60 62 52 60 62 52 60 62 52 60 62 52 60 58 48 56 56 46 54 54 44 52 51 41 49 47 37 45 44 34 42 42 32 40 37 32 38 40 39 44 37 41 44 40 39 44 40 39 44 43 38 44 44 37 44 46 36 44 48 35 44 51 34 44 56 34 46 59 35 48 64 38 51 71 40 55 74 43 58 78 44 60 76 48 62 73 60 67 71 65 69 75 69 73 81 75 79 87 81 85 93 87 91 97 91 95 100 94 98 94 88 92 94 88 92 94 88 92 94 88 92 94 88 92 94 88 92 94 88 92 93 88 92 88 89 94 86 89 94 86 89 94 86 89 94 86 89 94 86 89 94 86 89 94 86 89 94 94 97 102 94 97 102 94 97 102 94 97 102 94 97 102 94 97 102 94 97 102 96 97 101 103 99 100 104 98 98 104 98 98 104 98 98 104 98 98 104 98 98 104 98 98 104 98 98 84 78 78 84 78 78 84 78 78 84 78 78 84 78 78 84 78 78 84 78 78 87 77 76 110 94 95 112 92 93 110 90 91 107 87 88 105 85 86 102 82 83 100 80 81 99 79 80 102 82 83 100 80 81 98 78 79 95 75 76 91 71 72 88 68 69 86 66 67 85 63 65 84 58 61 88 59 63 90 61 65 93 64 68 97 68 72 100 71 75 102 73 77 104 75 79 114 85 89 112 83 87 110 81 85 107 78 82 103 74 78 100 71 75 98 69 73 100 65 72 107 59 73 108 55 73 106 53 71 100 52 68 96 48 64 90 46 61 87 45 59 82 44 57 62 29 40 60 30 40
74 59 62 70 55 58 67 52 55 65 50 53 64 48 51 66 43 49 68 43 49 68 43 49 68 43 49 68 43 49 68 43 49 68 43 49 68 43 49 73 48 54 73 48 54 73 48 54 73 48 54 73 48 54 73 48 54 73 48 54 71 48 54 62 45 51 59 44 49 57 42 47 54 39 44 50 35 40 47 32 37 45 30 35 43 28 33 47 32 37 47 32 37 47 32 37 47 32 37 47 32 37 47 32 37 47 32 37 44 33 39 38 31 38 35 32 39 35 32 39 35 32 39 35 32 39 35 32 39 35 32 39 35 32 39 31 28 35 31 28 35 31 28 35 31 28 35 31 28 35 31 28 35 31 28 35 30 29 37 35 33 44 34 34 46 34 34 46 34 34 46 34 34 46 34 34 46 34 34 46 34 34 46 38 38 50 38 38 50 38 38 50 38 38 50 38 38 50 38 38 50 38 38 50 40 37 46 52 39 48 57 40 46 59 42 48 62 45 51 66 49 55 69 52 58 71 54 60 73 56 62 67 50 56 67 50 56 68 51 57 69 52 58 70 53 59 71 54 60 71 54 60 71 56 61 51 40 48 50 40 48 50 40 48 50 40 48 50 40 48 50 40 48 50 40 48 50 40 48 58 48 56 56 46 54 54 44 52 51 41 49 47 37 45 44 34 42 42 32 40 37 32 38 40 39 44 37 41 44 40 39 44 40 39 44 43 38 44 44 37 44 46 36 44 48 35 44 55 38 48 59 37 49 62 38 51 68 42 55 74 43 58 77 46 61 82 48 64 78 52 65 79 68 74 75 73 76 80 75 79 82 80 83 88 83 87 91 89 92 96 91 95 95 93 96 93 88 92 91 89 92 93 88 92 91 89 92 93 88 92 91 89 92 93 88 92 91 89 92 88 89 94 86 89 94 86 89 94 86 89 94 86 89 94 86 89 94 86 89 94 86 89 94 94 97 102 94 97 102 94 97 102 94 97 102 94 97 102 94 97 102 94 97 102 96 97 101 103 99 100 104 98 98 104 98 98 104 98 98 104 98 98 104 98 98 104 98 98 104 98 98 81 75 75 81 75 75 81 75 75 81 75 75 81 75 75 81 75 75 81 75 75 84 74 73 102 86 87 105 85 86 104 84 85 103 83 84 102 82 83 101 81 82 101 81 82 100 80 81 105 85 86 104 84 85 101 81 82 98 78 79 95 75 76 91 71 72 89 69 70 89 67 69 84 58 61 88 59 63 90 61 65 93 64 68 97 68 72 100 71 75 102 73 77 104 75 79 114 85 89 112 83 87 110 81 85 107 78 82 103 74 78 100 71 75 98 69 73 100 65 72 107 59 73 108 55 73 106 53 71 100 52 68 96 48 64 90 46 61 87 45 59 82 44 57 62 29 40 60 30 40
74 59 62 70 55 58 67 52 55 65 50 53 64 48 51 66 43 49 68 43 49 68 43 49 68 43 49 68 43 49 68 43 49 68 43 49 68 43 49 73 48 54 73 48 54 73 48 54 73 48 54 73 48 54 73 48 54 73 48 54 71 48 54 62 45 51 59 44 49 57 42 47 54 39 44 50 35 40 47 32 37 45 30 35 43 28 33 43 28 33 43 28 33 43 28 33 43 28 33 43 28 33 43 28 33 43 28 33 40 29 35 38 31 38 35 32 39 35 32 39 35 32 39 35 32 39 35 32 39 35 32 39 35 32 39 31 28 35 31 28 35 31 28 35 31 28 35 31 28 35 31 28 35 31 28 35 30 29 37 39 37 48 38 38 50 38 38 50 38 38 50 38 38 50 38 38 50 38 38 50 38 38 50 38 38 50 38 38 50 38 38 50 38 38 50 38 38 50 38 38 50 38 38 50 40 37 46 52 39 48 57 40 46 59 42 48 62 45 51 66 49 55 69 52 58 71 54 60 73 56 62 75 58 64 75 58 64 74 57 63 73 56 62 72 55 61 71 54 60 71 54 60 69 54 59 44 33 41 43 33 41 43 33 41 43 33 41 43 33 41 43 33 41 43 33 41 43 33 41 58 48 56 56 46 54 54 44 52 51 41 49 47 37 45 44 34 42 42 32 40 37 32 38 40 39 44 37 41 44 40 39 44 40 39 44 43 38 44 44 37 44 46 36 44 48 35 44 58 41 51 62 40 52 66 42 55 71 45 58 77 46 61 81 50 65 85 51 67 81 55 68 86 77 82 81 81 83 84 82 85 85 85 87 89 87 90 90 90 92 93 91 94 93 93 95 91 89 92 90 90 92 91 89 92 90 90 92 91 89 92 90 90 92 91 89 92 90 90 92 88 89 94 86 89 94 86 89 94 86 89 94 86 89 94 86 89 94 86 89 94 86 89 94 94 97 102 94 97 102 94 97 102 94 97 102 94 97 102 94 97 102 94 97 102 96 97 101 103 99 100 104 98 98 104 98 98 104 98 98 104 98 98 104 98 98 104 98 98 104 98 98 77 71 71 77 71 71 77 71 71 77 71 71 77 71 71 77 71 71 77 71 71 80 70 69 94 78 79 97 77 78 98 78 79 99 79 80 100 80 81 101 81 82 101 81 82 102 82 83 108 88 89 107 87 88 105 85 86 101 81 82 98 78 79 95 75 76 92 72 73 92 70 72 84 58 61 88 59 63 90 61 65 93 64 68 97 68 72 100 71 75 102 73 77 104 75 79 114 85 89 112 83 87 110 81 85 107 78 82 103 74 78 100 71 75 98 69 73 100 65 72 107 59 73 108 55 73 106 53 71 100 52 68 96 48 64 90 46 61 87 45 59 82 44 57 62 29 40 60 30 40
74 59 62 70 55 58 67 52 55 65 50 53 64 48 51 66 43 49 68 43 49 68 43 49 68 43 49 68 43 49 68 43 49 68 43 49 68 43 49 73 48 54 73 48 54 73 48 54 73 48 54 73 48 54 73 48 54 73 48 54 71 48 54 62 45 51 59 44 49 57 42 47 54 39 44 50 35 40 47 32 37 45 30 35 43 28 33 40 25 30 40 25 30 40 25 30 40 25 30 40 25 30 40 25 30 40 25 30 37 26 32 38 31 38 35 32 39 35 32 39 35 32 39 35 32 39 35 32 39 35 32 39 35 32 39 31 28 35 31 28 35 31 28 35 31 28 35 31 28 35 31 28 35 31 28 35 30 29 37 42 40 51 41 41 53 41 41 53 41 41 53 41 41 53 41 41 53 41 41 53 41 41 53 38 38 50 38 38 50 38 38 50 38 38 50 38 38 50 38 38 50 38 38 50 40 37 46 52 39 48 57 40 46 59 42 48 62 45 51 66 49 55 69 52 58 71 54 60 73 56 62 83 66 72 82 65 71 80 63 69 77 60 66 75 58 64 72 55 61 70 53 59 68 53 58 43 32 40 42 32 40 42 32 40 42 32 40 42 32 40 42 32 40 42 32 40 42 32 40 58 48 56 56 46 54 54 44 52 51 41 49 47 37 45 44 34 42 42 32 40 37 32 38 40 39 44 37 41 44 40 39 44 40 39 44 43 38 44 44 37 44 46 36 44 48 35 44 61 44 54 66 44 56 69 45 58 74 48 61 81 50 65 84 53 68 88 54 70 85 59 72 94 85 90 87 88 90 89 89 91 89 90 92 90 90 92 90 91 93 91 91 93 91 92 94 90 90 92 89 90 92 90 90 92 89 90 92 90 90 92 89 90 92 90 90 92 89 90 92 86 89 94 86 89 94 86 89 94 86 89 94 86 89 94 86 89 94 86 89 94 86 89 94 94 97 102 94 97 102 94 97 102 94 97 102 94 97 102 94 97 102 94 97 102 96 97 101 103 99 100 104 98 98 104 98 98 104 98 98 104 98 98 104 98 98 104 98 98 104 98 98 74 68 68 74 68 68 74 68 68 74 68 68 74 68 68 74 68 68 74 68 68 77 67 66 86 70 71 90 70 71 92 72 73 95 75 76 97 77 78 100 80 81 102 82 83 103 83 84 112 92 93 110 90 91 108 88 89 105 85 86 101 81 82 98 78 79 96 76 77 95 73 75 84 58 61 88 59 63 90 61 65 93 64 68 97 68 72 100 71 75 102 73 77 104 75 79 114 85 89 112 83 87 110 81 85 107 78 82 103 74 78 100 71 75 98 69 73 100 65 72 107 59 73 108 55 73 106 53 71 100 52 68 96 48 64 90 46 61 87 45 59 82 44 57 62 29 40 60 30 40
74 59 62 70 55 58 67 52 55 65 50 53 64 48 51 66 43 49 68 43 49 68 43 49 68 43 49 68 43 49 68 43 49 68 43 49 68 43 49 73 48 54 73 48 54 73 48 54 73 48 54 73 48 54 73 48 54 73 48 54 71 48 54 62 45 51 59 44 49 57 42 47 54 39 44 50 35 40 47 32 37 45 30 35 43 28 33 38 23 28 38 23 28 38 23 28 38 23 28 38 23 28 38 23 28 38 23 28 35 24 30 38 31 38 35 32 39 35 32 39 35 32 39 35 32 39 35 32 39 35 32 39 35 32 39 31 28 35 31 28 35 31 28 35 31 28 35 31 28 35 31 28 35 31 28 35 30 29 37 44 42 53 43 43 55 43 43 55 43 43 55 43 43 55 43 43 55 43 43 55 43 43 55 38 38 50 38 38 50 38 38 50 38 38 50 38 38 50 38 38 50 38 38 50 40 37 46 52 39 48 57 40 46 59 42 48 62 45 51 66 49 55 69 52 58 71 54 60 73 56 62 89 72 78 87 70 76 84 67 73 80 63 69 76 59 65 73 56 62 70 53 59 67 52 57 46 35 43 45 35 43 45 35 43 45 35 43 45 35 43 45 35 43 45 35 43 45 35 43 58 48 56 56 46 54 54 44 52 51 41 49 47 37 45 44 34 42 42 32 40 37 32 38 40 39 44 37 41 44 40 39 44 40 39 44 43 38 44 44 37 44 46 36 44 48 35 44 64 47 57 68 46 58 71 47 60 77 51 64 83 52 67 86 55 70 91 57 73 87 61 74 98 92 96 91 95 96 92 93 95 90 94 95 91 92 94 88 92 93 90 91 93 88 92 93 89 90 92 87 91 92 89 90 92 87 91 92 89 90 92 87 91 92 89 90 92 87 91 92 86 89 94 86 89 94 86 89 94 86 89 94 86 89 94 86 89 94 86 89 94 86 89 94 94 97 102 94 97 102 94 97 102 94 97 102 94 97 102 94 97 102 94 97 102 96 97 101 103 99 100 104 98 98 104 98 98 104 98 98 104 98 98 104 98 98 104 98 98 104 98 98 72 66 66 72 66 66 72 66 66 72 66 66 72 66 66 72 66 66 72 66 66 75 65 64 80 64 65 85 65 66 88 68 69 92 72 73 96 76 77 99 79 80 102 82 83 104 84 85 114 94 95 113 93 94 110 90 91 107 87 88 104 84 85 100 80 81 98 78 79 98 76 78 84 58 61 88 59 63 90 61 65 93 64 68 97 68 72 100 71 75 102 73 77 104 75 79 114 85 89 112 83 87 110 81 85 107 78 82 103 74 78 100 71 75 98 69 73 100 65 72 107 59 73 108 55 73 106 53 71 100 52 68 96 48 64 90 46 61 87 45 59 82 44 57 62 29 40 60 30 40
72 60 62 70 55 58 65 53 55 65 50 53 64 48 51 66 43 49 68 43 49 68 43 49 68 43 49 68 43 49 68 43 49 68 43 49 68 43 49 73 48 54 73 48 54 73 48 54 73 48 54 73 48 54 73 48 54 73 48 54 71 48 54 62 45 51 59 44 49 57 42 47 54 39 44 50 35 40 47 32 37 45 30 35 43 28 33 36 21 26 36 21 26 36 21 26 36 21 26 36 21 26 36 21 26 36 21 26 34 21 28 41 30 38 40 30 39 38 31 39 38 31 39 38 31 39 38 31 39 37 32 39 37 32 39 31 28 35 31 28 35 30 29 35 30 29 35 30 29 35 30 29 35 29 30 35 29 29 37 45 45 55 45 45 55 45 45 55 45 45 55 45 45 55 45 45 55 45 45 55 45 45 55 38 38 48 38 38 48 38 38 48 38 38 48 38 38 48 38 38 48 38 38 48 40 37 46 51 40 46 56 41 46 58 43 48 61 46 51 65 50 55 68 53 58 70 55 60 72 57 62 91 76 81 89 74 79 85 70 75 81 66 71 76 61 66 72 57 62 68 53 58 65 53 57 49 38 44 48 39 44 48 38 46 48 39 44 48 38 46 48 39 44 48 38 46 48 39 44 58 48 56 56 47 52 54 44 52 51 42 47 47 37 45 44 35 40 42 32 40 38 32 36 41 39 42 40 40 42 41 39 42 41 39 42 43 38 42 44 38 42 46 37 42 47 36 42 64 49 56 66 49 57 71 51 60 75 54 63 79 56 66 85 59 70 88 60 72 84 64 73 101 95 99 95 96 98 95 96 98 93 94 96 92 93 95 91 92 94 90 91 93 89 90 92 89 90 92 89 90 92 89 90 92 89 90 92 89 90 92 89 90 92 89 90 92 89 90 94 88 89 93 88 89 93 88 89 94 88 89 93 88 89 94 88 89 93 88 89 94 88 89 93 96 97 102 96 97 101 96 97 102 96 97 101 96 97 102 96 97 101 96 97 102 97 97 99 104 98 100 106 98 96 106 97 98 106 98 96 106 97 98 106 98 96 106 97 98 106 98 96 72 63 64 72 64 62 72 63 64 72 64 62 72 63 64 72 64 62 72 63 64 73 63 62 77 61 61 82 62 63 86 66 67 90 70 71 95 75 76 99 79 80 103 83 84 104 84 85 115 95 96 114 94 95 112 92 93 108 88 89 105 85 86 102 82 83 99 79 80 98 78 79 83 58 61 85 60 63 87 62 65 91 65 68 95 69 72 98 72 75 102 73 77 104 75 79 115 84 89 113 82 87 111 80 85 109 77 82 105 73 78 102 70 75 100 68 73 103 63 72 107 59 75 107 56 73 105 54 71 99 52 68 95 48 64 89 47 61 86 45 59 81 45 57 61 29 40 58 31 40
78 68 67 75 63 63 71 61 60 70 58 58 70 55 58 69 48 53 72 46 55 72 46 55 72 46 55 72 46 55 72 46 55 72 46 55 72 46 55 69 43 52 69 43 52 69 43 52 69 43 52 69 43 52 69 43 52 69 43 52 67 44 52 53 33 42 51 34 42 51 34 42 51 34 42 51 34 42 51 34 42 51 34 42 51 34 42 39 22 30 39 22 30 39 22 30 39 22 30 39 22 30 39 22 30 39 22 30 39 22 30 41 21 32 42 22 34 43 25 37 45 29 40 48 32 43 50 37 47 51 39 49 49 42 50 47 42 49 44 43 49 43 44 49 41 44 49 41 44 49 40 45 49 38 46 49 40 45 49 38 41 48 39 39 47 39 39 47 37 37 45 36 36 44 35 35 43 34 34 42 33 33 41 40 40 48 45 45 53 52 52 60 55 55 63 53 53 61 46 46 54 36 36 44 31 30 36 45 36 39 48 38 39 53 43 44 60 50 51 66 56 57 73 63 64 78 68 69 80 70 71 89 79 80 89 79 80 89 79 80 89 79 80 89 79 80 89 79 80 89 79 80 89 78 82 56 47 50 54 48 50 54 48 52 54 48 50 54 48 52 54 48 50 54 48 52 54 48 50 53 47 51 51 45 47 47 41 45 43 37 39 38 32 36 34 28 30 30 24 28 29 23 25 62 56 58 62 56 58 62 56 58 62 56 58 62 56 58 64 55 58 64 55 58 64 55 58 85 74 78 85 74 78 86 74 78 86 74 78 86 74 78 88 73 78 88 73 78 85 74 78 92 86 90 90 88 93 91 89 94 92 90 95 93 91 96 95 93 98 95 93 98 96 94 99 92 90 95 92 90 95 92 90 95 92 90 95 92 90 95 92 90 95 92 90 95 92 90 95 92 91 96 92 92 94 92 91 96 92 92 94 92 91 96 92 92 94 92 91 96 92 92 94 96 95 100 96 96 98 96 95 100 96 96 98 96 95 100 96 96 98 96 95 100 97 95 96 110 101 102 109 99 97 107 97 96 104 94 92 100 90 89 97 87 85 95 85 84 93 83 81 84 74 73 83 73 71 80 70 69 77 67 65 74 64 63 70 60 58 68 58 57 68 57 55 84 66 66 85 65 66 85 65 66 85 65 66 85 65 66 85 65 66 85 65 66 85 65 66 92 72 73 93 73 74 96 76 77 99 79 80 102 82 83 106 86 87 108 88 89 108 90 90 96 77 79 96 80 81 100 81 83 104 84 86 109 87 90 114 89 93 117 90 95 121 92 97 114 81 88 114 79 86 113 76 84 112 72 81 109 67 77 106 64 74 105 62 72 105 59 70 116 68 84 113 66 84 108 61 79 98 55 72 92 49 66 82 44 59 76 40 54 71 39 52 58 30 42 55 32 42
78 68 67 74 64 63 71 61 60 69 59 58 70 56 56 69 48 55 72 46 55 72 46 55 72 46 55 72 46 55 72 46 55 72 46 55 72 46 55 69 43 52 69 43 52 69 43 52 69 43 52 69 43 52 69 43 52 69 43 52 67 44 52 53 33 42 51 34 42 51 34 42 51 34 42 51 34 42 51 34 42 51 34 42 51 34 42 41 24 32 41 24 32 41 24 32 41 24 32 41 24 32 41 24 32 41 24 32 43 23 32 46 22 36 47 23 37 49 25 39 51 31 43 54 34 46 54 38 49 55 42 52 54 44 53 47 42 49 44 43 49 43 44 49 40 45 49 40 45 49 37 47 49 37 47 49 37 47 49 39 42 47 41 42 47 40 41 46 40 41 46 39 40 45 38 39 44 38 39 44 38 39 44 49 50 55 54 55 60 60 61 66 63 64 69 60 61 66 52 53 58 42 43 48 36 35 40 43 37 39 47 38 39 52 43 44 59 50 51 65 56 57 72 63 64 77 68 69 79 70 71 88 79 80 88 79 80 88 79 80 88 79 80 88 79 80 88 79 80 88 79 80 88 79 80 54 48 50 54 48 50 54 48 50 54 48 50 54 48 50 54 48 50 54 48 50 54 48 50 53 47 49 52 46 48 49 43 45 45 39 41 41 35 37 38 32 34 35 29 31 33 27 29 66 57 58 66 57 58 66 57 58 66 57 58 66 57 58 66 57 58 66 57 58 66 57 58 86 77 78 86 77 78 86 77 78 86 77 78 86 77 78 86 77 78 86 77 78 84 78 80 93 87 91 92 87 93 92 87 93 93 88 94 94 89 95 94 89 95 95 90 96 95 90 96 94 89 95 94 89 95 94 89 95 94 89 95 94 89 95 94 89 95 94 89 95 94 89 95 93 91 94 93 91 94 93 91 94 93 91 94 93 91 94 93 91 94 93 91 94 93 91 94 97 95 98 97 95 98 97 95 98 97 95 98 97 95 98 97 95 98 97 95 98 99 95 96 111 101 100 110 99 97 108 97 95 105 94 92 101 90 88 98 87 85 96 85 83 94 83 81 86 75 73 85 74 72 83 72 70 79 68 66 76 65 63 73 62 60 70 59 57 71 57 56 84 66 66 85 65 66 85 65 66 85 65 66 85 65 66 85 65 66 85 65 66 85 65 66 91 71 72 92 72 73 94 74 75 98 78 79 101 81 82 104 84 85 107 87 88 107 89 89 93 79 79 93 81 81 98 82 83 101 85 86 108 88 90 112 90 93 116 91 95 121 92 97 114 81 88 115 78 86 115 75 84 113 71 81 112 66 77 109 63 74 110 60 72 106 58 72 116 68 84 111 67 84 106 62 79 97 56 72 91 50 66 81 45 59 74 40 54 70 40 52 57 31 42 54 33 42
78 68 67 74 64 63 71 61 60 69 59 58 70 56 56 69 48 55 72 46 55 72 46 55 72 46 55 72 46 55 72 46 55 72 46 55 72 46 55 69 43 52 69 43 52 69 43 52 69 43 52 69 43 52 69 43 52 69 43 52 67 44 52 53 33 42 51 34 42 51 34 42 51 34 42 51 34 42 51 34 42 51 34 42 51 34 42 43 26 34 43 26 34 43 26 34 43 26 34 43 26 34 43 26 34 43 26 34 45 25 34 51 27 41 52 28 42 54 30 44 55 35 47 59 39 51 59 43 54 60 47 57 59 49 58 47 42 49 44 43 49 43 44 49 40 45 49 40 45 49 37 47 49 37 47 49 37 47 49 40 43 48 43 44 49 43 44 49 44 45 50 45 46 51 45 46 51 46 47 52 46 47 52 63 64 69 67 68 73 72 73 78 74 75 80 70 71 76 60 61 66 49 50 55 43 42 47 43 37 39 47 38 39 52 43 44 59 50 51 65 56 57 72 63 64 77 68 69 79 70 71 88 79 80 88 79 80 88 79 80 88 79 80 88 79 80 88 79 80 88 79 80 88 79 80 54 48 50 54 48 50 54 48 50 54 48 50 54 48 50 54 48 50 54 48 50 54 48 50 55 49 51 54 48 50 52 46 48 50 44 46 47 41 43 44 38 40 42 36 38 41 35 37 68 59 60 68 59 60 68 59 60 68 59 60 68 59 60 68 59 60 68 59 60 68 59 60 88 79 80 88 79 80 88 79 80 88 79 80 88 79 80 88 79 80 88 79 80 86 80 82 94 88 92 92 87 93 92 87 93 91 86 92 91 86 92 90 85 91 89 84 90 89 84 90 94 89 95 94 89 95 94 89 95 94 89 95 94 89 95 94 89 95 94 89 95 94 89 95 93 91 94 93 91 94 93 91 94 93 91 94 93 91 94 93 91 94 93 91 94 93 91 94 97 95 98 97 95 98 97 95 98 97 95 98 97 95 98 97 95 98 97 95 98 99 95 96 111 101 100 110 99 97 108 97 95 105 94 92 101 90 88 98 87 85 96 85 83 94 83 81 89 78 76 87 76 74 85 74 72 82 71 69 78 67 65 75 64 62 73 62 60 73 59 58 84 66 66 85 65 66 85 65 66 85 65 66 85 65 66 85 65 66 85 65 66 85 65 66 88 68 69 90 70 71 92 72 73 95 75 76 99 79 80 102 82 83 104 84 85 105 87 87 93 79 79 93 81 81 98 82 83 101 85 86 108 88 90 112 90 93 116 91 95 121 92 97 114 81 88 115 78 86 115 75 84 113 71 81 112 66 77 109 63 74 110 60 72 106 58 72 116 68 84 111 67 84 106 62 79 97 56 72 91 50 66 81 45 59 74 40 54 70 40 52 57 31 42 54 33 42
78 68 67 74 64 63 71 61 60 69 59 58 70 56 56 69 48 55 72 46 55 72 46 55 72 46 55 72 46 55 72 46 55 72 46 55 72 46 55 69 43 52 69 43 52 69 43 52 69 43 52 69 43 52 69 43 52 69 43 52 67 44 52 53 33 42 51 34 42 51 34 42 51 34 42 51 34 42 51 34 42 51 34 42 51 34 42 46 29 37 46 29 37 46 29 37 46 29 37 46 29 37 46 29 37 46 29 37 48 28 37 57 33 47 58 34 48 61 37 51 62 42 54 65 45 57 65 49 60 66 53 63 65 55 64 47 42 49 44 43 49 43 44 49 40 45 49 40 45 49 37 47 49 37 47 49 37 47 49 42 45 50 45 46 51 47 48 53 49 50 55 52 53 58 54 55 60 56 57 62 57 58 63 76 77 82 80 81 86 83 84 89 84 85 90 78 79 84 66 67 72 54 55 60 47 46 51 43 37 39 47 38 39 52 43 44 59 50 51 65 56 57 72 63 64 77 68 69 79 70 71 88 79 80 88 79 80 88 79 80 88 79 80 88 79 80 88 79 80 88 79 80 88 79 80 54 48 50 54 48 50 54 48 50 54 48 50 54 48 50 54 48 50 54 48 50 54 48 50 57 51 53 57 51 53 56 50 52 55 49 51 54 48 50 53 47 49 53 47 49 52 46 48 71 62 63 71 62 63 71 62 63 71 62 63 71 62 63 71 62 63 71 62 63 71 62 63 91 82 83 91 82 83 91 82 83 91 82 83 91 82 83 91 82 83 91 82 83 89 83 85 95 89 93 93 88 94 91 86 92 89 84 90 86 81 87 84 79 85 82 77 83 81 76 82 94 89 95 94 89 95 94 89 95 94 89 95 94 89 95 94 89 95 94 89 95 94 89 95 93 91 94 93 91 94 93 91 94 93 91 94 93 91 94 93 91 94 93 91 94 93 91 94 97 95 98 97 95 98 97 95 98 97 95 98 97 95 98 97 95 98 97 95 98 99 95 96 111 101 100 110 99 97 108 97 95 105 94 92 101 90 88 98 87 85 96 85 83 94 83 81 92 81 79 91 80 78 88 77 75 85 74 72 82 71 69 78 67 65 76 65 63 77 63 62 84 66 66 85 65 66 85 65 66 85 65 66 85 65 66 85 65 66 85 65 66 85 65 66 85 65 66 86 66 67 89 69 70 92 72 73 95 75 76 99 79 80 101 81 82 101 83 83 93 79 79 93 81 81 98 82 83 101 85 86 108 88 90 112 90 93 116 91 95 121 92 97 114 81 88 115 78 86 115 75 84 113 71 81 112 66 77 109 63 74 110 60 72 106 58 72 116 68 84 111 67 84 106 62 79 97 56 72 91 50 66 81 45 59 74 40 54 70 40 52 57 31 42 54 33 42
78 68 67 74 64 63 71 61 60 69 59 58 70 56 56 69 48 55 72 46 55 72 46 55 72 46 55 72 46 55 72 46 55 72 46 55 72 46 55 69 43 52 69 43 52 69 43 52 69 43 52 69 43 52 69 43 52 69 43 52 67 44 52 53 33 42 51 34 42 51 34 42 51 34 42 51 34 42 51 34 42 51 34 42 51 34 42 50 33 41 50 33 41 50 33 41 50 33 41 50 33 41 50 33 41 50 33 41 52 32 41 64 40 54 65 41 55 68 44 58 69 49 61 72 52 64 72 56 67 73 60 70 72 62 71 47 42 49 44 43 49 43 44 49 40 45 49 40 45 49 37 47 49 37 47 49 37 47 49 44 47 52 48 49 54 51 52 57 55 56 61 60 61 66 64 65 70 67 68 73 68 69 74 84 85 90 87 88 93 90 91 96 88 89 94 80 81 86 67 68 73 54 55 60 46 45 50 43 37 39 47 38 39 52 43 44 59 50 51 65 56 57 72 63 64 77 68 69 79 70 71 88 79 80 88 79 80 88 79 80 88 79 80 88 79 80 88 79 80 88 79 80 88 79 80 54 48 50 54 48 50 54 48 50 54 48 50 54 48 50 54 48 50 54 48 50 54 48 50 59 53 55 59 53 55 60 54 56 61 55 57 62 56 58 63 57 59 63 57 59 64 58 60 75 66 67 75 66 67 75 66 67 75 66 67 75 66 67 75 66 67 75 66 67 75 66 67 95 86 87 95 86 87 95 86 87 95 86 87 95 86 87 95 86 87 95 86 87 93 87 89 96 90 94 94 89 95 91 86 92 86 81 87 82 77 83 78 73 79 75 70 76 73 68 74 94 89 95 94 89 95 94 89 95 94 89 95 94 89 95 94 89 95 94 89 95 94 89 95 93 91 94 93 91 94 93 91 94 93 91 94 93 91 94 93 91 94 93 91 94 93 91 94 97 95 98 97 95 98 97 95 98 97 95 98 97 95 98 97 95 98 97 95 98 99 95 96 111 101 100 110 99 97 108 97 95 105 94 92 101 90 88 98 87 85 96 85 83 94 83 81 95 84 82 94 83 81 92 81 79 88 77 75 85 74 72 82 71 69 79 68 66 80 66 65 84 66 66 85 65 66 85 65 66 85 65 66 85 65 66 85 65 66 85 65 66 85 65 66 82 62 63 83 63 64 85 65 66 89 69 70 92 72 73 95 75 76 98 78 79 98 80 80 93 79 79 93 81 81 98 82 83 101 85 86 108 88 90 112 90 93 116 91 95 121 92 97 114 81 88 115 78 86 115 75 84 113 71 81 112 66 77 109 63 74 110 60 72 106 58 72 116 68 84 111 67 84 106 62 79 97 56 72 91 50 66 81 45 59 74 40 54 70 40 52 57 31 42 54 33 42
78 68 67 74 64 63 71 61 60 69 59 58 70 56 56 69 48 55 72 46 55 72 46 55 72 46 55 72 46 55 72 46 55 72 46 55 72 46 55 69 43 52 69 43 52 69 43 52 69 43 52 69 43 52 69 43 52 69 43 52 67 44 52 53 33 42 51 34 42 51 34 42 51 34 42 51 34 42 51 34 42 51 34 42 51 34 42 53 36 44 53 36 44 53 36 44 53 36 44 53 36 44 53 36 44 53 36 44 55 35 44 70 46 60 71 47 61 74 50 64 75 55 67 79 59 71 79 63 74 79 66 76 78 68 77 47 42 49 44 43 49 43 44 49 40 45 49 40 45 49 37 47 49 37 47 49 37 47 49 46 49 54 51 52 57 55 56 61 61 62 67 67 68 73 73 74 79 77 78 83 79 80 85 86 87 92 88 89 94 90 91 96 86 87 92 77 78 83 62 63 68 47 48 53 39 38 43 43 37 39 47 38 39 52 43 44 59 50 51 65 56 57 72 63 64 77 68 69 79 70 71 88 79 80 88 79 80 88 79 80 88 79 80 88 79 80 88 79 80 88 79 80 88 79 80 54 48 50 54 48 50 54 48 50 54 48 50 54 48 50 54 48 50 54 48 50 54 48 50 61 55 57 62 56 58 64 58 60 66 60 62 69 63 65 72 66 68 74 68 70 75 69 71 78 69 70 78 69 70 78 69 70 78 69 70 78 69 70 78 69 70 78 69 70 78 69 70 98 89 90 98 89 90 98 89 90 98 89 90 98 89 90 98 89 90 98 89 90 96 90 92 98 92 96 94 89 95 90 85 91 84 79 85 78 73 79 72 67 73 68 63 69 66 61 67 94 89 95 94 89 95 94 89 95 94 89 95 94 89 95 94 89 95 94 89 95 94 89 95 93 91 94 93 91 94 93 91 94 93 91 94 93 91 94 93 91 94 93 91 94 93 91 94 97 95 98 97 95 98 97 95 98 97 95 98 97 95 98 97 95 98 97 95 98 99 95 96 111 101 100 110 99 97 108 97 95 105 94 92 101 90 88 98 87 85 96 85 83 94 83 81 99 88 86 97 86 84 95 84 82 92 81 79 88 77 75 85 74 72 83 72 70 83 69 68 84 66 66 85 65 66 85 65 66 85 65 66 85 65 66 85 65 66 85 65 66 85 65 66 78 58 59 80 60 61 82 62 63 85 65 66 89 69 70 92 72 73 94 74 75 95 77 77 93 79 79 93 81 81 98 82 83 101 85 86 108 88 90 112 90 93 116 91 95 121 92 97 114 81 88 115 78 86 115 75 84 113 71 81 112 66 77 109 63 74 110 60 72 106 58 72 116 68 84 111 67 84 106 62 79 97 56 72 91 50 66 81 45 59 74 40 54 70 40 52 57 31 42 54 33 42
78 68 67 74 64 63 71 61 60 69 59 58 70 56 56 69 48 55 72 46 55 72 46 55 72 46 55 72 46 55 72 46 55 72 46 55 72 46 55 69 43 52 69 43 52 69 43 52 69 43 52 69 43 52 69 43 52 69 43 52 67 44 52 53 33 42 51 34 42 51 34 42 51 34 42 51 34 42 51 34 42 51 34 42 51 34 42 55 38 46 55 38 46 55 38 46 55 38 46 55 38 46 55 38 46 55 38 46 57 37 46 75 51 65 76 52 66 79 55 69 80 60 72 83 63 75 84 68 79 84 71 81 83 73 82 47 42 49 44 43 49 43 44 49 40 45 49 40 45 49 37 47 49 37 47 49 37 47 49 48 51 56 53 54 59 58 59 64 65 66 71 72 73 78 79 80 85 85 86 91 88 89 94 84 85 90 86 87 92 86 87 92 81 82 87 71 72 77 55 56 61 39 40 45 30 29 34 43 37 39 47 38 39 52 43 44 59 50 51 65 56 57 72 63 64 77 68 69 79 70 71 88 79 80 88 79 80 88 79 80 88 79 80 88 79 80 88 79 80 88 79 80 88 79 80 54 48 50 54 48 50 54 48 50 54 48 50 54 48 50 54 48 50 54 48 50 54 48 50 63 57 59 64 58 60 67 61 63 71 65 67 75 69 71 78 72 74 81 75 77 83 77 79 80 71 72 80 71 72 80 71 72 80 71 72 80 71 72 80 71 72 80 71 72 80 71 72 100 91 92 100 91 92 100 91 92 100 91 92 100 91 92 100 91 92 100 91 92 98 92 94 99 93 97 95 90 96 89 84 90 82 77 83 75 70 76 68 63 69 63 58 64 60 55 61 94 89 95 94 89 95 94 89 95 94 89 95 94 89 95 94 89 95 94 89 95 94 89 95 93 91 94 93 91 94 93 91 94 93 91 94 93 91 94 93 91 94 93 91 94 93 91 94 97 95 98 97 95 98 97 95 98 97 95 98 97 95 98 97 95 98 97 95 98 99 95 96 111 101 100 110 99 97 108 97 95 105 94 92 101 90 88 98 87 85 96 85 83 94 83 81 101 90 88 100 89 87 97 86 84 94 83 81 91 80 78 87 76 74 85 74 72 86 72 71 84 66 66 85 65 66 85 65 66 85 65 66 85 65 66 85 65 66 85 65 66 85 65 66 76 56 57 77 57 58 80 60 61 83 63 64 86 66 67 90 70 71 92 72 73 92 74 74 93 79 79 93 81 81 98 82 83 101 85 86 108 88 90 112 90 93 116 91 95 121 92 97 114 81 88 115 78 86 115 75 84 113 71 81 112 66 77 109 63 74 110 60 72 106 58 72 116 68 84 111 67 84 106 62 79 97 56 72 91 50 66 81 45 59 74 40 54 70 40 52 57 31 42 54 33 42
78 68 67 74 64 63 71 61 60 69 59 58 70 56 56 69 48 55 72 46 55 72 46 55 72 46 55 72 46 55 72 46 55 72 46 55 72 46 55 69 43 52 69 43 52 69 43 52 69 43 52 69 43 52 69 43 52 69 43 52 67 44 52 53 33 42 51 34 42 51 34 42 51 34 42 51 34 42 51 34 42 51 34 42 51 34 42 57 40 48 57 40 48 57 40 48 57 40 48 57 40 48 57 40 48 57 40 48 59 39 48 78 54 68 79 55 69 81 57 71 83 63 75 86 66 78 86 70 81 87 74 84 86 76 85 47 42 49 44 43 49 43 44 49 40 45 49 40 45 49 37 47 49 37 47 49 37 47 49 49 52 57 54 55 60 60 61 66 67 68 73 75 76 81 83 84 89 89 90 95 92 93 98 82 83 88 83 84 89 83 84 89 78 79 84 66 67 72 49 50 55 33 34 39 24 23 28 43 37 39 47 38 39 52 43 44 59 50 51 65 56 57 72 63 64 77 68 69 79 70 71 88 79 80 88 79 80 88 79 80 88 79 80 88 79 80 88 79 80 88 79 80 88 79 80 54 48 50 54 48 50 54 48 50 54 48 50 54 48 50 54 48 50 54 48 50 54 48 50 63 57 59 65 59 61 69 63 65 73 67 69 78 72 74 82 76 78 86 80 82 87 81 83 82 73 74 82 73 74 82 73 74 82 73 74 82 73 74 82 73 74 82 73 74 82 73 74 102 93 94 102 93 94 102 93 94 102 93 94 102 93 94 102 93 94 102 93 94 100 94 96 99 93 97 95 90 96 89 84 90 81 76 82 73 68 74 66 61 67 60 55 61 57 52 58 94 89 95 94 89 95 94 89 95 94 89 95 94 89 95 94 89 95 94 89 95 94 89 95 93 91 94 93 91 94 93 91 94 93 91 94 93 91 94 93 91 94 93 91 94 93 91 94 97 95 98 97 95 98 97 95 98 97 95 98 97 95 98 97 95 98 97 95 98 99 95 96 111 101 100 110 99 97 108 97 95 105 94 92 101 90 88 98 87 85 96 85 83 94 83 81 102 91 89 101 90 88 99 88 86 95 84 82 92 81 79 89 78 76 86 75 73 87 73 72 84 66 66 85 65 66 85 65 66 85 65 66 85 65 66 85 65 66 85 65 66 85 65 66 75 55 56 76 56 57 78 58 59 82 62 63 85 65 66 88 68 69 91 71 72 91 73 73 93 79 79 93 81 81 98 82 83 101 85 86 108 88 90 112 90 93 116 91 95 121 92 97 114 81 88 115 78 86 115 75 84 113 71 81 112 66 77 109 63 74 110 60 72 106 58 72 116 68 84 111 67 84 106 62 79 97 56 72 91 50 66 81 45 59 74 40 54 70 40 52 57 31 42 54 33 42
85 75 74 81 71 70 78 68 67 76 66 65 77 63 63 73 52 59 76 50 59 76 50 59 76 50 59 76 50 59 76 50 59 76 50 59 76 50 59 70 44 53 70 44 53 70 44 53 70 44 53 70 44 53 70 44 53 70 44 53 68 45 53 55 35 44 53 36 44 53 36 44 53 36 44 53 36 44 53 36 44 53 36 44 53 36 44 50 33 41 51 34 42 54 37 45 57 40 48 60 43 51 64 47 55 66 49 57 69 49 58 82 58 72 80 56 70 78 54 68 73 53 65 69 49 61 63 47 58 59 46 56 55 45 54 50 45 52 46 45 51 44 45 50 40 45 49 39 44 48 34 44 46 34 44 46 33 43 45 71 74 79 73 74 79 73 74 79 73 74 79 73 74 79 73 74 79 73 74 79 73 74 79 92 93 98 90 91 96 88 89 94 85 86 91 81 82 87 78 79 84 76 77 82 75 74 79 53 47 49 55 46 47 55 46 47 55 46 47 55 46 47 55 46 47 55 46 47 55 46 47 94 85 86 93 84 85 89 80 81 85 76 77 80 71 72 76 67 68 72 63 64 70 61 62 53 47 49 53 47 49 53 47 49 53 47 49 53 47 49 53 47 49 53 47 49 53 47 49 76 70 72 76 70 72 76 70 72 76 70 72 76 70 72 76 70 72 76 70 72 76 70 72 73 64 65 74 65 66 76 67 68 80 71 72 83 74 75 86 77 78 89 80 81 90 81 82 101 92 93 101 92 93 101 92 93 101 92 93 101 92 93 101 92 93 101 92 93 99 93 95 95 89 93 92 87 93 87 82 88 80 75 81 74 69 75 67 62 68 62 57 63 60 55 61 67 62 68 69 64 70 74 69 75 81 76 82 87 82 88 94 89 95 99 94 100 101 96 102 97 95 98 97 95 98 97 95 98 97 95 98 97 95 98 97 95 98 97 95 98 97 95 98 100 98 101 100 98 101 100 98 101 100 98 101 100 98 101 100 98 101 100 98 101 102 98 99 100 90 89 99 88 86 97 86 84 94 83 81 90 79 77 87 76 74 85 74 72 83 72 70 90 79 77 91 80 78 94 83 81 97 86 84 100 89 87 104 93 91 106 95 93 109 95 94 111 93 93 112 92 93 112 92 93 112 92 93 112 92 93 112 92 93 112 92 93 112 92 93 98 78 79 97 77 78 94 74 75 91 71 72 88 68 69 84 64 65 82 62 63 80 62 62 92 78 78 92 80 80 98 82 83 103 87 88 110 90 92 116 94 97 121 96 100 126 97 102 104 71 78 107 70 78 109 69 78 110 68 78 113 67 78 113 67 78 116 66 78 114 66 80 113 65 81 108 64 81 103 59 76 94 53 69 88 47 63 78 42 56 71 37 51 67 37 49 51 25 36 50 29 38
85 75 74 81 71 70 78 68 67 76 66 65 77 63 63 73 52 59 76 50 59 76 50 59 76 50 59 76 50 59 76 50 59 76 50 59 76 50 59 70 44 53 70 44 53 70 44 53 70 44 53 70 44 53 70 44 53 70 44 53 68 45 53 55 35 44 53 36 44 53 36 44 53 36 44 53 36 44 53 36 44 53 36 44 53 36 44 53 36 44 54 37 45 56 39 47 60 43 51 63 46 54 66 49 57 69 52 60 72 52 61 82 58 72 80 56 70 78 54 68 73 53 65 69 49 61 63 47 58 59 46 56 55 45 54 49 44 51 46 45 51 45 46 51 41 46 50 40 45 49 37 47 49 36 46 48 36 46 48 73 76 81 75 76 81 75 76 81 75 76 81 75 76 81 75 76 81 75 76 81 75 76 81 92 93 98 90 91 96 88 89 94 85 86 91 81 82 87 78 79 84 76 77 82 75 74 79 51 45 47 53 44 45 53 44 45 53 44 45 53 44 45 53 44 45 53 44 45 53 44 45 90 81 82 88 79 80 85 76 77 82 73 74 78 69 70 74 65 66 71 62 63 70 61 62 53 47 49 53 47 49 53 47 49 53 47 49 53 47 49 53 47 49 53 47 49 53 47 49 74 68 70 74 68 70 74 68 70 74 68 70 74 68 70 74 68 70 74 68 70 74 68 70 74 65 66 75 66 67 78 69 70 81 72 73 84 75 76 88 79 80 90 81 82 91 82 83 101 92 93 101 92 93 101 92 93 101 92 93 101 92 93 101 92 93 101 92 93 99 93 95 95 89 93 92 87 93 87 82 88 80 75 81 74 69 75 67 62 68 62 57 63 60 55 61 67 62 68 69 64 70 74 69 75 81 76 82 87 82 88 94 89 95 99 94 100 101 96 102 97 95 98 97 95 98 97 95 98 97 95 98 97 95 98 97 95 98 97 95 98 97 95 98 100 98 101 100 98 101 100 98 101 100 98 101 100 98 101 100 98 101 100 98 101 102 98 99 100 90 89 99 88 86 97 86 84 94 83 81 90 79 77 87 76 74 85 74 72 83 72 70 89 78 76 90 79 77 92 81 79 96 85 83 99 88 86 102 91 89 105 94 92 108 94 93 111 93 93 112 92 93 112 92 93 112 92 93 112 92 93 112 92 93 112 92 93 112 92 93 99 79 80 98 78 79 96 76 77 92 72 73 89 69 70 86 66 67 83 63 64 81 63 63 94 80 80 93 81 81 99 83 84 103 87 88 110 90 92 115 93 96 120 95 99 124 95 100 104 71 78 107 70 78 109 69 78 110 68 78 113 67 78 113 67 78 116 66 78 114 66 80 113 65 81 108 64 81 103 59 76 94 53 69 88 47 63 78 42 56 71 37 51 67 37 49 51 25 36 50 29 38
85 75 74 81 71 70 78 68 67 76 66 65 77 63 63 73 52 59 76 50 59 76 50 59 76 50 59 76 50 59 76 50 59 76 50 59 76 50 59 70 44 53 70 44 53 70 44 53 70 44 53 70 44 53 70 44 53 70 44 53 68 45 53 55 35 44 53 36 44 53 36 44 53 36 44 53 36 44 53 36 44 53 36 44 53 36 44 58 41 49 59 42 50 61 44 52 64 47 55 68 51 59 71 54 62 74 57 65 77 57 66 82 58 72 80 56 70 78 54 68 73 53 65 69 49 61 63 47 58 59 46 56 55 45 54 48 43 50 46 45 51 45 46 51 43 48 52 43 48 52 41 51 53 42 52 54 42 52 54 75 78 83 77 78 83 77 78 83 77 78 83 77 78 83 77 78 83 77 78 83 77 78 83 92 93 98 90 91 96 88 89 94 85 86 91 81 82 87 78 79 84 76 77 82 75 74 79 49 43 45 51 42 43 51 42 43 51 42 43 51 42 43 51 42 43 51 42 43 51 42 43 82 73 74 81 72 73 79 70 71 76 67 68 73 64 65 71 62 63 69 60 61 68 59 60 53 47 49 53 47 49 53 47 49 53 47 49 53 47 49 53 47 49 53 47 49 53 47 49 72 66 68 72 66 68 72 66 68 72 66 68 72 66 68 72 66 68 72 66 68 72 66 68 76 67 68 78 69 70 80 71 72 83 74 75 87 78 79 90 81 82 92 83 84 94 85 86 101 92 93 101 92 93 101 92 93 101 92 93 101 92 93 101 92 93 101 92 93 99 93 95 95 89 93 92 87 93 87 82 88 80 75 81 74 69 75 67 62 68 62 57 63 60 55 61 67 62 68 69 64 70 74 69 75 81 76 82 87 82 88 94 89 95 99 94 100 101 96 102 97 95 98 97 95 98 97 95 98 97 95 98 97 95 98 97 95 98 97 95 98 97 95 98 100 98 101 100 98 101 100 98 101 100 98 101 100 98 101 100 98 101 100 98 101 102 98 99 100 90 89 99 88 86 97 86 84 94 83 81 90 79 77 87 76 74 85 74 72 83 72 70 86 75 73 88 77 75 90 79 77 93 82 80 97 86 84 100 89 87 102 91 89 106 92 91 111 93 93 112 92 93 112 92 93 112 92 93 112 92 93 112 92 93 112 92 93 112 92 93 102 82 83 100 80 81 98 78 79 95 75 76 91 71 72 88 68 69 86 66 67 83 65 65 97 83 83 96 84 84 101 85 86 104 88 89 109 89 91 113 91 94 117 92 96 121 92 97 104 71 78 107 70 78 109 69 78 110 68 78 113 67 78 113 67 78 116 66 78 114 66 80 113 65 81 108 64 81 103 59 76 94 53 69 88 47 63 78 42 56 71 37 51 67 37 49 51 25 36 50 29 38
85 75 74 81 71 70 78 68 67 76 66 65 77 63 63 73 52 59 76 50 59 76 50 59 76 50 59 76 50 59 76 50 59 76 50 59 76 50 59 70 44 53 70 44 53 70 44 53 70 44 53 70 44 53 70 44 53 70 44 53 68 45 53 55 35 44 53 36 44 53 36 44 53 36 44 53 36 44 53 36 44 53 36 44 53 36 44 64 47 55 65 48 56 68 51 59 71 54 62 74 57 65 77 60 68 80 63 71 83 63 72 82 58 72 80 56 70 78 54 68 73 53 65 69 49 61 63 47 58 59 46 56 55 45 54 47 42 49 45 44 50 46 47 52 45 50 54 48 53 57 47 57 59 49 59 61 50 60 62 78 81 86 80 81 86 80 81 86 80 81 86 80 81 86 80 81 86 80 81 86 80 81 86 92 93 98 90 91 96 88 89 94 85 86 91 81 82 87 78 79 84 76 77 82 75 74 79 46 40 42 48 39 40 48 39 40 48 39 40 48 39 40 48 39 40 48 39 40 48 39 40 71 62 63 70 61 62 70 61 62 69 60 61 68 59 60 67 58 59 66 57 58 66 57 58 53 47 49 53 47 49 53 47 49 53 47 49 53 47 49 53 47 49 53 47 49 53 47 49 69 63 65 69 63 65 69 63 65 69 63 65 69 63 65 69 63 65 69 63 65 69 63 65 80 71 72 81 72 73 83 74 75 87 78 79 90 81 82 93 84 85 96 87 88 97 88 89 101 92 93 101 92 93 101 92 93 101 92 93 101 92 93 101 92 93 101 92 93 99 93 95 95 89 93 92 87 93 87 82 88 80 75 81 74 69 75 67 62 68 62 57 63 60 55 61 67 62 68 69 64 70 74 69 75 81 76 82 87 82 88 94 89 95 99 94 100 101 96 102 97 95 98 97 95 98 97 95 98 97 95 98 97 95 98 97 95 98 97 95 98 97 95 98 100 98 101 100 98 101 100 98 101 100 98 101 100 98 101 100 98 101 100 98 101 102 98 99 100 90 89 99 88 86 97 86 84 94 83 81 90 79 77 87 76 74 85 74 72 83 72 70 83 72 70 84 73 71 87 76 74 90 79 77 93 82 80 97 86 84 99 88 86 102 88 87 111 93 93 112 92 93 112 92 93 112 92 93 112 92 93 112 92 93 112 92 93 112 92 93 105 85 86 104 84 85 101 81 82 98 78 79 95 75 76 91 71 72 89 69 70 87 69 69 102 88 88 100 88 88 104 88 89 105 89 90 108 88 90 110 88 91 113 88 92 116 87 92 104 71 78 107 70 78 109 69 78 110 68 78 113 67 78 113 67 78 116 66 78 114 66 80 113 65 81 108 64 81 103 59 76 94 53 69 88 47 63 78 42 56 71 37 51 67 37 49 51 25 36 50 29 38
85 75 74 81 71 70 78 68 67 76 66 65 77 63 63 73 52 59 76 50 59 76 50 59 76 50 59 76 50 59 76 50 59 76 50 59 76 50 59 70 44 53 70 44 53 70 44 53 70 44 53 70 44 53 70 44 53 70 44 53 68 45 53 55 35 44 53 36 44 53 36 44 53 36 44 53 36 44 53 36 44 53 36 44 53 36 44 71 54 62 72 55 63 75 58 66 78 61 69 81 64 72 84 67 75 87 70 78 90 70 79 82 58 72 80 56 70 78 54 68 73 53 65 69 49 61 63 47 58 59 46 56 55 45 54 46 41 48 44 43 49 46 47 52 48 53 57 52 57 61 53 63 65 56 66 68 58 68 70 82 85 90 84 85 90 84 85 90 84 85 90 84 85 90 84 85 90 84 85 90 84 85 90 92 93 98 90 91 96 88 89 94 85 86 91 81 82 87 78 79 84 76 77 82 75 74 79 42 36 38 44 35 36 44 35 36 44 35 36 44 35 36 44 35 36 44 35 36 44 35 36 59 50 51 60 51 52 60 51 52 61 52 53 62 53 54 63 54 55 64 55 56 64 55 56 53 47 49 53 47 49 53 47 49 53 47 49 53 47 49 53 47 49 53 47 49 53 47 49 65 59 61 65 59 61 65 59 61 65 59 61 65 59 61 65 59 61 65 59 61 65 59 61 83 74 75 84 75 76 87 78 79 90 81 82 93 84 85 97 88 89 99 90 91 100 91 92 101 92 93 101 92 93 101 92 93 101 92 93 101 92 93 101 92 93 101 92 93 99 93 95 95 89 93 92 87 93 87 82 88 80 75 81 74 69 75 67 62 68 62 57 63 60 55 61 67 62 68 69 64 70 74 69 75 81 76 82 87 82 88 94 89 95 99 94 100 101 96 102 97 95 98 97 95 98 97 95 98 97 95 98 97 95 98 97 95 98 97 95 98 97 95 98 100 98 101 100 98 101 100 98 101 100 98 101 100 98 101 100 98 101 100 98 101 102 98 99 100 90 89 99 88 86 97 86 84 94 83 81 90 79 77 87 76 74 85 74 72 83 72 70 80 69 67 81 70 68 83 72 70 87 76 74 90 79 77 93 82 80 96 85 83 99 85 84 111 93 93 112 92 93 112 92 93 112 92 93 112 92 93 112 92 93 112 92 93 112 92 93 108 88 89 107 87 88 105 85 86 101 81 82 98 78 79 95 75 76 92 72 73 90 72 72 106 92 92 104 92 92 106 90 91 105 89 90 108 88 90 108 86 89 109 84 88 112 83 88 104 71 78 107 70 78 109 69 78 110 68 78 113 67 78 113 67 78 116 66 78 114 66 80 113 65 81 108 64 81 103 59 76 94 53 69 88 47 63 78 42 56 71 37 51 67 37 49 51 25 36 50 29 38
85 75 74 81 71 70 78 68 67 76 66 65 77 63 63 73 52 59 76 50 59 76 50 59 76 50 59 76 50 59 76 50 59 76 50 59 76 50 59 70 44 53 70 44 53 70 44 53 70 44 53 70 44 53 70 44 53 70 44 53 68 45 53 55 35 44 53 36 44 53 36 44 53 36 44 53 36 44 53 36 44 53 36 44 53 36 44 77 60 68 78 61 69 81 64 72 84 67 75 88 71 79 91 74 82 93 76 84 96 76 85 82 58 72 80 56 70 78 54 68 73 53 65 69 49 61 63 47 58 59 46 56 55 45 54 44 39 46 44 43 49 47 48 53 50 55 59 56 61 65 59 69 71 63 73 75 65 75 77 85 88 93 87 88 93 87 88 93 87 88 93 87 88 93 87 88 93 87 88 93 87 88 93 92 93 98 90 91 96 88 89 94 85 86 91 81 82 87 78 79 84 76 77 82 75 74 79 39 33 35 41 32 33 41 32 33 41 32 33 41 32 33 41 32 33 41 32 33 41 32 33 48 39 40 49 40 41 51 42 43 54 45 46 57 48 49 59 50 51 61 52 53 62 53 54 53 47 49 53 47 49 53 47 49 53 47 49 53 47 49 53 47 49 53 47 49 53 47 49 62 56 58 62 56 58 62 56 58 62 56 58 62 56 58 62 56 58 62 56 58 62 56 58 86 77 78 88 79 80 90 81 82 93 84 85 97 88 89 100 91 92 102 93 94 104 95 96 101 92 93 101 92 93 101 92 93 101 92 93 101 92 93 101 92 93 101 92 93 99 93 95 95 89 93 92 87 93 87 82 88 80 75 81 74 69 75 67 62 68 62 57 63 60 55 61 67 62 68 69 64 70 74 69 75 81 76 82 87 82 88 94 89 95 99 94 100 101 96 102 97 95 98 97 95 98 97 95 98 97 95 98 97 95 98 97 95 98 97 95 98 97 95 98 100 98 101 100 98 101 100 98 101 100 98 101 100 98 101 100 98 101 100 98 101 102 98 99 100 90 89 99 88 86 97 86 84 94 83 81 90 79 77 87 76 74 85 74 72 83 72 70 76 65 63 78 67 65 80 69 67 83 72 70 87 76 74 90 79 77 92 81 79 96 82 81 111 93 93 112 92 93 112 92 93 112 92 93 112 92 93 112 92 93 112 92 93 112 92 93 112 92 93 110 90 91 108 88 89 105 85 86 101 81 82 98 78 79 96 76 77 93 75 75 111 97 97 108 96 96 109 93 94 106 90 91 107 87 89 105 83 86 105 80 84 107 78 83 104 71 78 107 70 78 109 69 78 110 68 78 113 67 78 113 67 78 116 66 78 114 66 80 113 65 81 108 64 81 103 59 76 94 53 69 88 47 63 78 42 56 71 37 51 67 37 49 51 25 36 50 29 38
85 75 74 81 71 70 78 68 67 76 66 65 77 63 63 73 52 59 76 50 59 76 50 59 76 50 59 76 50 59 76 50 59 76 50 59 76 50 59 70 44 53 70 44 53 70 44 53 70 44 53 70 44 53 70 44 53 70 44 53 68 45 53 55 35 44 53 36 44 53 36 44 53 36 44 53 36 44 53 36 44 53 36 44 53 36 44 82 65 73 83 66 74 86 69 77 89 72 80 92 75 83 96 79 87 98 81 89 101 81 90 82 58 72 80 56 70 78 54 68 73 53 65 69 49 61 63 47 58 59 46 56 55 45 54 43 38 45 43 42 48 48 49 54 52 57 61 59 64 68 63 73 75 68 78 80 71 81 83 87 90 95 89 90 95 89 90 95 89 90 95 89 90 95 89 90 95 89 90 95 89 90 95 92 93 98 90 91 96 88 89 94 85 86 91 81 82 87 78 79 84 76 77 82 75 74 79 37 31 33 39 30 31 39 30 31 39 30 31 39 30 31 39 30 31 39 30 31 39 30 31 40 31 32 42 33 34 45 36 37 48 39 40 52 43 44 56 47 48 59 50 51 60 51 52 53 47 49 53 47 49 53 47 49 53 47 49 53 47 49 53 47 49 53 47 49 53 47 49 60 54 56 60 54 56 60 54 56 60 54 56 60 54 56 60 54 56 60 54 56 60 54 56 89 80 81 90 81 82 92 83 84 96 87 88 99 90 91 102 93 94 105 96 97 106 97 98 101 92 93 101 92 93 101 92 93 101 92 93 101 92 93 101 92 93 101 92 93 99 93 95 95 89 93 92 87 93 87 82 88 80 75 81 74 69 75 67 62 68 62 57 63 60 55 61 67 62 68 69 64 70 74 69 75 81 76 82 87 82 88 94 89 95 99 94 100 101 96 102 97 95 98 97 95 98 97 95 98 97 95 98 97 95 98 97 95 98 97 95 98 97 95 98 100 98 101 100 98 101 100 98 101 100 98 101 100 98 101 100 98 101 100 98 101 102 98 99 100 90 89 99 88 86 97 86 84 94 83 81 90 79 77 87 76 74 85 74 72 83 72 70 74 63 61 75 64 62 78 67 65 81 70 68 84 73 71 88 77 75 90 79 77 93 79 78 111 93 93 112 92 93 112 92 93 112 92 93 112 92 93 112 92 93 112 92 93 112 92 93 114 94 95 113 93 94 110 90 91 107 87 88 104 84 85 100 80 81 98 78 79 96 78 78 114 100 100 111 99 99 111 95 96 107 91 92 106 86 88 103 81 84 102 77 81 104 75 80 104 71 78 107 70 78 109 69 78 110 68 78 113 67 78 113 67 78 116 66 78 114 66 80 113 65 81 108 64 81 103 59 76 94 53 69 88 47 63 78 42 56 71 37 51 67 37 49 51 25 36 50 29 38
85 75 74 81 71 70 78 68 67 76 66 65 75 63 63 73 52 59 74 51 59 74 51 59 74 51 59 74 51 59 74 51 59 74 51 59 74 51 59 68 45 53 68 45 53 68 45 53 68 45 53 68 45 53 68 45 53 68 45 53 68 45 53 55 36 42 53 36 42 55 35 44 53 36 42 55 35 44 53 36 42 55 35 44 53 36 42 87 67 76 86 69 75 90 70 79 92 75 81 97 77 86 98 81 87 103 83 92 104 84 93 81 59 71 79 57 69 77 55 67 73 53 64 67 50 60 63 47 57 59 46 55 56 45 53 44 37 44 46 41 47 50 48 53 57 56 61 64 65 69 69 73 76 75 79 82 78 82 85 91 92 97 91 92 97 92 91 97 91 92 97 92 91 97 91 92 97 92 91 97 91 92 97 93 92 98 90 91 96 89 88 94 85 86 91 82 81 87 78 79 84 77 76 82 75 74 80 34 29 35 35 29 33 35 29 33 35 29 33 35 29 33 35 29 33 35 29 33 35 29 33 34 28 32 35 29 33 39 33 37 43 37 41 48 42 46 52 46 50 56 50 54 58 52 56 53 47 51 52 47 51 53 47 51 52 47 51 53 47 51 52 47 51 53 47 51 52 47 51 58 52 56 57 52 56 58 52 56 57 52 56 58 52 56 57 52 56 58 52 56 57 52 56 87 83 84 88 84 83 91 87 88 94 90 89 97 93 94 101 97 96 103 99 100 104 100 99 98 94 95 98 94 93 98 94 95 98 94 93 98 94 95 98 94 93 98 94 95 99 93 95 97 88 93 95 85 93 90 80 88 83 73 81 77 67 75 70 60 68 65 55 63 63 53 61 70 60 68 72 62 70 77 67 75 84 74 82 90 80 88 97 87 95 102 92 100 104 95 100 100 94 96 99 95 96 99 95 96 99 95 96 99 95 96 99 95 96 99 95 96 99 95 96 102 98 99 102 98 99 102 98 99 102 98 99 102 98 99 102 98 99 102 98 99 103 97 97 101 89 89 101 87 86 99 85 84 96 82 81 92 78 77 89 75 74 87 73 72 85 71 70 75 61 60 76 62 61 78 64 63 82 68 67 85 71 70 88 74 73 91 77 76 92 78 77 111 93 93 111 93 93 112 92 93 111 93 93 112 92 93 111 93 93 112 92 93 111 93 93 115 95 96 113 95 95 112 92 93 107 89 89 105 85 86 101 83 83 99 79 80 97 79 79 119 100 102 117 98 100 115 95 97 110 90 92 107 85 88 104 79 83 102 75 80 102 73 78 104 71 78 106 71 78 107 70 78 109 69 78 110 68 78 111 68 78 113 67 78 113 67 80 110 66 81 107 64 81 101 60 76 92 54 69 85 49 63 76 42 56 69 39 51 64 38 49 49 26 36 49 29 38
91 83 81 91 83 81 91 83 81 91 83 81 93 81 81 71 54 60 74 53 60 75 54 61 76 55 62 78 57 64 79 58 65 80 59 66 80 59 66 67 46 53 67 46 53 67 46 53 67 46 53 67 46 53 67 46 53 67 46 53 67 46 53 50 29 36 51 32 36 57 36 43 63 44 48 70 49 56 76 57 61 82 61 68 83 64 68 103 82 89 102 83 87 103 82 89 102 83 87 103 82 89 102 83 87 103 82 89 102 83 89 103 84 90 98 81 89 93 76 84 87 70 78 79 64 71 73 58 65 68 53 60 63 50 57 58 45 52 60 49 55 66 55 61 73 62 68 80 71 76 88 79 84 94 85 90 95 89 93 89 87 92 88 87 93 89 86 93 88 87 93 89 86 93 88 87 93 89 86 93 88 87 93 92 89 96 89 88 94 88 85 92 84 83 89 81 78 85 77 76 82 76 73 80 73 72 80 35 33 44 35 33 46 35 33 46 35 33 46 35 33 46 35 33 46 35 33 46 35 33 46 41 39 52 41 39 52 41 39 52 41 39 52 41 39 52 41 39 52 41 39 52 42 39 50 47 44 53 47 44 53 49 43 53 47 44 53 49 43 53 47 44 53 49 43 53 47 44 53 49 43 53 50 47 56 57 51 61 61 58 67 70 64 74 74 71 80 81 75 85 82 79 86 92 93 95 92 94 93 92 93 95 92 94 93 92 93 95 92 94 93 92 93 95 92 94 93 97 98 100 97 99 98 97 98 100 97 99 98 97 98 100 97 99 98 97 98 100 99 97 100 85 72 79 88 68 77 85 65 74 80 60 69 76 56 65 71 51 60 68 48 57 66 46 55 86 66 75 88 68 77 90 70 79 93 73 82 97 77 86 100 80 89 102 82 91 102 85 91 103 93 92 102 94 91 102 94 91 102 94 91 102 94 91 102 94 91 102 94 91 102 94 91 98 90 87 98 90 87 98 90 87 98 90 87 98 90 87 98 90 87 98 90 87 99 89 87 103 89 88 104 88 88 104 88 88 104 88 88 104 88 88 104 88 88 104 88 88 104 88 88 86 70 70 86 70 70 86 70 70 86 70 70 86 70 70 86 70 70 86 70 70 86 70 70 94 79 76 95 80 77 101 83 81 103 88 85 110 92 90 112 97 94 118 100 98 118 103 100 108 90 88 106 91 88 107 89 87 104 89 86 104 86 84 101 86 83 102 84 82 103 83 84 116 91 95 117 88 93 115 86 91 112 83 88 108 79 84 106 75 81 104 73 79 102 71 77 104 71 78 104 71 78 106 71 78 106 71 78 106 71 78 107 70 78 107 70 78 107 69 80 99 61 74 96 60 74 89 55 69 81 49 62 74 44 56 65 37 49 57 34 44 53 33 42 47 30 38 46 33 40
91 83 81 91 83 81 91 83 81 91 83 81 92 82 81 72 55 61 75 56 62 75 56 62 76 57 63 76 57 63 77 58 64 77 58 64 78 59 65 66 47 53 66 47 53 66 47 53 66 47 53 66 47 53 66 47 53 66 47 53 66 47 53 50 29 34 52 31 36 57 36 41 64 43 48 70 49 54 77 56 61 82 61 66 84 63 68 103 82 87 103 82 87 103 82 87 103 82 87 103 82 87 103 82 87 103 82 87 102 83 87 100 83 89 96 81 86 91 76 81 85 70 75 78 63 68 72 57 62 67 52 57 64 49 54 59 44 49 62 47 52 67 52 57 74 59 64 81 66 71 88 73 78 94 79 84 94 83 89 94 87 94 91 88 95 91 88 95 91 88 95 91 88 95 91 88 95 91 88 95 91 88 95 88 85 92 86 83 90 84 81 88 81 78 85 77 74 81 74 71 78 72 69 76 69 68 76 35 33 47 34 33 49 34 33 49 34 33 49 34 33 49 34 33 49 34 33 49 34 33 49 40 39 55 40 39 55 40 39 55 40 39 55 40 39 55 40 39 55 40 39 55 40 39 53 47 43 57 47 44 55 47 44 55 47 44 55 47 44 55 47 44 55 47 44 55 47 44 55 48 45 56 51 48 59 56 53 64 62 59 70 69 66 77 75 72 83 80 77 88 82 81 89 90 94 97 89 95 95 90 94 95 89 95 95 90 94 95 89 95 95 90 94 95 89 95 95 93 97 98 92 98 98 93 97 98 92 98 98 93 97 98 92 98 98 93 97 98 97 95 98 86 69 77 89 66 76 86 63 73 82 59 69 78 55 65 74 51 61 71 48 58 70 47 57 88 65 75 90 67 77 92 69 79 95 72 82 99 76 86 102 79 89 104 81 91 104 85 91 106 92 91 103 94 89 103 94 89 103 94 89 103 94 89 103 94 89 103 94 89 103 94 89 99 90 85 99 90 85 99 90 85 99 90 85 99 90 85 99 90 85 99 90 85 100 89 85 102 86 86 104 86 86 104 86 86 104 86 86 104 86 86 104 86 86 104 86 86 104 86 86 90 72 72 90 72 72 90 72 72 90 72 72 90 72 72 90 72 72 90 72 72 90 72 72 94 79 76 96 81 78 99 84 81 102 87 84 106 91 88 110 95 92 113 98 95 115 100 97 105 90 87 104 89 86 104 89 86 103 88 85 103 88 85 102 87 84 102 87 84 104 84 83 119 90 95 119 86 93 117 84 91 114 81 88 110 77 84 107 74 81 105 72 79 103 70 77 104 71 78 104 71 78 104 71 78 104 71 78 104 71 78 104 71 78 104 71 78 104 71 80 96 63 74 93 61 74 88 56 69 78 50 62 72 44 56 62 39 49 56 35 44 51 34 42 44 31 38 44 35 40
91 83 81 91 83 81 91 83 81 91 83 81 92 82 81 76 59 65 78 59 65 77 58 64 76 57 63 76 57 63 75 56 62 74 55 61 74 55 61 66 47 53 66 47 53 66 47 53 66 47 53 66 47 53 66 47 53 66 47 53 66 47 53 50 29 34 52 31 36 57 36 41 64 43 48 70 49 54 77 56 61 82 61 66 84 63 68 103 82 87 103 82 87 103 82 87 103 82 87 103 82 87 103 82 87 103 82 87 102 83 87 97 80 86 94 79 84 89 74 79 82 67 72 75 60 65 69 54 59 64 49 54 62 47 52 57 42 47 60 45 50 64 49 54 70 55 60 76 61 66 82 67 72 86 71 76 85 74 80 95 88 95 92 89 96 92 89 96 92 89 96 92 89 96 92 89 96 92 89 96 92 89 96 80 77 84 79 76 83 77 74 81 73 70 77 70 67 74 67 64 71 64 61 68 62 61 69 35 33 47 34 33 49 34 33 49 34 33 49 34 33 49 34 33 49 34 33 49 34 33 49 40 39 55 40 39 55 40 39 55 40 39 55 40 39 55 40 39 55 40 39 55 40 39 53 47 43 57 47 44 55 47 44 55 47 44 55 47 44 55 47 44 55 47 44 55 47 44 55 51 48 59 53 50 61 58 55 66 65 62 73 72 69 80 78 75 86 83 80 91 84 83 91 92 93 97 90 94 95 92 93 95 90 94 95 92 93 95 90 94 95 92 93 95 90 94 95 93 94 96 91 95 96 93 94 96 91 95 96 93 94 96 91 95 96 93 94 96 97 92 96 83 66 74 86 63 73 84 61 71 81 58 68 79 56 66 76 53 63 74 51 61 73 50 60 88 65 75 90 67 77 92 69 79 95 72 82 99 76 86 102 79 89 104 81 91 104 85 91 106 92 91 103 94 89 103 94 89 103 94 89 103 94 89 103 94 89 103 94 89 103 94 89 99 90 85 99 90 85 99 90 85 99 90 85 99 90 85 99 90 85 99 90 85 100 89 85 100 84 84 102 84 84 102 84 84 102 84 84 102 84 84 102 84 84 102 84 84 102 84 84 92 74 74 92 74 74 92 74 74 92 74 74 92 74 74 92 74 74 92 74 74 92 74 74 95 80 77 96 81 78 98 83 80 101 86 83 103 88 85 106 91 88 108 93 90 109 94 91 101 86 83 101 86 83 102 87 84 103 88 85 103 88 85 104 89 86 105 90 87 108 88 87 119 90 95 119 86 93 117 84 91 114 81 88 110 77 84 107 74 81 105 72 79 103 70 77 104 71 78 104 71 78 104 71 78 104 71 78 104 71 78 104 71 78 104 71 78 104 71 80 96 63 74 93 61 74 88 56 69 78 50 62 72 44 56 62 39 49 56 35 44 51 34 42 44 31 38 44 35 40
91 83 81 91 83 81 91 83 81 91 83 81 92 82 81 80 63 69 81 62 68 80 61 67 77 58 64 75 56 62 72 53 59 71 52 58 70 51 57 66 47 53 66 47 53 66 47 53 66 47 53 66 47 53 66 47 53 66 47 53 66 47 53 50 29 34 52 31 36 57 36 41 64 43 48 70 49 54 77 56 61 82 61 66 84 63 68 103 82 87 103 82 87 103 82 87 103 82 87 103 82 87 103 82 87 103 82 87 102 83 87 94 77 83 90 75 80 86 71 76 79 64 69 72 57 62 66 51 56 61 46 51 58 43 48 55 40 45 57 42 47 60 45 50 64 49 54 69 54 59 73 58 63 76 61 66 74 63 69 91 84 91 88 85 92 88 85 92 88 85 92 88 85 92 88 85 92 88 85 92 88 85 92 71 68 75 70 67 74 67 64 71 64 61 68 60 57 64 57 54 61 55 52 59 53 52 60 35 33 47 34 33 49 34 33 49 34 33 49 34 33 49 34 33 49 34 33 49 34 33 49 40 39 55 40 39 55 40 39 55 40 39 55 40 39 55 40 39 55 40 39 55 40 39 53 47 43 57 47 44 55 47 44 55 47 44 55 47 44 55 47 44 55 47 44 55 47 44 55 54 51 62 57 54 65 61 58 69 68 65 76 75 72 83 81 78 89 86 83 94 89 86 95 93 92 97 92 93 95 93 93 95 92 93 95 93 93 95 92 93 95 93 93 95 92 93 95 91 91 93 90 91 93 91 91 93 90 91 93 91 91 93 90 91 93 91 91 93 94 89 93 78 61 69 82 59 69 81 58 68 80 57 67 80 57 67 79 56 66 78 55 65 78 55 65 88 65 75 90 67 77 92 69 79 95 72 82 99 76 86 102 79 89 104 81 91 104 85 91 106 92 91 103 94 89 103 94 89 103 94 89 103 94 89 103 94 89 103 94 89 103 94 89 99 90 85 99 90 85 99 90 85 99 90 85 99 90 85 99 90 85 99 90 85 100 89 85 97 81 81 99 81 81 99 81 81 99 81 81 99 81 81 99 81 81 99 81 81 99 81 81 95 77 77 95 77 77 95 77 77 95 77 77 95 77 77 95 77 77 95 77 77 95 77 77 96 81 78 97 82 79 97 82 79 98 83 80 99 84 81 100 85 82 101 86 83 101 86 83 97 82 79 98 83 80 99 84 81 102 87 84 104 89 86 107 92 89 108 93 90 112 92 91 119 90 95 119 86 93 117 84 91 114 81 88 110 77 84 107 74 81 105 72 79 103 70 77 104 71 78 104 71 78 104 71 78 104 71 78 104 71 78 104 71 78 104 71 78 104 71 80 96 63 74 93 61 74 88 56 69 78 50 62 72 44 56 62 39 49 56 35 44 51 34 42 44 31 38 44 35 40
91 83 81 91 83 81 91 83 81 91 83 81 92 82 81 85 68 74 85 66 72 82 63 69 78 59 65 74 55 61 70 51 57 67 48 54 65 46 52 66 47 53 66 47 53 66 47 53 66 47 53 66 47 53 66 47 53 66 47 53 66 47 53 50 29 34 52 31 36 57 36 41 64 43 48 70 49 54 77 56 61 82 61 66 84 63 68 103 82 87 103 82 87 103 82 87 103 82 87 103 82 87 103 82 87 103 82 87 102 83 87 91 74 80 87 72 77 82 67 72 76 61 66 69 54 59 62 47 52 58 43 48 55 40 45 53 38 43 54 39 44 56 41 46 58 43 48 61 46 51 63 48 53 65 50 55 63 52 58 80 73 80 77 74 81 77 74 81 77 74 81 77 74 81 77 74 81 77 74 81 77 74 81 60 57 64 59 56 63 57 54 61 54 51 58 50 47 54 47 44 51 44 41 48 42 41 49 35 33 47 34 33 49 34 33 49 34 33 49 34 33 49 34 33 49 34 33 49 34 33 49 40 39 55 40 39 55 40 39 55 40 39 55 40 39 55 40 39 55 40 39 55 40 39 53 47 43 57 47 44 55 47 44 55 47 44 55 47 44 55 47 44 55 47 44 55 47 44 55 57 54 65 60 57 68 65 62 73 71 68 79 78 75 86 85 82 93 89 86 97 92 89 98 94 92 97 93 93 95 94 92 95 93 93 95 94 92 95 93 93 95 94 92 95 93 93 95 88 86 89 87 87 89 88 86 89 87 87 89 88 86 89 87 87 89 88 86 89 91 85 89 74 57 65 78 55 65 79 56 66 80 57 67 80 57 67 81 58 68 82 59 69 82 59 69 88 65 75 90 67 77 92 69 79 95 72 82 99 76 86 102 79 89 104 81 91 104 85 91 106 92 91 103 94 89 103 94 89 103 94 89 103 94 89 103 94 89 103 94 89 103 94 89 99 90 85 99 90 85 99 90 85 99 90 85 99 90 85 99 90 85 99 90 85 100 89 85 93 77 77 95 77 77 95 77 77 95 77 77 95 77 77 95 77 77 95 77 77 95 77 77 99 81 81 99 81 81 99 81 81 99 81 81 99 81 81 99 81 81 99 81 81 99 81 81 98 83 80 97 82 79 97 82 79 96 81 78 95 80 77 94 79 76 93 78 75 93 78 75 92 77 74 94 79 76 97 82 79 101 86 83 105 90 87 109 94 91 112 97 94 117 97 96 119 90 95 119 86 93 117 84 91 114 81 88 110 77 84 107 74 81 105 72 79 103 70 77 104 71 78 104 71 78 104 71 78 104 71 78 104 71 78 104 71 78 104 71 78 104 71 80 96 63 74 93 61 74 88 56 69 78 50 62 72 44 56 62 39 49 56 35 44 51 34 42 44 31 38 44 35 40
91 83 81 91 83 81 91 83 81 91 83 81 92 82 81 89 72 78 89 70 76 85 66 72 79 60 66 73 54 60 67 48 54 63 44 50 61 42 48 66 47 53 66 47 53 66 47 53 66 47 53 66 47 53 66 47 53 66 47 53 66 47 53 50 29 34 52 31 36 57 36 41 64 43 48 70 49 54 77 56 61 82 61 66 84 63 68 103 82 87 103 82 87 103 82 87 103 82 87 103 82 87 103 82 87 103 82 87 102 83 87 87 70 76 84 69 74 79 64 69 73 58 63 66 51 56 59 44 49 54 39 44 52 37 42 51 36 41 52 37 42 52 37 42 53 38 43 54 39 44 54 39 44 55 40 45 52 41 47 65 58 65 62 59 66 62 59 66 62 59 66 62 59 66 62 59 66 62 59 66 62 59 66 51 48 55 50 47 54 47 44 51 44 41 48 41 38 45 37 34 41 35 32 39 33 32 40 35 33 47 34 33 49 34 33 49 34 33 49 34 33 49 34 33 49 34 33 49 34 33 49 40 39 55 40 39 55 40 39 55 40 39 55 40 39 55 40 39 55 40 39 55 40 39 53 47 43 57 47 44 55 47 44 55 47 44 55 47 44 55 47 44 55 47 44 55 47 44 55 61 58 69 63 60 71 68 65 76 74 71 82 81 78 89 88 85 96 93 90 101 95 92 101 96 91 97 96 91 95 96 91 95 96 91 95 96 91 95 96 91 95 96 91 95 96 91 95 87 82 86 87 82 86 87 82 86 87 82 86 87 82 86 87 82 86 87 82 86 90 81 86 71 51 60 74 51 61 76 53 63 79 56 66 81 58 68 84 61 71 86 63 73 87 64 74 88 65 75 90 67 77 92 69 79 95 72 82 99 76 86 102 79 89 104 81 91 104 85 91 106 92 91 103 94 89 103 94 89 103 94 89 103 94 89 103 94 89 103 94 89 103 94 89 99 90 85 99 90 85 99 90 85 99 90 85 99 90 85 99 90 85 99 90 85 100 89 85 90 74 74 92 74 74 92 74 74 92 74 74 92 74 74 92 74 74 92 74 74 92 74 74 102 84 84 102 84 84 102 84 84 102 84 84 102 84 84 102 84 84 102 84 84 102 84 84 99 84 81 98 83 80 96 81 78 93 78 75 91 76 73 88 73 70 86 71 68 85 70 67 88 73 70 90 75 72 94 79 76 100 85 82 106 91 88 112 97 94 116 101 98 121 101 100 119 90 95 119 86 93 117 84 91 114 81 88 110 77 84 107 74 81 105 72 79 103 70 77 104 71 78 104 71 78 104 71 78 104 71 78 104 71 78 104 71 78 104 71 78 104 71 80 96 63 74 93 61 74 88 56 69 78 50 62 72 44 56 62 39 49 56 35 44 51 34 42 44 31 38 44 35 40
91 83 81 91 83 81 91 83 81 91 83 81 92 82 81 93 76 82 92 73 79 87 68 74 80 61 67 72 53 59 65 46 52 60 41 47 57 38 44 66 47 53 66 47 53 66 47 53 66 47 53 66 47 53 66 47 53 66 47 53 66 47 53 50 29 34 52 31 36 57 36 41 64 43 48 70 49 54 77 56 61 82 61 66 84 63 68 103 82 87 103 82 87 103 82 87 103 82 87 103 82 87 103 82 87 103 82 87 102 83 87 85 68 74 81 66 71 76 61 66 70 55 60 63 48 53 57 42 47 52 37 42 49 34 39 50 35 40 50 35 40 49 34 39 49 34 39 48 33 38 47 32 37 47 32 37 44 33 39 50 43 50 47 44 51 47 44 51 47 44 51 47 44 51 47 44 51 47 44 51 47 44 51 44 41 48 42 39 46 40 37 44 37 34 41 33 30 37 30 27 34 28 25 32 25 24 32 35 33 47 34 33 49 34 33 49 34 33 49 34 33 49 34 33 49 34 33 49 34 33 49 40 39 55 40 39 55 40 39 55 40 39 55 40 39 55 40 39 55 40 39 55 40 39 53 47 43 57 47 44 55 47 44 55 47 44 55 47 44 55 47 44 55 47 44 55 47 44 55 63 60 71 66 63 74 71 68 79 77 74 85 84 81 92 90 87 98 95 92 103 100 94 104 97 90 97 97 91 95 97 91 95 97 91 95 97 91 95 97 91 95 97 91 95 97 91 95 86 80 84 86 80 84 86 80 84 86 80 84 86 80 84 86 80 84 86 80 84 89 78 84 68 48 57 71 48 58 74 51 61 78 55 65 82 59 69 86 63 73 89 66 76 90 67 77 88 65 75 90 67 77 92 69 79 95 72 82 99 76 86 102 79 89 104 81 91 104 85 91 106 92 91 103 94 89 103 94 89 103 94 89 103 94 89 103 94 89 103 94 89 103 94 89 99 90 85 99 90 85 99 90 85 99 90 85 99 90 85 99 90 85 99 90 85 100 89 85 88 72 72 90 72 72 90 72 72 90 72 72 90 72 72 90 72 72 90 72 72 90 72 72 104 86 86 104 86 86 104 86 86 104 86 86 104 86 86 104 86 86 104 86 86 104 86 86 100 85 82 98 83 80 95 80 77 92 77 74 88 73 70 84 69 66 81 66 63 79 64 61 84 69 66 87 72 69 92 77 74 99 84 81 107 92 89 114 99 96 119 104 101 125 105 104 119 90 95 119 86 93 117 84 91 114 81 88 110 77 84 107 74 81 105 72 79 103 70 77 104 71 78 104 71 78 104 71 78 104 71 78 104 71 78 104 71 78 104 71 78 104 71 80 96 63 74 93 61 74 88 56 69 78 50 62 72 44 56 62 39 49 56 35 44 51 34 42 44 31 38 44 35 40
91 83 81 91 83 81 91 83 81 91 83 81 92 82 81 95 78 84 94 75 81 88 69 75 80 61 67 72 53 59 64 45 51 58 39 45 55 36 42 66 47 53 66 47 53 66 47 53 66 47 53 66 47 53 66 47 53 66 47 53 66 47 53 50 29 34 52 31 36 57 36 41 64 43 48 70 49 54 77 56 61 82 61 66 84 63 68 103 82 87 103 82 87 103 82 87 103 82 87 103 82 87 103 82 87 103 82 87 102 83 87 84 67 73 80 65 70 75 60 65 69 54 59 62 47 52 56 41 46 51 36 41 48 33 38 49 34 39 48 33 38 48 33 38 46 31 36 45 30 35 44 29 34 43 28 33 39 28 34 40 33 40 37 34 41 37 34 41 37 34 41 37 34 41 37 34 41 37 34 41 37 34 41 40 37 44 38 35 42 36 33 40 33 30 37 29 26 33 26 23 30 24 21 28 21 20 28 35 33 47 34 33 49 34 33 49 34 33 49 34 33 49 34 33 49 34 33 49 34 33 49 40 39 55 40 39 55 40 39 55 40 39 55 40 39 55 40 39 55 40 39 55 40 39 53 47 43 57 47 44 55 47 44 55 47 44 55 47 44 55 47 44 55 47 44 55 47 44 55 64 61 72 67 64 75 72 69 80 78 75 86 85 82 93 91 88 99 96 93 104 101 95 105 99 89 97 100 89 95 100 89 95 100 89 95 100 89 95 100 89 95 100 89 95 100 89 95 87 76 82 87 76 82 87 76 82 87 76 82 87 76 82 87 76 82 87 76 82 88 75 82 67 46 55 70 47 57 73 50 60 78 55 65 82 59 69 87 64 74 90 67 77 92 69 79 88 65 75 90 67 77 92 69 79 95 72 82 99 76 86 102 79 89 104 81 91 104 85 91 106 92 91 103 94 89 103 94 89 103 94 89 103 94 89 103 94 89 103 94 89 103 94 89 99 90 85 99 90 85 99 90 85 99 90 85 99 90 85 99 90 85 99 90 85 100 89 85 86 70 70 88 70 70 88 70 70 88 70 70 88 70 70 88 70 70 88 70 70 88 70 70 106 88 88 106 88 88 106 88 88 106 88 88 106 88 88 106 88 88 106 88 88 106 88 88 100 85 82 99 84 81 95 80 77 91 76 73 86 71 68 82 67 64 78 63 60 76 61 58 82 67 64 85 70 67 91 76 73 99 84 81 107 92 89 115 100 97 121 106 103 127 107 106 119 90 95 119 86 93 117 84 91 114 81 88 110 77 84 107 74 81 105 72 79 103 70 77 104 71 78 104 71 78 104 71 78 104 71 78 104 71 78 104 71 78 104 71 78 104 71 80 96 63 74 93 61 74 88 56 69 78 50 62 72 44 56 62 39 49 56 35 44 51 34 42 44 31 38 44 35 40
93 85 83 93 85 83 93 85 83 93 85 83 94 84 83 102 85 91 101 82 88 95 76 82 87 68 74 79 60 66 72 53 59 66 47 53 63 44 50 61 42 48 61 42 48 61 42 48 61 42 48 61 42 48 61 42 48 61 42 48 61 42 48 51 30 35 53 32 37 58 37 42 65 44 49 71 50 55 78 57 62 83 62 67 85 64 69 102 81 86 102 81 86 102 81 86 102 81 86 102 81 86 102 81 86 102 81 86 101 82 86 87 70 76 78 63 68 65 50 55 53 38 43 46 31 36 45 30 35 48 33 38 51 36 41 46 31 36 46 31 36 46 31 36 46 31 36 46 31 36 46 31 36 46 31 36 43 32 38 37 30 37 34 31 38 34 31 38 34 31 38 34 31 38 34 31 38 34 31 38 34 31 38 32 29 36 32 29 36 32 29 36 32 29 36 32 29 36 32 29 36 32 29 36 31 30 38 39 37 51 38 37 53 38 37 53 38 37 53 38 37 53 38 37 53 38 37 53 38 37 53 40 39 55 40 39 55 40 39 55 40 39 55 40 39 55 40 39 55 40 39 55 40 39 53 43 39 53 43 40 51 43 40 51 43 40 51 43 40 51 43 40 51 43 40 51 43 40 51 57 54 65 64 61 72 75 72 83 84 81 92 87 84 95 85 82 93 79 76 87 77 71 81 76 63 72 78 63 70 78 63 70 78 63 70 78 63 70 78 63 70 78 63 70 78 63 70 64 49 56 64 49 56 64 49 56 64 49 56 64 49 56 64 49 56 64 49 56 65 48 56 74 53 62 77 54 64 79 56 66 82 59 69 86 63 73 89 66 76 91 68 78 93 70 80 107 84 94 107 84 94 107 84 94 107 84 94 107 84 94 107 84 94 107 84 94 105 86 92 103 89 88 100 91 86 100 91 86 100 91 86 100 91 86 100 91 86 100 91 86 100 91 86 99 90 85 99 90 85 99 90 85 99 90 85 99 90 85 99 90 85 99 90 85 100 89 85 92 76 76 94 76 76 94 76 76 94 76 76 94 76 76 94 76 76 94 76 76 94 76 76 92 74 74 93 75 75 96 78 78 99 81 81 102 84 84 106 88 88 108 90 90 109 91 91 113 98 95 111 96 93 108 93 90 103 88 85 99 84 81 94 79 76 91 76 73 89 74 71 108 93 90 108 93 90 108 93 90 108 93 90 108 93 90 108 93 90 108 93 90 111 91 90 109 80 85 111 78 85 111 78 85 111 78 85 111 78 85 111 78 85 111 78 85 111 78 85 116 83 90 116 83 90 116 83 90 116 83 90 116 83 90 116 83 90 116 83 90 116 83 92 113 80 91 102 70 83 87 55 68 69 41 53 58 30 42 51 28 38 51 30 39 50 33 41 44 31 38 48 39 44
91 83 81 91 83 81 91 83 81 91 83 81 92 82 81 98 81 87 97 78 84 91 72 78 84 65 71 77 58 64 70 51 57 65 46 52 62 43 49 61 42 48 61 42 48 61 42 48 61 42 48 61 42 48 61 42 48 61 42 48 61 42 48 51 30 35 53 32 37 58 37 42 65 44 49 71 50 55 78 57 62 83 62 67 85 64 69 102 81 86 102 81 86 102 81 86 102 81 86 102 81 86 102 81 86 102 81 86 101 82 86 87 70 76 78 63 68 65 50 55 53 38 43 46 31 36 45 30 35 48 33 38 51 36 41 46 31 36 46 31 36 46 31 36 46 31 36 46 31 36 46 31 36 46 31 36 43 32 38 37 30 37 34 31 38 34 31 38 34 31 38 34 31 38 34 31 38 34 31 38 34 31 38 32 29 36 32 29 36 32 29 36 32 29 36 32 29 36 32 29 36 32 29 36 31 30 38 39 37 51 38 37 53 38 37 53 38 37 53 38 37 53 38 37 53 38 37 53 38 37 53 40 39 55 40 39 55 40 39 55 40 39 55 40 39 55 40 39 55 40 39 55 40 39 53 43 39 53 43 40 51 43 40 51 43 40 51 43 40 51 43 40 51 43 40 51 43 40 51 60 57 68 67 64 75 78 75 86 87 84 95 90 87 98 88 85 96 82 79 90 81 73 84 76 60 70 79 59 68 79 59 68 79 59 68 79 59 68 79 59 68 79 59 68 79 59 68 67 47 56 67 47 56 67 47 56 67 47 56 67 47 56 67 47 56 67 47 56 67 47 56 74 53 62 77 54 64 79 56 66 82 59 69 86 63 73 89 66 76 91 68 78 93 70 80 107 84 94 107 84 94 107 84 94 107 84 94 107 84 94 107 84 94 107 84 94 105 86 92 103 89 88 100 91 86 100 91 86 100 91 86 100 91 86 100 91 86 100 91 86 100 91 86 99 90 85 99 90 85 99 90 85 99 90 85 99 90 85 99 90 85 99 90 85 100 89 85 92 76 76 94 76 76 94 76 76 94 76 76 94 76 76 94 76 76 94 76 76 94 76 76 91 73 73 92 74 74 94 76 76 98 80 80 101 83 83 104 86 86 107 89 89 108 90 90 111 96 93 110 95 92 107 92 89 103 88 85 99 84 81 95 80 77 92 77 74 91 76 73 108 93 90 108 93 90 108 93 90 108 93 90 108 93 90 108 93 90 108 93 90 111 91 90 109 80 85 111 78 85 111 78 85 111 78 85 111 78 85 111 78 85 111 78 85 111 78 85 116 83 90 116 83 90 116 83 90 116 83 90 116 83 90 116 83 90 116 83 90 116 83 92 113 80 91 102 70 83 87 55 68 69 41 53 58 30 42 51 28 38 51 30 39 50 33 41 44 31 38 48 39 44
89 81 79 89 81 79 89 81 79 89 81 79 90 80 79 89 72 78 89 70 76 85 66 72 79 60 66 73 54 60 67 48 54 63 44 50 60 41 47 61 42 48 61 42 48 61 42 48 61 42 48 61 42 48 61 42 48 61 42 48 61 42 48 51 30 35 53 32 37 58 37 42 65 44 49 71 50 55 78 57 62 83 62 67 85 64 69 102 81 86 102 81 86 102 81 86 102 81 86 102 81 86 102 81 86 102 81 86 101 82 86 87 70 76 78 63 68 65 50 55 53 38 43 46 31 36 45 30 35 48 33 38 51 36 41 46 31 36 46 31 36 46 31 36 46 31 36 46 31 36 46 31 36 46 31 36 43 32 38 37 30 37 34 31 38 34 31 38 34 31 38 34 31 38 34 31 38 34 31 38 34 31 38 32 29 36 32 29 36 32 29 36 32 29 36 32 29 36 32 29 36 32 29 36 31 30 38 39 37 51 38 37 53 38 37 53 38 37 53 38 37 53 38 37 53 38 37 53 38 37 53 40 39 55 40 39 55 40 39 55 40 39 55 40 39 55 40 39 55 40 39 55 40 39 53 43 39 53 43 40 51 43 40 51 43 40 51 43 40 51 43 40 51 43 40 51 43 40 51 64 61 72 70 67 78 81 78 89 90 87 98 93 90 101 91 88 99 85 82 93 84 76 87 75 58 68 78 57 66 78 57 66 78 57 66 78 57 66 78 57 66 78 57 66 78 57 66 68 47 56 68 47 56 68 47 56 68 47 56 68 47 56 68 47 56 68 47 56 68 47 56 75 52 62 77 54 64 79 56 66 82 59 69 86 63 73 89 66 76 91 68 78 93 70 80 107 84 94 107 84 94 107 84 94 107 84 94 107 84 94 107 84 94 107 84 94 105 86 92 103 89 88 100 91 86 100 91 86 100 91 86 100 91 86 100 91 86 100 91 86 100 91 86 99 90 85 99 90 85 99 90 85 99 90 85 99 90 85 99 90 85 99 90 85 100 89 85 92 76 76 94 76 76 94 76 76 94 76 76 94 76 76 94 76 76 94 76 76 94 76 76 88 70 70 90 72 72 92 74 74 95 77 77 99 81 81 102 84 84 104 86 86 106 88 88 108 93 90 107 92 89 105 90 87 102 87 84 100 85 82 97 82 79 95 80 77 94 79 76 108 93 90 108 93 90 108 93 90 108 93 90 108 93 90 108 93 90 108 93 90 111 91 90 109 80 85 111 78 85 111 78 85 111 78 85 111 78 85 111 78 85 111 78 85 111 78 85 116 83 90 116 83 90 116 83 90 116 83 90 116 83 90 116 83 90 116 83 90 116 83 92 113 80 91 102 70 83 87 55 68 69 41 53 58 30 42 51 28 38 51 30 39 50 33 41 44 31 38 48 39 44
86 78 76 86 78 76 86 78 76 86 78 76 87 77 76 78 61 67 79 60 66 76 57 63 72 53 59 67 48 54 63 44 50 60 41 47 58 39 45 61 42 48 61 42 48 61 42 48 61 42 48 61 42 48 61 42 48 61 42 48 61 42 48 51 30 35 53 32 37 58 37 42 65 44 49 71 50 55 78 57 62 83 62 67 85 64 69 102 81 86 102 81 86 102 81 86 102 81 86 102 81 86 102 81 86 102 81 86 101 82 86 87 70 76 78 63 68 65 50 55 53 38 43 46 31 36 45 30 35 48 33 38 51 36 41 46 31 36 46 31 36 46 31 36 46 31 36 46 31 36 46 31 36 46 31 36 43 32 38 37 30 37 34 31 38 34 31 38 34 31 38 34 31 38 34 31 38 34 31 38 34 31 38 32 29 36 32 29 36 32 29 36 32 29 36 32 29 36 32 29 36 32 29 36 31 30 38 39 37 51 38 37 53 38 37 53 38 37 53 38 37 53 38 37 53 38 37 53 38 37 53 40 39 55 40 39 55 40 39 55 40 39 55 40 39 55 40 39 55 40 39 55 40 39 53 43 39 53 43 40 51 43 40 51 43 40 51 43 40 51 43 40 51 43 40 51 43 40 51 63 60 71 70 67 78 80 77 88 89 86 97 92 89 100 90 87 98 84 81 92 85 75 86 74 54 65 76 53 63 78 52 63 76 53 63 78 52 63 76 53 63 78 52 63 76 53 63 71 45 56 69 46 56 71 45 56 69 46 56 71 45 56 69 46 56 71 45 56 69 46 56 75 52 62 77 54 64 79 56 66 82 59 69 86 63 73 89 66 76 91 68 78 93 70 80 107 84 94 107 84 94 107 84 94 107 84 94 107 84 94 107 84 94 107 84 94 105 86 92 103 89 88 100 91 86 100 91 86 100 91 86 100 91 86 100 91 86 100 91 86 100 91 86 99 90 85 99 90 85 99 90 85 99 90 85 99 90 85 99 90 85 99 90 85 100 89 85 92 76 76 94 76 76 94 76 76 94 76 76 94 76 76 94 76 76 94 76 76 94 76 76 85 67 67 86 68 68 89 71 71 92 74 74 95 77 77 99 81 81 101 83 83 102 84 84 103 88 85 103 88 85 102 87 84 101 86 83 101 86 83 100 85 82 99 84 81 99 84 81 108 93 90 108 93 90 108 93 90 108 93 90 108 93 90 108 93 90 108 93 90 111 91 90 109 80 85 111 78 85 111 78 85 111 78 85 111 78 85 111 78 85 111 78 85 111 78 85 116 83 90 116 83 90 116 83 90 116 83 90 116 83 90 116 83 90 116 83 90 116 83 92 113 80 91 102 70 83 87 55 68 69 41 53 58 30 42 51 28 38 51 30 39 50 33 41 44 31 38 48 39 44
82 74 72 82 74 72 82 74 72 82 74 72 83 73 72 67 50 56 68 49 55 66 47 53 64 45 51 61 42 48 59 40 46 57 38 44 56 37 43 61 42 48 61 42 48 61 42 48 61 42 48 61 42 48 61 42 48 61 42 48 61 42 48 51 30 35 53 32 37 58 37 42 65 44 49 71 50 55 78 57 62 83 62 67 85 64 69 102 81 86 102 81 86 102 81 86 102 81 86 102 81 86 102 81 86 102 81 86 101 82 86 87 70 76 78 63 68 65 50 55 53 38 43 46 31 36 45 30 35 48 33 38 51 36 41 46 31 36 46 31 36 46 31 36 46 31 36 46 31 36 46 31 36 46 31 36 43 32 38 37 30 37 34 31 38 34 31 38 34 31 38 34 31 38 34 31 38 34 31 38 34 31 38 32 29 36 32 29 36 32 29 36 32 29 36 32 29 36 32 29 36 32 29 36 31 30 38 39 37 51 38 37 53 38 37 53 38 37 53 38 37 53 38 37 53 38 37 53 38 37 53 40 39 55 40 39 55 40 39 55 40 39 55 40 39 55 40 39 55 40 39 55 40 39 53 43 39 53 43 40 51 43 40 51 43 40 51 43 40 51 43 40 51 43 40 51 43 40 51 56 53 64 63 60 71 73 70 81 82 79 90 86 83 94 83 80 91 78 75 86 78 68 79 71 49 61 74 48 59 75 47 59 74 48 59 75 47 59 74 48 59 75 47 59 74 48 59 72 44 56 71 45 56 72 44 56 71 45 56 72 44 56 71 45 56 72 44 56 71 45 56 75 52 62 77 54 64 79 56 66 82 59 69 86 63 73 89 66 76 91 68 78 93 70 80 107 84 94 107 84 94 107 84 94 107 84 94 107 84 94 107 84 94 107 84 94 105 86 92 103 89 88 100 91 86 100 91 86 100 91 86 100 91 86 100 91 86 100 91 86 100 91 86 99 90 85 99 90 85 99 90 85 99 90 85 99 90 85 99 90 85 99 90 85 100 89 85 92 76 76 94 76 76 94 76 76 94 76 76 94 76 76 94 76 76 94 76 76 94 76 76 82 64 64 83 65 65 85 67 67 89 71 71 92 74 74 95 77 77 98 80 80 99 81 81 99 84 81 99 84 81 100 85 82 101 86 83 101 86 83 102 87 84 103 88 85 103 88 85 108 93 90 108 93 90 108 93 90 108 93 90 108 93 90 108 93 90 108 93 90 111 91 90 109 80 85 111 78 85 111 78 85 111 78 85 111 78 85 111 78 85 111 78 85 111 78 85 116 83 90 116 83 90 116 83 90 116 83 90 116 83 90 116 83 90 116 83 90 116 83 92 113 80 91 102 70 83 87 55 68 69 41 53 58 30 42 51 28 38 51 30 39 50 33 41 44 31 38 48 39 44
79 71 69 79 71 69 79 71 69 79 71 69 80 70 69 56 39 45 58 39 45 57 38 44 57 38 44 56 37 43 55 36 42 55 36 42 54 35 41 61 42 48 61 42 48 61 42 48 61 42 48 61 42 48 61 42 48 61 42 48 61 42 48 51 30 35 53 32 37 58 37 42 65 44 49 71 50 55 78 57 62 83 62 67 85 64 69 102 81 86 102 81 86 102 81 86 102 81 86 102 81 86 102 81 86 102 81 86 101 82 86 87 70 76 78 63 68 65 50 55 53 38 43 46 31 36 45 30 35 48 33 38 51 36 41 46 31 36 46 31 36 46 31 36 46 31 36 46 31 36 46 31 36 46 31 36 43 32 38 37 30 37 34 31 38 34 31 38 34 31 38 34 31 38 34 31 38 34 31 38 34 31 38 32 29 36 32 29 36 32 29 36 32 29 36 32 29 36 32 29 36 32 29 36 31 30 38 39 37 51 38 37 53 38 37 53 38 37 53 38 37 53 38 37 53 38 37 53 38 37 53 40 39 55 40 39 55 40 39 55 40 39 55 40 39 55 40 39 55 40 39 55 40 39 53 43 39 53 43 40 51 43 40 51 43 40 51 43 40 51 43 40 51 43 40 51 43 40 51 44 41 52 51 48 59 61 58 69 70 67 78 74 71 82 71 68 79 66 63 74 66 56 67 68 46 58 72 44 56 74 44 56 72 44 56 74 44 56 72 44 56 74 44 56 72 44 56 74 44 56 72 44 56 74 44 56 72 44 56 74 44 56 72 44 56 74 44 56 72 44 56 77 51 62 77 54 64 79 56 66 82 59 69 86 63 73 89 66 76 91 68 78 93 70 80 107 84 94 107 84 94 107 84 94 107 84 94 107 84 94 107 84 94 107 84 94 105 86 92 103 89 88 100 91 86 100 91 86 100 91 86 100 91 86 100 91 86 100 91 86 100 91 86 99 90 85 99 90 85 99 90 85 99 90 85 99 90 85 99 90 85 99 90 85 100 89 85 92 76 76 94 76 76 94 76 76 94 76 76 94 76 76 94 76 76 94 76 76 94 76 76 78 60 60 80 62 62 82 64 64 85 67 67 89 71 71 92 74 74 94 76 76 96 78 78 94 79 76 95 80 77 97 82 79 100 85 82 102 87 84 105 90 87 107 92 89 108 93 90 108 93 90 108 93 90 108 93 90 108 93 90 108 93 90 108 93 90 108 93 90 111 91 90 109 80 85 111 78 85 111 78 85 111 78 85 111 78 85 111 78 85 111 78 85 111 78 85 116 83 90 116 83 90 116 83 90 116 83 90 116 83 90 116 83 90 116 83 90 116 83 92 113 80 91 102 70 83 87 55 68 69 41 53 58 30 42 51 28 38 51 30 39 50 33 41 44 31 38 48 39 44
77 69 67 77 69 67 77 69 67 77 69 67 78 68 67 48 31 37 50 31 37 50 31 37 51 32 38 52 33 39 52 33 39 53 34 40 53 34 40 61 42 48 61 42 48 61 42 48 61 42 48 61 42 48 61 42 48 61 42 48 61 42 48 51 30 35 53 32 37 58 37 42 65 44 49 71 50 55 78 57 62 83 62 67 85 64 69 102 81 86 102 81 86 102 81 86 102 81 86 102 81 86 102 81 86 102 81 86 101 82 86 87 70 76 78 63 68 65 50 55 53 38 43 46 31 36 45 30 35 48 33 38 51 36 41 46 31 36 46 31 36 46 31 36 46 31 36 46 31 36 46 31 36 46 31 36 43 32 38 37 30 37 34 31 38 34 31 38 34 31 38 34 31 38 34 31 38 34 31 38 34 31 38 32 29 36 32 29 36 32 29 36 32 29 36 32 29 36 32 29 36 32 29 36 31 30 38 39 37 51 38 37 53 38 37 53 38 37 53 38 37 53 38 37 53 38 37 53 38 37 53 40 39 55 40 39 55 40 39 55 40 39 55 40 39 55 40 39 55 40 39 55 40 39 53 43 39 53 43 40 51 43 40 51 43 40 51 43 40 51 43 40 51 43 40 51 43 40 51 31 28 39 38 35 46 48 45 56 57 54 65 61 58 69 58 55 66 53 50 61 53 43 54 67 43 56 72 42 54 73 41 54 72 42 54 73 41 54 72 42 54 73 41 54 72 42 54 75 43 56 74 44 56 75 43 56 74 44 56 75 43 56 74 44 56 75 43 56 74 44 56 77 51 62 77 54 64 79 56 66 82 59 69 86 63 73 89 66 76 91 68 78 93 70 80 107 84 94 107 84 94 107 84 94 107 84 94 107 84 94 107 84 94 107 84 94 105 86 92 103 89 88 100 91 86 100 91 86 100 91 86 100 91 86 100 91 86 100 91 86 100 91 86 99 90 85 99 90 85 99 90 85 99 90 85 99 90 85 99 90 85 99 90 85 100 89 85 92 76 76 94 76 76 94 76 76 94 76 76 94 76 76 94 76 76 94 76 76 94 76 76 76 58 58 77 59 59 80 62 62 83 65 65 86 68 68 90 72 72 92 74 74 93 75 75 91 76 73 92 77 74 95 80 77 99 84 81 103 88 85 107 92 89 110 95 92 111 96 93 108 93 90 108 93 90 108 93 90 108 93 90 108 93 90 108 93 90 108 93 90 111 91 90 109 80 85 111 78 85 111 78 85 111 78 85 111 78 85 111 78 85 111 78 85 111 78 85 116 83 90 116 83 90 116 83 90 116 83 90 116 83 90 116 83 90 116 83 90 116 83 92 113 80 91 102 70 83 87 55 68 69 41 53 58 30 42 51 28 38 51 30 39 50 33 41 44 31 38 48 39 44
75 67 65 75 67 65 75 67 65 75 67 65 76 66 67 40 28 32 43 28 35 44 29 36 45 30 37 46 31 38 48 33 40 48 33 40 49 34 41 58 43 50 58 43 50 58 43 50 58 43 50 58 43 50 58 43 50 58 43 50 59 42 48 51 30 37 54 31 39 59 36 44 66 43 51 72 49 57 79 56 64 84 61 69 86 63 71 103 80 88 103 80 88 103 80 88 103 80 88 103 80 88 103 80 88 103 80 88 102 81 88 86 71 78 76 63 70 63 50 57 51 38 45 44 31 38 43 30 37 46 33 40 49 36 43 44 31 38 44 31 38 44 31 38 44 31 38 44 31 38 44 31 38 44 31 38 43 32 40 36 31 38 34 31 38 34 31 40 34 31 38 34 31 40 34 31 38 34 31 40 34 31 38 32 29 38 32 29 36 32 29 38 32 29 36 32 29 38 32 29 36 32 29 38 31 30 38 36 38 50 35 39 51 35 39 51 35 39 51 35 39 51 36 38 51 36 38 51 38 37 51 40 39 53 40 39 53 41 39 53 41 39 53 42 38 53 42 38 53 42 38 53 42 38 53 45 39 51 45 39 51 45 39 51 45 39 51 45 39 51 45 39 51 45 39 51 45 39 51 25 19 31 32 26 38 42 36 48 51 45 57 54 48 60 52 46 58 46 40 52 46 34 46 65 41 54 70 40 50 71 39 52 70 40 50 71 39 52 70 40 50 71 39 52 70 40 50 75 43 56 74 44 54 75 43 56 74 44 54 75 43 56 74 44 54 75 43 56 74 44 56 78 50 62 79 53 64 81 55 66 82 59 69 86 63 73 89 66 76 90 69 78 92 71 80 106 85 94 105 85 94 105 85 94 103 86 94 103 86 94 103 86 94 103 86 94 102 87 92 100 90 89 99 91 88 99 91 89 99 91 88 99 91 89 99 91 88 99 91 89 99 91 88 98 90 88 98 90 87 98 90 88 98 90 87 98 90 88 98 90 87 98 90 88 99 89 87 91 77 76 92 76 76 94 76 76 92 76 76 94 76 76 92 76 76 94 76 76 92 76 76 75 57 57 74 58 58 78 60 60 80 64 64 85 67 67 86 70 70 91 73 73 92 74 72 91 73 71 93 75 73 96 78 76 101 83 81 105 87 85 110 92 90 113 95 93 115 97 95 110 92 90 110 92 90 110 92 90 110 92 90 110 92 90 110 92 90 110 92 90 112 91 90 110 79 85 111 78 85 113 77 87 111 78 85 113 77 87 111 78 85 113 77 87 111 78 85 118 82 92 116 83 90 118 82 92 116 83 90 118 82 92 116 83 90 118 82 92 115 84 92 111 81 93 98 72 83 81 58 68 66 43 53 54 33 42 49 29 38 48 31 39 47 34 41 43 32 38 48 39 44
68 59 60 65 56 57 62 53 54 59 50 51 58 49 52 43 34 39 43 33 41 43 33 41 43 33 41 43 33 41 43 33 41 43 33 41 43 33 41 44 34 42 44 34 42 44 34 42 44 34 42 44 34 42 44 34 42 44 34 42 46 33 42 49 25 38 56 26 38 61 31 43 68 38 50 74 44 56 81 51 63 86 56 68 88 58 70 104 74 86 104 74 86 104 74 86 104 74 86 104 74 86 104 74 86 104 74 86 99 75 88 63 50 60 59 49 58 57 47 56 54 44 53 50 40 49 47 37 46 45 35 44 43 33 42 42 32 41 42 32 41 42 32 41 42 32 41 42 32 41 42 32 41 42 32 41 40 33 41 46 40 50 46 40 50 46 40 52 46 40 50 46 40 52 46 40 50 46 40 52 46 40 50 40 34 46 40 34 44 40 34 46 40 34 44 40 34 46 40 34 44 40 34 46 36 36 46 32 41 48 28 43 50 29 42 50 29 42 50 31 41 50 32 41 50 35 39 50 36 38 50 40 40 52 41 39 52 42 38 52 45 37 52 47 36 52 47 36 52 48 35 52 48 36 50 47 35 49 47 35 47 47 35 47 47 35 47 47 35 47 47 35 47 47 35 47 47 35 47 46 34 46 46 34 46 46 34 46 46 34 46 46 34 46 46 34 46 46 34 46 49 33 44 62 39 49 65 38 45 67 37 47 65 38 45 67 37 47 65 38 45 67 37 47 65 38 45 66 36 46 66 39 46 70 40 50 71 44 51 77 47 57 78 51 58 82 52 62 84 54 64 78 48 60 80 50 62 81 53 65 85 59 70 87 64 74 91 70 79 93 73 82 93 76 84 96 81 88 93 82 88 92 83 88 90 84 88 89 84 88 89 84 88 87 85 88 87 85 88 92 87 91 93 87 89 93 87 91 93 87 89 93 87 91 93 87 89 93 87 91 93 87 89 100 94 98 100 94 96 100 94 98 100 94 96 100 94 98 100 94 96 100 94 98 102 93 94 96 85 83 98 84 81 99 84 81 98 84 81 99 84 81 98 84 81 99 84 81 98 84 81 85 70 67 84 70 67 85 70 67 84 70 67 85 70 67 84 70 67 85 70 67 85 70 67 95 75 74 97 78 74 99 80 76 102 83 79 106 87 83 109 90 86 111 92 88 113 94 90 114 95 91 112 93 89 110 91 87 107 88 84 103 84 80 100 81 77 98 79 75 99 75 75 104 71 78 106 70 80 107 69 82 106 70 80 107 69 82 106 70 80 107 69 82 106 70 80 124 86 99 123 87 97 124 86 99 123 87 97 124 86 99 123 87 97 124 86 99 119 89 99 86 66 75 72 61 69 59 48 56 47 36 44 40 29 37 38 28 36 41 31 39 42 35 42 48 41 48 52 45 52
63 54 55 59 50 51 56 47 48 54 45 46 50 44 46 41 34 41 40 35 42 40 35 42 40 35 42 40 35 42 40 35 42 40 35 42 40 35 42 41 36 43 41 36 43 41 36 43 41 36 43 41 36 43 41 36 43 41 36 43 45 33 43 49 25 38 56 25 40 62 30 45 68 37 52 75 43 58 81 50 65 87 55 70 88 57 72 103 71 86 102 71 86 103 71 86 102 71 86 103 71 86 102 71 86 103 71 86 99 73 86 63 49 62 57 49 60 55 47 58 52 44 55 48 40 51 45 37 48 43 35 46 41 33 44 40 32 43 40 32 43 40 32 43 40 32 43 40 32 43 40 32 43 40 32 43 40 32 43 46 40 52 46 40 52 46 40 52 46 40 52 46 40 52 46 40 52 46 40 52 46 40 52 40 34 46 40 34 46 40 34 46 40 34 46 40 34 46 40 34 46 40 34 46 36 36 46 29 42 48 25 44 48 26 44 48 28 43 48 29 42 48 31 42 48 33 40 48 36 39 48 41 39 50 42 39 50 45 37 50 47 36 50 49 35 50 49 35 50 51 34 50 51 34 50 48 34 47 48 34 47 48 34 47 48 34 47 48 34 47 48 34 47 48 34 47 48 34 47 47 33 46 47 33 46 47 33 46 47 33 46 47 33 46 47 33 46 47 33 46 50 32 44 62 39 47 65 38 45 65 38 45 65 38 45 65 38 45 65 38 45 65 38 45 65 38 45 64 37 44 66 39 46 68 41 48 71 44 51 75 48 55 78 51 58 80 53 60 82 55 62 81 49 62 81 51 63 84 54 66 85 59 70 89 63 74 90 69 78 92 72 81 90 75 82 91 80 86 88 82 86 87 82 86 84 84 86 84 84 86 81 85 86 81 85 86 81 85 86 88 86 91 90 85 91 90 85 91 90 85 91 90 85 91 90 85 91 90 85 91 90 85 91 97 92 98 97 92 98 97 92 98 97 92 98 97 92 98 97 92 98 97 92 98 98 92 94 96 84 84 98 84 81 98 84 81 98 84 81 98 84 81 98 84 81 98 84 81 98 84 81 86 72 69 86 72 69 86 72 69 86 72 69 86 72 69 86 72 69 86 72 69 87 72 69 95 76 72 98 77 74 100 79 76 103 82 79 107 86 83 110 89 86 112 91 88 114 93 90 115 94 91 113 92 89 111 90 87 108 87 84 104 83 80 101 80 77 99 78 75 100 74 75 104 71 80 107 69 82 107 69 82 107 69 82 107 69 82 107 69 82 107 69 82 107 69 82 122 84 97 122 84 97 122 84 97 122 84 97 122 84 97 122 84 97 122 84 97 117 87 97 81 68 77 68 63 69 55 50 56 43 38 44 36 31 37 35 30 36 38 33 39 41 36 42 47 42 48 51 46 52
55 46 47 51 42 43 48 39 40 46 37 38 42 36 38 41 34 41 40 35 42 40 35 42 40 35 42 40 35 42 40 35 42 40 35 42 40 35 42 41 36 43 41 36 43 41 36 43 41 36 43 41 36 43 41 36 43 41 36 43 45 33 43 49 25 38 54 26 40 61 30 45 66 38 52 74 43 58 79 51 65 86 55 70 86 58 72 100 69 84 98 70 84 100 69 84 98 70 84 100 69 84 98 70 84 100 69 84 95 71 84 63 49 62 57 49 60 55 47 58 52 44 55 48 40 51 45 37 48 43 35 46 41 33 44 40 32 43 40 32 43 40 32 43 40 32 43 40 32 43 40 32 43 40 32 43 40 32 43 46 40 52 46 40 52 46 40 52 46 40 52 46 40 52 46 40 52 46 40 52 46 40 52 40 34 46 40 34 46 40 34 46 40 34 46 40 34 46 40 34 46 40 34 46 36 36 46 31 42 48 26 44 48 28 43 48 28 43 48 31 42 48 32 41 48 35 39 48 36 39 48 41 39 50 44 38 50 47 36 50 48 36 50 49 35 50 51 34 50 52 34 50 51 34 50 48 34 47 48 34 47 48 34 47 48 34 47 48 34 47 48 34 47 48 34 47 48 34 47 47 33 46 47 33 46 47 33 46 47 33 46 47 33 46 47 33 46 47 33 46 50 32 44 62 39 47 65 38 45 65 38 45 65 38 45 65 38 45 65 38 45 65 38 45 65 38 45 64 37 44 66 39 46 68 41 48 71 44 51 75 48 55 78 51 58 80 53 60 82 55 62 84 52 65 84 54 66 86 56 68 86 60 71 88 62 73 88 67 76 89 69 78 87 72 79 86 75 81 83 77 81 82 77 81 79 79 81 79 79 81 76 80 81 76 80 81 76 80 81 83 81 86 85 80 86 85 80 86 85 80 86 85 80 86 85 80 86 85 80 86 85 80 86 92 87 93 92 87 93 92 87 93 92 87 93 92 87 93 92 87 93 92 87 93 93 87 89 96 84 84 98 84 81 98 84 81 98 84 81 98 84 81 98 84 81 98 84 81 98 84 81 88 74 71 88 74 71 88 74 71 88 74 71 88 74 71 88 74 71 88 74 71 89 74 71 95 76 72 98 77 74 100 79 76 103 82 79 107 86 83 110 89 86 112 91 88 114 93 90 115 94 91 113 92 89 111 90 87 108 87 84 104 83 80 101 80 77 99 78 75 100 74 75 104 71 80 107 69 82 107 69 82 107 69 82 107 69 82 107 69 82 107 69 82 107 69 82 120 82 95 120 82 95 120 82 95 120 82 95 120 82 95 120 82 95 120 82 95 115 85 95 81 68 77 68 63 69 55 50 56 43 38 44 36 31 37 35 30 36 38 33 39 41 36 42 47 42 48 51 46 52
49 40 41 46 37 38 42 33 34 40 31 32 37 31 33 41 34 41 40 35 42 40 35 42 40 35 42 40 35 42 40 35 42 40 35 42 40 35 42 41 36 43 41 36 43 41 36 43 41 36 43 41 36 43 41 36 43 41 36 43 45 33 43 48 26 38 53 27 40 59 31 45 65 39 52 72 44 58 78 52 65 84 56 70 85 59 72 95 67 81 94 68 81 95 67 81 94 68 81 95 67 81 94 68 81 95 67 81 91 69 81 62 50 62 57 49 60 55 47 58 52 44 55 48 40 51 45 37 48 43 35 46 41 33 44 40 32 43 40 32 43 40 32 43 40 32 43 40 32 43 40 32 43 40 32 43 40 32 43 46 40 52 46 40 52 46 40 52 46 40 52 46 40 52 46 40 52 46 40 52 46 40 52 40 34 46 40 34 46 40 34 46 40 34 46 40 34 46 40 34 46 40 34 46 36 36 46 31 42 48 28 43 48 28 43 48 29 42 48 32 41 48 33 40 48 36 39 48 38 38 48 42 39 50 45 37 50 48 36 50 49 35 50 51 34 50 52 34 50 52 34 50 52 34 50 50 34 47 48 34 47 48 34 47 48 34 47 48 34 47 48 34 47 48 34 47 48 34 47 47 33 46 47 33 46 47 33 46 47 33 46 47 33 46 47 33 46 47 33 46 50 32 44 62 39 47 65 38 45 65 38 45 65 38 45 65 38 45 65 38 45 65 38 45 65 38 45 64 37 44 66 39 46 68 41 48 71 44 51 75 48 55 78 51 58 80 53 60 82 55 62 89 57 70 88 58 70 89 59 71 87 61 72 87 61 72 85 64 73 85 65 74 82 67 74 79 68 74 76 70 74 75 70 74 72 72 74 72 72 74 69 73 74 69 73 74 69 73 74 76 74 79 78 73 79 78 73 79 78 73 79 78 73 79 78 73 79 78 73 79 78 73 79 85 80 86 85 80 86 85 80 86 85 80 86 85 80 86 85 80 86 85 80 86 86 80 82 96 84 84 98 84 81 98 84 81 98 84 81 98 84 81 98 84 81 98 84 81 98 84 81 91 77 74 91 77 74 91 77 74 91 77 74 91 77 74 91 77 74 91 77 74 92 77 74 95 76 72 98 77 74 100 79 76 103 82 79 107 86 83 110 89 86 112 91 88 114 93 90 115 94 91 113 92 89 111 90 87 108 87 84 104 83 80 101 80 77 99 78 75 100 74 75 104 71 80 107 69 82 107 69 82 107 69 82 107 69 82 107 69 82 107 69 82 107 69 82 117 79 92 117 79 92 117 79 92 117 79 92 117 79 92 117 79 92 117 79 92 112 82 92 81 68 77 68 63 69 55 50 56 43 38 44 36 31 37 35 30 36 38 33 39 41 36 42 47 42 48 51 46 52
49 40 41 46 37 38 42 33 34 40 31 32 37 31 33 41 34 41 40 35 42 40 35 42 40 35 42 40 35 42 40 35 42 40 35 42 40 35 42 41 36 43 41 36 43 41 36 43 41 36 43 41 36 43 41 36 43 41 36 43 44 34 43 47 27 38 51 27 40 58 32 45 63 39 52 71 45 58 76 52 65 83 57 70 83 59 72 90 64 77 88 64 77 90 64 77 88 64 77 90 64 77 88 64 77 90 64 77 86 66 77 62 50 62 57 49 60 55 47 58 52 44 55 48 40 51 45 37 48 43 35 46 41 33 44 40 32 43 40 32 43 40 32 43 40 32 43 40 32 43 40 32 43 40 32 43 40 32 43 46 40 52 46 40 52 46 40 52 46 40 52 46 40 52 46 40 52 46 40 52 46 40 52 40 34 46 40 34 46 40 34 46 40 34 46 40 34 46 40 34 46 40 34 46 37 35 46 32 41 48 29 42 48 31 42 48 32 41 48 33 40 48 35 39 48 38 38 48 39 37 48 44 38 50 47 36 50 49 35 50 51 34 50 52 34 50 54 33 50 55 32 50 54 33 50 50 34 47 48 34 47 48 34 47 48 34 47 48 34 47 48 34 47 48 34 47 48 34 47 47 33 46 47 33 46 47 33 46 47 33 46 47 33 46 47 33 46 47 33 46 50 32 44 62 39 47 65 38 45 65 38 45 65 38 45 65 38 45 65 38 45 65 38 45 65 38 45 64 37 44 66 39 46 68 41 48 71 44 51 75 48 55 78 51 58 80 53 60 82 55 62 93 61 74 92 62 74 91 61 73 87 61 72 87 61 72 83 62 71 81 61 70 78 63 70 73 62 68 70 64 68 69 64 68 66 66 68 66 66 68 63 67 68 63 67 68 63 67 68 70 68 73 72 67 73 72 67 73 72 67 73 72 67 73 72 67 73 72 67 73 72 67 73 79 74 80 79 74 80 79 74 80 79 74 80 79 74 80 79 74 80 79 74 80 80 74 76 96 84 84 98 84 81 98 84 81 98 84 81 98 84 81 98 84 81 98 84 81 98 84 81 95 81 78 95 81 78 95 81 78 95 81 78 95 81 78 95 81 78 95 81 78 96 81 78 95 76 72 98 77 74 100 79 76 103 82 79 107 86 83 110 89 86 112 91 88 114 93 90 115 94 91 113 92 89 111 90 87 108 87 84 104 83 80 101 80 77 99 78 75 100 74 75 104 71 80 107 69 82 107 69 82 107 69 82 107 69 82 107 69 82 107 69 82 107 69 82 113 75 88 113 75 88 113 75 88 113 75 88 113 75 88 113 75 88 113 75 88 108 78 88 81 68 77 68 63 69 55 50 56 43 38 44 36 31 37 35 30 36 38 33 39 41 36 42 47 42 48 51 46 52
55 46 47 51 42 43 48 39 40 46 37 38 42 36 38 41 34 41 40 35 42 40 35 42 40 35 42 40 35 42 40 35 42 40 35 42 40 35 42 41 36 43 41 36 43 41 36 43 41 36 43 41 36 43 41 36 43 41 36 43 44 34 43 45 28 38 50 28 40 55 33 45 62 40 52 68 46 58 75 53 65 80 58 70 82 60 72 84 62 74 84 62 74 84 62 74 84 62 74 84 62 74 84 62 74 84 62 74 81 64 74 62 50 62 57 49 60 55 47 58 52 44 55 48 40 51 45 37 48 43 35 46 41 33 44 40 32 43 40 32 43 40 32 43 40 32 43 40 32 43 40 32 43 40 32 43 40 32 43 46 40 52 46 40 52 46 40 52 46 40 52 46 40 52 46 40 52 46 40 52 46 40 52 40 34 46 40 34 46 40 34 46 40 34 46 40 34 46 40 34 46 40 34 46 37 35 46 33 40 48 31 42 48 32 41 48 33 40 48 35 39 48 38 38 48 39 37 48 42 36 48 47 36 50 48 36 50 51 34 50 52 34 50 54 33 50 55 32 50 56 31 50 55 32 50 50 34 47 48 34 47 48 34 47 48 34 47 48 34 47 48 34 47 48 34 47 48 34 47 47 33 46 47 33 46 47 33 46 47 33 46 47 33 46 47 33 46 47 33 46 50 32 44 62 39 47 65 38 45 65 38 45 65 38 45 65 38 45 65 38 45 65 38 45 65 38 45 64 37 44 66 39 46 68 41 48 71 44 51 75 48 55 78 51 58 80 53 60 82 55 62 98 66 79 96 66 78 94 64 76 88 62 73 86 60 71 80 59 68 77 57 66 73 58 65 66 55 61 63 57 61 62 57 61 59 59 61 59 59 61 56 60 61 56 60 61 56 60 61 63 61 66 65 60 66 65 60 66 65 60 66 65 60 66 65 60 66 65 60 66 65 60 66 72 67 73 72 67 73 72 67 73 72 67 73 72 67 73 72 67 73 72 67 73 73 67 69 96 84 84 98 84 81 98 84 81 98 84 81 98 84 81 98 84 81 98 84 81 98 84 81 98 84 81 98 84 81 98 84 81 98 84 81 98 84 81 98 84 81 98 84 81 99 84 81 95 76 72 98 77 74 100 79 76 103 82 79 107 86 83 110 89 86 112 91 88 114 93 90 115 94 91 113 92 89 111 90 87 108 87 84 104 83 80 101 80 77 99 78 75 100 74 75 104 71 80 107 69 82 107 69 82 107 69 82 107 69 82 107 69 82 107 69 82 107 69 82 110 72 85 110 72 85 110 72 85 110 72 85 110 72 85 110 72 85 110 72 85 105 75 85 81 68 77 68 63 69 55 50 56 43 38 44 36 31 37 35 30 36 38 33 39 41 36 42 47 42 48 51 46 52
63 54 55 59 50 51 56 47 48 54 45 46 50 44 46 41 34 41 40 35 42 40 35 42 40 35 42 40 35 42 40 35 42 40 35 42 40 35 42 41 36 43 41 36 43 41 36 43 41 36 43 41 36 43 41 36 43 41 36 43 44 34 43 44 28 38 49 29 40 54 34 45 61 41 52 67 47 58 74 54 65 79 59 70 81 61 72 81 61 72 81 61 72 81 61 72 81 61 72 81 61 72 81 61 72 81 61 72 78 62 72 61 51 62 57 49 60 55 47 58 52 44 55 48 40 51 45 37 48 43 35 46 41 33 44 40 32 43 40 32 43 40 32 43 40 32 43 40 32 43 40 32 43 40 32 43 40 32 43 46 40 52 46 40 52 46 40 52 46 40 52 46 40 52 46 40 52 46 40 52 46 40 52 40 34 46 40 34 46 40 34 46 40 34 46 40 34 46 40 34 46 40 34 46 37 35 46 36 39 48 33 40 48 35 39 48 36 39 48 38 38 48 39 37 48 42 36 48 45 34 48 48 36 50 51 34 50 54 33 50 55 32 50 56 31 50 58 31 50 59 30 50 56 31 50 51 33 47 48 34 47 48 34 47 48 34 47 48 34 47 48 34 47 48 34 47 48 34 47 47 33 46 47 33 46 47 33 46 47 33 46 47 33 46 47 33 46 47 33 46 50 32 44 62 39 47 65 38 45 65 38 45 65 38 45 65 38 45 65 38 45 65 38 45 65 38 45 64 37 44 66 39 46 68 41 48 71 44 51 75 48 55 78 51 58 80 53 60 82 55 62 101 69 82 99 69 81 96 66 78 89 63 74 85 59 70 78 57 66 74 54 63 70 55 62 61 50 56 58 52 56 57 52 56 54 54 56 54 54 56 51 55 56 51 55 56 51 55 56 58 56 61 60 55 61 60 55 61 60 55 61 60 55 61 60 55 61 60 55 61 60 55 61 67 62 68 67 62 68 67 62 68 67 62 68 67 62 68 67 62 68 67 62 68 68 62 64 96 84 84 98 84 81 98 84 81 98 84 81 98 84 81 98 84 81 98 84 81 98 84 81 100 86 83 100 86 83 100 86 83 100 86 83 100 86 83 100 86 83 100 86 83 101 86 83 95 76 72 98 77 74 100 79 76 103 82 79 107 86 83 110 89 86 112 91 88 114 93 90 115 94 91 113 92 89 111 90 87 108 87 84 104 83 80 101 80 77 99 78 75 100 74 75 104 71 80 107 69 82 107 69 82 107 69 82 107 69 82 107 69 82 107 69 82 107 69 82 108 70 83 108 70 83 108 70 83 108 70 83 108 70 83 108 70 83 108 70 83 103 73 83 81 68 77 68 63 69 55 50 56 43 38 44 36 31 37 35 30 36 38 33 39 41 36 42 47 42 48 51 46 52
68 59 60 65 56 57 62 53 54 59 50 51 56 50 52 41 34 41 40 35 42 40 35 42 40 35 42 40 35 42 40 35 42 40 35 42 40 35 42 41 36 43 41 36 43 41 36 43 41 36 43 41 36 43 41 36 43 41 36 43 42 35 43 42 29 38 46 30 40 51 35 45 58 42 52 64 48 58 71 55 65 76 60 70 78 62 72 76 60 70 76 60 70 76 60 70 76 60 70 76 60 70 76 60 70 76 60 70 74 61 70 61 51 62 57 49 60 55 47 58 52 44 55 48 40 51 45 37 48 43 35 46 41 33 44 40 32 43 40 32 43 40 32 43 40 32 43 40 32 43 40 32 43 40 32 43 40 32 43 46 40 52 46 40 52 46 40 52 46 40 52 46 40 52 46 40 52 46 40 52 46 40 52 40 34 46 40 34 46 40 34 46 40 34 46 40 34 46 40 34 46 40 34 46 38 35 46 38 38 48 36 39 48 38 38 48 38 38 48 39 37 48 42 36 48 45 34 48 46 34 48 51 34 50 54 33 50 55 32 50 58 31 50 59 30 50 61 29 50 62 29 50 59 30 50 51 33 47 48 34 47 48 34 47 48 34 47 48 34 47 48 34 47 48 34 47 48 34 47 47 33 46 47 33 46 47 33 46 47 33 46 47 33 46 47 33 46 47 33 46 50 32 44 62 39 47 65 38 45 65 38 45 65 38 45 65 38 45 65 38 45 65 38 45 65 38 45 64 37 44 66 39 46 68 41 48 71 44 51 75 48 55 78 51 58 80 53 60 82 55 62 103 71 84 100 70 82 97 67 79 89 63 74 85 59 70 77 56 65 73 53 62 68 53 60 59 48 54 56 50 54 55 50 54 52 52 54 52 52 54 49 53 54 49 53 54 49 53 54 56 54 59 58 53 59 58 53 59 58 53 59 58 53 59 58 53 59 58 53 59 58 53 59 65 60 66 65 60 66 65 60 66 65 60 66 65 60 66 65 60 66 65 60 66 66 60 62 96 84 84 98 84 81 98 84 81 98 84 81 98 84 81 98 84 81 98 84 81 98 84 81 102 88 85 102 88 85 102 88 85 102 88 85 102 88 85 102 88 85 102 88 85 103 88 85 95 76 72 98 77 74 100 79 76 103 82 79 107 86 83 110 89 86 112 91 88 114 93 90 115 94 91 113 92 89 111 90 87 108 87 84 104 83 80 101 80 77 99 78 75 100 74 75 104 71 80 107 69 82 107 69 82 107 69 82 107 69 82 107 69 82 107 69 82 107 69 82 106 68 81 106 68 81 106 68 81 106 68 81 106 68 81 106 68 81 106 68 81 101 71 81 81 68 77 68 63 69 55 50 56 43 38 44 36 31 37 35 30 36 38 33 39 41 36 42 47 42 48 51 46 52
76 67 68 76 67 68 76 67 68 76 67 68 74 68 70 57 50 57 55 50 57 53 48 55 49 44 51 46 41 48 43 38 45 40 35 42 39 34 41 43 38 45 43 38 45 43 38 45 43 38 45 43 38 45 43 38 45 43 38 45 44 37 45 58 48 56 59 48 56 59 48 56 59 48 56 59 48 56 59 48 56 59 48 56 59 48 56 60 49 57 60 49 57 60 49 57 60 49 57 60 49 57 60 49 57 60 49 57 59 49 57 44 34 45 42 34 45 42 34 45 42 34 45 42 34 45 42 34 45 42 34 45 42 34 45 43 35 46 43 35 46 43 35 46 43 35 46 43 35 46 43 35 46 43 35 46 43 35 46 51 45 57 51 45 57 51 45 57 51 45 57 51 45 57 51 45 57 51 45 57 51 45 57 50 44 56 50 44 56 50 44 56 50 44 56 50 44 56 50 44 56 50 44 56 48 45 56 41 39 50 40 40 50 41 39 50 42 39 50 44 38 50 47 36 50 48 36 50 51 34 50 59 38 55 60 37 55 63 36 55 66 34 55 67 34 55 67 34 55 68 33 55 66 34 55 52 31 46 47 33 46 47 33 46 47 33 46 47 33 46 47 33 46 47 33 46 47 33 46 48 34 47 48 34 47 48 34 47 48 34 47 48 34 47 48 34 47 48 34 47 51 33 45 59 36 44 63 36 43 65 38 45 69 42 49 72 45 52 75 48 55 78 51 58 79 52 59 92 65 72 92 65 72 93 66 73 94 67 74 96 69 76 97 70 77 98 71 78 98 71 78 82 50 63 80 50 62 78 48 60 71 45 56 68 42 53 62 41 50 58 38 47 54 39 46 40 29 35 39 33 37 40 35 39 40 40 42 44 44 46 44 48 49 46 50 51 48 52 53 47 45 50 49 44 50 49 44 50 49 44 50 49 44 50 49 44 50 49 44 50 49 44 50 46 41 47 47 42 48 49 44 50 53 48 54 56 51 57 59 54 60 62 57 63 64 58 60 71 59 59 74 60 57 76 62 59 80 66 63 83 69 66 86 72 69 89 75 72 90 76 73 96 82 79 96 82 79 96 82 79 96 82 79 96 82 79 96 82 79 96 82 79 97 82 79 105 86 82 106 85 82 106 85 82 106 85 82 106 85 82 106 85 82 106 85 82 106 85 82 106 85 82 106 85 82 106 85 82 106 85 82 106 85 82 106 85 82 106 85 82 109 83 84 96 63 72 99 61 74 99 61 74 99 61 74 99 61 74 99 61 74 99 61 74 99 61 74 100 62 75 100 62 75 100 62 75 100 62 75 100 62 75 100 62 75 100 62 75 95 65 75 48 35 44 43 38 44 43 38 44 43 38 44 43 38 44 43 38 44 43 38 44 43 38 44 59 54 60 57 52 58
76 67 68 76 67 68 76 67 68 76 67 68 74 68 70 60 53 60 58 53 60 55 50 57 52 47 54 49 44 51 45 40 47 43 38 45 42 37 44 43 38 45 43 38 45 43 38 45 43 38 45 43 38 45 43 38 45 43 38 45 43 38 45 54 47 54 54 47 54 54 47 54 54 47 54 54 47 54 54 47 54 54 47 54 54 47 54 55 48 55 55 48 55 55 48 55 55 48 55 55 48 55 55 48 55 55 48 55 55 48 55 42 34 45 42 34 45 42 34 45 42 34 45 42 34 45 42 34 45 42 34 45 42 34 45 43 35 46 43 35 46 43 35 46 43 35 46 43 35 46 43 35 46 43 35 46 43 35 46 51 45 57 51 45 57 51 45 57 51 45 57 51 45 57 51 45 57 51 45 57 51 45 57 50 44 56 50 44 56 50 44 56 50 44 56 50 44 56 50 44 56 50 44 56 50 44 56 42 39 50 42 39 50 44 38 50 45 37 50 47 36 50 48 36 50 51 34 50 54 33 50 60 37 55 63 36 55 66 34 55 67 34 55 68 33 55 70 32 55 71 31 55 67 34 55 52 31 46 47 33 46 47 33 46 47 33 46 47 33 46 47 33 46 47 33 46 47 33 46 48 34 47 48 34 47 48 34 47 48 34 47 48 34 47 48 34 47 48 34 47 51 33 45 60 37 45 64 37 44 67 40 47 70 43 50 73 46 53 77 50 57 79 52 59 80 53 60 93 66 73 94 67 74 94 67 74 95 68 75 95 68 75 96 69 76 96 69 76 97 70 77 81 49 62 79 49 61 76 46 58 70 44 55 67 41 52 60 39 48 57 37 46 53 38 45 40 29 35 39 33 37 40 35 39 40 40 42 44 44 46 44 48 49 46 50 51 48 52 53 47 45 50 49 44 50 49 44 50 49 44 50 49 44 50 49 44 50 49 44 50 49 44 50 47 42 48 48 43 49 51 46 52 54 49 55 57 52 58 61 56 62 63 58 64 65 59 61 72 60 60 75 61 58 78 64 61 81 67 64 84 70 67 88 74 71 90 76 73 91 77 74 96 82 79 96 82 79 96 82 79 96 82 79 96 82 79 96 82 79 96 82 79 97 82 79 105 86 82 106 85 82 106 85 82 106 85 82 106 85 82 106 85 82 106 85 82 106 85 82 104 83 80 104 83 80 104 83 80 104 83 80 104 83 80 104 83 80 104 83 80 107 81 82 96 63 72 99 61 74 99 61 74 99 61 74 99 61 74 99 61 74 99 61 74 99 61 74 100 62 75 100 62 75 100 62 75 100 62 75 100 62 75 100 62 75 100 62 75 95 65 75 48 35 44 43 38 44 43 38 44 43 38 44 43 38 44 43 38 44 43 38 44 43 38 44 59 54 60 57 52 58
76 67 68 76 67 68 76 67 68 76 67 68 74 68 70 65 58 65 63 58 65 60 55 62 57 52 59 53 48 55 50 45 52 48 43 50 47 42 49 43 38 45 43 38 45 43 38 45 43 38 45 43 38 45 43 38 45 43 38 45 43 38 45 51 46 52 51 46 52 51 46 52 51 46 52 51 46 52 51 46 52 51 46 52 51 46 52 52 47 53 52 47 53 52 47 53 52 47 53 52 47 53 52 47 53 52 47 53 52 47 53 42 34 45 42 34 45 42 34 45 42 34 45 42 34 45 42 34 45 42 34 45 42 34 45 43 35 46 43 35 46 43 35 46 43 35 46 43 35 46 43 35 46 43 35 46 43 35 46 51 45 57 51 45 57 51 45 57 51 45 57 51 45 57 51 45 57 51 45 57 51 45 57 50 44 56 50 44 56 50 44 56 50 44 56 50 44 56 50 44 56 50 44 56 50 44 56 44 38 50 45 37 50 47 36 50 48 36 50 49 35 50 51 34 50 54 33 50 55 32 50 63 36 55 66 34 55 67 34 55 70 32 55 71 31 55 73 31 55 74 30 55 68 33 55 53 30 46 47 33 46 47 33 46 47 33 46 47 33 46 47 33 46 47 33 46 47 33 46 48 34 47 48 34 47 48 34 47 48 34 47 48 34 47 48 34 47 48 34 47 51 33 45 62 39 47 67 40 47 69 42 49 72 45 52 76 49 56 79 52 59 81 54 61 83 56 63 97 70 77 97 70 77 96 69 76 95 68 75 95 68 75 94 67 74 93 66 73 93 66 73 79 47 60 76 46 58 74 44 56 68 42 53 64 38 49 58 37 46 55 35 44 50 35 42 40 29 35 39 33 37 40 35 39 40 40 42 44 44 46 44 48 49 46 50 51 48 52 53 47 45 50 49 44 50 49 44 50 49 44 50 49 44 50 49 44 50 49 44 50 49 44 50 49 44 50 51 46 52 53 48 54 56 51 57 60 55 61 63 58 64 65 60 66 68 62 64 74 62 62 78 64 61 80 66 63 83 69 66 87 73 70 90 76 73 92 78 75 94 80 77 96 82 79 96 82 79 96 82 79 96 82 79 96 82 79 96 82 79 96 82 79 97 82 79 105 86 82 106 85 82 106 85 82 106 85 82 106 85 82 106 85 82 106 85 82 106 85 82 102 81 78 102 81 78 102 81 78 102 81 78 102 81 78 102 81 78 102 81 78 105 79 80 96 63 72 99 61 74 99 61 74 99 61 74 99 61 74 99 61 74 99 61 74 99 61 74 100 62 75 100 62 75 100 62 75 100 62 75 100 62 75 100 62 75 100 62 75 95 65 75 48 35 44 43 38 44 43 38 44 43 38 44 43 38 44 43 38 44 43 38 44 43 38 44 59 54 60 57 52 58
76 67 68 76 67 68 76 67 68 76 67 68 74 68 70 71 64 71 69 64 71 66 61 68 63 58 65 60 55 62 57 52 59 54 49 56 53 48 55 43 38 45 43 38 45 43 38 45 43 38 45 43 38 45 43 38 45 43 38 45 43 38 45 46 44 49 45 44 49 46 44 49 45 44 49 46 44 49 45 44 49 46 44 49 45 44 49 47 45 50 46 45 50 47 45 50 46 45 50 47 45 50 46 45 50 47 45 50 47 45 50 41 35 45 42 34 45 42 34 45 42 34 45 42 34 45 42 34 45 42 34 45 42 34 45 43 35 46 43 35 46 43 35 46 43 35 46 43 35 46 43 35 46 43 35 46 43 35 46 51 45 57 51 45 57 51 45 57 51 45 57 51 45 57 51 45 57 51 45 57 51 45 57 50 44 56 50 44 56 50 44 56 50 44 56 50 44 56 50 44 56 50 44 56 50 44 56 45 37 50 47 36 50 48 36 50 49 35 50 51 34 50 52 34 50 55 32 50 58 31 50 66 34 55 67 34 55 70 32 55 71 31 55 73 31 55 74 30 55 75 29 55 71 31 55 53 30 46 47 33 46 47 33 46 47 33 46 47 33 46 47 33 46 47 33 46 47 33 46 48 34 47 48 34 47 48 34 47 48 34 47 48 34 47 48 34 47 48 34 47 51 33 45 66 43 51 70 43 50 72 45 52 76 49 56 79 52 59 82 55 62 85 58 65 86 59 66 101 74 81 100 73 80 99 72 79 96 69 76 94 67 74 91 64 71 90 63 70 89 62 69 75 43 56 73 43 55 71 41 53 64 38 49 61 35 46 55 34 43 51 31 40 47 32 39 40 29 35 39 33 37 40 35 39 40 40 42 44 44 46 44 48 49 46 50 51 48 52 53 47 45 50 49 44 50 49 44 50 49 44 50 49 44 50 49 44 50 49 44 50 49 44 50 53 48 54 54 49 55 56 51 57 60 55 61 63 58 64 66 61 67 69 64 70 71 65 67 78 66 66 81 67 64 83 69 66 87 73 70 90 76 73 93 79 76 96 82 79 97 83 80 96 82 79 96 82 79 96 82 79 96 82 79 96 82 79 96 82 79 96 82 79 97 82 79 105 86 82 106 85 82 106 85 82 106 85 82 106 85 82 106 85 82 106 85 82 106 85 82 99 78 75 99 78 75 99 78 75 99 78 75 99 78 75 99 78 75 99 78 75 102 76 77 96 63 72 99 61 74 99 61 74 99 61 74 99 61 74 99 61 74 99 61 74 99 61 74 100 62 75 100 62 75 100 62 75 100 62 75 100 62 75 100 62 75 100 62 75 95 65 75 48 35 44 43 38 44 43 38 44 43 38 44 43 38 44 43 38 44 43 38 44 43 38 44 59 54 60 57 52 58
76 67 68 76 67 68 76 67 68 76 67 68 74 68 70 78 71 78 76 71 78 73 68 75 70 65 72 67 62 69 64 59 66 61 56 63 60 55 62 43 38 45 43 38 45 43 38 45 43 38 45 43 38 45 43 38 45 43 38 45 41 38 45 41 40 45 40 41 45 41 40 45 40 41 45 41 40 45 40 41 45 41 40 45 40 41 45 42 41 46 41 42 46 42 41 46 41 42 46 42 41 46 41 42 46 42 41 46 42 41 46 41 35 45 42 34 45 42 34 45 42 34 45 42 34 45 42 34 45 42 34 45 42 34 45 43 35 46 43 35 46 43 35 46 43 35 46 43 35 46 43 35 46 43 35 46 43 35 46 51 45 57 51 45 57 51 45 57 51 45 57 51 45 57 51 45 57 51 45 57 51 45 57 50 44 56 50 44 56 50 44 56 50 44 56 50 44 56 50 44 56 50 44 56 51 43 56 47 36 50 49 35 50 49 35 50 51 34 50 52 34 50 54 33 50 56 31 50 59 30 50 67 34 55 68 33 55 71 31 55 73 31 55 75 29 55 77 29 55 77 29 55 71 31 55 53 30 46 47 33 46 47 33 46 47 33 46 47 33 46 47 33 46 47 33 46 47 33 46 48 34 47 48 34 47 48 34 47 48 34 47 48 34 47 48 34 47 48 34 47 51 33 45 69 46 54 73 46 53 76 49 56 79 52 59 82 55 62 86 59 66 88 61 68 89 62 69 106 79 86 104 77 84 101 74 81 97 70 77 93 66 73 89 62 69 86 59 66 84 57 64 72 40 53 70 40 52 67 37 49 61 35 46 58 32 43 51 30 39 48 28 37 44 29 36 40 29 35 39 33 37 40 35 39 40 40 42 44 44 46 44 48 49 46 50 51 48 52 53 47 45 50 49 44 50 49 44 50 49 44 50 49 44 50 49 44 50 49 44 50 49 44 50 56 51 57 57 52 58 60 55 61 63 58 64 66 61 67 70 65 71 72 67 73 74 68 70 81 69 69 84 70 67 87 73 70 90 76 73 93 79 76 97 83 80 99 85 82 100 86 83 96 82 79 96 82 79 96 82 79 96 82 79 96 82 79 96 82 79 96 82 79 97 82 79 105 86 82 106 85 82 106 85 82 106 85 82 106 85 82 106 85 82 106 85 82 106 85 82 95 74 71 95 74 71 95 74 71 95 74 71 95 74 71 95 74 71 95 74 71 98 72 73 96 63 72 99 61 74 99 61 74 99 61 74 99 61 74 99 61 74 99 61 74 99 61 74 100 62 75 100 62 75 100 62 75 100 62 75 100 62 75 100 62 75 100 62 75 95 65 75 48 35 44 43 38 44 43 38 44 43 38 44 43 38 44 43 38 44 43 38 44 43 38 44 59 54 60 57 52 58
76 67 68 76 67 68 76 67 68 76 67 68 74 68 70 84 77 84 82 77 84 80 75 82 77 72 79 73 68 75 70 65 72 67 62 69 66 61 68 43 38 45 43 38 45 43 38 45 43 38 45 43 38 45 43 38 45 43 38 45 41 38 45 37 38 42 35 39 42 37 38 42 35 39 42 37 38 42 35 39 42 37 38 42 35 39 42 38 39 43 36 40 43 38 39 43 36 40 43 38 39 43 36 40 43 38 39 43 39 38 43 41 35 45 42 34 45 42 34 45 42 34 45 42 34 45 42 34 45 42 34 45 42 34 45 43 35 46 43 35 46 43 35 46 43 35 46 43 35 46 43 35 46 43 35 46 43 35 46 51 45 57 51 45 57 51 45 57 51 45 57 51 45 57 51 45 57 51 45 57 51 45 57 50 44 56 50 44 56 50 44 56 50 44 56 50 44 56 50 44 56 50 44 56 51 43 56 48 36 50 49 35 50 51 34 50 52 34 50 54 33 50 55 32 50 58 31 50 61 29 50 68 33 55 70 32 55 73 31 55 74 30 55 77 29 55 77 29 55 78 28 55 73 31 55 53 30 46 47 33 46 47 33 46 47 33 46 47 33 46 47 33 46 47 33 46 47 33 46 48 34 47 48 34 47 48 34 47 48 34 47 48 34 47 48 34 47 48 34 47 51 33 45 72 49 57 77 50 57 79 52 59 82 55 62 86 59 66 89 62 69 91 64 71 93 66 73 110 83 90 108 81 88 104 77 84 98 71 78 92 65 72 86 59 66 82 55 62 80 53 60 69 37 50 66 36 48 64 34 46 58 32 43 54 28 39 48 27 36 45 25 34 40 25 32 40 29 35 39 33 37 40 35 39 40 40 42 44 44 46 44 48 49 46 50 51 48 52 53 47 45 50 49 44 50 49 44 50 49 44 50 49 44 50 49 44 50 49 44 50 49 44 50 59 54 60 61 56 62 63 58 64 66 61 67 70 65 71 73 68 74 75 70 76 78 72 74 84 72 72 88 74 71 90 76 73 93 79 76 97 83 80 100 86 83 102 88 85 104 90 87 96 82 79 96 82 79 96 82 79 96 82 79 96 82 79 96 82 79 96 82 79 97 82 79 105 86 82 106 85 82 106 85 82 106 85 82 106 85 82 106 85 82 106 85 82 106 85 82 92 71 68 92 71 68 92 71 68 92 71 68 92 71 68 92 71 68 92 71 68 95 69 70 96 63 72 99 61 74 99 61 74 99 61 74 99 61 74 99 61 74 99 61 74 99 61 74 100 62 75 100 62 75 100 62 75 100 62 75 100 62 75 100 62 75 100 62 75 95 65 75 48 35 44 43 38 44 43 38 44 43 38 44 43 38 44 43 38 44 43 38 44 43 38 44 59 54 60 57 52 58
76 67 68 76 67 68 76 67 68 76 67 68 74 68 70 89 82 89 87 82 89 85 80 87 81 76 83 78 73 80 75 70 77 72 67 74 71 66 73 43 38 45 43 38 45 43 38 45 43 38 45 43 38 45 43 38 45 43 38 45 41 38 45 35 36 40 32 37 40 33 37 40 32 37 40 33 37 40 32 37 40 33 37 40 32 37 40 34 38 41 33 38 41 34 38 41 33 38 41 34 38 41 33 38 41 34 38 41 36 37 41 41 35 45 42 34 45 42 34 45 42 34 45 42 34 45 42 34 45 42 34 45 42 34 45 43 35 46 43 35 46 43 35 46 43 35 46 43 35 46 43 35 46 43 35 46 43 35 46 51 45 57 51 45 57 51 45 57 51 45 57 51 45 57 51 45 57 51 45 57 51 45 57 50 44 56 50 44 56 50 44 56 50 44 56 50 44 56 50 44 56 50 44 56 51 43 56 49 35 50 51 34 50 52 34 50 52 34 50 55 32 50 56 31 50 59 30 50 61 29 50 68 33 55 71 31 55 74 30 55 75 29 55 77 29 55 78 28 55 80 27 55 73 31 55 53 30 46 47 33 46 47 33 46 47 33 46 47 33 46 47 33 46 47 33 46 47 33 46 48 34 47 48 34 47 48 34 47 48 34 47 48 34 47 48 34 47 48 34 47 51 33 45 75 52 60 79 52 59 81 54 61 85 58 65 88 61 68 91 64 71 94 67 74 95 68 75 114 87 94 111 84 91 106 79 86 99 72 79 91 64 71 84 57 64 79 52 59 76 49 56 66 34 47 64 34 46 62 32 44 55 29 40 52 26 37 46 25 34 42 22 31 38 23 30 40 29 35 39 33 37 40 35 39 40 40 42 44 44 46 44 48 49 46 50 51 48 52 53 47 45 50 49 44 50 49 44 50 49 44 50 49 44 50 49 44 50 49 44 50 49 44 50 62 57 63 63 58 64 65 60 66 69 64 70 72 67 73 75 70 76 78 73 79 80 74 76 87 75 75 90 76 73 92 78 75 96 82 79 99 85 82 102 88 85 105 91 88 106 92 89 96 82 79 96 82 79 96 82 79 96 82 79 96 82 79 96 82 79 96 82 79 97 82 79 105 86 82 106 85 82 106 85 82 106 85 82 106 85 82 106 85 82 106 85 82 106 85 82 90 69 66 90 69 66 90 69 66 90 69 66 90 69 66 90 69 66 90 69 66 93 67 68 96 63 72 99 61 74 99 61 74 99 61 74 99 61 74 99 61 74 99 61 74 99 61 74 100 62 75 100 62 75 100 62 75 100 62 75 100 62 75 100 62 75 100 62 75 95 65 75 48 35 44 43 38 44 43 38 44 43 38 44 43 38 44 43 38 44 43 38 44 43 38 44 59 54 60 57 52 58
76 67 68 76 67 68 76 67 68 76 67 68 76 67 70 92 85 92 90 85 91 87 82 89 84 79 85 81 76 83 77 72 78 75 70 77 74 69 75 43 38 45 43 38 44 43 38 45 43 38 44 43 38 45 43 38 44 43 38 45 41 38 45 33 34 39 30 35 39 31 34 39 30 35 39 31 34 39 30 35 39 31 34 39 30 35 39 32 35 40 31 36 40 32 35 40 31 36 40 32 35 40 31 36 40 32 35 40 34 34 42 39 36 45 41 35 45 41 35 47 41 35 45 41 35 47 41 35 45 41 35 47 41 35 45 42 36 48 42 36 46 42 36 48 42 36 46 42 36 48 42 36 46 42 36 48 42 36 46 51 45 55 51 45 55 51 45 55 51 45 55 51 45 55 51 45 55 51 45 55 51 45 55 50 44 54 50 44 54 50 44 54 50 44 54 50 44 54 50 44 54 50 44 54 51 43 54 49 35 48 51 35 48 52 34 48 52 34 48 54 33 48 56 32 48 58 31 48 59 30 48 66 35 53 67 34 53 70 32 53 71 32 53 73 31 53 73 31 53 74 30 53 68 33 53 50 32 46 45 35 46 46 34 46 45 35 46 46 34 46 45 35 46 46 34 46 45 35 46 47 35 47 46 36 47 47 35 47 46 36 47 47 35 47 46 36 47 47 35 47 48 35 45 74 54 63 77 54 62 80 57 65 83 60 68 86 63 71 90 67 75 92 69 77 93 70 78 113 90 98 110 87 95 104 81 89 96 73 81 88 65 73 80 57 65 74 51 59 71 48 58 58 36 48 57 35 48 53 33 45 48 30 42 44 28 39 38 25 35 35 23 33 33 23 32 37 30 38 36 33 40 37 36 42 39 40 45 41 44 49 44 47 52 45 50 54 48 51 56 47 45 50 49 44 50 50 43 50 49 44 50 50 43 50 49 44 50 50 43 50 49 44 50 64 57 64 64 59 65 68 61 68 70 65 71 74 67 74 77 72 78 80 73 80 83 74 79 88 76 76 91 77 74 94 80 77 97 83 80 100 86 83 104 90 87 106 92 89 107 93 90 96 82 79 96 82 79 96 82 79 96 82 79 96 82 79 96 82 79 96 82 79 97 82 79 106 85 84 108 84 84 108 84 84 108 84 84 108 84 84 108 84 84 108 84 84 108 84 84 90 66 66 90 66 66 90 66 66 90 66 66 90 66 66 90 66 66 90 66 66 93 64 68 98 62 72 101 60 74 101 60 74 101 60 74 101 60 74 101 60 74 101 60 74 101 60 74 102 61 75 102 61 75 102 61 75 102 61 75 102 61 75 102 61 75 102 61 75 96 64 77 48 35 44 43 38 44 43 38 44 43 38 44 43 38 44 43 38 44 43 38 44 43 38 44 59 54 60 57 52 58
80 71 74 80 71 74 80 71 74 80 71 74 80 71 74 81 75 79 81 75 79 81 74 81 81 75 79 81 74 81 81 75 79 81 74 81 81 75 79 68 61 68 65 59 63 60 53 60 54 48 52 47 40 47 41 35 39 36 29 36 32 27 34 39 37 48 36 38 50 38 38 50 36 38 50 38 38 50 36 38 50 38 38 50 36 38 50 36 36 48 34 36 48 36 36 48 34 36 48 36 36 48 34 36 48 36 36 48 36 36 48 38 36 49 38 36 47 38 36 49 38 36 47 38 36 49 38 36 47 38 36 49 38 36 47 45 43 56 45 43 54 45 43 56 45 43 54 45 43 56 45 43 54 45 43 56 46 43 54 58 53 60 59 52 59 59 52 59 59 52 59 59 52 59 59 52 59 59 52 59 59 52 59 56 49 56 56 49 56 56 49 56 56 49 56 56 49 56 56 49 56 56 49 56 58 48 56 50 37 47 52 36 47 52 36 47 52 36 47 53 35 47 53 35 47 55 35 47 55 35 47 63 43 55 64 42 55 64 42 55 65 41 55 65 41 55 65 41 55 65 41 55 63 43 55 51 41 52 46 43 54 48 42 54 46 43 54 48 42 54 46 43 54 48 42 54 46 43 54 47 41 53 45 42 53 47 41 53 45 42 53 47 41 53 45 42 53 47 41 53 48 40 51 72 61 69 73 60 67 73 60 67 73 60 67 73 60 67 73 60 67 73 60 67 73 60 67 89 76 83 86 73 80 81 68 75 75 62 69 68 55 62 62 49 56 57 44 51 53 41 51 36 30 44 33 31 45 33 31 45 32 31 45 32 31 45 32 31 45 30 32 45 30 32 45 40 42 55 39 43 55 39 43 55 37 43 55 37 43 55 37 43 55 37 43 55 39 43 54 33 27 37 37 30 38 44 34 43 48 41 49 57 47 56 61 54 62 68 58 67 69 62 70 80 70 79 78 71 79 80 70 79 78 71 79 80 70 79 78 71 79 80 70 79 81 70 76 88 74 74 89 73 73 89 73 73 89 73 73 89 73 73 89 73 73 89 73 73 89 73 73 100 84 84 100 84 84 100 84 84 100 84 84 100 84 84 100 84 84 100 84 84 102 84 84 98 73 76 99 73 76 99 73 76 99 73 76 99 73 76 99 73 76 99 73 76 99 73 76 91 65 68 91 65 68 91 65 68 91 65 68 91 65 68 91 65 68 91 65 68 94 63 69 95 54 68 97 53 70 97 53 70 97 53 70 97 53 70 97 53 70 97 53 70 97 53 70 95 51 68 95 51 68 95 51 68 95 51 68 95 51 68 95 51 68 95 51 68 88 54 68 49 36 45 42 40 45 42 40 45 42 40 45 42 40 45 42 40 45 42 40 45 42 40 45 44 42 47 42 40 45
80 71 74 80 71 74 80 71 74 80 71 74 80 71 74 81 75 79 81 75 79 81 75 79 81 75 79 81 75 79 81 75 79 81 75 79 81 75 79 69 63 67 66 60 64 61 55 59 55 49 53 48 42 46 42 36 40 37 31 35 33 28 34 39 37 50 38 37 51 38 37 51 38 37 51 38 37 51 38 37 51 38 37 51 38 37 51 36 35 49 36 35 49 36 35 49 36 35 49 36 35 49 36 35 49 36 35 49 36 35 49 37 37 49 37 37 49 37 37 49 37 37 49 37 37 49 37 37 49 37 37 49 37 37 49 44 44 56 44 44 56 44 44 56 44 44 56 44 44 56 44 44 56 44 44 56 45 43 54 58 53 59 59 53 57 59 53 57 59 53 57 59 53 57 59 53 57 59 53 57 59 53 57 58 52 56 58 52 56 58 52 56 58 52 56 58 52 56 58 52 56 58 52 56 60 51 56 52 39 48 54 38 48 54 38 48 54 38 48 54 38 48 54 38 48 54 38 48 54 38 48 60 44 54 60 44 54 60 44 54 60 44 54 60 44 54 60 44 54 60 44 54 57 45 55 48 42 52 45 43 54 45 43 54 45 43 54 45 43 54 45 43 54 45 43 54 45 43 54 44 42 53 44 42 53 44 42 53 44 42 53 44 42 53 44 42 53 44 42 53 45 42 51 67 60 68 69 59 67 69 59 67 69 59 67 69 59 67 69 59 67 69 59 67 69 59 67 86 76 84 83 73 81 78 68 76 72 62 70 65 55 63 59 49 57 54 44 52 48 42 52 29 33 45 26 33 49 26 33 49 26 33 49 26 33 49 26 33 49 26 33 49 26 33 49 36 43 59 36 43 59 36 43 59 36 43 59 36 43 59 36 43 59 36 43 59 39 43 55 34 28 40 40 30 39 45 35 44 51 41 50 58 48 57 64 54 63 69 59 68 72 62 71 80 70 79 80 70 79 80 70 79 80 70 79 80 70 79 80 70 79 80 70 79 81 70 76 88 73 76 89 73 73 89 73 73 89 73 73 89 73 73 89 73 73 89 73 73 89 73 73 100 84 84 100 84 84 100 84 84 100 84 84 100 84 84 100 84 84 100 84 84 102 84 84 99 72 77 101 72 77 101 72 77 101 72 77 101 72 77 101 72 77 101 72 77 101 72 77 93 64 69 93 64 69 93 64 69 93 64 69 93 64 69 93 64 69 93 64 69 95 62 71 96 54 68 99 52 70 99 52 70 99 52 70 99 52 70 99 52 70 99 52 70 99 52 70 97 50 68 97 50 68 97 50 68 97 50 68 97 50 68 97 50 68 97 50 68 90 54 68 49 36 45 42 40 45 42 40 45 42 40 45 42 40 45 42 40 45 42 40 45 42 40 45 44 42 47 42 40 45
80 71 74 80 71 74 80 71 74 80 71 74 80 71 74 81 75 79 81 75 79 81 75 79 81 75 79 81 75 79 81 75 79 81 75 79 81 75 79 71 65 69 69 63 67 64 58 62 58 52 56 51 45 49 44 38 42 39 33 37 36 31 37 39 37 50 38 37 51 38 37 51 38 37 51 38 37 51 38 37 51 38 37 51 38 37 51 36 35 49 36 35 49 36 35 49 36 35 49 36 35 49 36 35 49 36 35 49 36 35 49 37 37 49 37 37 49 37 37 49 37 37 49 37 37 49 37 37 49 37 37 49 37 37 49 44 44 56 44 44 56 44 44 56 44 44 56 44 44 56 44 44 56 44 44 56 45 43 54 58 53 59 59 53 57 59 53 57 59 53 57 59 53 57 59 53 57 59 53 57 59 53 57 60 54 58 60 54 58 60 54 58 60 54 58 60 54 58 60 54 58 60 54 58 62 53 58 57 44 53 59 43 53 59 43 53 59 43 53 59 43 53 59 43 53 59 43 53 59 43 53 60 44 54 60 44 54 60 44 54 60 44 54 60 44 54 60 44 54 60 44 54 57 45 55 48 42 52 45 43 54 45 43 54 45 43 54 45 43 54 45 43 54 45 43 54 45 43 54 44 42 53 44 42 53 44 42 53 44 42 53 44 42 53 44 42 53 44 42 53 45 42 51 65 58 66 67 57 65 67 57 65 67 57 65 67 57 65 67 57 65 67 57 65 67 57 65 83 73 81 81 71 79 76 66 74 69 59 67 62 52 60 56 46 54 51 41 49 46 40 50 29 33 45 26 33 49 26 33 49 26 33 49 26 33 49 26 33 49 26 33 49 26 33 49 36 43 59 36 43 59 36 43 59 36 43 59 36 43 59 36 43 59 36 43 59 39 43 55 37 31 43 42 32 41 47 37 46 54 44 53 61 51 60 67 57 66 72 62 71 74 64 73 80 70 79 80 70 79 80 70 79 80 70 79 80 70 79 80 70 79 80 70 79 81 70 76 88 73 76 89 73 73 89 73 73 89 73 73 89 73 73 89 73 73 89 73 73 89 73 73 100 84 84 100 84 84 100 84 84 100 84 84 100 84 84 100 84 84 100 84 84 102 84 84 99 72 77 101 72 77 101 72 77 101 72 77 101 72 77 101 72 77 101 72 77 101 72 77 93 64 69 93 64 69 93 64 69 93 64 69 93 64 69 93 64 69 93 64 69 95 62 71 96 54 68 99 52 70 99 52 70 99 52 70 99 52 70 99 52 70 99 52 70 99 52 70 97 50 68 97 50 68 97 50 68 97 50 68 97 50 68 97 50 68 97 50 68 90 54 68 49 36 45 42 40 45 42 40 45 42 40 45 42 40 45 42 40 45 42 40 45 42 40 45 44 42 47 42 40 45
80 71 74 80 71 74 80 71 74 80 71 74 80 71 74 81 75 79 81 75 79 81 75 79 81 75 79 81 75 79 81 75 79 81 75 79 81 75 79 75 69 73 72 66 70 67 61 65 61 55 59 54 48 52 47 41 45 43 37 41 39 34 40 39 37 50 38 37 51 38 37 51 38 37 51 38 37 51 38 37 51 38 37 51 38 37 51 36 35 49 36 35 49 36 35 49 36 35 49 36 35 49 36 35 49 36 35 49 36 35 49 37 37 49 37 37 49 37 37 49 37 37 49 37 37 49 37 37 49 37 37 49 37 37 49 44 44 56 44 44 56 44 44 56 44 44 56 44 44 56 44 44 56 44 44 56 45 43 54 58 53 59 59 53 57 59 53 57 59 53 57 59 53 57 59 53 57 59 53 57 59 53 57 63 57 61 63 57 61 63 57 61 63 57 61 63 57 61 63 57 61 63 57 61 65 56 61 64 51 60 66 50 60 66 50 60 66 50 60 66 50 60 66 50 60 66 50 60 66 50 60 60 44 54 60 44 54 60 44 54 60 44 54 60 44 54 60 44 54 60 44 54 57 45 55 48 42 52 45 43 54 45 43 54 45 43 54 45 43 54 45 43 54 45 43 54 45 43 54 44 42 53 44 42 53 44 42 53 44 42 53 44 42 53 44 42 53 44 42 53 45 42 51 62 55 63 64 54 62 64 54 62 64 54 62 64 54 62 64 54 62 64 54 62 64 54 62 80 70 78 77 67 75 73 63 71 66 56 64 59 49 57 53 43 51 48 38 46 42 36 46 29 33 45 26 33 49 26 33 49 26 33 49 26 33 49 26 33 49 26 33 49 26 33 49 36 43 59 36 43 59 36 43 59 36 43 59 36 43 59 36 43 59 36 43 59 39 43 55 40 34 46 46 36 45 50 40 49 57 47 56 64 54 63 70 60 69 75 65 74 78 68 77 80 70 79 80 70 79 80 70 79 80 70 79 80 70 79 80 70 79 80 70 79 81 70 76 88 73 76 89 73 73 89 73 73 89 73 73 89 73 73 89 73 73 89 73 73 89 73 73 100 84 84 100 84 84 100 84 84 100 84 84 100 84 84 100 84 84 100 84 84 102 84 84 99 72 77 101 72 77 101 72 77 101 72 77 101 72 77 101 72 77 101 72 77 101 72 77 93 64 69 93 64 69 93 64 69 93 64 69 93 64 69 93 64 69 93 64 69 95 62 71 96 54 68 99 52 70 99 52 70 99 52 70 99 52 70 99 52 70 99 52 70 99 52 70 97 50 68 97 50 68 97 50 68 97 50 68 97 50 68 97 50 68 97 50 68 90 54 68 49 36 45 42 40 45 42 40 45 42 40 45 42 40 45 42 40 45 42 40 45 42 40 45 44 42 47 42 40 45
80 71 74 80 71 74 80 71 74 80 71 74 80 71 74 81 75 79 81 75 79 81 75 79 81 75 79 81 75 79 81 75 79 81 75 79 81 75 79 78 72 76 75 69 73 71 65 69 64 58 62 57 51 55 51 45 49 46 40 44 42 37 43 39 37 50 38 37 51 38 37 51 38 37 51 38 37 51 38 37 51 38 37 51 38 37 51 36 35 49 36 35 49 36 35 49 36 35 49 36 35 49 36 35 49 36 35 49 36 35 49 37 37 49 37 37 49 37 37 49 37 37 49 37 37 49 37 37 49 37 37 49 37 37 49 44 44 56 44 44 56 44 44 56 44 44 56 44 44 56 44 44 56 44 44 56 45 43 54 58 53 59 59 53 57 59 53 57 59 53 57 59 53 57 59 53 57 59 53 57 59 53 57 67 61 65 67 61 65 67 61 65 67 61 65 67 61 65 67 61 65 67 61 65 69 60 65 70 57 66 72 56 66 72 56 66 72 56 66 72 56 66 72 56 66 72 56 66 72 56 66 60 44 54 60 44 54 60 44 54 60 44 54 60 44 54 60 44 54 60 44 54 57 45 55 48 42 52 45 43 54 45 43 54 45 43 54 45 43 54 45 43 54 45 43 54 45 43 54 44 42 53 44 42 53 44 42 53 44 42 53 44 42 53 44 42 53 44 42 53 45 42 51 58 51 59 60 50 58 60 50 58 60 50 58 60 50 58 60 50 58 60 50 58 60 50 58 77 67 75 74 64 72 69 59 67 63 53 61 56 46 54 49 39 47 45 35 43 39 33 43 29 33 45 26 33 49 26 33 49 26 33 49 26 33 49 26 33 49 26 33 49 26 33 49 36 43 59 36 43 59 36 43 59 36 43 59 36 43 59 36 43 59 36 43 59 39 43 55 43 37 49 49 39 48 54 44 53 60 50 59 67 57 66 74 64 73 78 68 77 81 71 80 80 70 79 80 70 79 80 70 79 80 70 79 80 70 79 80 70 79 80 70 79 81 70 76 88 73 76 89 73 73 89 73 73 89 73 73 89 73 73 89 73 73 89 73 73 89 73 73 100 84 84 100 84 84 100 84 84 100 84 84 100 84 84 100 84 84 100 84 84 102 84 84 99 72 77 101 72 77 101 72 77 101 72 77 101 72 77 101 72 77 101 72 77 101 72 77 93 64 69 93 64 69 93 64 69 93 64 69 93 64 69 93 64 69 93 64 69 95 62 71 96 54 68 99 52 70 99 52 70 99 52 70 99 52 70 99 52 70 99 52 70 99 52 70 97 50 68 97 50 68 97 50 68 97 50 68 97 50 68 97 50 68 97 50 68 90 54 68 49 36 45 42 40 45 42 40 45 42 40 45 42 40 45 42 40 45 42 40 45 42 40 45 44 42 47 42 40 45
80 71 74 80 71 74 80 71 74 80 71 74 80 71 74 81 75 79 81 75 79 81 75 79 81 75 79 81 75 79 81 75 79 81 75 79 81 75 79 81 75 79 79 73 77 74 68 72 67 61 65 60 54 58 54 48 52 49 43 47 46 41 47 39 37 50 38 37 51 38 37 51 38 37 51 38 37 51 38 37 51 38 37 51 38 37 51 36 35 49 36 35 49 36 35 49 36 35 49 36 35 49 36 35 49 36 35 49 36 35 49 37 37 49 37 37 49 37 37 49 37 37 49 37 37 49 37 37 49 37 37 49 37 37 49 44 44 56 44 44 56 44 44 56 44 44 56 44 44 56 44 44 56 44 44 56 45 43 54 58 53 59 59 53 57 59 53 57 59 53 57 59 53 57 59 53 57 59 53 57 59 53 57 70 64 68 70 64 68 70 64 68 70 64 68 70 64 68 70 64 68 70 64 68 72 63 68 77 64 73 79 63 73 79 63 73 79 63 73 79 63 73 79 63 73 79 63 73 79 63 73 60 44 54 60 44 54 60 44 54 60 44 54 60 44 54 60 44 54 60 44 54 57 45 55 48 42 52 45 43 54 45 43 54 45 43 54 45 43 54 45 43 54 45 43 54 45 43 54 44 42 53 44 42 53 44 42 53 44 42 53 44 42 53 44 42 53 44 42 53 45 42 51 55 48 56 57 47 55 57 47 55 57 47 55 57 47 55 57 47 55 57 47 55 57 47 55 73 63 71 71 61 69 66 56 64 60 50 58 53 43 51 46 36 44 41 31 39 36 30 40 29 33 45 26 33 49 26 33 49 26 33 49 26 33 49 26 33 49 26 33 49 26 33 49 36 43 59 36 43 59 36 43 59 36 43 59 36 43 59 36 43 59 36 43 59 39 43 55 47 41 53 52 42 51 57 47 56 63 53 62 70 60 69 77 67 76 82 72 81 84 74 83 80 70 79 80 70 79 80 70 79 80 70 79 80 70 79 80 70 79 80 70 79 81 70 76 88 73 76 89 73 73 89 73 73 89 73 73 89 73 73 89 73 73 89 73 73 89 73 73 100 84 84 100 84 84 100 84 84 100 84 84 100 84 84 100 84 84 100 84 84 102 84 84 99 72 77 101 72 77 101 72 77 101 72 77 101 72 77 101 72 77 101 72 77 101 72 77 93 64 69 93 64 69 93 64 69 93 64 69 93 64 69 93 64 69 93 64 69 95 62 71 96 54 68 99 52 70 99 52 70 99 52 70 99 52 70 99 52 70 99 52 70 99 52 70 97 50 68 97 50 68 97 50 68 97 50 68 97 50 68 97 50 68 97 50 68 90 54 68 49 36 45 42 40 45 42 40 45 42 40 45 42 40 45 42 40 45 42 40 45 42 40 45 44 42 47 42 40 45
80 71 74 80 71 74 80 71 74 80 71 74 80 71 74 81 75 79 81 75 79 81 75 79 81 75 79 81 75 79 81 75 79 81 75 79 81 75 79 84 78 82 81 75 79 76 70 74 70 64 68 63 57 61 57 51 55 52 46 50 48 43 49 39 37 50 38 37 51 38 37 51 38 37 51 38 37 51 38 37 51 38 37 51 38 37 51 36 35 49 36 35 49 36 35 49 36 35 49 36 35 49 36 35 49 36 35 49 36 35 49 37 37 49 37 37 49 37 37 49 37 37 49 37 37 49 37 37 49 37 37 49 37 37 49 44 44 56 44 44 56 44 44 56 44 44 56 44 44 56 44 44 56 44 44 56 45 43 54 58 53 59 59 53 57 59 53 57 59 53 57 59 53 57 59 53 57 59 53 57 59 53 57 72 66 70 72 66 70 72 66 70 72 66 70 72 66 70 72 66 70 72 66 70 74 65 70 82 69 78 84 68 78 84 68 78 84 68 78 84 68 78 84 68 78 84 68 78 84 68 78 60 44 54 60 44 54 60 44 54 60 44 54 60 44 54 60 44 54 60 44 54 57 45 55 48 42 52 45 43 54 45 43 54 45 43 54 45 43 54 45 43 54 45 43 54 45 43 54 44 42 53 44 42 53 44 42 53 44 42 53 44 42 53 44 42 53 44 42 53 45 42 51 53 46 54 55 45 53 55 45 53 55 45 53 55 45 53 55 45 53 55 45 53 55 45 53 71 61 69 68 58 66 63 53 61 57 47 55 50 40 48 44 34 42 39 29 37 33 27 37 29 33 45 26 33 49 26 33 49 26 33 49 26 33 49 26 33 49 26 33 49 26 33 49 36 43 59 36 43 59 36 43 59 36 43 59 36 43 59 36 43 59 36 43 59 39 43 55 49 43 55 55 45 54 60 50 59 66 56 65 73 63 72 79 69 78 84 74 83 87 77 86 80 70 79 80 70 79 80 70 79 80 70 79 80 70 79 80 70 79 80 70 79 81 70 76 88 73 76 89 73 73 89 73 73 89 73 73 89 73 73 89 73 73 89 73 73 89 73 73 100 84 84 100 84 84 100 84 84 100 84 84 100 84 84 100 84 84 100 84 84 102 84 84 99 72 77 101 72 77 101 72 77 101 72 77 101 72 77 101 72 77 101 72 77 101 72 77 93 64 69 93 64 69 93 64 69 93 64 69 93 64 69 93 64 69 93 64 69 95 62 71 96 54 68 99 52 70 99 52 70 99 52 70 99 52 70 99 52 70 99 52 70 99 52 70 97 50 68 97 50 68 97 50 68 97 50 68 97 50 68 97 50 68 97 50 68 90 54 68 49 36 45 42 40 45 42 40 45 42 40 45 42 40 45 42 40 45 42 40 45 42 40 45 44 42 47 42 40 45
80 71 74 80 71 74 80 71 74 80 71 74 80 71 74 81 75 79 81 75 79 81 75 79 81 75 79 81 75 79 81 75 79 81 75 79 81 75 79 85 79 83 82 76 80 77 71 75 71 65 69 64 58 62 58 52 56 53 47 51 49 44 50 39 37 50 38 37 51 38 37 51 38 37 51 38 37 51 38 37 51 38 37 51 38 37 51 36 35 49 36 35 49 36 35 49 36 35 49 36 35 49 36 35 49 36 35 49 36 35 49 37 37 49 37 37 49 37 37 49 37 37 49 37 37 49 37 37 49 37 37 49 37 37 49 44 44 56 44 44 56 44 44 56 44 44 56 44 44 56 44 44 56 44 44 56 45 43 54 58 53 59 59 53 57 59 53 57 59 53 57 59 53 57 59 53 57 59 53 57 59 53 57 74 68 72 74 68 72 74 68 72 74 68 72 74 68 72 74 68 72 74 68 72 76 67 72 84 71 80 86 70 80 86 70 80 86 70 80 86 70 80 86 70 80 86 70 80 86 70 80 60 44 54 60 44 54 60 44 54 60 44 54 60 44 54 60 44 54 60 44 54 57 45 55 48 42 52 45 43 54 45 43 54 45 43 54 45 43 54 45 43 54 45 43 54 45 43 54 44 42 53 44 42 53 44 42 53 44 42 53 44 42 53 44 42 53 44 42 53 45 42 51 51 44 52 53 43 51 53 43 51 53 43 51 53 43 51 53 43 51 53 43 51 53 43 51 70 60 68 67 57 65 62 52 60 56 46 54 49 39 47 43 33 41 38 28 36 32 26 36 29 33 45 26 33 49 26 33 49 26 33 49 26 33 49 26 33 49 26 33 49 26 33 49 36 43 59 36 43 59 36 43 59 36 43 59 36 43 59 36 43 59 36 43 59 39 43 55 50 44 56 56 46 55 61 51 60 67 57 66 74 64 73 80 70 79 85 75 84 88 78 87 80 70 79 80 70 79 80 70 79 80 70 79 80 70 79 80 70 79 80 70 79 81 70 76 88 73 76 89 73 73 89 73 73 89 73 73 89 73 73 89 73 73 89 73 73 89 73 73 100 84 84 100 84 84 100 84 84 100 84 84 100 84 84 100 84 84 100 84 84 102 84 84 99 72 77 101 72 77 101 72 77 101 72 77 101 72 77 101 72 77 101 72 77 101 72 77 93 64 69 93 64 69 93 64 69 93 64 69 93 64 69 93 64 69 93 64 69 95 62 71 96 54 68 99 52 70 99 52 70 99 52 70 99 52 70 99 52 70 99 52 70 99 52 70 97 50 68 97 50 68 97 50 68 97 50 68 97 50 68 97 50 68 97 50 68 90 54 68 49 36 45 42 40 45 42 40 45 42 40 45 42 40 45 42 40 45 42 40 45 42 40 45 44 42 47 42 40 45
84 75 78 84 75 78 84 75 78 84 75 78 84 75 78 78 72 76 76 70 74 74 68 72 71 65 69 67 61 65 64 58 62 62 56 60 60 54 58 72 66 70 72 66 70 72 66 70 72 66 70 72 66 70 72 66 70 72 66 70 71 66 72 56 54 67 53 52 66 49 48 62 45 44 58 40 39 53 36 35 49 33 32 46 31 30 44 42 41 55 42 41 55 42 41 55 42 41 55 42 41 55 42 41 55 42 41 55 42 41 55 57 57 69 56 56 68 53 53 65 50 50 62 47 47 59 43 43 55 41 41 53 40 40 52 54 54 66 54 54 66 54 54 66 54 54 66 54 54 66 54 54 66 54 54 66 55 53 64 51 46 52 53 47 51 55 49 53 59 53 57 62 56 60 65 59 63 68 62 66 69 63 67 83 77 81 83 77 81 83 77 81 83 77 81 83 77 81 83 77 81 83 77 81 85 76 81 83 70 79 85 69 79 85 69 79 85 69 79 85 69 79 85 69 79 85 69 79 85 69 79 90 74 84 88 72 82 83 67 77 76 60 70 70 54 64 63 47 57 58 42 52 53 41 51 47 41 51 44 42 53 44 42 53 44 42 53 44 42 53 44 42 53 44 42 53 44 42 53 39 37 48 39 37 48 39 37 48 39 37 48 39 37 48 39 37 48 39 37 48 40 37 46 47 40 48 49 39 47 49 39 47 49 39 47 49 39 47 49 39 47 49 39 47 49 39 47 47 37 45 47 37 45 47 37 45 47 37 45 47 37 45 47 37 45 47 37 45 44 38 48 33 37 49 30 37 53 30 37 53 30 37 53 30 37 53 30 37 53 30 37 53 30 37 53 29 36 52 31 38 54 33 40 56 36 43 59 40 47 63 43 50 66 45 52 68 50 54 66 59 53 65 64 54 63 67 57 66 72 62 71 76 66 75 81 71 80 84 74 83 86 76 85 66 56 65 68 58 67 70 60 69 73 63 72 77 67 76 80 70 79 82 72 81 85 74 80 94 79 82 95 79 79 95 79 79 95 79 79 95 79 79 95 79 79 95 79 79 95 79 79 95 79 79 95 79 79 95 79 79 95 79 79 95 79 79 95 79 79 95 79 79 97 79 79 98 71 76 100 71 76 100 71 76 100 71 76 100 71 76 100 71 76 100 71 76 100 71 76 98 69 74 98 69 74 98 69 74 98 69 74 98 69 74 98 69 74 98 69 74 100 67 76 95 53 67 98 51 69 98 51 69 98 51 69 98 51 69 98 51 69 98 51 69 98 51 69 95 48 66 93 46 64 91 44 62 88 41 59 84 37 55 81 34 52 79 32 50 70 34 48 40 27 36 35 33 38 37 35 40 40 38 43 44 42 47 47 45 50 49 47 52 51 49 54 40 38 43 38 36 41
84 75 78 84 75 78 84 75 78 84 75 78 84 75 78 78 72 76 76 70 74 74 68 72 71 65 69 67 61 65 64 58 62 62 56 60 60 54 58 70 64 68 70 64 68 70 64 68 70 64 68 70 64 68 70 64 68 70 64 68 69 64 70 61 59 72 58 57 71 55 54 68 52 51 65 48 47 61 44 43 57 41 40 54 39 38 52 50 49 63 50 49 63 50 49 63 50 49 63 50 49 63 50 49 63 50 49 63 50 49 63 58 58 70 57 57 69 55 55 67 51 51 63 48 48 60 45 45 57 42 42 54 41 41 53 54 54 66 54 54 66 54 54 66 54 54 66 54 54 66 54 54 66 54 54 66 55 53 64 52 47 53 54 48 52 57 51 55 60 54 58 63 57 61 67 61 65 69 63 67 70 64 68 83 77 81 83 77 81 83 77 81 83 77 81 83 77 81 83 77 81 83 77 81 85 76 81 83 70 79 85 69 79 85 69 79 85 69 79 85 69 79 85 69 79 85 69 79 85 69 79 90 74 84 88 72 82 83 67 77 76 60 70 70 54 64 63 47 57 58 42 52 53 41 51 47 41 51 44 42 53 44 42 53 44 42 53 44 42 53 44 42 53 44 42 53 44 42 53 39 37 48 39 37 48 39 37 48 39 37 48 39 37 48 39 37 48 39 37 48 40 37 46 47 40 48 49 39 47 49 39 47 49 39 47 49 39 47 49 39 47 49 39 47 49 39 47 47 37 45 47 37 45 47 37 45 47 37 45 47 37 45 47 37 45 47 37 45 44 38 48 33 37 49 30 37 53 30 37 53 30 37 53 30 37 53 30 37 53 30 37 53 30 37 53 29 36 52 31 38 54 33 40 56 36 43 59 40 47 63 43 50 66 45 52 68 50 54 66 61 55 67 65 55 64 68 58 67 72 62 71 76 66 75 80 70 79 83 73 82 84 74 83 66 56 65 68 58 67 70 60 69 73 63 72 77 67 76 80 70 79 82 72 81 85 74 80 94 79 82 95 79 79 95 79 79 95 79 79 95 79 79 95 79 79 95 79 79 95 79 79 95 79 79 95 79 79 95 79 79 95 79 79 95 79 79 95 79 79 95 79 79 97 79 79 98 71 76 100 71 76 100 71 76 100 71 76 100 71 76 100 71 76 100 71 76 100 71 76 98 69 74 98 69 74 98 69 74 98 69 74 98 69 74 98 69 74 98 69 74 100 67 76 95 53 67 98 51 69 98 51 69 98 51 69 98 51 69 98 51 69 98 51 69 98 51 69 95 48 66 93 46 64 91 44 62 88 41 59 84 37 55 81 34 52 79 32 50 70 34 48 40 27 36 35 33 38 37 35 40 40 38 43 44 42 47 47 45 50 49 47 52 51 49 54 40 38 43 38 36 41
84 75 78 84 75 78 84 75 78 84 75 78 84 75 78 78 72 76 76 70 74 74 68 72 71 65 69 67 61 65 64 58 62 62 56 60 60 54 58 68 62 66 68 62 66 68 62 66 68 62 66 68 62 66 68 62 66 68 62 66 67 62 68 68 66 79 66 65 79 64 63 77 61 60 74 59 58 72 56 55 69 54 53 67 53 52 66 63 62 76 63 62 76 63 62 76 63 62 76 63 62 76 63 62 76 63 62 76 63 62 76 61 61 73 59 59 71 57 57 69 54 54 66 50 50 62 47 47 59 45 45 57 43 43 55 54 54 66 54 54 66 54 54 66 54 54 66 54 54 66 54 54 66 54 54 66 55 53 64 54 49 55 57 51 55 59 53 57 62 56 60 66 60 64 69 63 67 71 65 69 73 67 71 83 77 81 83 77 81 83 77 81 83 77 81 83 77 81 83 77 81 83 77 81 85 76 81 83 70 79 85 69 79 85 69 79 85 69 79 85 69 79 85 69 79 85 69 79 85 69 79 90 74 84 88 72 82 83 67 77 76 60 70 70 54 64 63 47 57 58 42 52 53 41 51 47 41 51 44 42 53 44 42 53 44 42 53 44 42 53 44 42 53 44 42 53 44 42 53 39 37 48 39 37 48 39 37 48 39 37 48 39 37 48 39 37 48 39 37 48 40 37 46 47 40 48 49 39 47 49 39 47 49 39 47 49 39 47 49 39 47 49 39 47 49 39 47 47 37 45 47 37 45 47 37 45 47 37 45 47 37 45 47 37 45 47 37 45 44 38 48 33 37 49 30 37 53 30 37 53 30 37 53 30 37 53 30 37 53 30 37 53 30 37 53 29 36 52 31 38 54 33 40 56 36 43 59 40 47 63 43 50 66 45 52 68 50 54 66 64 58 70 68 58 67 70 60 69 73 63 72 75 65 74 78 68 77 80 70 79 81 71 80 66 56 65 68 58 67 70 60 69 73 63 72 77 67 76 80 70 79 82 72 81 85 74 80 94 79 82 95 79 79 95 79 79 95 79 79 95 79 79 95 79 79 95 79 79 95 79 79 95 79 79 95 79 79 95 79 79 95 79 79 95 79 79 95 79 79 95 79 79 97 79 79 98 71 76 100 71 76 100 71 76 100 71 76 100 71 76 100 71 76 100 71 76 100 71 76 98 69 74 98 69 74 98 69 74 98 69 74 98 69 74 98 69 74 98 69 74 100 67 76 95 53 67 98 51 69 98 51 69 98 51 69 98 51 69 98 51 69 98 51 69 98 51 69 95 48 66 93 46 64 91 44 62 88 41 59 84 37 55 81 34 52 79 32 50 70 34 48 40 27 36 35 33 38 37 35 40 40 38 43 44 42 47 47 45 50 49 47 52 51 49 54 40 38 43 38 36 41
84 75 78 84 75 78 84 75 78 84 75 78 84 75 78 78 72 76 76 70 74 74 68 72 71 65 69 67 61 65 64 58 62 62 56 60 60 54 58 65 59 63 65 59 63 65 59 63 65 59 63 65 59 63 65 59 63 65 59 63 64 59 65 72 70 83 71 70 84 70 69 83 69 68 82 68 67 81 68 67 81 67 66 80 67 66 80 75 74 88 75 74 88 75 74 88 75 74 88 75 74 88 75 74 88 75 74 88 75 74 88 64 64 76 63 63 75 60 60 72 57 57 69 54 54 66 50 50 62 48 48 60 47 47 59 54 54 66 54 54 66 54 54 66 54 54 66 54 54 66 54 54 66 54 54 66 55 53 64 58 53 59 60 54 58 62 56 60 66 60 64 69 63 67 72 66 70 75 69 73 76 70 74 83 77 81 83 77 81 83 77 81 83 77 81 83 77 81 83 77 81 83 77 81 85 76 81 83 70 79 85 69 79 85 69 79 85 69 79 85 69 79 85 69 79 85 69 79 85 69 79 90 74 84 88 72 82 83 67 77 76 60 70 70 54 64 63 47 57 58 42 52 53 41 51 47 41 51 44 42 53 44 42 53 44 42 53 44 42 53 44 42 53 44 42 53 44 42 53 39 37 48 39 37 48 39 37 48 39 37 48 39 37 48 39 37 48 39 37 48 40 37 46 47 40 48 49 39 47 49 39 47 49 39 47 49 39 47 49 39 47 49 39 47 49 39 47 47 37 45 47 37 45 47 37 45 47 37 45 47 37 45 47 37 45 47 37 45 44 38 48 33 37 49 30 37 53 30 37 53 30 37 53 30 37 53 30 37 53 30 37 53 30 37 53 29 36 52 31 38 54 33 40 56 36 43 59 40 47 63 43 50 66 45 52 68 50 54 66 69 63 75 72 62 71 73 63 72 74 64 73 74 64 73 75 65 74 76 66 75 76 66 75 66 56 65 68 58 67 70 60 69 73 63 72 77 67 76 80 70 79 82 72 81 85 74 80 94 79 82 95 79 79 95 79 79 95 79 79 95 79 79 95 79 79 95 79 79 95 79 79 95 79 79 95 79 79 95 79 79 95 79 79 95 79 79 95 79 79 95 79 79 97 79 79 98 71 76 100 71 76 100 71 76 100 71 76 100 71 76 100 71 76 100 71 76 100 71 76 98 69 74 98 69 74 98 69 74 98 69 74 98 69 74 98 69 74 98 69 74 100 67 76 95 53 67 98 51 69 98 51 69 98 51 69 98 51 69 98 51 69 98 51 69 98 51 69 95 48 66 93 46 64 91 44 62 88 41 59 84 37 55 81 34 52 79 32 50 70 34 48 40 27 36 35 33 38 37 35 40 40 38 43 44 42 47 47 45 50 49 47 52 51 49 54 40 38 43 38 36 41
84 75 78 84 75 78 84 75 78 84 75 78 84 75 78 78 72 76 76 70 74 74 68 72 71 65 69 67 61 65 64 58 62 62 56 60 60 54 58 61 55 59 61 55 59 61 55 59 61 55 59 61 55 59 61 55 59 61 55 59 60 55 61 71 69 82 70 69 83 71 70 84 72 71 85 73 72 86 74 73 87 74 73 87 75 74 88 82 81 95 82 81 95 82 81 95 82 81 95 82 81 95 82 81 95 82 81 95 82 81 95 67 67 79 66 66 78 64 64 76 60 60 72 57 57 69 54 54 66 51 51 63 50 50 62 54 54 66 54 54 66 54 54 66 54 54 66 54 54 66 54 54 66 54 54 66 55 53 64 61 56 62 63 57 61 66 60 64 69 63 67 72 66 70 76 70 74 78 72 76 79 73 77 83 77 81 83 77 81 83 77 81 83 77 81 83 77 81 83 77 81 83 77 81 85 76 81 83 70 79 85 69 79 85 69 79 85 69 79 85 69 79 85 69 79 85 69 79 85 69 79 90 74 84 88 72 82 83 67 77 76 60 70 70 54 64 63 47 57 58 42 52 53 41 51 47 41 51 44 42 53 44 42 53 44 42 53 44 42 53 44 42 53 44 42 53 44 42 53 39 37 48 39 37 48 39 37 48 39 37 48 39 37 48 39 37 48 39 37 48 40 37 46 47 40 48 49 39 47 49 39 47 49 39 47 49 39 47 49 39 47 49 39 47 49 39 47 47 37 45 47 37 45 47 37 45 47 37 45 47 37 45 47 37 45 47 37 45 44 38 48 33 37 49 30 37 53 30 37 53 30 37 53 30 37 53 30 37 53 30 37 53 30 37 53 29 36 52 31 38 54 33 40 56 36 43 59 40 47 63 43 50 66 45 52 68 50 54 66 73 67 79 76 66 75 75 65 74 74 64 73 74 64 73 73 63 72 72 62 71 72 62 71 66 56 65 68 58 67 70 60 69 73 63 72 77 67 76 80 70 79 82 72 81 85 74 80 94 79 82 95 79 79 95 79 79 95 79 79 95 79 79 95 79 79 95 79 79 95 79 79 95 79 79 95 79 79 95 79 79 95 79 79 95 79 79 95 79 79 95 79 79 97 79 79 98 71 76 100 71 76 100 71 76 100 71 76 100 71 76 100 71 76 100 71 76 100 71 76 98 69 74 98 69 74 98 69 74 98 69 74 98 69 74 98 69 74 98 69 74 100 67 76 95 53 67 98 51 69 98 51 69 98 51 69 98 51 69 98 51 69 98 51 69 98 51 69 95 48 66 93 46 64 91 44 62 88 41 59 84 37 55 81 34 52 79 32 50 70 34 48 40 27 36 35 33 38 37 35 40 40 38 43 44 42 47 47 45 50 49 47 52 51 49 54 40 38 43 38 36 41
84 75 78 84 75 78 84 75 78 84 75 78 84 75 78 78 72 76 76 70 74 74 68 72 71 65 69 67 61 65 64 58 62 62 56 60 60 54 58 58 52 56 58 52 56 58 52 56 58 52 56 58 52 56 58 52 56 58 52 56 57 52 58 64 62 75 64 63 77 66 65 79 69 68 82 71 70 84 74 73 87 76 75 89 77 76 90 83 82 96 83 82 96 83 82 96 83 82 96 83 82 96 83 82 96 83 82 96 83 82 96 71 71 83 69 69 81 67 67 79 64 64 76 60 60 72 57 57 69 55 55 67 53 53 65 54 54 66 54 54 66 54 54 66 54 54 66 54 54 66 54 54 66 54 54 66 55 53 64 64 59 65 67 61 65 69 63 67 72 66 70 76 70 74 79 73 77 81 75 79 83 77 81 83 77 81 83 77 81 83 77 81 83 77 81 83 77 81 83 77 81 83 77 81 85 76 81 83 70 79 85 69 79 85 69 79 85 69 79 85 69 79 85 69 79 85 69 79 85 69 79 90 74 84 88 72 82 83 67 77 76 60 70 70 54 64 63 47 57 58 42 52 53 41 51 47 41 51 44 42 53 44 42 53 44 42 53 44 42 53 44 42 53 44 42 53 44 42 53 39 37 48 39 37 48 39 37 48 39 37 48 39 37 48 39 37 48 39 37 48 40 37 46 47 40 48 49 39 47 49 39 47 49 39 47 49 39 47 49 39 47 49 39 47 49 39 47 47 37 45 47 37 45 47 37 45 47 37 45 47 37 45 47 37 45 47 37 45 44 38 48 33 37 49 30 37 53 30 37 53 30 37 53 30 37 53 30 37 53 30 37 53 30 37 53 29 36 52 31 38 54 33 40 56 36 43 59 40 47 63 43 50 66 45 52 68 50 54 66 78 72 84 80 70 79 78 68 77 75 65 74 73 63 72 70 60 69 68 58 67 67 57 66 66 56 65 68 58 67 70 60 69 73 63 72 77 67 76 80 70 79 82 72 81 85 74 80 94 79 82 95 79 79 95 79 79 95 79 79 95 79 79 95 79 79 95 79 79 95 79 79 95 79 79 95 79 79 95 79 79 95 79 79 95 79 79 95 79 79 95 79 79 97 79 79 98 71 76 100 71 76 100 71 76 100 71 76 100 71 76 100 71 76 100 71 76 100 71 76 98 69 74 98 69 74 98 69 74 98 69 74 98 69 74 98 69 74 98 69 74 100 67 76 95 53 67 98 51 69 98 51 69 98 51 69 98 51 69 98 51 69 98 51 69 98 51 69 95 48 66 93 46 64 91 44 62 88 41 59 84 37 55 81 34 52 79 32 50 70 34 48 40 27 36 35 33 38 37 35 40 40 38 43 44 42 47 47 45 50 49 47 52 51 49 54 40 38 43 38 36 41
84 75 78 84 75 78 84 75 78 84 75 78 84 75 78 78 72 76 76 70 74 74 68 72 71 65 69 67 61 65 64 58 62 62 56 60 60 54 58 56 50 54 56 50 54 56 50 54 56 50 54 56 50 54 56 50 54 56 50 54 55 50 56 55 53 66 56 55 69 59 58 72 62 61 75 66 65 79 70 69 83 73 72 86 75 74 88 80 79 93 80 79 93 80 79 93 80 79 93 80 79 93 80 79 93 80 79 93 80 79 93 73 73 85 72 72 84 69 69 81 66 66 78 63 63 75 59 59 71 57 57 69 56 56 68 54 54 66 54 54 66 54 54 66 54 54 66 54 54 66 54 54 66 54 54 66 55 53 64 67 62 68 69 63 67 71 65 69 75 69 73 78 72 76 81 75 79 84 78 82 85 79 83 83 77 81 83 77 81 83 77 81 83 77 81 83 77 81 83 77 81 83 77 81 85 76 81 83 70 79 85 69 79 85 69 79 85 69 79 85 69 79 85 69 79 85 69 79 85 69 79 90 74 84 88 72 82 83 67 77 76 60 70 70 54 64 63 47 57 58 42 52 53 41 51 47 41 51 44 42 53 44 42 53 44 42 53 44 42 53 44 42 53 44 42 53 44 42 53 39 37 48 39 37 48 39 37 48 39 37 48 39 37 48 39 37 48 39 37 48 40 37 46 47 40 48 49 39 47 49 39 47 49 39 47 49 39 47 49 39 47 49 39 47 49 39 47 47 37 45 47 37 45 47 37 45 47 37 45 47 37 45 47 37 45 47 37 45 44 38 48 33 37 49 30 37 53 30 37 53 30 37 53 30 37 53 30 37 53 30 37 53 30 37 53 29 36 52 31 38 54 33 40 56 36 43 59 40 47 63 43 50 66 45 52 68 50 54 66 81 75 87 83 73 82 80 70 79 76 66 75 72 62 71 68 58 67 65 55 64 64 54 63 66 56 65 68 58 67 70 60 69 73 63 72 77 67 76 80 70 79 82 72 81 85 74 80 94 79 82 95 79 79 95 79 79 95 79 79 95 79 79 95 79 79 95 79 79 95 79 79 95 79 79 95 79 79 95 79 79 95 79 79 95 79 79 95 79 79 95 79 79 97 79 79 98 71 76 100 71 76 100 71 76 100 71 76 100 71 76 100 71 76 100 71 76 100 71 76 98 69 74 98 69 74 98 69 74 98 69 74 98 69 74 98 69 74 98 69 74 100 67 76 95 53 67 98 51 69 98 51 69 98 51 69 98 51 69 98 51 69 98 51 69 98 51 69 95 48 66 93 46 64 91 44 62 88 41 59 84 37 55 81 34 52 79 32 50 70 34 48 40 27 36 35 33 38 37 35 40 40 38 43 44 42 47 47 45 50 49 47 52 51 49 54 40 38 43 38 36 41
84 75 78 84 75 78 84 75 78 84 75 78 84 75 78 78 72 76 76 70 74 74 68 72 71 65 69 67 61 65 64 58 62 62 56 60 60 54 58 54 48 52 54 48 52 54 48 52 54 48 52 54 48 52 54 48 52 54 48 52 53 48 54 50 47 56 51 49 60 54 52 63 59 57 68 63 61 72 68 66 77 71 69 80 73 71 82 78 76 87 78 76 87 78 76 87 78 76 87 78 76 87 78 76 87 78 76 87 78 76 87 75 73 84 74 72 83 72 70 81 68 66 77 65 63 74 62 60 71 59 57 68 58 56 67 55 53 64 55 53 64 55 53 64 55 53 64 55 53 64 55 53 64 55 53 64 56 53 62 69 62 69 72 63 66 75 66 71 78 69 72 81 72 77 85 76 79 87 78 83 88 79 82 85 76 81 85 76 79 85 76 81 85 76 79 85 76 81 85 76 79 85 76 81 86 75 81 83 70 77 85 70 77 85 69 79 85 70 77 85 69 79 85 70 77 85 69 79 85 70 77 90 74 84 88 73 80 83 67 77 76 61 68 70 54 64 63 48 55 58 42 52 53 42 50 47 41 51 44 42 53 44 42 53 44 42 53 44 42 53 44 42 53 44 42 53 44 42 53 39 37 48 39 37 48 39 37 48 39 37 48 39 37 48 39 37 48 39 37 48 40 37 46 46 41 48 47 40 48 47 40 48 47 40 48 47 40 48 47 40 48 47 40 48 47 40 48 45 38 46 45 38 46 45 38 46 45 38 46 45 38 46 45 38 46 45 38 46 42 39 48 34 36 49 31 37 51 31 37 51 31 37 51 31 37 51 31 37 51 31 37 51 31 37 51 30 36 50 32 38 52 34 40 54 37 43 57 41 47 61 44 50 64 46 52 66 51 53 65 83 78 85 84 74 82 82 71 79 76 66 74 73 62 70 67 57 65 65 54 62 62 52 60 67 56 64 68 58 66 71 60 68 73 63 71 78 67 75 80 70 78 83 72 80 86 73 80 95 79 80 97 79 79 97 79 79 97 79 79 97 79 79 97 79 79 97 79 79 97 79 79 97 79 79 97 79 79 97 79 79 97 79 79 97 79 79 97 79 79 97 79 79 99 77 80 98 71 76 100 71 76 101 70 78 100 71 76 101 70 78 100 71 76 101 70 78 100 71 76 99 68 76 98 69 74 99 68 76 98 69 74 99 68 76 98 69 74 99 68 76 100 67 76 94 53 67 96 52 69 96 52 69 96 52 69 96 52 69 96 52 69 96 52 69 96 52 69 93 49 66 91 47 64 89 45 62 86 42 59 82 38 55 79 35 52 77 33 50 68 34 48 40 27 36 34 33 38 37 35 40 39 38 43 44 42 47 46 45 50 49 47 52 50 49 54 40 38 43 37 36 41
87 78 83 87 78 83 87 78 83 87 78 83 87 78 83 84 77 84 82 75 82 80 73 80 77 70 77 73 66 73 70 63 70 68 61 68 66 59 66 58 51 58 58 51 58 58 51 58 58 51 58 58 51 58 58 51 58 58 51 58 58 51 58 52 45 52 54 47 54 56 49 56 59 52 59 63 56 63 66 59 66 68 61 68 70 63 70 96 89 96 95 88 95 93 86 93 89 82 89 86 79 86 83 76 83 80 73 80 79 72 79 58 51 58 58 51 58 58 51 58 58 51 58 58 51 58 58 51 58 58 51 58 58 51 58 61 54 61 63 56 63 65 58 65 68 61 68 72 65 72 75 68 75 77 70 77 81 71 79 74 63 67 76 64 66 80 68 72 84 72 74 89 77 81 93 81 83 97 85 89 99 87 89 96 84 88 95 83 85 95 83 87 93 81 83 92 80 84 91 79 81 90 78 82 89 77 81 86 74 78 84 72 76 82 69 76 79 67 71 75 62 69 72 60 64 70 57 64 68 56 60 73 60 67 73 61 65 73 60 67 73 61 65 73 60 67 73 61 65 73 60 67 72 61 69 55 49 59 50 48 59 48 46 57 45 43 54 41 39 50 38 36 47 36 34 45 34 32 43 31 29 40 31 29 40 31 29 40 31 29 40 31 29 40 31 29 40 31 29 40 31 29 40 48 47 55 48 47 55 48 47 55 48 47 55 48 47 55 48 47 55 48 47 55 48 47 55 36 35 43 36 35 43 36 35 43 36 35 43 36 35 43 36 35 43 36 35 43 36 34 45 40 40 52 38 40 52 38 40 52 38 40 52 38 40 52 38 40 52 38 40 52 38 40 52 38 40 52 40 42 54 45 47 59 52 54 66 58 60 72 65 67 79 70 72 84 75 74 82 95 86 91 94 84 85 92 80 82 86 76 77 83 71 73 77 67 68 75 63 65 72 62 63 90 78 80 89 79 80 90 78 80 89 79 80 90 78 80 89 79 80 90 78 80 92 77 80 93 73 75 96 71 75 96 71 75 96 71 75 96 71 75 96 71 75 96 71 75 96 71 75 94 69 73 94 69 73 94 69 73 94 69 73 94 69 73 94 69 73 94 69 73 95 68 73 96 65 73 96 65 73 97 64 75 96 65 73 97 64 75 96 65 73 97 64 75 96 65 73 100 67 78 99 68 76 100 67 78 99 68 76 100 67 78 99 68 76 100 67 78 100 67 78 94 56 71 96 55 71 96 55 71 96 55 71 96 55 71 96 55 71 96 55 71 96 55 71 88 47 63 86 45 61 84 43 59 81 40 56 77 36 52 74 33 49 72 31 47 63 33 45 38 28 36 33 34 38 36 35 40 38 39 43 43 42 47 45 46 50 48 47 52 49 50 54 35 34 39 32 33 37
87 78 83 87 78 83 87 78 83 87 78 83 87 78 83 84 77 84 82 75 82 80 73 80 77 70 77 73 66 73 70 63 70 68 61 68 66 59 66 58 51 58 58 51 58 58 51 58 58 51 58 58 51 58 58 51 58 58 51 58 58 52 56 54 45 50 56 47 50 58 49 52 61 52 55 65 56 59 68 59 62 70 61 64 72 63 66 97 88 91 96 87 90 93 84 87 90 81 84 87 78 81 83 74 77 81 72 75 80 71 74 60 51 56 60 51 56 60 51 56 60 51 56 60 51 56 60 51 56 60 51 56 60 51 56 63 54 59 65 56 61 67 58 63 70 61 66 74 65 70 77 68 73 79 70 75 82 71 75 75 63 67 79 64 67 82 67 70 85 70 73 89 74 77 93 78 81 96 81 84 98 83 86 95 80 83 95 80 83 94 79 82 94 79 82 93 78 81 92 77 80 92 77 80 92 77 80 86 74 78 84 72 76 82 70 74 79 67 71 75 63 67 72 60 64 70 58 62 68 56 60 73 61 65 73 61 65 73 61 65 73 61 65 73 61 65 73 61 65 73 61 65 71 62 67 55 49 59 50 48 59 48 46 57 45 43 54 41 39 50 38 36 47 36 34 45 34 32 43 33 31 42 33 31 42 33 31 42 33 31 42 33 31 42 33 31 42 33 31 42 33 31 42 47 47 57 47 47 57 47 47 57 47 47 57 47 47 57 47 47 57 47 47 57 47 47 57 35 35 45 35 35 45 35 35 45 35 35 45 35 35 45 35 35 45 35 35 45 35 35 45 40 40 50 40 40 50 40 40 50 40 40 50 40 40 50 40 40 50 40 40 50 40 40 50 40 40 50 42 42 52 47 47 57 54 54 64 60 60 70 67 67 77 72 72 82 76 73 80 93 84 87 94 82 82 91 79 79 87 75 75 83 71 71 79 67 67 76 64 64 75 63 63 90 78 78 90 78 78 90 78 78 90 78 78 90 78 78 90 78 78 90 78 78 93 77 78 94 72 75 97 70 75 97 70 75 97 70 75 97 70 75 97 70 75 97 70 75 97 70 75 95 68 73 95 68 73 95 68 73 95 68 73 95 68 73 95 68 73 95 68 73 97 68 73 96 64 75 97 64 75 97 64 75 97 64 75 97 64 75 97 64 75 97 64 75 97 64 75 100 67 78 100 67 78 100 67 78 100 67 78 100 67 78 100 67 78 100 67 78 100 67 78 94 56 71 94 56 71 94 56 71 94 56 71 94 56 71 94 56 71 94 56 71 94 56 71 86 48 63 84 46 61 82 44 59 79 41 56 75 37 52 72 34 49 70 32 47 61 33 45 38 28 36 33 34 38 35 36 40 38 39 43 42 43 47 45 46 50 47 48 52 49 50 54 34 35 39 32 33 37
87 78 83 87 78 83 87 78 83 87 78 83 87 78 83 84 77 84 82 75 82 80 73 80 77 70 77 73 66 73 70 63 70 68 61 68 66 59 66 58 51 58 58 51 58 58 51 58 58 51 58 58 51 58 58 51 58 58 51 58 58 52 56 54 45 50 56 47 50 58 49 52 61 52 55 65 56 59 68 59 62 70 61 64 72 63 66 95 86 89 93 84 87 91 82 85 88 79 82 84 75 78 81 72 75 79 70 73 77 68 71 60 51 56 60 51 56 60 51 56 60 51 56 60 51 56 60 51 56 60 51 56 60 51 56 63 54 59 65 56 61 67 58 63 70 61 66 74 65 70 77 68 73 79 70 75 82 71 75 76 64 68 79 64 67 81 66 69 84 69 72 86 71 74 89 74 77 91 76 79 92 77 80 89 74 77 89 74 77 90 75 78 91 76 79 91 76 79 92 77 80 92 77 80 93 78 81 86 74 78 84 72 76 82 70 74 79 67 71 75 63 67 72 60 64 70 58 62 68 56 60 73 61 65 73 61 65 73 61 65 73 61 65 73 61 65 73 61 65 73 61 65 71 62 67 55 49 59 50 48 59 48 46 57 45 43 54 41 39 50 38 36 47 36 34 45 34 32 43 35 33 44 35 33 44 35 33 44 35 33 44 35 33 44 35 33 44 35 33 44 35 33 44 47 47 57 47 47 57 47 47 57 47 47 57 47 47 57 47 47 57 47 47 57 47 47 57 35 35 45 35 35 45 35 35 45 35 35 45 35 35 45 35 35 45 35 35 45 35 35 45 40 40 50 40 40 50 40 40 50 40 40 50 40 40 50 40 40 50 40 40 50 40 40 50 40 40 50 42 42 52 47 47 57 54 54 64 60 60 70 67 67 77 72 72 82 76 73 80 90 81 84 91 79 79 89 77 77 86 74 74 84 72 72 81 69 69 79 67 67 78 66 66 90 78 78 90 78 78 90 78 78 90 78 78 90 78 78 90 78 78 90 78 78 93 77 78 94 72 75 97 70 75 97 70 75 97 70 75 97 70 75 97 70 75 97 70 75 97 70 75 95 68 73 95 68 73 95 68 73 95 68 73 95 68 73 95 68 73 95 68 73 97 68 73 96 64 75 97 64 75 97 64 75 97 64 75 97 64 75 97 64 75 97 64 75 97 64 75 100 67 78 100 67 78 100 67 78 100 67 78 100 67 78 100 67 78 100 67 78 100 67 78 94 56 71 94 56 71 94 56 71 94 56 71 94 56 71 94 56 71 94 56 71 94 56 71 86 48 63 84 46 61 82 44 59 79 41 56 75 37 52 72 34 49 70 32 47 61 33 45 38 28 36 33 34 38 35 36 40 38 39 43 42 43 47 45 46 50 47 48 52 49 50 54 34 35 39 32 33 37
87 78 83 87 78 83 87 78 83 87 78 83 87 78 83 84 77 84 82 75 82 80 73 80 77 70 77 73 66 73 70 63 70 68 61 68 66 59 66 58 51 58 58 51 58 58 51 58 58 51 58 58 51 58 58 51 58 58 51 58 58 52 56 54 45 50 56 47 50 58 49 52 61 52 55 65 56 59 68 59 62 70 61 64 72 63 66 91 82 85 90 81 84 88 79 82 84 75 78 81 72 75 78 69 72 75 66 69 74 65 68 60 51 56 60 51 56 60 51 56 60 51 56 60 51 56 60 51 56 60 51 56 60 51 56 63 54 59 65 56 61 67 58 63 70 61 66 74 65 70 77 68 73 79 70 75 82 71 75 77 65 69 80 65 68 80 65 68 81 66 69 82 67 70 83 68 71 84 69 72 84 69 72 81 66 69 82 67 70 84 69 72 86 71 74 89 74 77 91 76 79 93 78 81 94 79 82 86 74 78 84 72 76 82 70 74 79 67 71 75 63 67 72 60 64 70 58 62 68 56 60 73 61 65 73 61 65 73 61 65 73 61 65 73 61 65 73 61 65 73 61 65 71 62 67 55 49 59 50 48 59 48 46 57 45 43 54 41 39 50 38 36 47 36 34 45 34 32 43 38 36 47 38 36 47 38 36 47 38 36 47 38 36 47 38 36 47 38 36 47 38 36 47 47 47 57 47 47 57 47 47 57 47 47 57 47 47 57 47 47 57 47 47 57 47 47 57 35 35 45 35 35 45 35 35 45 35 35 45 35 35 45 35 35 45 35 35 45 35 35 45 40 40 50 40 40 50 40 40 50 40 40 50 40 40 50 40 40 50 40 40 50 40 40 50 40 40 50 42 42 52 47 47 57 54 54 64 60 60 70 67 67 77 72 72 82 76 73 80 85 76 79 87 75 75 86 74 74 85 73 73 85 73 73 84 72 72 83 71 71 83 71 71 90 78 78 90 78 78 90 78 78 90 78 78 90 78 78 90 78 78 90 78 78 93 77 78 94 72 75 97 70 75 97 70 75 97 70 75 97 70 75 97 70 75 97 70 75 97 70 75 95 68 73 95 68 73 95 68 73 95 68 73 95 68 73 95 68 73 95 68 73 97 68 73 96 64 75 97 64 75 97 64 75 97 64 75 97 64 75 97 64 75 97 64 75 97 64 75 100 67 78 100 67 78 100 67 78 100 67 78 100 67 78 100 67 78 100 67 78 100 67 78 94 56 71 94 56 71 94 56 71 94 56 71 94 56 71 94 56 71 94 56 71 94 56 71 86 48 63 84 46 61 82 44 59 79 41 56 75 37 52 72 34 49 70 32 47 61 33 45 38 28 36 33 34 38 35 36 40 38 39 43 42 43 47 45 46 50 47 48 52 49 50 54 34 35 39 32 33 37
87 78 83 87 78 83 87 78 83 87 78 83 87 78 83 84 77 84 82 75 82 80 73 80 77 70 77 73 66 73 70 63 70 68 61 68 66 59 66 58 51 58 58 51 58 58 51 58 58 51 58 58 51 58 58 51 58 58 51 58 58 52 56 54 45 50 56 47 50 58 49 52 61 52 55 65 56 59 68 59 62 70 61 64 72 63 66 88 79 82 87 78 81 84 75 78 81 72 75 78 69 72 74 65 68 72 63 66 71 62 65 60 51 56 60 51 56 60 51 56 60 51 56 60 51 56 60 51 56 60 51 56 60 51 56 63 54 59 65 56 61 67 58 63 70 61 66 74 65 70 77 68 73 79 70 75 82 71 75 79 67 71 80 65 68 80 65 68 79 64 67 78 63 66 77 62 65 76 61 64 76 61 64 73 58 61 75 60 63 78 63 66 82 67 70 86 71 74 91 76 79 94 79 82 95 80 83 86 74 78 84 72 76 82 70 74 79 67 71 75 63 67 72 60 64 70 58 62 68 56 60 73 61 65 73 61 65 73 61 65 73 61 65 73 61 65 73 61 65 73 61 65 71 62 67 55 49 59 50 48 59 48 46 57 45 43 54 41 39 50 38 36 47 36 34 45 34 32 43 42 40 51 42 40 51 42 40 51 42 40 51 42 40 51 42 40 51 42 40 51 42 40 51 47 47 57 47 47 57 47 47 57 47 47 57 47 47 57 47 47 57 47 47 57 47 47 57 35 35 45 35 35 45 35 35 45 35 35 45 35 35 45 35 35 45 35 35 45 35 35 45 40 40 50 40 40 50 40 40 50 40 40 50 40 40 50 40 40 50 40 40 50 40 40 50 40 40 50 42 42 52 47 47 57 54 54 64 60 60 70 67 67 77 72 72 82 76 73 80 81 72 75 83 71 71 84 72 72 85 73 73 85 73 73 86 74 74 87 75 75 87 75 75 90 78 78 90 78 78 90 78 78 90 78 78 90 78 78 90 78 78 90 78 78 93 77 78 94 72 75 97 70 75 97 70 75 97 70 75 97 70 75 97 70 75 97 70 75 97 70 75 95 68 73 95 68 73 95 68 73 95 68 73 95 68 73 95 68 73 95 68 73 97 68 73 96 64 75 97 64 75 97 64 75 97 64 75 97 64 75 97 64 75 97 64 75 97 64 75 100 67 78 100 67 78 100 67 78 100 67 78 100 67 78 100 67 78 100 67 78 100 67 78 94 56 71 94 56 71 94 56 71 94 56 71 94 56 71 94 56 71 94 56 71 94 56 71 86 48 63 84 46 61 82 44 59 79 41 56 75 37 52 72 34 49 70 32 47 61 33 45 38 28 36 33 34 38 35 36 40 38 39 43 42 43 47 45 46 50 47 48 52 49 50 54 34 35 39 32 33 37
87 78 83 87 78 83 87 78 83 87 78 83 87 78 83 84 77 84 82 75 82 80 73 80 77 70 77 73 66 73 70 63 70 68 61 68 66 59 66 58 51 58 58 51 58 58 51 58 58 51 58 58 51 58 58 51 58 58 51 58 58 52 56 54 45 50 56 47 50 58 49 52 61 52 55 65 56 59 68 59 62 70 61 64 72 63 66 85 76 79 83 74 77 81 72 75 78 69 72 74 65 68 71 62 65 69 60 63 67 58 61 60 51 56 60 51 56 60 51 56 60 51 56 60 51 56 60 51 56 60 51 56 60 51 56 63 54 59 65 56 61 67 58 63 70 61 66 74 65 70 77 68 73 79 70 75 82 71 75 80 68 72 81 66 69 79 64 67 76 61 64 74 59 62 71 56 59 69 54 57 68 53 56 66 51 54 68 53 56 72 57 60 78 63 66 84 69 72 90 75 78 94 79 82 97 82 85 86 74 78 84 72 76 82 70 74 79 67 71 75 63 67 72 60 64 70 58 62 68 56 60 73 61 65 73 61 65 73 61 65 73 61 65 73 61 65 73 61 65 73 61 65 71 62 67 55 49 59 50 48 59 48 46 57 45 43 54 41 39 50 38 36 47 36 34 45 34 32 43 45 43 54 45 43 54 45 43 54 45 43 54 45 43 54 45 43 54 45 43 54 45 43 54 47 47 57 47 47 57 47 47 57 47 47 57 47 47 57 47 47 57 47 47 57 47 47 57 35 35 45 35 35 45 35 35 45 35 35 45 35 35 45 35 35 45 35 35 45 35 35 45 40 40 50 40 40 50 40 40 50 40 40 50 40 40 50 40 40 50 40 40 50 40 40 50 40 40 50 42 42 52 47 47 57 54 54 64 60 60 70 67 67 77 72 72 82 76 73 80 76 67 70 79 67 67 81 69 69 84 72 72 86 74 74 89 77 77 91 79 79 92 80 80 90 78 78 90 78 78 90 78 78 90 78 78 90 78 78 90 78 78 90 78 78 93 77 78 94 72 75 97 70 75 97 70 75 97 70 75 97 70 75 97 70 75 97 70 75 97 70 75 95 68 73 95 68 73 95 68 73 95 68 73 95 68 73 95 68 73 95 68 73 97 68 73 96 64 75 97 64 75 97 64 75 97 64 75 97 64 75 97 64 75 97 64 75 97 64 75 100 67 78 100 67 78 100 67 78 100 67 78 100 67 78 100 67 78 100 67 78 100 67 78 94 56 71 94 56 71 94 56 71 94 56 71 94 56 71 94 56 71 94 56 71 94 56 71 86 48 63 84 46 61 82 44 59 79 41 56 75 37 52 72 34 49 70 32 47 61 33 45 38 28 36 33 34 38 35 36 40 38 39 43 42 43 47 45 46 50 47 48 52 49 50 54 34 35 39 32 33 37
87 78 83 87 78 83 87 78 83 87 78 83 87 78 83 84 77 84 82 75 82 80 73 80 77 70 77 73 66 73 70 63 70 68 61 68 66 59 66 58 51 58 58 51 58 58 51 58 58 51 58 58 51 58 58 51 58 58 51 58 58 52 56 54 45 50 56 47 50 58 49 52 61 52 55 65 56 59 68 59 62 70 61 64 72 63 66 82 73 76 81 72 75 79 70 73 75 66 69 72 63 66 69 60 63 66 57 60 65 56 59 60 51 56 60 51 56 60 51 56 60 51 56 60 51 56 60 51 56 60 51 56 60 51 56 63 54 59 65 56 61 67 58 63 70 61 66 74 65 70 77 68 73 79 70 75 82 71 75 81 69 73 81 66 69 78 63 66 75 60 63 71 56 59 67 52 55 64 49 52 62 47 50 60 45 48 63 48 51 68 53 56 75 60 63 82 67 70 89 74 77 95 80 83 98 83 86 86 74 78 84 72 76 82 70 74 79 67 71 75 63 67 72 60 64 70 58 62 68 56 60 73 61 65 73 61 65 73 61 65 73 61 65 73 61 65 73 61 65 73 61 65 71 62 67 55 49 59 50 48 59 48 46 57 45 43 54 41 39 50 38 36 47 36 34 45 34 32 43 47 45 56 47 45 56 47 45 56 47 45 56 47 45 56 47 45 56 47 45 56 47 45 56 47 47 57 47 47 57 47 47 57 47 47 57 47 47 57 47 47 57 47 47 57 47 47 57 35 35 45 35 35 45 35 35 45 35 35 45 35 35 45 35 35 45 35 35 45 35 35 45 40 40 50 40 40 50 40 40 50 40 40 50 40 40 50 40 40 50 40 40 50 40 40 50 40 40 50 42 42 52 47 47 57 54 54 64 60 60 70 67 67 77 72 72 82 76 73 80 73 64 67 76 64 64 79 67 67 83 71 71 87 75 75 91 79 79 94 82 82 95 83 83 90 78 78 90 78 78 90 78 78 90 78 78 90 78 78 90 78 78 90 78 78 93 77 78 94 72 75 97 70 75 97 70 75 97 70 75 97 70 75 97 70 75 97 70 75 97 70 75 95 68 73 95 68 73 95 68 73 95 68 73 95 68 73 95 68 73 95 68 73 97 68 73 96 64 75 97 64 75 97 64 75 97 64 75 97 64 75 97 64 75 97 64 75 97 64 75 100 67 78 100 67 78 100 67 78 100 67 78 100 67 78 100 67 78 100 67 78 100 67 78 94 56 71 94 56 71 94 56 71 94 56 71 94 56 71 94 56 71 94 56 71 94 56 71 86 48 63 84 46 61 82 44 59 79 41 56 75 37 52 72 34 49 70 32 47 61 33 45 38 28 36 33 34 38 35 36 40 38 39 43 42 43 47 45 46 50 47 48 52 49 50 54 34 35 39 32 33 37
87 78 83 87 78 83 87 78 83 87 78 83 87 78 83 84 77 84 82 75 82 80 73 80 77 70 77 73 66 73 70 63 70 68 61 68 66 59 66 58 51 58 58 51 58 58 51 58 58 51 58 58 51 58 58 51 58 58 51 58 58 52 56 54 45 50 56 47 50 58 49 52 61 52 55 65 56 59 68 59 62 70 61 64 72 63 66 81 72 75 80 71 74 77 68 71 74 65 68 71 62 65 67 58 61 65 56 59 64 55 58 60 51 56 60 51 56 60 51 56 60 51 56 60 51 56 60 51 56 60 51 56 60 51 56 63 54 59 65 56 61 67 58 63 70 61 66 74 65 70 77 68 73 79 70 75 82 71 75 81 69 73 82 67 70 78 63 66 74 59 62 69 54 57 65 50 53 61 46 49 59 44 47 57 42 45 60 45 48 66 51 54 73 58 61 81 66 69 89 74 77 95 80 83 98 83 86 86 74 78 84 72 76 82 70 74 79 67 71 75 63 67 72 60 64 70 58 62 68 56 60 73 61 65 73 61 65 73 61 65 73 61 65 73 61 65 73 61 65 73 61 65 71 62 67 55 49 59 50 48 59 48 46 57 45 43 54 41 39 50 38 36 47 36 34 45 34 32 43 49 47 58 49 47 58 49 47 58 49 47 58 49 47 58 49 47 58 49 47 58 49 47 58 47 47 57 47 47 57 47 47 57 47 47 57 47 47 57 47 47 57 47 47 57 47 47 57 35 35 45 35 35 45 35 35 45 35 35 45 35 35 45 35 35 45 35 35 45 35 35 45 40 40 50 40 40 50 40 40 50 40 40 50 40 40 50 40 40 50 40 40 50 40 40 50 40 40 50 42 42 52 47 47 57 54 54 64 60 60 70 67 67 77 72 72 82 76 73 80 71 62 65 75 63 63 78 66 66 83 71 71 87 75 75 92 80 80 95 83 83 97 85 85 90 78 78 90 78 78 90 78 78 90 78 78 90 78 78 90 78 78 90 78 78 93 77 78 94 72 75 97 70 75 97 70 75 97 70 75 97 70 75 97 70 75 97 70 75 97 70 75 95 68 73 95 68 73 95 68 73 95 68 73 95 68 73 95 68 73 95 68 73 97 68 73 96 64 75 97 64 75 97 64 75 97 64 75 97 64 75 97 64 75 97 64 75 97 64 75 100 67 78 100 67 78 100 67 78 100 67 78 100 67 78 100 67 78 100 67 78 100 67 78 94 56 71 94 56 71 94 56 71 94 56 71 94 56 71 94 56 71 94 56 71 94 56 71 86 48 63 84 46 61 82 44 59 79 41 56 75 37 52 72 34 49 70 32 47 61 33 45 38 28 36 33 34 38 35 36 40 38 39 43 42 43 47 45 46 50 47 48 52 49 50 54 34 35 39 32 33 37
67 58 63 67 58 63 67 58 63 67 58 63 67 58 63 64 57 64 64 57 64 64 57 64 64 57 64 64 57 64 64 57 64 64 57 64 64 57 64 59 52 59 59 52 59 59 52 59 59 52 59 59 52 59 59 52 59 59 52 59 59 53 57 59 50 55 59 50 53 59 50 53 59 50 53 59 50 53 59 50 53 59 50 53 59 50 53 60 51 54 60 51 54 60 51 54 60 51 54 60 51 54 60 51 54 60 51 54 60 51 54 65 56 61 65 56 61 65 56 61 65 56 61 65 56 61 65 56 61 65 56 61 65 56 61 63 54 59 65 56 61 67 58 63 70 61 66 74 65 70 77 68 73 79 70 75 82 71 75 77 65 69 77 62 65 75 60 63 72 57 60 68 53 56 65 50 53 63 48 51 61 46 49 71 56 59 73 58 61 75 60 63 78 63 66 82 67 70 85 70 73 87 72 75 89 74 77 86 74 78 84 72 76 82 70 74 79 67 71 75 63 67 72 60 64 70 58 62 68 56 60 70 58 62 70 58 62 70 58 62 70 58 62 70 58 62 70 58 62 70 58 62 68 59 64 61 55 65 57 55 66 53 51 62 49 47 58 44 42 53 40 38 49 36 34 45 34 32 43 71 69 80 69 67 78 67 65 76 64 62 73 60 58 69 57 55 66 55 53 64 53 51 62 60 60 70 58 58 68 56 56 66 53 53 63 49 49 59 46 46 56 44 44 54 42 42 52 38 38 48 38 38 48 38 38 48 38 38 48 38 38 48 38 38 48 38 38 48 38 38 48 46 46 56 46 46 56 46 46 56 46 46 56 46 46 56 46 46 56 46 46 56 46 46 56 55 55 65 56 56 66 58 58 68 62 62 72 65 65 75 68 68 78 71 71 81 74 71 78 90 81 84 92 80 80 92 80 80 92 80 80 92 80 80 92 80 80 92 80 80 92 80 80 90 78 78 90 78 78 90 78 78 90 78 78 90 78 78 90 78 78 90 78 78 93 77 78 93 71 74 96 69 74 96 69 74 96 69 74 96 69 74 96 69 74 96 69 74 96 69 74 94 67 72 94 67 72 94 67 72 94 67 72 94 67 72 94 67 72 94 67 72 96 67 72 93 61 72 94 61 72 94 61 72 94 61 72 94 61 72 94 61 72 94 61 72 94 61 72 96 63 74 96 63 74 96 63 74 96 63 74 96 63 74 96 63 74 96 63 74 96 63 74 95 57 72 95 57 72 95 57 72 95 57 72 95 57 72 95 57 72 95 57 72 95 57 72 91 53 68 89 51 66 84 46 61 77 39 54 71 33 48 64 26 41 59 21 36 50 22 34 48 38 46 41 42 46 41 42 46 41 42 46 41 42 46 41 42 46 41 42 46 41 42 46 25 26 30 25 26 30
67 58 63 67 58 63 67 58 63 67 58 63 67 58 63 64 57 64 64 57 64 64 57 64 64 57 64 64 57 64 64 57 64 64 57 64 64 57 64 59 52 59 59 52 59 59 52 59 59 52 59 59 52 59 59 52 59 59 52 59 59 53 57 59 50 55 59 50 53 59 50 53 59 50 53 59 50 53 59 50 53 59 50 53 59 50 53 60 51 54 60 51 54 60 51 54 60 51 54 60 51 54 60 51 54 60 51 54 60 51 54 65 56 61 65 56 61 65 56 61 65 56 61 65 56 61 65 56 61 65 56 61 65 56 61 63 54 59 65 56 61 67 58 63 70 61 66 74 65 70 77 68 73 79 70 75 82 71 75 77 65 69 77 62 65 75 60 63 72 57 60 68 53 56 65 50 53 63 48 51 61 46 49 71 56 59 73 58 61 75 60 63 78 63 66 82 67 70 85 70 73 87 72 75 89 74 77 86 74 78 84 72 76 82 70 74 79 67 71 75 63 67 72 60 64 70 58 62 68 56 60 70 58 62 70 58 62 70 58 62 70 58 62 70 58 62 70 58 62 70 58 62 68 59 64 61 55 65 56 54 65 53 51 62 50 48 59 46 44 55 42 40 51 39 37 48 37 35 46 71 69 80 69 67 78 67 65 76 64 62 73 60 58 69 57 55 66 55 53 64 53 51 62 60 60 70 58 58 68 56 56 66 53 53 63 49 49 59 46 46 56 44 44 54 42 42 52 38 38 48 38 38 48 38 38 48 38 38 48 38 38 48 38 38 48 38 38 48 38 38 48 46 46 56 46 46 56 46 46 56 46 46 56 46 46 56 46 46 56 46 46 56 46 46 56 56 56 66 57 57 67 60 60 70 63 63 73 66 66 76 70 70 80 72 72 82 75 72 79 90 81 84 92 80 80 92 80 80 92 80 80 92 80 80 92 80 80 92 80 80 92 80 80 90 78 78 90 78 78 90 78 78 90 78 78 90 78 78 90 78 78 90 78 78 93 77 78 93 71 74 96 69 74 96 69 74 96 69 74 96 69 74 96 69 74 96 69 74 96 69 74 94 67 72 94 67 72 94 67 72 94 67 72 94 67 72 94 67 72 94 67 72 96 67 72 93 61 72 94 61 72 94 61 72 94 61 72 94 61 72 94 61 72 94 61 72 94 61 72 96 63 74 96 63 74 96 63 74 96 63 74 96 63 74 96 63 74 96 63 74 96 63 74 95 57 72 95 57 72 95 57 72 95 57 72 95 57 72 95 57 72 95 57 72 95 57 72 91 53 68 89 51 66 84 46 61 77 39 54 71 33 48 64 26 41 59 21 36 50 22 34 48 38 46 41 42 46 41 42 46 41 42 46 41 42 46 41 42 46 41 42 46 41 42 46 25 26 30 25 26 30
67 58 63 67 58 63 67 58 63 67 58 63 67 58 63 64 57 64 64 57 64 64 57 64 64 57 64 64 57 64 64 57 64 64 57 64 64 57 64 59 52 59 59 52 59 59 52 59 59 52 59 59 52 59 59 52 59 59 52 59 59 53 57 59 50 55 59 50 53 59 50 53 59 50 53 59 50 53 59 50 53 59 50 53 59 50 53 60 51 54 60 51 54 60 51 54 60 51 54 60 51 54 60 51 54 60 51 54 60 51 54 65 56 61 65 56 61 65 56 61 65 56 61 65 56 61 65 56 61 65 56 61 65 56 61 63 54 59 65 56 61 67 58 63 70 61 66 74 65 70 77 68 73 79 70 75 82 71 75 77 65 69 77 62 65 75 60 63 72 57 60 68 53 56 65 50 53 63 48 51 61 46 49 71 56 59 73 58 61 75 60 63 78 63 66 82 67 70 85 70 73 87 72 75 89 74 77 86 74 78 84 72 76 82 70 74 79 67 71 75 63 67 72 60 64 70 58 62 68 56 60 70 58 62 70 58 62 70 58 62 70 58 62 70 58 62 70 58 62 70 58 62 68 59 64 60 54 64 56 54 65 54 52 63 51 49 60 49 47 58 46 44 55 44 42 53 43 41 52 71 69 80 69 67 78 67 65 76 64 62 73 60 58 69 57 55 66 55 53 64 53 51 62 60 60 70 58 58 68 56 56 66 53 53 63 49 49 59 46 46 56 44 44 54 42 42 52 38 38 48 38 38 48 38 38 48 38 38 48 38 38 48 38 38 48 38 38 48 38 38 48 46 46 56 46 46 56 46 46 56 46 46 56 46 46 56 46 46 56 46 46 56 46 46 56 58 58 68 60 60 70 62 62 72 65 65 75 69 69 79 72 72 82 74 74 84 78 75 82 90 81 84 92 80 80 92 80 80 92 80 80 92 80 80 92 80 80 92 80 80 92 80 80 90 78 78 90 78 78 90 78 78 90 78 78 90 78 78 90 78 78 90 78 78 93 77 78 93 71 74 96 69 74 96 69 74 96 69 74 96 69 74 96 69 74 96 69 74 96 69 74 94 67 72 94 67 72 94 67 72 94 67 72 94 67 72 94 67 72 94 67 72 96 67 72 93 61 72 94 61 72 94 61 72 94 61 72 94 61 72 94 61 72 94 61 72 94 61 72 96 63 74 96 63 74 96 63 74 96 63 74 96 63 74 96 63 74 96 63 74 96 63 74 95 57 72 95 57 72 95 57 72 95 57 72 95 57 72 95 57 72 95 57 72 95 57 72 91 53 68 89 51 66 84 46 61 77 39 54 71 33 48 64 26 41 59 21 36 50 22 34 48 38 46 41 42 46 41 42 46 41 42 46 41 42 46 41 42 46 41 42 46 41 42 46 25 26 30 25 26 30
67 58 63 67 58 63 67 58 63 67 58 63 67 58 63 64 57 64 64 57 64 64 57 64 64 57 64 64 57 64 64 57 64 64 57 64 64 57 64 59 52 59 59 52 59 59 52 59 59 52 59 59 52 59 59 52 59 59 52 59 59 53 57 59 50 55 59 50 53 59 50 53 59 50 53 59 50 53 59 50 53 59 50 53 59 50 53 60 51 54 60 51 54 60 51 54 60 51 54 60 51 54 60 51 54 60 51 54 60 51 54 65 56 61 65 56 61 65 56 61 65 56 61 65 56 61 65 56 61 65 56 61 65 56 61 63 54 59 65 56 61 67 58 63 70 61 66 74 65 70 77 68 73 79 70 75 82 71 75 77 65 69 77 62 65 75 60 63 72 57 60 68 53 56 65 50 53 63 48 51 61 46 49 71 56 59 73 58 61 75 60 63 78 63 66 82 67 70 85 70 73 87 72 75 89 74 77 86 74 78 84 72 76 82 70 74 79 67 71 75 63 67 72 60 64 70 58 62 68 56 60 70 58 62 70 58 62 70 58 62 70 58 62 70 58 62 70 58 62 70 58 62 68 59 64 59 53 63 55 53 64 55 53 64 54 52 63 53 51 62 52 50 61 51 49 60 51 49 60 71 69 80 69 67 78 67 65 76 64 62 73 60 58 69 57 55 66 55 53 64 53 51 62 60 60 70 58 58 68 56 56 66 53 53 63 49 49 59 46 46 56 44 44 54 42 42 52 38 38 48 38 38 48 38 38 48 38 38 48 38 38 48 38 38 48 38 38 48 38 38 48 46 46 56 46 46 56 46 46 56 46 46 56 46 46 56 46 46 56 46 46 56 46 46 56 62 62 72 63 63 73 65 65 75 69 69 79 72 72 82 75 75 85 78 78 88 81 78 85 90 81 84 92 80 80 92 80 80 92 80 80 92 80 80 92 80 80 92 80 80 92 80 80 90 78 78 90 78 78 90 78 78 90 78 78 90 78 78 90 78 78 90 78 78 93 77 78 93 71 74 96 69 74 96 69 74 96 69 74 96 69 74 96 69 74 96 69 74 96 69 74 94 67 72 94 67 72 94 67 72 94 67 72 94 67 72 94 67 72 94 67 72 96 67 72 93 61 72 94 61 72 94 61 72 94 61 72 94 61 72 94 61 72 94 61 72 94 61 72 96 63 74 96 63 74 96 63 74 96 63 74 96 63 74 96 63 74 96 63 74 96 63 74 95 57 72 95 57 72 95 57 72 95 57 72 95 57 72 95 57 72 95 57 72 95 57 72 91 53 68 89 51 66 84 46 61 77 39 54 71 33 48 64 26 41 59 21 36 50 22 34 48 38 46 41 42 46 41 42 46 41 42 46 41 42 46 41 42 46 41 42 46 41 42 46 25 26 30 25 26 30
67 58 63 67 58 63 67 58 63 67 58 63 67 58 63 64 57 64 64 57 64 64 57 64 64 57 64 64 57 64 64 57 64 64 57 64 64 57 64 59 52 59 59 52 59 59 52 59 59 52 59 59 52 59 59 52 59 59 52 59 59 53 57 59 50 55 59 50 53 59 50 53 59 50 53 59 50 53 59 50 53 59 50 53 59 50 53 60 51 54 60 51 54 60 51 54 60 51 54 60 51 54 60 51 54 60 51 54 60 51 54 65 56 61 65 56 61 65 56 61 65 56 61 65 56 61 65 56 61 65 56 61 65 56 61 63 54 59 65 56 61 67 58 63 70 61 66 74 65 70 77 68 73 79 70 75 82 71 75 77 65 69 77 62 65 75 60 63 72 57 60 68 53 56 65 50 53 63 48 51 61 46 49 71 56 59 73 58 61 75 60 63 78 63 66 82 67 70 85 70 73 87 72 75 89 74 77 86 74 78 84 72 76 82 70 74 79 67 71 75 63 67 72 60 64 70 58 62 68 56 60 70 58 62 70 58 62 70 58 62 70 58 62 70 58 62 70 58 62 70 58 62 68 59 64 57 51 61 55 53 64 55 53 64 56 54 65 57 55 66 58 56 67 59 57 68 59 57 68 71 69 80 69 67 78 67 65 76 64 62 73 60 58 69 57 55 66 55 53 64 53 51 62 60 60 70 58 58 68 56 56 66 53 53 63 49 49 59 46 46 56 44 44 54 42 42 52 38 38 48 38 38 48 38 38 48 38 38 48 38 38 48 38 38 48 38 38 48 38 38 48 46 46 56 46 46 56 46 46 56 46 46 56 46 46 56 46 46 56 46 46 56 46 46 56 65 65 75 66 66 76 69 69 79 72 72 82 75 75 85 79 79 89 81 81 91 84 81 88 90 81 84 92 80 80 92 80 80 92 80 80 92 80 80 92 80 80 92 80 80 92 80 80 90 78 78 90 78 78 90 78 78 90 78 78 90 78 78 90 78 78 90 78 78 93 77 78 93 71 74 96 69 74 96 69 74 96 69 74 96 69 74 96 69 74 96 69 74 96 69 74 94 67 72 94 67 72 94 67 72 94 67 72 94 67 72 94 67 72 94 67 72 96 67 72 93 61 72 94 61 72 94 61 72 94 61 72 94 61 72 94 61 72 94 61 72 94 61 72 96 63 74 96 63 74 96 63 74 96 63 74 96 63 74 96 63 74 96 63 74 96 63 74 95 57 72 95 57 72 95 57 72 95 57 72 95 57 72 95 57 72 95 57 72 95 57 72 91 53 68 89 51 66 84 46 61 77 39 54 71 33 48 64 26 41 59 21 36 50 22 34 48 38 46 41 42 46 41 42 46 41 42 46 41 42 46 41 42 46 41 42 46 41 42 46 25 26 30 25 26 30
67 58 63 67 58 63 67 58 63 67 58 63 67 58 63 64 57 64 64 57 64 64 57 64 64 57 64 64 57 64 64 57 64 64 57 64 64 57 64 59 52 59 59 52 59 59 52 59 59 52 59 59 52 59 59 52 59 59 52 59 59 53 57 59 50 55 59 50 53 59 50 53 59 50 53 59 50 53 59 50 53 59 50 53 59 50 53 60 51 54 60 51 54 60 51 54 60 51 54 60 51 54 60 51 54 60 51 54 60 51 54 65 56 61 65 56 61 65 56 61 65 56 61 65 56 61 65 56 61 65 56 61 65 56 61 63 54 59 65 56 61 67 58 63 70 61 66 74 65 70 77 68 73 79 70 75 82 71 75 77 65 69 77 62 65 75 60 63 72 57 60 68 53 56 65 50 53 63 48 51 61 46 49 71 56 59 73 58 61 75 60 63 78 63 66 82 67 70 85 70 73 87 72 75 89 74 77 86 74 78 84 72 76 82 70 74 79 67 71 75 63 67 72 60 64 70 58 62 68 56 60 70 58 62 70 58 62 70 58 62 70 58 62 70 58 62 70 58 62 70 58 62 68 59 64 56 50 60 54 52 63 56 54 65 59 57 68 61 59 70 64 62 73 66 64 75 67 65 76 71 69 80 69 67 78 67 65 76 64 62 73 60 58 69 57 55 66 55 53 64 53 51 62 60 60 70 58 58 68 56 56 66 53 53 63 49 49 59 46 46 56 44 44 54 42 42 52 38 38 48 38 38 48 38 38 48 38 38 48 38 38 48 38 38 48 38 38 48 38 38 48 46 46 56 46 46 56 46 46 56 46 46 56 46 46 56 46 46 56 46 46 56 46 46 56 68 68 78 70 70 80 72 72 82 75 75 85 79 79 89 82 82 92 84 84 94 88 85 92 90 81 84 92 80 80 92 80 80 92 80 80 92 80 80 92 80 80 92 80 80 92 80 80 90 78 78 90 78 78 90 78 78 90 78 78 90 78 78 90 78 78 90 78 78 93 77 78 93 71 74 96 69 74 96 69 74 96 69 74 96 69 74 96 69 74 96 69 74 96 69 74 94 67 72 94 67 72 94 67 72 94 67 72 94 67 72 94 67 72 94 67 72 96 67 72 93 61 72 94 61 72 94 61 72 94 61 72 94 61 72 94 61 72 94 61 72 94 61 72 96 63 74 96 63 74 96 63 74 96 63 74 96 63 74 96 63 74 96 63 74 96 63 74 95 57 72 95 57 72 95 57 72 95 57 72 95 57 72 95 57 72 95 57 72 95 57 72 91 53 68 89 51 66 84 46 61 77 39 54 71 33 48 64 26 41 59 21 36 50 22 34 48 38 46 41 42 46 41 42 46 41 42 46 41 42 46 41 42 46 41 42 46 41 42 46 25 26 30 25 26 30
67 58 63 67 58 63 67 58 63 67 58 63 67 58 63 64 57 64 64 57 64 64 57 64 64 57 64 64 57 64 64 57 64 64 57 64 64 57 64 59 52 59 59 52 59 59 52 59 59 52 59 59 52 59 59 52 59 59 52 59 59 53 57 59 50 55 59 50 53 59 50 53 59 50 53 59 50 53 59 50 53 59 50 53 59 50 53 60 51 54 60 51 54 60 51 54 60 51 54 60 51 54 60 51 54 60 51 54 60 51 54 65 56 61 65 56 61 65 56 61 65 56 61 65 56 61 65 56 61 65 56 61 65 56 61 63 54 59 65 56 61 67 58 63 70 61 66 74 65 70 77 68 73 79 70 75 82 71 75 77 65 69 77 62 65 75 60 63 72 57 60 68 53 56 65 50 53 63 48 51 61 46 49 71 56 59 73 58 61 75 60 63 78 63 66 82 67 70 85 70 73 87 72 75 89 74 77 86 74 78 84 72 76 82 70 74 79 67 71 75 63 67 72 60 64 70 58 62 68 56 60 70 58 62 70 58 62 70 58 62 70 58 62 70 58 62 70 58 62 70 58 62 68 59 64 55 49 59 54 52 63 57 55 66 60 58 69 64 62 73 68 66 77 71 69 80 73 71 82 71 69 80 69 67 78 67 65 76 64 62 73 60 58 69 57 55 66 55 53 64 53 51 62 60 60 70 58 58 68 56 56 66 53 53 63 49 49 59 46 46 56 44 44 54 42 42 52 38 38 48 38 38 48 38 38 48 38 38 48 38 38 48 38 38 48 38 38 48 38 38 48 46 46 56 46 46 56 46 46 56 46 46 56 46 46 56 46 46 56 46 46 56 46 46 56 71 71 81 72 72 82 74 74 84 78 78 88 81 81 91 84 84 94 87 87 97 90 87 94 90 81 84 92 80 80 92 80 80 92 80 80 92 80 80 92 80 80 92 80 80 92 80 80 90 78 78 90 78 78 90 78 78 90 78 78 90 78 78 90 78 78 90 78 78 93 77 78 93 71 74 96 69 74 96 69 74 96 69 74 96 69 74 96 69 74 96 69 74 96 69 74 94 67 72 94 67 72 94 67 72 94 67 72 94 67 72 94 67 72 94 67 72 96 67 72 93 61 72 94 61 72 94 61 72 94 61 72 94 61 72 94 61 72 94 61 72 94 61 72 96 63 74 96 63 74 96 63 74 96 63 74 96 63 74 96 63 74 96 63 74 96 63 74 95 57 72 95 57 72 95 57 72 95 57 72 95 57 72 95 57 72 95 57 72 95 57 72 91 53 68 89 51 66 84 46 61 77 39 54 71 33 48 64 26 41 59 21 36 50 22 34 48 38 46 41 42 46 41 42 46 41 42 46 41 42 46 41 42 46 41 42 46 41 42 46 25 26 30 25 26 30
65 59 63 67 57 65 65 59 63 67 57 65 65 58 65 64 57 64 64 57 64 64 57 64 64 57 64 64 57 64 64 57 64 64 57 64 64 57 64 59 52 59 59 52 59 59 52 59 59 52 59 59 52 59 59 52 59 59 52 59 59 52 59 57 51 55 57 51 55 59 50 55 57 51 55 59 50 55 57 51 55 59 50 55 57 51 55 60 51 56 58 52 56 60 51 56 58 52 56 60 51 56 58 52 56 60 51 56 60 51 56 65 56 61 65 56 61 66 55 61 65 56 61 66 55 61 65 56 61 66 55 61 65 56 61 64 53 59 65 56 61 68 57 63 70 61 66 75 64 70 77 68 73 80 69 75 82 71 77 77 65 69 75 63 67 73 61 65 70 58 62 66 54 58 63 51 55 61 49 53 59 47 51 69 57 61 71 59 63 73 61 65 76 64 68 80 68 72 83 71 75 85 73 77 87 75 79 85 74 78 83 72 76 81 70 76 78 67 71 74 63 69 71 60 64 69 58 64 67 56 60 69 58 64 69 58 62 69 58 64 69 58 62 69 58 64 69 58 62 69 58 64 68 59 64 55 50 57 53 52 60 58 55 64 61 60 68 67 64 73 70 69 77 75 72 81 76 75 83 72 69 78 69 68 76 68 65 74 64 63 71 61 58 67 57 56 64 56 53 62 53 52 60 61 60 68 59 58 66 57 56 64 54 53 61 50 49 57 47 46 54 45 44 52 43 42 50 39 38 46 39 38 46 39 38 46 39 38 46 39 38 46 39 38 46 39 38 46 39 38 46 47 45 56 47 45 56 47 45 56 47 45 56 47 45 56 47 45 56 47 45 56 47 45 56 73 71 82 74 72 83 77 75 86 80 78 89 83 81 92 87 85 96 89 87 98 91 88 95 91 80 84 92 80 82 92 80 82 92 80 82 92 80 82 92 80 82 92 80 82 92 80 82 90 78 80 90 78 80 90 78 80 90 78 80 90 78 80 90 78 80 90 78 80 93 77 80 93 71 74 95 70 74 95 70 74 95 70 74 95 70 74 95 70 74 95 70 74 95 70 74 93 68 72 93 68 72 93 68 72 93 68 72 93 68 72 93 68 72 93 68 72 94 67 74 92 62 70 93 61 72 93 61 72 93 61 72 93 61 72 93 61 72 93 61 72 93 61 72 95 63 74 95 63 74 95 63 74 95 63 74 95 63 74 95 63 74 95 63 74 96 63 74 95 57 72 95 57 72 95 57 72 95 57 72 95 57 72 94 58 72 94 58 72 92 58 72 88 54 68 86 52 66 80 48 61 73 41 54 67 35 48 59 29 41 54 24 36 46 24 36 46 39 46 41 42 46 41 42 47 41 42 46 41 42 47 41 42 46 41 42 47 41 42 46 25 26 31 25 26 30
64 59 65 65 58 66 64 59 65 65 58 66 64 59 65 73 68 74 73 68 74 73 68 74 73 68 74 73 68 74 73 68 74 73 68 74 73 68 74 65 60 66 65 60 66 65 60 66 65 60 66 65 60 66 65 60 66 65 60 66 65 60 66 58 53 59 58 53 59 59 52 59 58 53 59 59 52 59 58 53 59 59 52 59 58 53 59 47 40 47 47 42 48 50 43 50 53 48 54 57 50 57 59 54 60 63 56 63 64 57 64 70 59 65 70 59 65 71 58 65 70 59 65 71 58 65 70 59 65 71 58 65 70 59 65 60 47 54 61 50 56 65 52 59 69 58 64 74 61 68 78 67 73 82 69 76 83 72 78 70 61 66 70 61 66 70 61 66 70 61 66 70 61 66 70 61 66 70 61 66 70 61 66 68 59 64 69 60 65 72 63 68 75 66 71 78 69 74 82 73 78 84 75 80 85 76 81 98 92 96 95 89 93 89 82 89 82 76 80 74 67 74 66 60 64 60 53 60 57 51 55 64 57 64 64 58 62 64 57 64 64 58 62 64 57 64 64 58 62 64 57 64 64 57 64 63 58 64 62 59 66 67 62 69 68 65 72 73 68 75 75 72 79 79 74 81 78 75 82 63 58 65 61 58 65 63 58 65 61 58 65 63 58 65 61 58 65 63 58 65 63 58 65 64 59 66 64 59 66 64 59 66 64 59 66 64 59 66 64 59 66 64 59 66 64 59 66 51 46 53 51 46 53 51 46 53 51 46 53 51 46 53 51 46 53 51 46 53 51 46 53 59 56 65 59 56 65 59 56 65 59 56 65 59 56 65 59 56 65 59 56 65 59 56 65 92 89 98 92 89 98 92 89 98 92 89 98 92 89 98 92 89 98 92 89 98 95 88 96 89 78 84 92 77 82 92 77 82 92 77 82 92 77 82 92 77 82 92 77 82 92 77 82 93 78 83 93 78 83 93 78 83 93 78 83 93 78 83 93 78 83 93 78 83 94 77 83 86 67 71 87 66 71 87 66 71 87 66 71 87 66 71 87 66 71 87 66 71 87 66 71 73 52 57 73 52 57 73 52 57 73 52 57 73 52 57 73 52 57 73 52 57 74 51 57 76 51 57 76 51 57 76 51 57 76 51 57 76 51 57 76 51 57 76 51 57 76 51 57 80 55 61 82 57 63 84 59 65 87 62 68 91 66 72 94 69 75 96 71 77 101 71 81 98 60 75 100 59 77 98 59 77 98 59 77 97 60 77 95 61 77 94 62 77 91 63 77 72 46 59 68 44 57 65 43 55 61 41 52 55 38 48 51 35 45 47 34 43 43 33 41 33 30 37 37 38 43 45 45 53 51 52 57 51 51 59 45 46 51 37 37 45 31 32 37 23 23 31 23 24 29
64 59 66 64 59 66 64 59 66 64 59 66 64 59 66 73 68 74 73 68 74 73 68 74 73 68 74 73 68 74 73 68 74 73 68 74 73 68 74 65 60 66 65 60 66 65 60 66 65 60 66 65 60 66 65 60 66 65 60 66 65 60 66 58 53 60 58 53 60 58 53 60 58 53 60 58 53 60 58 53 60 58 53 60 58 53 60 47 42 49 48 43 50 51 46 53 54 49 56 57 52 59 61 56 63 63 58 65 65 58 65 70 59 67 71 58 65 71 58 65 71 58 65 71 58 65 71 58 65 71 58 65 71 58 65 62 49 56 63 50 57 66 53 60 70 57 64 74 61 68 78 65 72 81 68 75 81 70 76 68 58 66 66 59 66 66 59 66 66 59 66 66 59 66 66 59 66 66 59 66 66 59 66 65 58 65 66 59 66 68 61 68 72 65 72 75 68 75 78 71 78 81 74 81 82 75 82 94 89 95 91 86 92 86 81 87 79 74 80 72 67 73 65 60 66 59 54 60 56 51 57 63 58 64 63 58 64 63 58 64 63 58 64 63 58 64 63 58 64 63 58 64 63 58 64 62 57 63 63 58 64 65 60 66 69 64 70 72 67 73 75 70 76 78 73 79 79 74 80 63 58 64 63 58 64 63 58 64 63 58 64 63 58 64 63 58 64 63 58 64 63 58 64 65 58 65 65 58 65 65 58 65 65 58 65 65 58 65 65 58 65 65 58 65 65 58 65 54 47 54 54 47 54 54 47 54 54 47 54 54 47 54 54 47 54 54 47 54 54 47 54 61 55 65 61 55 65 61 55 65 61 55 65 61 55 65 61 55 65 61 55 65 61 55 65 92 86 96 92 86 96 92 86 96 92 86 96 92 86 96 92 86 96 92 86 96 93 86 94 88 75 84 90 75 82 90 75 82 90 75 82 90 75 82 90 75 82 90 75 82 90 75 82 91 76 83 91 76 83 91 76 83 91 76 83 91 76 83 91 76 83 91 76 83 91 76 81 84 65 71 84 65 69 84 65 69 84 65 69 84 65 69 84 65 69 84 65 69 84 65 69 72 53 57 72 53 57 72 53 57 72 53 57 72 53 57 72 53 57 72 53 57 72 53 57 74 51 57 74 51 57 74 51 57 74 51 57 74 51 57 74 51 57 74 51 57 74 51 57 78 55 61 80 57 63 82 59 65 85 62 68 89 66 72 92 69 75 94 71 77 99 72 81 98 60 75 100 59 77 100 59 77 97 60 77 97 60 77 94 62 77 93 62 77 90 64 77 69 47 59 64 47 57 61 45 55 55 44 52 51 40 48 45 38 45 43 36 43 38 36 41 32 31 39 37 37 45 45 45 53 51 51 59 51 51 59 45 45 53 37 37 45 31 31 39 23 23 31 23 23 31
64 59 66 64 59 66 64 59 66 64 59 66 64 59 66 73 68 74 73 68 74 73 68 74 73 68 74 73 68 74 73 68 74 73 68 74 73 68 74 65 60 66 65 60 66 65 60 66 65 60 66 65 60 66 65 60 66 65 60 66 65 60 66 58 53 60 58 53 60 58 53 60 58 53 60 58 53 60 58 53 60 58 53 60 58 53 60 49 44 51 51 46 53 53 48 55 56 51 58 60 55 62 63 58 65 65 60 67 68 61 68 70 59 67 71 58 65 71 58 65 71 58 65 71 58 65 71 58 65 71 58 65 71 58 65 65 52 59 66 53 60 68 55 62 71 58 65 73 60 67 76 63 70 78 65 72 78 67 73 66 56 64 64 57 64 64 57 64 64 57 64 64 57 64 64 57 64 64 57 64 64 57 64 62 55 62 64 57 64 66 59 66 69 62 69 73 66 73 76 69 76 78 71 78 80 73 80 88 83 89 86 81 87 82 77 83 76 71 77 70 65 71 64 59 65 60 55 61 57 52 58 63 58 64 63 58 64 63 58 64 63 58 64 63 58 64 63 58 64 63 58 64 63 58 64 59 54 60 61 56 62 63 58 64 66 61 67 70 65 71 73 68 74 75 70 76 77 72 78 63 58 64 63 58 64 63 58 64 63 58 64 63 58 64 63 58 64 63 58 64 63 58 64 65 58 65 65 58 65 65 58 65 65 58 65 65 58 65 65 58 65 65 58 65 65 58 65 56 49 56 56 49 56 56 49 56 56 49 56 56 49 56 56 49 56 56 49 56 56 49 56 61 55 65 61 55 65 61 55 65 61 55 65 61 55 65 61 55 65 61 55 65 61 55 65 87 81 91 87 81 91 87 81 91 87 81 91 87 81 91 87 81 91 87 81 91 88 81 89 86 73 82 88 73 80 88 73 80 88 73 80 88 73 80 88 73 80 88 73 80 88 73 80 89 74 81 89 74 81 89 74 81 89 74 81 89 74 81 89 74 81 89 74 81 89 74 79 82 63 69 82 63 67 82 63 67 82 63 67 82 63 67 82 63 67 82 63 67 82 63 67 72 53 57 72 53 57 72 53 57 72 53 57 72 53 57 72 53 57 72 53 57 72 53 57 74 51 57 74 51 57 74 51 57 74 51 57 74 51 57 74 51 57 74 51 57 74 51 57 78 55 61 80 57 63 82 59 65 85 62 68 89 66 72 92 69 75 94 71 77 99 72 81 98 60 75 100 59 77 100 59 77 97 60 77 97 60 77 94 62 77 93 62 77 90 64 77 69 47 59 64 47 57 61 45 55 55 44 52 51 40 48 45 38 45 43 36 43 38 36 41 32 31 39 37 37 45 45 45 53 51 51 59 51 51 59 45 45 53 37 37 45 31 31 39 23 23 31 23 23 31
64 59 66 64 59 66 64 59 66 64 59 66 64 59 66 73 68 74 73 68 74 73 68 74 73 68 74 73 68 74 73 68 74 73 68 74 73 68 74 65 60 66 65 60 66 65 60 66 65 60 66 65 60 66 65 60 66 65 60 66 65 60 66 58 53 60 58 53 60 58 53 60 58 53 60 58 53 60 58 53 60 58 53 60 58 53 60 53 48 55 54 49 56 56 51 58 60 55 62 63 58 65 66 61 68 69 64 71 71 64 71 70 59 67 71 58 65 71 58 65 71 58 65 71 58 65 71 58 65 71 58 65 71 58 65 70 57 64 70 57 64 71 58 65 72 59 66 72 59 66 73 60 67 74 61 68 73 62 68 63 53 61 61 54 61 61 54 61 61 54 61 61 54 61 61 54 61 61 54 61 61 54 61 59 52 59 60 53 60 63 56 63 66 59 66 69 62 69 73 66 73 75 68 75 76 69 76 81 76 82 79 74 80 76 71 77 72 67 73 68 63 69 63 58 64 60 55 61 59 54 60 63 58 64 63 58 64 63 58 64 63 58 64 63 58 64 63 58 64 63 58 64 63 58 64 56 51 57 57 52 58 60 55 61 63 58 64 66 61 67 70 65 71 72 67 73 73 68 74 63 58 64 63 58 64 63 58 64 63 58 64 63 58 64 63 58 64 63 58 64 63 58 64 65 58 65 65 58 65 65 58 65 65 58 65 65 58 65 65 58 65 65 58 65 65 58 65 59 52 59 59 52 59 59 52 59 59 52 59 59 52 59 59 52 59 59 52 59 59 52 59 61 55 65 61 55 65 61 55 65 61 55 65 61 55 65 61 55 65 61 55 65 61 55 65 80 74 84 80 74 84 80 74 84 80 74 84 80 74 84 80 74 84 80 74 84 81 74 82 83 70 79 85 70 77 85 70 77 85 70 77 85 70 77 85 70 77 85 70 77 85 70 77 86 71 78 86 71 78 86 71 78 86 71 78 86 71 78 86 71 78 86 71 78 86 71 76 79 60 66 79 60 64 79 60 64 79 60 64 79 60 64 79 60 64 79 60 64 79 60 64 72 53 57 72 53 57 72 53 57 72 53 57 72 53 57 72 53 57 72 53 57 72 53 57 74 51 57 74 51 57 74 51 57 74 51 57 74 51 57 74 51 57 74 51 57 74 51 57 78 55 61 80 57 63 82 59 65 85 62 68 89 66 72 92 69 75 94 71 77 99 72 81 98 60 75 100 59 77 100 59 77 97 60 77 97 60 77 94 62 77 93 62 77 90 64 77 69 47 59 64 47 57 61 45 55 55 44 52 51 40 48 45 38 45 43 36 43 38 36 41 32 31 39 37 37 45 45 45 53 51 51 59 51 51 59 45 45 53 37 37 45 31 31 39 23 23 31 23 23 31
64 59 66 64 59 66 64 59 66 64 59 66 64 59 66 73 68 74 73 68 74 73 68 74 73 68 74 73 68 74 73 68 74 73 68 74 73 68 74 65 60 66 65 60 66 65 60 66 65 60 66 65 60 66 65 60 66 65 60 66 65 60 66 58 53 60 58 53 60 58 53 60 58 53 60 58 53 60 58 53 60 58 53 60 58 53 60 56 51 58 57 52 59 60 55 62 63 58 65 66 61 68 70 65 72 72 67 74 74 67 74 70 59 67 71 58 65 71 58 65 71 58 65 71 58 65 71 58 65 71 58 65 71 58 65 74 61 68 74 61 68 73 60 67 72 59 66 72 59 66 71 58 65 70 57 64 69 58 64 59 49 57 57 50 57 57 50 57 57 50 57 57 50 57 57 50 57 57 50 57 57 50 57 56 49 56 57 50 57 59 52 59 63 56 63 66 59 66 69 62 69 72 65 72 73 66 73 73 68 74 72 67 73 70 65 71 68 63 69 65 60 66 63 58 64 61 56 62 60 55 61 63 58 64 63 58 64 63 58 64 63 58 64 63 58 64 63 58 64 63 58 64 63 58 64 53 48 54 54 49 55 56 51 57 60 55 61 63 58 64 66 61 67 69 64 70 70 65 71 63 58 64 63 58 64 63 58 64 63 58 64 63 58 64 63 58 64 63 58 64 63 58 64 65 58 65 65 58 65 65 58 65 65 58 65 65 58 65 65 58 65 65 58 65 65 58 65 63 56 63 63 56 63 63 56 63 63 56 63 63 56 63 63 56 63 63 56 63 63 56 63 61 55 65 61 55 65 61 55 65 61 55 65 61 55 65 61 55 65 61 55 65 61 55 65 74 68 78 74 68 78 74 68 78 74 68 78 74 68 78 74 68 78 74 68 78 75 68 76 79 66 75 81 66 73 81 66 73 81 66 73 81 66 73 81 66 73 81 66 73 81 66 73 82 67 74 82 67 74 82 67 74 82 67 74 82 67 74 82 67 74 82 67 74 82 67 72 75 56 62 75 56 60 75 56 60 75 56 60 75 56 60 75 56 60 75 56 60 75 56 60 72 53 57 72 53 57 72 53 57 72 53 57 72 53 57 72 53 57 72 53 57 72 53 57 74 51 57 74 51 57 74 51 57 74 51 57 74 51 57 74 51 57 74 51 57 74 51 57 78 55 61 80 57 63 82 59 65 85 62 68 89 66 72 92 69 75 94 71 77 99 72 81 98 60 75 100 59 77 100 59 77 97 60 77 97 60 77 94 62 77 93 62 77 90 64 77 69 47 59 64 47 57 61 45 55 55 44 52 51 40 48 45 38 45 43 36 43 38 36 41 32 31 39 37 37 45 45 45 53 51 51 59 51 51 59 45 45 53 37 37 45 31 31 39 23 23 31 23 23 31
64 59 66 64 59 66 64 59 66 64 59 66 64 59 66 73 68 74 73 68 74 73 68 74 73 68 74 73 68 74 73 68 74 73 68 74 73 68 74 65 60 66 65 60 66 65 60 66 65 60 66 65 60 66 65 60 66 65 60 66 65 60 66 58 53 60 58 53 60 58 53 60 58 53 60 58 53 60 58 53 60 58 53 60 58 53 60 59 54 61 61 56 63 63 58 65 66 61 68 70 65 72 73 68 75 75 70 77 78 71 78 70 59 67 71 58 65 71 58 65 71 58 65 71 58 65 71 58 65 71 58 65 71 58 65 79 66 73 78 65 72 76 63 70 73 60 67 71 58 65 68 55 62 66 53 60 64 53 59 56 46 54 54 47 54 54 47 54 54 47 54 54 47 54 54 47 54 54 47 54 54 47 54 52 45 52 54 47 54 56 49 56 59 52 59 63 56 63 66 59 66 68 61 68 70 63 70 65 60 66 65 60 66 64 59 65 63 58 64 63 58 64 62 57 63 62 57 63 61 56 62 63 58 64 63 58 64 63 58 64 63 58 64 63 58 64 63 58 64 63 58 64 63 58 64 49 44 50 51 46 52 53 48 54 56 51 57 60 55 61 63 58 64 65 60 66 67 62 68 63 58 64 63 58 64 63 58 64 63 58 64 63 58 64 63 58 64 63 58 64 63 58 64 65 58 65 65 58 65 65 58 65 65 58 65 65 58 65 65 58 65 65 58 65 65 58 65 66 59 66 66 59 66 66 59 66 66 59 66 66 59 66 66 59 66 66 59 66 66 59 66 61 55 65 61 55 65 61 55 65 61 55 65 61 55 65 61 55 65 61 55 65 61 55 65 67 61 71 67 61 71 67 61 71 67 61 71 67 61 71 67 61 71 67 61 71 68 61 69 76 63 72 78 63 70 78 63 70 78 63 70 78 63 70 78 63 70 78 63 70 78 63 70 79 64 71 79 64 71 79 64 71 79 64 71 79 64 71 79 64 71 79 64 71 79 64 69 72 53 59 72 53 57 72 53 57 72 53 57 72 53 57 72 53 57 72 53 57 72 53 57 72 53 57 72 53 57 72 53 57 72 53 57 72 53 57 72 53 57 72 53 57 72 53 57 74 51 57 74 51 57 74 51 57 74 51 57 74 51 57 74 51 57 74 51 57 74 51 57 78 55 61 80 57 63 82 59 65 85 62 68 89 66 72 92 69 75 94 71 77 99 72 81 98 60 75 100 59 77 100 59 77 97 60 77 97 60 77 94 62 77 93 62 77 90 64 77 69 47 59 64 47 57 61 45 55 55 44 52 51 40 48 45 38 45 43 36 43 38 36 41 32 31 39 37 37 45 45 45 53 51 51 59 51 51 59 45 45 53 37 37 45 31 31 39 23 23 31 23 23 31
64 59 66 64 59 66 64 59 66 64 59 66 64 59 66 73 68 74 73 68 74 73 68 74 73 68 74 73 68 74 73 68 74 73 68 74 73 68 74 65 60 66 65 60 66 65 60 66 65 60 66 65 60 66 65 60 66 65 60 66 65 60 66 58 53 60 58 53 60 58 53 60 58 53 60 58 53 60 58 53 60 58 53 60 58 53 60 62 57 64 63 58 65 65 60 67 69 64 71 72 67 74 75 70 77 78 73 80 80 73 80 70 59 67 71 58 65 71 58 65 71 58 65 71 58 65 71 58 65 71 58 65 71 58 65 82 69 76 81 68 75 78 65 72 74 61 68 70 57 64 66 53 60 63 50 57 61 50 56 54 44 52 52 45 52 52 45 52 52 45 52 52 45 52 52 45 52 52 45 52 52 45 52 50 43 50 51 44 51 54 47 54 57 50 57 60 53 60 64 57 64 66 59 66 67 60 67 59 54 60 59 54 60 60 55 61 60 55 61 61 56 62 62 57 63 62 57 63 62 57 63 63 58 64 63 58 64 63 58 64 63 58 64 63 58 64 63 58 64 63 58 64 63 58 64 47 42 48 48 43 49 51 46 52 54 49 55 57 52 58 61 56 62 63 58 64 64 59 65 63 58 64 63 58 64 63 58 64 63 58 64 63 58 64 63 58 64 63 58 64 63 58 64 65 58 65 65 58 65 65 58 65 65 58 65 65 58 65 65 58 65 65 58 65 65 58 65 68 61 68 68 61 68 68 61 68 68 61 68 68 61 68 68 61 68 68 61 68 68 61 68 61 55 65 61 55 65 61 55 65 61 55 65 61 55 65 61 55 65 61 55 65 61 55 65 62 56 66 62 56 66 62 56 66 62 56 66 62 56 66 62 56 66 62 56 66 63 56 64 74 61 70 76 61 68 76 61 68 76 61 68 76 61 68 76 61 68 76 61 68 76 61 68 77 62 69 77 62 69 77 62 69 77 62 69 77 62 69 77 62 69 77 62 69 77 62 67 70 51 57 70 51 55 70 51 55 70 51 55 70 51 55 70 51 55 70 51 55 70 51 55 72 53 57 72 53 57 72 53 57 72 53 57 72 53 57 72 53 57 72 53 57 72 53 57 74 51 57 74 51 57 74 51 57 74 51 57 74 51 57 74 51 57 74 51 57 74 51 57 78 55 61 80 57 63 82 59 65 85 62 68 89 66 72 92 69 75 94 71 77 99 72 81 98 60 75 100 59 77 100 59 77 97 60 77 97 60 77 94 62 77 93 62 77 90 64 77 69 47 59 64 47 57 61 45 55 55 44 52 51 40 48 45 38 45 43 36 43 38 36 41 32 31 39 37 37 45 45 45 53 51 51 59 51 51 59 45 45 53 37 37 45 31 31 39 23 23 31 23 23 31
64 59 66 64 59 66 64 59 66 64 59 66 64 59 66 73 68 74 73 68 74 73 68 74 73 68 74 73 68 74 73 68 74 73 68 74 73 68 74 65 60 66 65 60 66 65 60 66 65 60 66 65 60 66 65 60 66 65 60 66 65 60 66 58 53 60 58 53 60 58 53 60 58 53 60 58 53 60 58 53 60 58 53 60 58 53 60 63 58 65 64 59 66 67 62 69 70 65 72 73 68 75 77 72 79 79 74 81 81 74 81 70 59 67 71 58 65 71 58 65 71 58 65 71 58 65 71 58 65 71 58 65 71 58 65 84 71 78 82 69 76 79 66 73 74 61 68 70 57 64 65 52 59 62 49 56 59 48 54 52 42 50 50 43 50 50 43 50 50 43 50 50 43 50 50 43 50 50 43 50 50 43 50 49 42 49 50 43 50 52 45 52 56 49 56 59 52 59 62 55 62 65 58 65 66 59 66 56 51 57 57 52 58 57 52 58 59 54 60 60 55 61 61 56 62 62 57 63 63 58 64 63 58 64 63 58 64 63 58 64 63 58 64 63 58 64 63 58 64 63 58 64 63 58 64 46 41 47 47 42 48 49 44 50 53 48 54 56 51 57 59 54 60 62 57 63 63 58 64 63 58 64 63 58 64 63 58 64 63 58 64 63 58 64 63 58 64 63 58 64 63 58 64 65 58 65 65 58 65 65 58 65 65 58 65 65 58 65 65 58 65 65 58 65 65 58 65 70 63 70 70 63 70 70 63 70 70 63 70 70 63 70 70 63 70 70 63 70 70 63 70 61 55 65 61 55 65 61 55 65 61 55 65 61 55 65 61 55 65 61 55 65 61 55 65 60 54 64 60 54 64 60 54 64 60 54 64 60 54 64 60 54 64 60 54 64 61 54 62 72 59 68 74 59 66 74 59 66 74 59 66 74 59 66 74 59 66 74 59 66 74 59 66 75 60 67 75 60 67 75 60 67 75 60 67 75 60 67 75 60 67 75 60 67 75 60 65 68 49 55 68 49 53 68 49 53 68 49 53 68 49 53 68 49 53 68 49 53 68 49 53 72 53 57 72 53 57 72 53 57 72 53 57 72 53 57 72 53 57 72 53 57 72 53 57 74 51 57 74 51 57 74 51 57 74 51 57 74 51 57 74 51 57 74 51 57 74 51 57 78 55 61 80 57 63 82 59 65 85 62 68 89 66 72 92 69 75 94 71 77 99 72 81 98 60 75 100 59 77 100 59 77 97 60 77 97 60 77 94 62 77 93 62 77 90 64 77 69 47 59 64 47 57 61 45 55 55 44 52 51 40 48 45 38 45 43 36 43 38 36 41 32 31 39 37 37 45 45 45 53 51 51 59 51 51 59 45 45 53 37 37 45 31 31 39 23 23 31 23 23 31
74 69 76 74 69 76 74 69 76 74 69 76 74 69 76 76 71 77 76 71 77 76 71 77 76 71 77 76 71 77 76 71 77 76 71 77 76 71 77 77 72 78 77 72 78 77 72 78 77 72 78 77 72 78 77 72 78 77 72 78 77 72 78 60 55 62 60 55 62 60 55 62 60 55 62 60 55 62 60 55 62 60 55 62 60 55 62 68 63 70 68 63 70 68 63 70 68 63 70 68 63 70 68 63 70 68 63 70 69 62 69 66 55 63 69 56 63 71 58 65 74 61 68 78 65 72 81 68 75 83 70 77 85 72 79 76 63 70 76 63 70 76 63 70 76 63 70 76 63 70 76 63 70 76 63 70 75 64 70 63 53 61 60 53 60 57 50 57 54 47 54 51 44 51 47 40 47 45 38 45 44 37 44 51 44 51 51 44 51 51 44 51 51 44 51 51 44 51 51 44 51 51 44 51 51 44 51 47 42 48 49 44 50 51 46 52 54 49 55 58 53 59 61 56 62 63 58 64 65 60 66 65 60 66 65 60 66 65 60 66 65 60 66 65 60 66 65 60 66 65 60 66 65 60 66 52 47 53 52 47 53 52 47 53 52 47 53 52 47 53 52 47 53 52 47 53 52 47 53 57 52 58 59 54 60 61 56 62 64 59 65 68 63 69 71 66 72 73 68 74 75 70 76 73 66 73 73 66 73 73 66 73 73 66 73 73 66 73 73 66 73 73 66 73 73 66 73 77 70 77 75 68 75 73 66 73 70 63 70 66 59 66 63 56 63 61 54 61 59 52 59 52 46 56 52 46 56 52 46 56 52 46 56 52 46 56 52 46 56 52 46 56 52 46 56 45 39 49 45 39 49 45 39 49 45 39 49 45 39 49 45 39 49 45 39 49 46 39 47 62 49 58 64 49 56 64 49 56 64 49 56 64 49 56 64 49 56 64 49 56 64 49 56 65 50 57 65 50 57 65 50 57 65 50 57 65 50 57 65 50 57 65 50 57 65 50 55 59 40 46 59 40 44 59 40 44 59 40 44 59 40 44 59 40 44 59 40 44 59 40 44 64 45 49 64 45 49 64 45 49 64 45 49 64 45 49 64 45 49 64 45 49 64 45 49 79 56 62 79 56 62 79 56 62 79 56 62 79 56 62 79 56 62 79 56 62 79 56 62 81 58 64 81 58 64 81 58 64 81 58 64 81 58 64 81 58 64 81 58 64 84 57 66 99 61 76 101 60 78 101 60 78 98 61 78 98 61 78 95 63 78 94 63 78 91 65 78 70 48 60 65 48 58 62 46 56 56 45 53 52 41 49 46 39 46 44 37 44 39 37 42 40 39 47 39 39 47 39 39 47 39 39 47 39 39 47 39 39 47 39 39 47 39 39 47 25 25 33 25 25 33
76 71 78 76 71 78 76 71 78 76 71 78 76 71 78 76 71 77 76 71 77 76 71 77 76 71 77 76 71 77 76 71 77 76 71 77 76 71 77 77 72 78 77 72 78 77 72 78 77 72 78 77 72 78 77 72 78 77 72 78 77 72 78 60 55 62 60 55 62 60 55 62 60 55 62 60 55 62 60 55 62 60 55 62 60 55 62 68 63 70 68 63 70 68 63 70 68 63 70 68 63 70 68 63 70 68 63 70 69 62 69 66 55 63 69 56 63 71 58 65 74 61 68 78 65 72 81 68 75 83 70 77 85 72 79 78 65 72 78 65 72 78 65 72 78 65 72 78 65 72 78 65 72 78 65 72 77 66 72 64 54 62 61 54 61 59 52 59 55 48 55 52 45 52 49 42 49 46 39 46 45 38 45 51 44 51 51 44 51 51 44 51 51 44 51 51 44 51 51 44 51 51 44 51 51 44 51 47 42 48 49 44 50 51 46 52 54 49 55 58 53 59 61 56 62 63 58 64 65 60 66 65 60 66 65 60 66 65 60 66 65 60 66 65 60 66 65 60 66 65 60 66 65 60 66 52 47 53 52 47 53 52 47 53 52 47 53 52 47 53 52 47 53 52 47 53 52 47 53 57 52 58 59 54 60 61 56 62 64 59 65 68 63 69 71 66 72 73 68 74 75 70 76 73 66 73 73 66 73 73 66 73 73 66 73 73 66 73 73 66 73 73 66 73 73 66 73 77 70 77 75 68 75 73 66 73 70 63 70 66 59 66 63 56 63 61 54 61 59 52 59 52 46 56 52 46 56 52 46 56 52 46 56 52 46 56 52 46 56 52 46 56 52 46 56 45 39 49 45 39 49 45 39 49 45 39 49 45 39 49 45 39 49 45 39 49 46 39 47 62 49 58 64 49 56 64 49 56 64 49 56 64 49 56 64 49 56 64 49 56 64 49 56 65 50 57 65 50 57 65 50 57 65 50 57 65 50 57 65 50 57 65 50 57 65 50 55 61 42 48 61 42 46 61 42 46 61 42 46 61 42 46 61 42 46 61 42 46 61 42 46 66 47 51 66 47 51 66 47 51 66 47 51 66 47 51 66 47 51 66 47 51 66 47 51 79 56 62 79 56 62 79 56 62 79 56 62 79 56 62 79 56 62 79 56 62 79 56 62 81 58 64 81 58 64 81 58 64 81 58 64 81 58 64 81 58 64 81 58 64 84 57 66 99 61 76 101 60 78 101 60 78 98 61 78 98 61 78 95 63 78 94 63 78 91 65 78 70 48 60 65 48 58 62 46 56 56 45 53 52 41 49 46 39 46 44 37 44 39 37 42 40 39 47 39 39 47 39 39 47 39 39 47 39 39 47 39 39 47 39 39 47 39 39 47 25 25 33 25 25 33
78 73 80 78 73 80 78 73 80 78 73 80 78 73 80 76 71 77 76 71 77 76 71 77 76 71 77 76 71 77 76 71 77 76 71 77 76 71 77 77 72 78 77 72 78 77 72 78 77 72 78 77 72 78 77 72 78 77 72 78 77 72 78 60 55 62 60 55 62 60 55 62 60 55 62 60 55 62 60 55 62 60 55 62 60 55 62 68 63 70 68 63 70 68 63 70 68 63 70 68 63 70 68 63 70 68 63 70 69 62 69 66 55 63 69 56 63 71 58 65 74 61 68 78 65 72 81 68 75 83 70 77 85 72 79 80 67 74 80 67 74 80 67 74 80 67 74 80 67 74 80 67 74 80 67 74 79 68 74 67 57 65 63 56 63 61 54 61 58 51 58 54 47 54 51 44 51 49 42 49 47 40 47 51 44 51 51 44 51 51 44 51 51 44 51 51 44 51 51 44 51 51 44 51 51 44 51 47 42 48 49 44 50 51 46 52 54 49 55 58 53 59 61 56 62 63 58 64 65 60 66 65 60 66 65 60 66 65 60 66 65 60 66 65 60 66 65 60 66 65 60 66 65 60 66 52 47 53 52 47 53 52 47 53 52 47 53 52 47 53 52 47 53 52 47 53 52 47 53 57 52 58 59 54 60 61 56 62 64 59 65 68 63 69 71 66 72 73 68 74 75 70 76 73 66 73 73 66 73 73 66 73 73 66 73 73 66 73 73 66 73 73 66 73 73 66 73 77 70 77 75 68 75 73 66 73 70 63 70 66 59 66 63 56 63 61 54 61 59 52 59 52 46 56 52 46 56 52 46 56 52 46 56 52 46 56 52 46 56 52 46 56 52 46 56 45 39 49 45 39 49 45 39 49 45 39 49 45 39 49 45 39 49 45 39 49 46 39 47 62 49 58 64 49 56 64 49 56 64 49 56 64 49 56 64 49 56 64 49 56 64 49 56 65 50 57 65 50 57 65 50 57 65 50 57 65 50 57 65 50 57 65 50 57 65 50 55 63 44 50 63 44 48 63 44 48 63 44 48 63 44 48 63 44 48 63 44 48 63 44 48 68 49 53 68 49 53 68 49 53 68 49 53 68 49 53 68 49 53 68 49 53 68 49 53 79 56 62 79 56 62 79 56 62 79 56 62 79 56 62 79 56 62 79 56 62 79 56 62 81 58 64 81 58 64 81 58 64 81 58 64 81 58 64 81 58 64 81 58 64 84 57 66 99 61 76 101 60 78 101 60 78 98 61 78 98 61 78 95 63 78 94 63 78 91 65 78 70 48 60 65 48 58 62 46 56 56 45 53 52 41 49 46 39 46 44 37 44 39 37 42 40 39 47 39 39 47 39 39 47 39 39 47 39 39 47 39 39 47 39 39 47 39 39 47 25 25 33 25 25 33
81 76 83 81 76 83 81 76 83 81 76 83 81 76 83 76 71 77 76 71 77 76 71 77 76 71 77 76 71 77 76 71 77 76 71 77 76 71 77 77 72 78 77 72 78 77 72 78 77 72 78 77 72 78 77 72 78 77 72 78 77 72 78 60 55 62 60 55 62 60 55 62 60 55 62 60 55 62 60 55 62 60 55 62 60 55 62 68 63 70 68 63 70 68 63 70 68 63 70 68 63 70 68 63 70 68 63 70 69 62 69 66 55 63 69 56 63 71 58 65 74 61 68 78 65 72 81 68 75 83 70 77 85 72 79 83 70 77 83 70 77 83 70 77 83 70 77 83 70 77 83 70 77 83 70 77 82 71 77 70 60 68 67 60 67 64 57 64 61 54 61 58 51 58 54 47 54 52 45 52 51 44 51 51 44 51 51 44 51 51 44 51 51 44 51 51 44 51 51 44 51 51 44 51 51 44 51 47 42 48 49 44 50 51 46 52 54 49 55 58 53 59 61 56 62 63 58 64 65 60 66 65 60 66 65 60 66 65 60 66 65 60 66 65 60 66 65 60 66 65 60 66 65 60 66 52 47 53 52 47 53 52 47 53 52 47 53 52 47 53 52 47 53 52 47 53 52 47 53 57 52 58 59 54 60 61 56 62 64 59 65 68 63 69 71 66 72 73 68 74 75 70 76 73 66 73 73 66 73 73 66 73 73 66 73 73 66 73 73 66 73 73 66 73 73 66 73 77 70 77 75 68 75 73 66 73 70 63 70 66 59 66 63 56 63 61 54 61 59 52 59 52 46 56 52 46 56 52 46 56 52 46 56 52 46 56 52 46 56 52 46 56 52 46 56 45 39 49 45 39 49 45 39 49 45 39 49 45 39 49 45 39 49 45 39 49 46 39 47 62 49 58 64 49 56 64 49 56 64 49 56 64 49 56 64 49 56 64 49 56 64 49 56 65 50 57 65 50 57 65 50 57 65 50 57 65 50 57 65 50 57 65 50 57 65 50 55 66 47 53 66 47 51 66 47 51 66 47 51 66 47 51 66 47 51 66 47 51 66 47 51 71 52 56 71 52 56 71 52 56 71 52 56 71 52 56 71 52 56 71 52 56 71 52 56 79 56 62 79 56 62 79 56 62 79 56 62 79 56 62 79 56 62 79 56 62 79 56 62 81 58 64 81 58 64 81 58 64 81 58 64 81 58 64 81 58 64 81 58 64 84 57 66 99 61 76 101 60 78 101 60 78 98 61 78 98 61 78 95 63 78 94 63 78 91 65 78 70 48 60 65 48 58 62 46 56 56 45 53 52 41 49 46 39 46 44 37 44 39 37 42 40 39 47 39 39 47 39 39 47 39 39 47 39 39 47 39 39 47 39 39 47 39 39 47 25 25 33 25 25 33
85 80 87 85 80 87 85 80 87 85 80 87 85 80 87 76 71 77 76 71 77 76 71 77 76 71 77 76 71 77 76 71 77 76 71 77 76 71 77 77 72 78 77 72 78 77 72 78 77 72 78 77 72 78 77 72 78 77 72 78 77 72 78 60 55 62 60 55 62 60 55 62 60 55 62 60 55 62 60 55 62 60 55 62 60 55 62 68 63 70 68 63 70 68 63 70 68 63 70 68 63 70 68 63 70 68 63 70 69 62 69 66 55 63 69 56 63 71 58 65 74 61 68 78 65 72 81 68 75 83 70 77 85 72 79 87 74 81 87 74 81 87 74 81 87 74 81 87 74 81 87 74 81 87 74 81 86 75 81 73 63 71 70 63 70 68 61 68 64 57 64 61 54 61 58 51 58 55 48 55 54 47 54 51 44 51 51 44 51 51 44 51 51 44 51 51 44 51 51 44 51 51 44 51 51 44 51 47 42 48 49 44 50 51 46 52 54 49 55 58 53 59 61 56 62 63 58 64 65 60 66 65 60 66 65 60 66 65 60 66 65 60 66 65 60 66 65 60 66 65 60 66 65 60 66 52 47 53 52 47 53 52 47 53 52 47 53 52 47 53 52 47 53 52 47 53 52 47 53 57 52 58 59 54 60 61 56 62 64 59 65 68 63 69 71 66 72 73 68 74 75 70 76 73 66 73 73 66 73 73 66 73 73 66 73 73 66 73 73 66 73 73 66 73 73 66 73 77 70 77 75 68 75 73 66 73 70 63 70 66 59 66 63 56 63 61 54 61 59 52 59 52 46 56 52 46 56 52 46 56 52 46 56 52 46 56 52 46 56 52 46 56 52 46 56 45 39 49 45 39 49 45 39 49 45 39 49 45 39 49 45 39 49 45 39 49 46 39 47 62 49 58 64 49 56 64 49 56 64 49 56 64 49 56 64 49 56 64 49 56 64 49 56 65 50 57 65 50 57 65 50 57 65 50 57 65 50 57 65 50 57 65 50 57 65 50 55 70 51 57 70 51 55 70 51 55 70 51 55 70 51 55 70 51 55 70 51 55 70 51 55 75 56 60 75 56 60 75 56 60 75 56 60 75 56 60 75 56 60 75 56 60 75 56 60 79 56 62 79 56 62 79 56 62 79 56 62 79 56 62 79 56 62 79 56 62 79 56 62 81 58 64 81 58 64 81 58 64 81 58 64 81 58 64 81 58 64 81 58 64 84 57 66 99 61 76 101 60 78 101 60 78 98 61 78 98 61 78 95 63 78 94 63 78 91 65 78 70 48 60 65 48 58 62 46 56 56 45 53 52 41 49 46 39 46 44 37 44 39 37 42 40 39 47 39 39 47 39 39 47 39 39 47 39 39 47 39 39 47 39 39 47 39 39 47 25 25 33 25 25 33
88 83 90 88 83 90 88 83 90 88 83 90 88 83 90 76 71 77 76 71 77 76 71 77 76 71 77 76 71 77 76 71 77 76 71 77 76 71 77 77 72 78 77 72 78 77 72 78 77 72 78 77 72 78 77 72 78 77 72 78 77 72 78 60 55 62 60 55 62 60 55 62 60 55 62 60 55 62 60 55 62 60 55 62 60 55 62 68 63 70 68 63 70 68 63 70 68 63 70 68 63 70 68 63 70 68 63 70 69 62 69 66 55 63 69 56 63 71 58 65 74 61 68 78 65 72 81 68 75 83 70 77 85 72 79 90 77 84 90 77 84 90 77 84 90 77 84 90 77 84 90 77 84 90 77 84 89 78 84 77 67 75 73 66 73 71 64 71 68 61 68 64 57 64 61 54 61 59 52 59 57 50 57 51 44 51 51 44 51 51 44 51 51 44 51 51 44 51 51 44 51 51 44 51 51 44 51 47 42 48 49 44 50 51 46 52 54 49 55 58 53 59 61 56 62 63 58 64 65 60 66 65 60 66 65 60 66 65 60 66 65 60 66 65 60 66 65 60 66 65 60 66 65 60 66 52 47 53 52 47 53 52 47 53 52 47 53 52 47 53 52 47 53 52 47 53 52 47 53 57 52 58 59 54 60 61 56 62 64 59 65 68 63 69 71 66 72 73 68 74 75 70 76 73 66 73 73 66 73 73 66 73 73 66 73 73 66 73 73 66 73 73 66 73 73 66 73 77 70 77 75 68 75 73 66 73 70 63 70 66 59 66 63 56 63 61 54 61 59 52 59 52 46 56 52 46 56 52 46 56 52 46 56 52 46 56 52 46 56 52 46 56 52 46 56 45 39 49 45 39 49 45 39 49 45 39 49 45 39 49 45 39 49 45 39 49 46 39 47 62 49 58 64 49 56 64 49 56 64 49 56 64 49 56 64 49 56 64 49 56 64 49 56 65 50 57 65 50 57 65 50 57 65 50 57 65 50 57 65 50 57 65 50 57 65 50 55 73 54 60 73 54 58 73 54 58 73 54 58 73 54 58 73 54 58 73 54 58 73 54 58 78 59 63 78 59 63 78 59 63 78 59 63 78 59 63 78 59 63 78 59 63 78 59 63 79 56 62 79 56 62 79 56 62 79 56 62 79 56 62 79 56 62 79 56 62 79 56 62 81 58 64 81 58 64 81 58 64 81 58 64 81 58 64 81 58 64 81 58 64 84 57 66 99 61 76 101 60 78 101 60 78 98 61 78 98 61 78 95 63 78 94 63 78 91 65 78 70 48 60 65 48 58 62 46 56 56 45 53 52 41 49 46 39 46 44 37 44 39 37 42 40 39 47 39 39 47 39 39 47 39 39 47 39 39 47 39 39 47 39 39 47 39 39 47 25 25 33 25 25 33
90 85 92 90 85 92 90 85 92 90 85 92 90 85 92 76 71 77 76 71 77 76 71 77 76 71 77 76 71 77 76 71 77 76 71 77 76 71 77 77 72 78 77 72 78 77 72 78 77 72 78 77 72 78 77 72 78 77 72 78 77 72 78 60 55 62 60 55 62 60 55 62 60 55 62 60 55 62 60 55 62 60 55 62 60 55 62 68 63 70 68 63 70 68 63 70 68 63 70 68 63 70 68 63 70 68 63 70 69 62 69 66 55 63 69 56 63 71 58 65 74 61 68 78 65 72 81 68 75 83 70 77 85 72 79 92 79 86 92 79 86 92 79 86 92 79 86 92 79 86 92 79 86 92 79 86 91 80 86 79 69 77 76 69 76 73 66 73 70 63 70 67 60 67 63 56 63 61 54 61 60 53 60 51 44 51 51 44 51 51 44 51 51 44 51 51 44 51 51 44 51 51 44 51 51 44 51 47 42 48 49 44 50 51 46 52 54 49 55 58 53 59 61 56 62 63 58 64 65 60 66 65 60 66 65 60 66 65 60 66 65 60 66 65 60 66 65 60 66 65 60 66 65 60 66 52 47 53 52 47 53 52 47 53 52 47 53 52 47 53 52 47 53 52 47 53 52 47 53 57 52 58 59 54 60 61 56 62 64 59 65 68 63 69 71 66 72 73 68 74 75 70 76 73 66 73 73 66 73 73 66 73 73 66 73 73 66 73 73 66 73 73 66 73 73 66 73 77 70 77 75 68 75 73 66 73 70 63 70 66 59 66 63 56 63 61 54 61 59 52 59 52 46 56 52 46 56 52 46 56 52 46 56 52 46 56 52 46 56 52 46 56 52 46 56 45 39 49 45 39 49 45 39 49 45 39 49 45 39 49 45 39 49 45 39 49 46 39 47 62 49 58 64 49 56 64 49 56 64 49 56 64 49 56 64 49 56 64 49 56 64 49 56 65 50 57 65 50 57 65 50 57 65 50 57 65 50 57 65 50 57 65 50 57 65 50 55 75 56 62 75 56 60 75 56 60 75 56 60 75 56 60 75 56 60 75 56 60 75 56 60 80 61 65 80 61 65 80 61 65 80 61 65 80 61 65 80 61 65 80 61 65 80 61 65 79 56 62 79 56 62 79 56 62 79 56 62 79 56 62 79 56 62 79 56 62 79 56 62 81 58 64 81 58 64 81 58 64 81 58 64 81 58 64 81 58 64 81 58 64 84 57 66 99 61 76 101 60 78 101 60 78 98 61 78 98 61 78 95 63 78 94 63 78 91 65 78 70 48 60 65 48 58 62 46 56 56 45 53 52 41 49 46 39 46 44 37 44 39 37 42 40 39 47 39 39 47 39 39 47 39 39 47 39 39 47 39 39 47 39 39 47 39 39 47 25 25 33 25 25 33
90 87 96 90 87 98 90 87 96 90 87 98 90 87 96 74 71 80 74 71 78 76 70 80 74 71 78 76 70 80 74 71 78 76 70 80 74 71 78 77 71 81 75 72 79 77 71 81 75 72 79 77 71 81 75 72 79 77 71 81 77 71 81 60 54 64 60 54 64 60 54 64 60 54 64 60 54 64 60 54 64 60 54 64 60 54 64 68 62 72 68 62 72 68 62 72 68 62 72 68 62 72 68 62 72 68 62 72 69 62 70 65 55 63 68 57 63 70 59 67 73 62 68 77 66 74 80 69 75 82 71 79 84 73 79 93 82 90 93 82 88 93 82 90 93 82 88 93 82 90 93 82 88 93 82 90 92 82 90 78 71 78 76 71 77 75 68 76 70 65 71 68 61 69 64 59 65 62 55 63 60 55 61 51 44 52 50 45 51 51 44 52 50 45 51 51 44 52 50 45 51 51 44 52 50 45 51 47 42 49 49 44 50 51 46 53 54 49 55 58 53 60 61 56 62 63 58 65 65 60 66 65 60 67 65 60 66 65 60 67 65 60 66 65 60 67 65 60 66 65 60 67 65 60 66 52 47 53 52 47 53 53 46 53 52 47 53 53 46 53 52 47 53 53 46 53 52 47 53 58 51 58 59 54 60 62 55 62 64 59 65 69 62 69 71 66 72 74 67 74 76 69 76 73 66 73 73 66 73 73 66 73 73 66 73 73 66 73 73 66 73 73 66 73 73 66 73 77 70 77 75 68 75 73 66 73 70 63 70 66 59 66 63 56 63 61 54 61 59 52 60 52 46 56 52 46 56 52 46 56 52 46 56 52 46 56 52 46 56 52 46 56 52 46 56 45 39 49 45 39 49 45 39 49 45 39 49 45 39 49 45 39 49 45 39 49 46 39 47 61 50 58 62 49 56 62 49 56 62 49 56 62 49 56 62 49 56 62 49 56 62 49 56 63 50 57 63 50 57 63 50 57 63 50 57 63 50 57 63 50 57 63 50 57 65 50 57 74 59 64 75 59 62 75 59 62 75 59 62 75 59 62 75 59 62 75 59 62 75 59 62 80 64 67 80 64 67 80 64 67 80 64 67 80 64 67 80 64 67 80 64 67 80 64 67 77 58 62 78 57 62 78 57 62 78 57 62 78 57 62 78 57 62 78 57 62 78 57 62 80 59 64 80 59 64 80 59 64 80 59 64 80 59 64 80 59 64 80 59 64 83 57 66 98 61 78 99 60 78 98 61 78 96 62 78 95 63 78 94 63 78 92 64 78 89 65 78 69 49 60 64 48 58 60 47 56 55 45 53 49 42 49 45 40 46 41 39 44 38 37 43 39 39 47 37 40 47 39 39 47 37 40 47 39 39 47 37 40 47 39 39 47 37 40 47 25 25 33 23 26 33
95 93 107 95 92 109 95 93 107 95 92 109 95 93 107 82 80 94 82 80 93 83 79 94 82 80 93 83 79 94 82 80 93 83 79 94 82 80 93 75 71 86 74 72 85 75 71 86 74 72 85 75 71 86 74 72 85 75 71 86 75 71 85 66 60 74 67 59 72 67 59 72 67 59 72 67 59 72 67 59 72 67 59 72 67 59 72 70 62 75 70 62 75 70 62 75 70 62 75 70 62 75 70 62 75 70 62 75 70 62 75 70 63 71 72 65 72 74 67 75 77 70 77 81 74 82 84 77 84 86 79 87 88 81 88 92 85 93 92 85 92 92 85 93 92 85 92 92 85 93 92 85 92 92 85 93 92 85 93 91 86 93 87 84 91 87 81 91 82 79 86 80 74 84 75 72 79 75 69 79 71 68 75 54 48 58 52 49 56 54 48 58 52 49 56 54 48 58 52 49 56 54 48 58 54 49 56 66 60 70 66 61 68 66 60 70 66 61 68 66 60 70 66 61 68 66 60 70 66 61 68 71 65 75 69 64 71 67 61 71 64 59 66 60 54 64 57 52 59 55 49 59 53 48 55 61 54 62 61 54 62 63 53 62 61 54 62 63 53 62 61 54 62 63 53 62 61 54 62 75 65 74 73 66 74 75 65 74 73 66 74 75 65 74 73 66 74 75 65 74 73 66 74 80 73 81 80 73 81 80 73 81 80 73 81 80 73 81 80 73 81 80 73 81 80 73 81 78 71 79 78 71 79 78 71 79 78 71 79 78 71 79 78 71 79 78 71 79 78 71 79 55 49 59 53 50 59 53 50 59 53 50 59 53 50 59 53 50 59 53 50 59 53 50 59 43 40 49 43 40 49 43 40 49 43 40 49 43 40 49 43 40 49 43 40 49 45 40 47 61 51 59 62 51 59 62 51 59 62 51 59 62 51 59 62 51 59 62 51 59 62 51 59 62 51 59 62 51 59 62 51 59 62 51 59 62 51 59 62 51 59 62 51 59 62 51 57 72 61 65 72 62 63 72 62 63 72 62 63 72 62 63 72 62 63 72 62 63 72 62 63 78 68 69 78 68 69 78 68 69 78 68 69 78 68 69 78 68 69 78 68 69 79 67 69 71 56 61 72 55 61 72 55 61 72 55 61 72 55 61 72 55 61 72 55 61 72 55 61 79 62 68 79 62 68 79 62 68 79 62 68 79 62 68 79 62 68 79 62 68 82 61 68 88 57 72 90 56 73 89 56 73 88 57 73 86 58 73 83 59 73 82 60 73 79 61 73 60 47 57 56 46 55 52 45 53 48 43 50 42 39 46 38 37 43 35 36 41 31 34 39 47 50 57 44 48 57 43 46 55 39 43 52 36 39 48 32 36 45 31 34 43 28 32 41 26 29 38 25 29 38
92 91 109 92 91 109 92 91 109 92 91 109 92 91 109 80 77 94 80 77 94 80 77 94 80 77 94 80 77 94 80 77 94 80 77 94 80 77 94 74 71 88 74 71 88 74 71 88 74 71 88 74 71 88 74 71 88 74 71 88 75 71 86 66 59 75 67 59 74 67 59 74 67 59 74 67 59 74 67 59 74 67 59 74 67 59 74 70 62 77 70 62 77 70 62 77 70 62 77 70 62 77 70 62 77 70 62 77 70 62 75 69 63 73 71 66 73 73 68 75 76 71 78 80 75 82 83 78 85 85 80 87 87 82 89 91 86 93 91 86 93 91 86 93 91 86 93 91 86 93 91 86 93 91 86 93 91 86 93 89 86 95 87 84 93 85 82 91 82 79 88 78 75 84 75 72 81 73 70 79 71 68 77 52 49 58 52 49 58 52 49 58 52 49 58 52 49 58 52 49 58 52 49 58 52 49 58 66 60 70 66 60 70 66 60 70 66 60 70 66 60 70 66 60 70 66 60 70 66 60 70 71 65 75 69 63 73 67 61 71 64 58 68 60 54 64 57 51 61 55 49 59 53 47 57 63 53 62 63 53 62 63 53 62 63 53 62 63 53 62 63 53 62 63 53 62 63 53 62 75 65 74 75 65 74 75 65 74 75 65 74 75 65 74 75 65 74 75 65 74 75 65 74 80 73 81 80 73 81 80 73 81 80 73 81 80 73 81 80 73 81 80 73 81 80 73 81 78 71 79 78 71 79 78 71 79 78 71 79 78 71 79 78 71 79 78 71 79 77 72 79 57 51 61 55 52 61 55 52 61 55 52 61 55 52 61 55 52 61 55 52 61 55 52 61 45 42 51 45 42 51 45 42 51 45 42 51 45 42 51 45 42 51 45 42 51 47 42 49 61 54 62 63 53 61 63 53 61 63 53 61 63 53 61 63 53 61 63 53 61 63 53 61 61 51 59 61 51 59 61 51 59 61 51 59 61 51 59 61 51 59 61 51 59 61 52 57 71 62 65 71 62 63 71 62 63 71 62 63 71 62 63 71 62 63 71 62 63 71 62 63 77 68 69 77 68 69 77 68 69 77 68 69 77 68 69 77 68 69 77 68 69 78 68 69 71 59 63 73 58 63 73 58 63 73 58 63 73 58 63 73 58 63 73 58 63 73 58 63 78 63 68 78 63 68 78 63 68 78 63 68 78 63 68 78 63 68 78 63 68 81 61 70 86 58 72 88 57 73 88 57 73 85 58 73 85 58 73 82 60 73 81 61 73 78 62 73 59 47 57 54 47 55 51 46 53 45 44 50 41 40 46 35 38 43 33 36 41 30 35 39 46 50 59 44 48 57 42 46 55 39 43 52 35 39 48 32 36 45 30 34 43 28 32 41 25 29 38 25 29 38
90 89 107 90 89 107 90 89 107 90 89 107 90 89 107 78 75 92 78 75 92 78 75 92 78 75 92 78 75 92 78 75 92 78 75 92 78 75 92 74 71 88 74 71 88 74 71 88 74 71 88 74 71 88 74 71 88 74 71 88 75 71 86 66 59 75 67 59 74 67 59 74 67 59 74 67 59 74 67 59 74 67 59 74 67 59 74 70 62 77 70 62 77 70 62 77 70 62 77 70 62 77 70 62 77 70 62 77 70 62 75 69 63 73 71 66 73 73 68 75 76 71 78 80 75 82 83 78 85 85 80 87 87 82 89 91 86 93 91 86 93 91 86 93 91 86 93 91 86 93 91 86 93 91 86 93 91 86 93 89 86 95 87 84 93 85 82 91 82 79 88 78 75 84 75 72 81 73 70 79 71 68 77 52 49 58 52 49 58 52 49 58 52 49 58 52 49 58 52 49 58 52 49 58 52 49 58 66 60 70 66 60 70 66 60 70 66 60 70 66 60 70 66 60 70 66 60 70 66 60 70 71 65 75 69 63 73 67 61 71 64 58 68 60 54 64 57 51 61 55 49 59 53 47 57 63 53 62 63 53 62 63 53 62 63 53 62 63 53 62 63 53 62 63 53 62 63 53 62 75 65 74 75 65 74 75 65 74 75 65 74 75 65 74 75 65 74 75 65 74 75 65 74 80 73 81 80 73 81 80 73 81 80 73 81 80 73 81 80 73 81 80 73 81 80 73 81 78 71 79 78 71 79 78 71 79 78 71 79 78 71 79 78 71 79 78 71 79 77 72 79 59 53 63 57 54 63 57 54 63 57 54 63 57 54 63 57 54 63 57 54 63 57 54 63 47 44 53 47 44 53 47 44 53 47 44 53 47 44 53 47 44 53 47 44 53 49 44 51 63 56 64 65 55 63 65 55 63 65 55 63 65 55 63 65 55 63 65 55 63 65 55 63 61 51 59 61 51 59 61 51 59 61 51 59 61 51 59 61 51 59 61 51 59 61 52 57 71 62 65 71 62 63 71 62 63 71 62 63 71 62 63 71 62 63 71 62 63 71 62 63 77 68 69 77 68 69 77 68 69 77 68 69 77 68 69 77 68 69 77 68 69 78 68 69 73 61 65 75 60 65 75 60 65 75 60 65 75 60 65 75 60 65 75 60 65 75 60 65 78 63 68 78 63 68 78 63 68 78 63 68 78 63 68 78 63 68 78 63 68 81 61 70 86 58 72 88 57 73 88 57 73 85 58 73 85 58 73 82 60 73 81 61 73 78 62 73 59 47 57 54 47 55 51 46 53 45 44 50 41 40 46 35 38 43 33 36 41 30 35 39 46 50 59 44 48 57 42 46 55 39 43 52 35 39 48 32 36 45 30 34 43 28 32 41 25 29 38 25 29 38
87 86 104 87 86 104 87 86 104 87 86 104 87 86 104 75 72 89 75 72 89 75 72 89 75 72 89 75 72 89 75 72 89 75 72 89 75 72 89 74 71 88 74 71 88 74 71 88 74 71 88 74 71 88 74 71 88 74 71 88 75 71 86 66 59 75 67 59 74 67 59 74 67 59 74 67 59 74 67 59 74 67 59 74 67 59 74 70 62 77 70 62 77 70 62 77 70 62 77 70 62 77 70 62 77 70 62 77 70 62 75 69 63 73 71 66 73 73 68 75 76 71 78 80 75 82 83 78 85 85 80 87 87 82 89 91 86 93 91 86 93 91 86 93 91 86 93 91 86 93 91 86 93 91 86 93 91 86 93 89 86 95 87 84 93 85 82 91 82 79 88 78 75 84 75 72 81 73 70 79 71 68 77 52 49 58 52 49 58 52 49 58 52 49 58 52 49 58 52 49 58 52 49 58 52 49 58 66 60 70 66 60 70 66 60 70 66 60 70 66 60 70 66 60 70 66 60 70 66 60 70 71 65 75 69 63 73 67 61 71 64 58 68 60 54 64 57 51 61 55 49 59 53 47 57 63 53 62 63 53 62 63 53 62 63 53 62 63 53 62 63 53 62 63 53 62 63 53 62 75 65 74 75 65 74 75 65 74 75 65 74 75 65 74 75 65 74 75 65 74 75 65 74 80 73 81 80 73 81 80 73 81 80 73 81 80 73 81 80 73 81 80 73 81 80 73 81 78 71 79 78 71 79 78 71 79 78 71 79 78 71 79 78 71 79 78 71 79 77 72 79 62 56 66 60 57 66 60 57 66 60 57 66 60 57 66 60 57 66 60 57 66 60 57 66 50 47 56 50 47 56 50 47 56 50 47 56 50 47 56 50 47 56 50 47 56 52 47 54 66 59 67 68 58 66 68 58 66 68 58 66 68 58 66 68 58 66 68 58 66 68 58 66 61 51 59 61 51 59 61 51 59 61 51 59 61 51 59 61 51 59 61 51 59 61 52 57 71 62 65 71 62 63 71 62 63 71 62 63 71 62 63 71 62 63 71 62 63 71 62 63 77 68 69 77 68 69 77 68 69 77 68 69 77 68 69 77 68 69 77 68 69 78 68 69 76 64 68 78 63 68 78 63 68 78 63 68 78 63 68 78 63 68 78 63 68 78 63 68 78 63 68 78 63 68 78 63 68 78 63 68 78 63 68 78 63 68 78 63 68 81 61 70 86 58 72 88 57 73 88 57 73 85 58 73 85 58 73 82 60 73 81 61 73 78 62 73 59 47 57 54 47 55 51 46 53 45 44 50 41 40 46 35 38 43 33 36 41 30 35 39 46 50 59 44 48 57 42 46 55 39 43 52 35 39 48 32 36 45 30 34 43 28 32 41 25 29 38 25 29 38
83 82 100 83 82 100 83 82 100 83 82 100 83 82 100 71 68 85 71 68 85 71 68 85 71 68 85 71 68 85 71 68 85 71 68 85 71 68 85 74 71 88 74 71 88 74 71 88 74 71 88 74 71 88 74 71 88 74 71 88 75 71 86 66 59 75 67 59 74 67 59 74 67 59 74 67 59 74 67 59 74 67 59 74 67 59 74 70 62 77 70 62 77 70 62 77 70 62 77 70 62 77 70 62 77 70 62 77 70 62 75 69 63 73 71 66 73 73 68 75 76 71 78 80 75 82 83 78 85 85 80 87 87 82 89 91 86 93 91 86 93 91 86 93 91 86 93 91 86 93 91 86 93 91 86 93 91 86 93 89 86 95 87 84 93 85 82 91 82 79 88 78 75 84 75 72 81 73 70 79 71 68 77 52 49 58 52 49 58 52 49 58 52 49 58 52 49 58 52 49 58 52 49 58 52 49 58 66 60 70 66 60 70 66 60 70 66 60 70 66 60 70 66 60 70 66 60 70 66 60 70 71 65 75 69 63 73 67 61 71 64 58 68 60 54 64 57 51 61 55 49 59 53 47 57 63 53 62 63 53 62 63 53 62 63 53 62 63 53 62 63 53 62 63 53 62 63 53 62 75 65 74 75 65 74 75 65 74 75 65 74 75 65 74 75 65 74 75 65 74 75 65 74 80 73 81 80 73 81 80 73 81 80 73 81 80 73 81 80 73 81 80 73 81 80 73 81 78 71 79 78 71 79 78 71 79 78 71 79 78 71 79 78 71 79 78 71 79 77 72 79 66 60 70 64 61 70 64 61 70 64 61 70 64 61 70 64 61 70 64 61 70 64 61 70 54 51 60 54 51 60 54 51 60 54 51 60 54 51 60 54 51 60 54 51 60 56 51 58 70 63 71 72 62 70 72 62 70 72 62 70 72 62 70 72 62 70 72 62 70 72 62 70 61 51 59 61 51 59 61 51 59 61 51 59 61 51 59 61 51 59 61 51 59 61 52 57 71 62 65 71 62 63 71 62 63 71 62 63 71 62 63 71 62 63 71 62 63 71 62 63 77 68 69 77 68 69 77 68 69 77 68 69 77 68 69 77 68 69 77 68 69 78 68 69 80 68 72 82 67 72 82 67 72 82 67 72 82 67 72 82 67 72 82 67 72 82 67 72 78 63 68 78 63 68 78 63 68 78 63 68 78 63 68 78 63 68 78 63 68 81 61 70 86 58 72 88 57 73 88 57 73 85 58 73 85 58 73 82 60 73 81 61 73 78 62 73 59 47 57 54 47 55 51 46 53 45 44 50 41 40 46 35 38 43 33 36 41 30 35 39 46 50 59 44 48 57 42 46 55 39 43 52 35 39 48 32 36 45 30 34 43 28 32 41 25 29 38 25 29 38
80 79 97 80 79 97 80 79 97 80 79 97 80 79 97 68 65 82 68 65 82 68 65 82 68 65 82 68 65 82 68 65 82 68 65 82 68 65 82 74 71 88 74 71 88 74 71 88 74 71 88 74 71 88 74 71 88 74 71 88 75 71 86 66 59 75 67 59 74 67 59 74 67 59 74 67 59 74 67 59 74 67 59 74 67 59 74 70 62 77 70 62 77 70 62 77 70 62 77 70 62 77 70 62 77 70 62 77 70 62 75 69 63 73 71 66 73 73 68 75 76 71 78 80 75 82 83 78 85 85 80 87 87 82 89 91 86 93 91 86 93 91 86 93 91 86 93 91 86 93 91 86 93 91 86 93 91 86 93 89 86 95 87 84 93 85 82 91 82 79 88 78 75 84 75 72 81 73 70 79 71 68 77 52 49 58 52 49 58 52 49 58 52 49 58 52 49 58 52 49 58 52 49 58 52 49 58 66 60 70 66 60 70 66 60 70 66 60 70 66 60 70 66 60 70 66 60 70 66 60 70 71 65 75 69 63 73 67 61 71 64 58 68 60 54 64 57 51 61 55 49 59 53 47 57 63 53 62 63 53 62 63 53 62 63 53 62 63 53 62 63 53 62 63 53 62 63 53 62 75 65 74 75 65 74 75 65 74 75 65 74 75 65 74 75 65 74 75 65 74 75 65 74 80 73 81 80 73 81 80 73 81 80 73 81 80 73 81 80 73 81 80 73 81 80 73 81 78 71 79 78 71 79 78 71 79 78 71 79 78 71 79 78 71 79 78 71 79 77 72 79 69 63 73 67 64 73 67 64 73 67 64 73 67 64 73 67 64 73 67 64 73 67 64 73 57 54 63 57 54 63 57 54 63 57 54 63 57 54 63 57 54 63 57 54 63 59 54 61 73 66 74 75 65 73 75 65 73 75 65 73 75 65 73 75 65 73 75 65 73 75 65 73 61 51 59 61 51 59 61 51 59 61 51 59 61 51 59 61 51 59 61 51 59 61 52 57 71 62 65 71 62 63 71 62 63 71 62 63 71 62 63 71 62 63 71 62 63 71 62 63 77 68 69 77 68 69 77 68 69 77 68 69 77 68 69 77 68 69 77 68 69 78 68 69 83 71 75 85 70 75 85 70 75 85 70 75 85 70 75 85 70 75 85 70 75 85 70 75 78 63 68 78 63 68 78 63 68 78 63 68 78 63 68 78 63 68 78 63 68 81 61 70 86 58 72 88 57 73 88 57 73 85 58 73 85 58 73 82 60 73 81 61 73 78 62 73 59 47 57 54 47 55 51 46 53 45 44 50 41 40 46 35 38 43 33 36 41 30 35 39 46 50 59 44 48 57 42 46 55 39 43 52 35 39 48 32 36 45 30 34 43 28 32 41 25 29 38 25 29 38
78 77 95 78 77 95 78 77 95 78 77 95 78 77 95 66 63 80 66 63 80 66 63 80 66 63 80 66 63 80 66 63 80 66 63 80 66 63 80 74 71 88 74 71 88 74 71 88 74 71 88 74 71 88 74 71 88 74 71 88 75 71 86 66 59 75 67 59 74 67 59 74 67 59 74 67 59 74 67 59 74 67 59 74 67 59 74 70 62 77 70 62 77 70 62 77 70 62 77 70 62 77 70 62 77 70 62 77 70 62 75 69 63 73 71 66 73 73 68 75 76 71 78 80 75 82 83 78 85 85 80 87 87 82 89 91 86 93 91 86 93 91 86 93 91 86 93 91 86 93 91 86 93 91 86 93 91 86 93 89 86 95 87 84 93 85 82 91 82 79 88 78 75 84 75 72 81 73 70 79 71 68 77 52 49 58 52 49 58 52 49 58 52 49 58 52 49 58 52 49 58 52 49 58 52 49 58 66 60 70 66 60 70 66 60 70 66 60 70 66 60 70 66 60 70 66 60 70 66 60 70 71 65 75 69 63 73 67 61 71 64 58 68 60 54 64 57 51 61 55 49 59 53 47 57 63 53 62 63 53 62 63 53 62 63 53 62 63 53 62 63 53 62 63 53 62 63 53 62 75 65 74 75 65 74 75 65 74 75 65 74 75 65 74 75 65 74 75 65 74 75 65 74 80 73 81 80 73 81 80 73 81 80 73 81 80 73 81 80 73 81 80 73 81 80 73 81 78 71 79 78 71 79 78 71 79 78 71 79 78 71 79 78 71 79 78 71 79 77 72 79 71 65 75 69 66 75 69 66 75 69 66 75 69 66 75 69 66 75 69 66 75 69 66 75 59 56 65 59 56 65 59 56 65 59 56 65 59 56 65 59 56 65 59 56 65 61 56 63 75 68 76 77 67 75 77 67 75 77 67 75 77 67 75 77 67 75 77 67 75 77 67 75 61 51 59 61 51 59 61 51 59 61 51 59 61 51 59 61 51 59 61 51 59 61 52 57 71 62 65 71 62 63 71 62 63 71 62 63 71 62 63 71 62 63 71 62 63 71 62 63 77 68 69 77 68 69 77 68 69 77 68 69 77 68 69 77 68 69 77 68 69 78 68 69 85 73 77 87 72 77 87 72 77 87 72 77 87 72 77 87 72 77 87 72 77 87 72 77 78 63 68 78 63 68 78 63 68 78 63 68 78 63 68 78 63 68 78 63 68 81 61 70 86 58 72 88 57 73 88 57 73 85 58 73 85 58 73 82 60 73 81 61 73 78 62 73 59 47 57 54 47 55 51 46 53 45 44 50 41 40 46 35 38 43 33 36 41 30 35 39 46 50 59 44 48 57 42 46 55 39 43 52 35 39 48 32 36 45 30 34 43 28 32 41 25 29 38 25 29 38
76 75 93 76 75 93 76 75 93 76 75 93 76 75 93 64 61 78 64 61 78 64 61 78 64 61 78 64 61 78 64 61 78 64 61 78 64 61 78 74 71 88 74 71 88 74 71 88 74 71 88 74 71 88 74 71 88 74 71 88 75 71 86 66 59 75 67 59 74 67 59 74 67 59 74 67 59 74 67 59 74 67 59 74 67 59 74 70 62 77 70 62 77 70 62 77 70 62 77 70 62 77 70 62 77 70 62 77 70 62 75 69 63 73 71 66 73 73 68 75 76 71 78 80 75 82 83 78 85 85 80 87 87 82 89 91 86 93 91 86 93 91 86 93 91 86 93 91 86 93 91 86 93 91 86 93 91 86 93 89 86 95 87 84 93 85 82 91 82 79 88 78 75 84 75 72 81 73 70 79 71 68 77 52 49 58 52 49 58 52 49 58 52 49 58 52 49 58 52 49 58 52 49 58 52 49 58 66 60 70 66 60 70 66 60 70 66 60 70 66 60 70 66 60 70 66 60 70 66 60 70 71 65 75 69 63 73 67 61 71 64 58 68 60 54 64 57 51 61 55 49 59 53 47 57 63 53 62 63 53 62 63 53 62 63 53 62 63 53 62 63 53 62 63 53 62 63 53 62 75 65 74 75 65 74 75 65 74 75 65 74 75 65 74 75 65 74 75 65 74 75 65 74 80 73 81 80 73 81 80 73 81 80 73 81 80 73 81 80 73 81 80 73 81 80 73 81 78 71 79 78 71 79 78 71 79 78 71 79 78 71 79 78 71 79 78 71 79 77 72 79 73 67 77 71 68 77 71 68 77 71 68 77 71 68 77 71 68 77 71 68 77 71 68 77 61 58 67 61 58 67 61 58 67 61 58 67 61 58 67 61 58 67 61 58 67 63 58 65 77 70 78 79 69 77 79 69 77 79 69 77 79 69 77 79 69 77 79 69 77 79 69 77 61 51 59 61 51 59 61 51 59 61 51 59 61 51 59 61 51 59 61 51 59 61 52 57 71 62 65 71 62 63 71 62 63 71 62 63 71 62 63 71 62 63 71 62 63 71 62 63 77 68 69 77 68 69 77 68 69 77 68 69 77 68 69 77 68 69 77 68 69 78 68 69 87 75 79 89 74 79 89 74 79 89 74 79 89 74 79 89 74 79 89 74 79 89 74 79 78 63 68 78 63 68 78 63 68 78 63 68 78 63 68 78 63 68 78 63 68 81 61 70 86 58 72 88 57 73 88 57 73 85 58 73 85 58 73 82 60 73 81 61 73 78 62 73 59 47 57 54 47 55 51 46 53 45 44 50 41 40 46 35 38 43 33 36 41 30 35 39 46 50 59 44 48 57 42 46 55 39 43 52 35 39 48 32 36 45 30 34 43 28 32 41 25 29 38 25 29 38
61 60 78 61 60 78 61 60 78 61 60 78 61 60 78 61 58 75 61 58 75 61 58 75 61 58 75 61 58 75 61 58 75 61 58 75 61 58 75 67 64 81 67 64 81 67 64 81 67 64 81 67 64 81 67 64 81 67 64 81 68 64 79 73 66 82 74 66 81 74 66 81 74 66 81 74 66 81 74 66 81 74 66 81 74 66 81 69 61 76 69 61 76 69 61 76 69 61 76 69 61 76 69 61 76 69 61 76 69 61 74 70 64 74 70 65 72 70 65 72 70 65 72 70 65 72 70 65 72 70 65 72 70 65 72 77 72 79 77 72 79 77 72 79 77 72 79 77 72 79 77 72 79 77 72 79 77 72 79 77 74 83 77 74 83 77 74 83 77 74 83 77 74 83 77 74 83 77 74 83 77 74 83 54 51 60 56 53 62 58 55 64 61 58 67 65 62 71 68 65 74 70 67 76 72 69 78 78 72 82 76 70 80 74 68 78 71 65 75 67 61 71 64 58 68 62 56 66 60 54 64 45 39 49 45 39 49 45 39 49 45 39 49 45 39 49 45 39 49 45 39 49 45 39 49 57 47 56 57 47 56 57 47 56 57 47 56 57 47 56 57 47 56 57 47 56 57 47 56 74 64 73 74 64 73 74 64 73 74 64 73 74 64 73 74 64 73 74 64 73 74 64 73 95 88 96 95 88 96 95 88 96 95 88 96 95 88 96 95 88 96 95 88 96 95 88 96 85 78 86 85 78 86 85 78 86 85 78 86 85 78 86 85 78 86 85 78 86 84 79 86 79 73 83 77 74 83 77 74 83 77 74 83 77 74 83 77 74 83 77 74 83 77 74 83 80 77 86 80 77 86 80 77 86 80 77 86 80 77 86 80 77 86 80 77 86 82 77 84 75 68 76 77 67 75 77 67 75 77 67 75 77 67 75 77 67 75 77 67 75 77 67 75 72 62 70 72 62 70 72 62 70 72 62 70 72 62 70 72 62 70 72 62 70 72 63 68 80 71 74 80 71 72 80 71 72 80 71 72 80 71 72 80 71 72 80 71 72 80 71 72 74 65 66 74 65 66 74 65 66 74 65 66 74 65 66 74 65 66 74 65 66 75 65 66 87 75 79 89 74 79 89 74 79 89 74 79 89 74 79 89 74 79 89 74 79 89 74 79 79 64 69 79 64 69 79 64 69 79 64 69 79 64 69 79 64 69 79 64 69 82 62 71 80 52 66 82 51 67 82 51 67 79 52 67 79 52 67 76 54 67 75 55 67 72 56 67 52 40 50 49 42 50 48 43 50 45 44 50 45 44 50 42 45 50 42 45 50 41 46 50 46 50 59 44 48 57 42 46 55 39 43 52 35 39 48 32 36 45 30 34 43 28 32 41 24 28 37 24 28 37
61 60 78 61 60 78 61 60 78 61 60 78 61 60 78 61 58 75 61 58 75 61 58 75 61 58 75 61 58 75 61 58 75 61 58 75 61 58 75 67 64 81 67 64 81 67 64 81 67 64 81 67 64 81 67 64 81 67 64 81 68 64 79 73 66 82 74 66 81 74 66 81 74 66 81 74 66 81 74 66 81 74 66 81 74 66 81 69 61 76 69 61 76 69 61 76 69 61 76 69 61 76 69 61 76 69 61 76 69 61 74 70 64 74 70 65 72 70 65 72 70 65 72 70 65 72 70 65 72 70 65 72 70 65 72 77 72 79 77 72 79 77 72 79 77 72 79 77 72 79 77 72 79 77 72 79 77 72 79 75 72 81 75 72 81 75 72 81 75 72 81 75 72 81 75 72 81 75 72 81 75 72 81 54 51 60 56 53 62 58 55 64 61 58 67 65 62 71 68 65 74 70 67 76 72 69 78 78 72 82 76 70 80 74 68 78 71 65 75 67 61 71 64 58 68 62 56 66 60 54 64 47 41 51 47 41 51 47 41 51 47 41 51 47 41 51 47 41 51 47 41 51 47 41 51 54 44 53 54 44 53 54 44 53 54 44 53 54 44 53 54 44 53 54 44 53 54 44 53 68 58 67 68 58 67 68 58 67 68 58 67 68 58 67 68 58 67 68 58 67 68 58 67 87 80 88 87 80 88 87 80 88 87 80 88 87 80 88 87 80 88 87 80 88 87 80 88 83 76 84 83 76 84 83 76 84 83 76 84 83 76 84 83 76 84 83 76 84 82 77 84 77 71 81 75 72 81 75 72 81 75 72 81 75 72 81 75 72 81 75 72 81 75 72 81 78 75 84 78 75 84 78 75 84 78 75 84 78 75 84 78 75 84 78 75 84 80 75 82 75 68 76 77 67 75 77 67 75 77 67 75 77 67 75 77 67 75 77 67 75 77 67 75 72 62 70 72 62 70 72 62 70 72 62 70 72 62 70 72 62 70 72 62 70 72 63 68 80 71 74 80 71 72 80 71 72 80 71 72 80 71 72 80 71 72 80 71 72 80 71 72 76 67 68 76 67 68 76 67 68 76 67 68 76 67 68 76 67 68 76 67 68 77 67 68 87 75 79 89 74 79 89 74 79 89 74 79 89 74 79 89 74 79 89 74 79 89 74 79 79 64 69 79 64 69 79 64 69 79 64 69 79 64 69 79 64 69 79 64 69 82 62 71 80 52 66 82 51 67 82 51 67 79 52 67 79 52 67 76 54 67 75 55 67 72 56 67 52 40 50 49 42 50 48 43 50 45 44 50 45 44 50 42 45 50 42 45 50 41 46 50 46 50 59 44 48 57 42 46 55 39 43 52 35 39 48 32 36 45 30 34 43 28 32 41 24 28 37 24 28 37
61 60 78 61 60 78 61 60 78 61 60 78 61 60 78 61 58 75 61 58 75 61 58 75 61 58 75 61 58 75 61 58 75 61 58 75 61 58 75 67 64 81 67 64 81 67 64 81 67 64 81 67 64 81 67 64 81 67 64 81 68 64 79 73 66 82 74 66 81 74 66 81 74 66 81 74 66 81 74 66 81 74 66 81 74 66 81 69 61 76 69 61 76 69 61 76 69 61 76 69 61 76 69 61 76 69 61 76 69 61 74 70 64 74 70 65 72 70 65 72 70 65 72 70 65 72 70 65 72 70 65 72 70 65 72 77 72 79 77 72 79 77 72 79 77 72 79 77 72 79 77 72 79 77 72 79 77 72 79 73 70 79 73 70 79 73 70 79 73 70 79 73 70 79 73 70 79 73 70 79 73 70 79 54 51 60 56 53 62 58 55 64 61 58 67 65 62 71 68 65 74 70 67 76 72 69 78 78 72 82 76 70 80 74 68 78 71 65 75 67 61 71 64 58 68 62 56 66 60 54 64 52 46 56 52 46 56 52 46 56 52 46 56 52 46 56 52 46 56 52 46 56 52 46 56 51 41 50 51 41 50 51 41 50 51 41 50 51 41 50 51 41 50 51 41 50 51 41 50 60 50 59 60 50 59 60 50 59 60 50 59 60 50 59 60 50 59 60 50 59 60 50 59 74 67 75 74 67 75 74 67 75 74 67 75 74 67 75 74 67 75 74 67 75 74 67 75 78 71 79 78 71 79 78 71 79 78 71 79 78 71 79 78 71 79 78 71 79 77 72 79 75 69 79 73 70 79 73 70 79 73 70 79 73 70 79 73 70 79 73 70 79 73 70 79 76 73 82 76 73 82 76 73 82 76 73 82 76 73 82 76 73 82 76 73 82 78 73 80 75 68 76 77 67 75 77 67 75 77 67 75 77 67 75 77 67 75 77 67 75 77 67 75 72 62 70 72 62 70 72 62 70 72 62 70 72 62 70 72 62 70 72 62 70 72 63 68 80 71 74 80 71 72 80 71 72 80 71 72 80 71 72 80 71 72 80 71 72 80 71 72 78 69 70 78 69 70 78 69 70 78 69 70 78 69 70 78 69 70 78 69 70 79 69 70 87 75 79 89 74 79 89 74 79 89 74 79 89 74 79 89 74 79 89 74 79 89 74 79 79 64 69 79 64 69 79 64 69 79 64 69 79 64 69 79 64 69 79 64 69 82 62 71 80 52 66 82 51 67 82 51 67 79 52 67 79 52 67 76 54 67 75 55 67 72 56 67 52 40 50 49 42 50 48 43 50 45 44 50 45 44 50 42 45 50 42 45 50 41 46 50 46 50 59 44 48 57 42 46 55 39 43 52 35 39 48 32 36 45 30 34 43 28 32 41 24 28 37 24 28 37
61 60 78 61 60 78 61 60 78 61 60 78 61 60 78 61 58 75 61 58 75 61 58 75 61 58 75 61 58 75 61 58 75 61 58 75 61 58 75 67 64 81 67 64 81 67 64 81 67 64 81 67 64 81 67 64 81 67 64 81 68 64 79 73 66 82 74 66 81 74 66 81 74 66 81 74 66 81 74 66 81 74 66 81 74 66 81 69 61 76 69 61 76 69 61 76 69 61 76 69 61 76 69 61 76 69 61 76 69 61 74 70 64 74 70 65 72 70 65 72 70 65 72 70 65 72 70 65 72 70 65 72 70 65 72 77 72 79 77 72 79 77 72 79 77 72 79 77 72 79 77 72 79 77 72 79 77 72 79 70 67 76 70 67 76 70 67 76 70 67 76 70 67 76 70 67 76 70 67 76 70 67 76 54 51 60 56 53 62 58 55 64 61 58 67 65 62 71 68 65 74 70 67 76 72 69 78 78 72 82 76 70 80 74 68 78 71 65 75 67 61 71 64 58 68 62 56 66 60 54 64 59 53 63 59 53 63 59 53 63 59 53 63 59 53 63 59 53 63 59 53 63 59 53 63 52 42 51 52 42 51 52 42 51 52 42 51 52 42 51 52 42 51 52 42 51 52 42 51 54 44 53 54 44 53 54 44 53 54 44 53 54 44 53 54 44 53 54 44 53 54 44 53 62 55 63 62 55 63 62 55 63 62 55 63 62 55 63 62 55 63 62 55 63 62 55 63 71 64 72 71 64 72 71 64 72 71 64 72 71 64 72 71 64 72 71 64 72 70 65 72 72 66 76 70 67 76 70 67 76 70 67 76 70 67 76 70 67 76 70 67 76 70 67 76 73 70 79 73 70 79 73 70 79 73 70 79 73 70 79 73 70 79 73 70 79 75 70 77 75 68 76 77 67 75 77 67 75 77 67 75 77 67 75 77 67 75 77 67 75 77 67 75 72 62 70 72 62 70 72 62 70 72 62 70 72 62 70 72 62 70 72 62 70 72 63 68 80 71 74 80 71 72 80 71 72 80 71 72 80 71 72 80 71 72 80 71 72 80 71 72 81 72 73 81 72 73 81 72 73 81 72 73 81 72 73 81 72 73 81 72 73 82 72 73 87 75 79 89 74 79 89 74 79 89 74 79 89 74 79 89 74 79 89 74 79 89 74 79 79 64 69 79 64 69 79 64 69 79 64 69 79 64 69 79 64 69 79 64 69 82 62 71 80 52 66 82 51 67 82 51 67 79 52 67 79 52 67 76 54 67 75 55 67 72 56 67 52 40 50 49 42 50 48 43 50 45 44 50 45 44 50 42 45 50 42 45 50 41 46 50 46 50 59 44 48 57 42 46 55 39 43 52 35 39 48 32 36 45 30 34 43 28 32 41 24 28 37 24 28 37
61 60 78 61 60 78 61 60 78 61 60 78 61 60 78 61 58 75 61 58 75 61 58 75 61 58 75 61 58 75 61 58 75 61 58 75 61 58 75 67 64 81 67 64 81 67 64 81 67 64 81 67 64 81 67 64 81 67 64 81 68 64 79 73 66 82 74 66 81 74 66 81 74 66 81 74 66 81 74 66 81 74 66 81 74 66 81 69 61 76 69 61 76 69 61 76 69 61 76 69 61 76 69 61 76 69 61 76 69 61 74 70 64 74 70 65 72 70 65 72 70 65 72 70 65 72 70 65 72 70 65 72 70 65 72 77 72 79 77 72 79 77 72 79 77 72 79 77 72 79 77 72 79 77 72 79 77 72 79 66 63 72 66 63 72 66 63 72 66 63 72 66 63 72 66 63 72 66 63 72 66 63 72 54 51 60 56 53 62 58 55 64 61 58 67 65 62 71 68 65 74 70 67 76 72 69 78 78 72 82 76 70 80 74 68 78 71 65 75 67 61 71 64 58 68 62 56 66 60 54 64 65 59 69 65 59 69 65 59 69 65 59 69 65 59 69 65 59 69 65 59 69 65 59 69 59 49 58 59 49 58 59 49 58 59 49 58 59 49 58 59 49 58 59 49 58 59 49 58 54 44 53 54 44 53 54 44 53 54 44 53 54 44 53 54 44 53 54 44 53 54 44 53 55 48 56 55 48 56 55 48 56 55 48 56 55 48 56 55 48 56 55 48 56 55 48 56 65 58 66 65 58 66 65 58 66 65 58 66 65 58 66 65 58 66 65 58 66 64 59 66 68 62 72 66 63 72 66 63 72 66 63 72 66 63 72 66 63 72 66 63 72 66 63 72 69 66 75 69 66 75 69 66 75 69 66 75 69 66 75 69 66 75 69 66 75 71 66 73 75 68 76 77 67 75 77 67 75 77 67 75 77 67 75 77 67 75 77 67 75 77 67 75 72 62 70 72 62 70 72 62 70 72 62 70 72 62 70 72 62 70 72 62 70 72 63 68 80 71 74 80 71 72 80 71 72 80 71 72 80 71 72 80 71 72 80 71 72 80 71 72 85 76 77 85 76 77 85 76 77 85 76 77 85 76 77 85 76 77 85 76 77 86 76 77 87 75 79 89 74 79 89 74 79 89 74 79 89 74 79 89 74 79 89 74 79 89 74 79 79 64 69 79 64 69 79 64 69 79 64 69 79 64 69 79 64 69 79 64 69 82 62 71 80 52 66 82 51 67 82 51 67 79 52 67 79 52 67 76 54 67 75 55 67 72 56 67 52 40 50 49 42 50 48 43 50 45 44 50 45 44 50 42 45 50 42 45 50 41 46 50 46 50 59 44 48 57 42 46 55 39 43 52 35 39 48 32 36 45 30 34 43 28 32 41 24 28 37 24 28 37
61 60 78 61 60 78 61 60 78 61 60 78 61 60 78 61 58 75 61 58 75 61 58 75 61 58 75 61 58 75 61 58 75 61 58 75 61 58 75 67 64 81 67 64 81 67 64 81 67 64 81 67 64 81 67 64 81 67 64 81 68 64 79 73 66 82 74 66 81 74 66 81 74 66 81 74 66 81 74 66 81 74 66 81 74 66 81 69 61 76 69 61 76 69 61 76 69 61 76 69 61 76 69 61 76 69 61 76 69 61 74 70 64 74 70 65 72 70 65 72 70 65 72 70 65 72 70 65 72 70 65 72 70 65 72 77 72 79 77 72 79 77 72 79 77 72 79 77 72 79 77 72 79 77 72 79 77 72 79 63 60 69 63 60 69 63 60 69 63 60 69 63 60 69 63 60 69 63 60 69 63 60 69 54 51 60 56 53 62 58 55 64 61 58 67 65 62 71 68 65 74 70 67 76 72 69 78 78 72 82 76 70 80 74 68 78 71 65 75 67 61 71 64 58 68 62 56 66 60 54 64 72 66 76 72 66 76 72 66 76 72 66 76 72 66 76 72 66 76 72 66 76 72 66 76 71 61 70 71 61 70 71 61 70 71 61 70 71 61 70 71 61 70 71 61 70 71 61 70 60 50 59 60 50 59 60 50 59 60 50 59 60 50 59 60 50 59 60 50 59 60 50 59 54 47 55 54 47 55 54 47 55 54 47 55 54 47 55 54 47 55 54 47 55 54 47 55 58 51 59 58 51 59 58 51 59 58 51 59 58 51 59 58 51 59 58 51 59 57 52 59 65 59 69 63 60 69 63 60 69 63 60 69 63 60 69 63 60 69 63 60 69 63 60 69 66 63 72 66 63 72 66 63 72 66 63 72 66 63 72 66 63 72 66 63 72 68 63 70 75 68 76 77 67 75 77 67 75 77 67 75 77 67 75 77 67 75 77 67 75 77 67 75 72 62 70 72 62 70 72 62 70 72 62 70 72 62 70 72 62 70 72 62 70 72 63 68 80 71 74 80 71 72 80 71 72 80 71 72 80 71 72 80 71 72 80 71 72 80 71 72 88 79 80 88 79 80 88 79 80 88 79 80 88 79 80 88 79 80 88 79 80 89 79 80 87 75 79 89 74 79 89 74 79 89 74 79 89 74 79 89 74 79 89 74 79 89 74 79 79 64 69 79 64 69 79 64 69 79 64 69 79 64 69 79 64 69 79 64 69 82 62 71 80 52 66 82 51 67 82 51 67 79 52 67 79 52 67 76 54 67 75 55 67 72 56 67 52 40 50 49 42 50 48 43 50 45 44 50 45 44 50 42 45 50 42 45 50 41 46 50 46 50 59 44 48 57 42 46 55 39 43 52 35 39 48 32 36 45 30 34 43 28 32 41 24 28 37 24 28 37
61 60 78 61 60 78 61 60 78 61 60 78 61 60 78 61 58 75 61 58 75 61 58 75 61 58 75 61 58 75 61 58 75 61 58 75 61 58 75 67 64 81 67 64 81 67 64 81 67 64 81 67 64 81 67 64 81 67 64 81 68 64 79 73 66 82 74 66 81 74 66 81 74 66 81 74 66 81 74 66 81 74 66 81 74 66 81 69 61 76 69 61 76 69 61 76 69 61 76 69 61 76 69 61 76 69 61 76 69 61 74 70 64 74 70 65 72 70 65 72 70 65 72 70 65 72 70 65 72 70 65 72 70 65 72 77 72 79 77 72 79 77 72 79 77 72 79 77 72 79 77 72 79 77 72 79 77 72 79 61 58 67 61 58 67 61 58 67 61 58 67 61 58 67 61 58 67 61 58 67 61 58 67 54 51 60 56 53 62 58 55 64 61 58 67 65 62 71 68 65 74 70 67 76 72 69 78 78 72 82 76 70 80 74 68 78 71 65 75 67 61 71 64 58 68 62 56 66 60 54 64 77 71 81 77 71 81 77 71 81 77 71 81 77 71 81 77 71 81 77 71 81 77 71 81 84 74 83 84 74 83 84 74 83 84 74 83 84 74 83 84 74 83 84 74 83 84 74 83 68 58 67 68 58 67 68 58 67 68 58 67 68 58 67 68 58 67 68 58 67 68 58 67 57 50 58 57 50 58 57 50 58 57 50 58 57 50 58 57 50 58 57 50 58 57 50 58 53 46 54 53 46 54 53 46 54 53 46 54 53 46 54 53 46 54 53 46 54 52 47 54 63 57 67 61 58 67 61 58 67 61 58 67 61 58 67 61 58 67 61 58 67 61 58 67 64 61 70 64 61 70 64 61 70 64 61 70 64 61 70 64 61 70 64 61 70 66 61 68 75 68 76 77 67 75 77 67 75 77 67 75 77 67 75 77 67 75 77 67 75 77 67 75 72 62 70 72 62 70 72 62 70 72 62 70 72 62 70 72 62 70 72 62 70 72 63 68 80 71 74 80 71 72 80 71 72 80 71 72 80 71 72 80 71 72 80 71 72 80 71 72 90 81 82 90 81 82 90 81 82 90 81 82 90 81 82 90 81 82 90 81 82 91 81 82 87 75 79 89 74 79 89 74 79 89 74 79 89 74 79 89 74 79 89 74 79 89 74 79 79 64 69 79 64 69 79 64 69 79 64 69 79 64 69 79 64 69 79 64 69 82 62 71 80 52 66 82 51 67 82 51 67 79 52 67 79 52 67 76 54 67 75 55 67 72 56 67 52 40 50 49 42 50 48 43 50 45 44 50 45 44 50 42 45 50 42 45 50 41 46 50 46 50 59 44 48 57 42 46 55 39 43 52 35 39 48 32 36 45 30 34 43 28 32 41 24 28 37 24 28 37
58 60 83 58 60 83 58 60 83 58 60 83 58 60 81 58 59 80 58 59 79 58 59 80 58 59 79 58 59 80 58 59 79 58 59 80 58 59 79 64 65 86 64 65 85 64 65 86 64 65 85 64 65 86 64 65 85 64 65 86 66 64 85 70 67 86 71 67 84 71 67 84 71 67 84 71 67 84 71 67 84 71 67 84 71 67 84 66 62 79 66 62 79 66 62 79 66 62 79 66 62 79 66 62 79 66 62 79 66 62 77 68 64 78 67 65 76 68 65 76 67 65 76 68 65 76 67 65 76 68 65 76 67 65 76 75 72 83 74 72 83 75 72 83 74 72 83 75 72 83 74 72 83 75 72 83 74 72 83 58 56 67 58 56 67 58 56 67 58 56 67 58 56 67 58 56 67 58 56 67 58 56 67 53 51 62 55 53 64 57 55 66 60 58 69 64 62 73 67 65 76 69 67 78 72 69 80 78 72 84 77 69 80 75 67 80 72 64 75 68 60 73 65 57 68 63 55 68 61 53 64 80 72 85 80 72 83 80 72 85 80 72 83 80 72 85 80 72 83 80 72 85 80 72 83 92 82 93 92 82 91 93 81 93 92 82 91 93 81 93 92 82 91 93 81 93 92 82 91 75 63 75 74 64 73 75 63 75 74 64 73 75 63 75 74 64 73 75 63 75 74 64 73 62 52 63 62 52 61 62 52 63 62 52 61 62 52 63 62 52 61 62 52 63 62 52 61 53 43 54 53 43 52 53 43 54 53 43 52 53 43 54 53 43 52 53 43 54 53 43 54 62 54 65 62 54 65 62 54 65 62 54 65 62 54 65 62 54 65 62 54 65 62 54 65 65 57 68 65 57 68 65 57 68 65 57 68 65 57 68 65 57 68 65 57 68 65 57 68 78 66 76 78 67 75 78 67 75 78 67 75 78 67 75 78 67 75 78 67 75 78 67 75 73 62 70 73 62 70 73 62 70 73 62 70 73 62 70 73 62 70 73 62 70 73 62 70 78 72 74 77 73 74 78 72 74 77 73 74 78 72 74 77 73 74 78 72 74 77 73 74 90 84 86 89 85 86 90 84 86 89 85 86 90 84 86 89 85 86 90 84 86 92 83 86 87 74 81 89 74 81 89 74 81 89 74 81 89 74 81 89 74 81 89 74 81 89 74 81 79 64 71 79 64 71 79 64 71 79 64 71 79 64 71 79 64 71 79 64 71 82 62 73 77 53 67 79 52 67 77 53 67 77 53 67 76 54 67 75 55 67 73 55 67 70 57 67 52 40 50 51 41 50 49 42 50 48 43 50 46 43 50 45 44 50 44 45 50 44 44 52 47 50 59 44 48 57 42 46 55 39 43 52 35 39 48 32 36 45 30 34 43 28 32 41 24 28 37 24 28 37
53 62 93 53 62 93 53 62 93 53 62 93 53 62 93 54 61 90 54 61 89 54 61 90 54 61 89 54 61 90 54 61 89 54 61 90 54 61 89 55 62 91 55 62 90 55 62 91 55 62 90 55 62 91 55 62 90 55 62 91 56 61 90 59 63 88 59 63 88 59 63 88 59 63 88 59 63 88 59 63 88 59 63 88 59 63 88 60 64 89 60 64 89 60 64 89 60 64 89 60 64 89 60 64 89 60 64 89 62 64 87 68 71 90 68 71 88 69 70 88 68 71 88 69 70 88 68 71 88 69 70 88 68 71 88 74 75 93 73 76 93 74 75 93 73 76 93 74 75 93 73 76 93 74 75 93 74 76 91 60 62 77 62 61 75 62 61 75 62 61 75 62 61 75 62 61 75 62 61 75 62 61 75 66 65 79 68 67 81 70 69 83 73 72 86 77 76 90 80 79 93 82 81 95 85 83 97 83 75 90 79 68 82 71 60 76 65 54 68 65 54 70 71 60 74 79 68 84 85 74 88 85 74 90 83 72 86 81 70 86 78 67 81 74 63 79 71 60 74 69 58 74 68 56 70 77 65 79 77 65 77 78 64 79 77 65 77 78 64 79 77 65 77 78 64 79 77 65 77 79 65 80 78 66 78 79 65 80 78 66 78 79 65 80 78 66 78 79 65 80 79 65 78 82 68 83 82 68 81 82 68 83 82 68 81 82 68 83 82 68 81 82 68 83 82 68 81 65 51 66 65 51 64 65 51 66 65 51 64 65 51 66 65 51 64 65 51 66 65 51 64 56 42 55 56 42 55 56 42 55 56 42 55 56 42 55 56 42 55 56 42 55 56 42 55 56 42 55 56 42 55 56 42 55 56 42 55 56 42 55 56 42 55 56 42 55 58 42 55 63 47 58 64 46 58 64 46 58 64 46 58 64 46 58 64 46 58 64 46 58 64 46 58 68 50 62 68 50 62 68 50 62 68 50 62 68 50 62 68 50 62 68 50 62 65 52 61 58 53 59 55 56 58 60 60 62 63 64 66 69 69 71 72 73 75 77 77 79 78 79 81 78 78 80 77 78 80 78 78 80 77 78 80 78 78 80 77 78 80 78 78 80 81 76 82 90 77 87 93 75 87 93 75 87 93 75 87 93 75 87 93 75 87 93 75 87 93 75 87 84 66 78 84 66 78 84 66 78 84 66 78 84 66 78 84 66 78 84 66 78 84 66 78 71 53 67 70 54 67 70 54 67 70 54 67 70 54 67 68 54 67 68 54 67 67 55 67 53 41 53 53 41 53 52 42 53 52 42 53 52 42 53 50 42 53 50 42 53 49 43 53 48 48 58 44 46 58 42 44 56 39 41 53 35 37 49 32 34 46 30 32 44 28 30 42 27 29 41 27 29 41
50 63 98 50 63 98 50 63 98 50 63 98 50 63 97 51 61 96 51 62 94 51 62 94 51 62 94 51 62 94 51 62 94 51 62 94 51 62 94 52 63 95 52 63 95 52 63 95 52 63 95 52 63 95 52 63 95 52 63 95 52 63 93 57 64 93 57 64 92 57 64 92 57 64 92 57 64 92 57 64 92 57 64 92 57 64 92 58 65 93 58 65 93 58 65 93 58 65 93 58 65 93 58 65 93 58 65 93 58 65 91 66 71 93 66 71 91 66 71 91 66 71 91 66 71 91 66 71 91 66 71 91 66 71 91 71 76 96 71 76 96 71 76 96 71 76 96 71 76 96 71 76 96 71 76 96 71 76 95 60 61 79 60 62 77 60 62 77 60 62 77 60 62 77 60 62 77 60 62 77 60 62 77 64 66 81 66 68 83 68 70 85 71 73 88 75 77 92 78 80 95 80 82 97 85 83 97 83 74 91 80 67 84 72 59 76 66 53 70 66 53 70 72 59 76 80 67 84 86 73 90 86 73 90 84 71 88 82 69 86 79 66 83 75 62 79 72 59 76 70 57 74 68 55 72 76 62 77 76 62 77 76 62 77 76 62 77 76 62 77 76 62 77 76 62 77 76 62 77 77 63 78 77 63 78 77 63 78 77 63 78 77 63 78 77 63 78 77 63 78 77 63 78 82 65 81 82 65 81 82 65 81 82 65 81 82 65 81 82 65 81 82 65 81 82 65 81 73 56 72 73 56 72 73 56 72 73 56 72 73 56 72 73 56 72 73 56 72 73 56 72 66 48 62 66 48 62 66 48 62 66 48 62 66 48 62 66 48 62 66 48 62 66 48 62 61 43 57 61 43 57 61 43 57 61 43 57 61 43 57 61 43 57 61 43 57 61 43 57 63 43 55 63 43 55 63 43 55 63 43 55 63 43 55 63 43 55 63 43 55 63 43 55 66 46 58 66 46 58 66 46 58 66 46 58 66 46 58 66 46 58 66 46 58 61 48 58 52 50 55 49 53 56 54 55 59 56 60 63 62 63 67 64 68 71 69 70 74 68 72 75 75 76 80 73 77 80 75 76 80 73 77 80 75 76 80 73 77 80 75 76 80 77 75 80 88 74 87 91 73 87 91 73 87 91 73 87 91 73 87 91 73 87 91 73 87 91 73 87 82 64 78 82 64 78 82 64 78 82 64 78 82 64 78 82 64 78 82 64 78 81 65 78 68 54 67 67 55 67 67 55 67 67 55 67 67 55 67 67 55 67 67 55 67 67 55 67 53 41 53 53 41 53 53 41 53 53 41 53 53 41 53 53 41 53 53 41 53 50 42 53 49 47 60 44 46 58 42 44 56 39 41 53 35 37 49 32 34 46 30 32 44 28 30 42 27 29 41 27 29 41
50 63 98 50 63 98 50 63 98 50 63 98 50 63 97 51 61 96 51 62 94 51 62 94 51 62 94 51 62 94 51 62 94 51 62 94 51 62 94 52 63 95 52 63 95 52 63 95 52 63 95 52 63 95 52 63 95 52 63 95 52 63 93 57 64 93 57 64 92 57 64 92 57 64 92 57 64 92 57 64 92 57 64 92 57 64 92 58 65 93 58 65 93 58 65 93 58 65 93 58 65 93 58 65 93 58 65 93 58 65 91 66 71 93 66 71 91 66 71 91 66 71 91 66 71 91 66 71 91 66 71 91 66 71 91 71 76 96 71 76 96 71 76 96 71 76 96 71 76 96 71 76 96 71 76 96 71 76 95 60 61 79 60 62 77 60 62 77 60 62 77 60 62 77 60 62 77 60 62 77 60 62 77 64 66 81 66 68 83 68 70 85 71 73 88 75 77 92 78 80 95 80 82 97 85 83 97 83 74 91 80 67 84 72 59 76 66 53 70 66 53 70 72 59 76 80 67 84 86 73 90 86 73 90 84 71 88 82 69 86 79 66 83 75 62 79 72 59 76 70 57 74 68 55 72 74 60 75 74 60 75 74 60 75 74 60 75 74 60 75 74 60 75 74 60 75 74 60 75 75 61 76 75 61 76 75 61 76 75 61 76 75 61 76 75 61 76 75 61 76 75 61 76 80 63 79 80 63 79 80 63 79 80 63 79 80 63 79 80 63 79 80 63 79 80 63 79 81 64 80 81 64 80 81 64 80 81 64 80 81 64 80 81 64 80 81 64 80 81 64 80 76 58 72 76 58 72 76 58 72 76 58 72 76 58 72 76 58 72 76 58 72 76 58 72 66 48 62 66 48 62 66 48 62 66 48 62 66 48 62 66 48 62 66 48 62 66 48 62 60 40 52 60 40 52 60 40 52 60 40 52 60 40 52 60 40 52 60 40 52 60 40 52 60 40 52 60 40 52 60 40 52 60 40 52 60 40 52 60 40 52 60 40 52 57 41 52 49 44 50 46 47 51 49 48 53 51 52 56 54 53 58 56 57 61 59 58 63 59 60 64 71 70 75 70 71 75 71 70 75 70 71 75 71 70 75 70 71 75 71 70 75 74 69 75 83 69 82 86 68 82 86 68 82 86 68 82 86 68 82 86 68 82 86 68 82 86 68 82 80 62 76 80 62 76 80 62 76 80 62 76 80 62 76 80 62 76 80 62 76 79 63 76 68 54 67 67 55 67 67 55 67 67 55 67 67 55 67 67 55 67 67 55 67 67 55 67 53 41 53 53 41 53 53 41 53 53 41 53 53 41 53 53 41 53 53 41 53 50 42 53 49 47 60 44 46 58 42 44 56 39 41 53 35 37 49 32 34 46 30 32 44 28 30 42 27 29 41 27 29 41
50 63 98 50 63 98 50 63 98 50 63 98 50 63 97 51 61 96 51 62 94 51 62 94 51 62 94 51 62 94 51 62 94 51 62 94 51 62 94 52 63 95 52 63 95 52 63 95 52 63 95 52 63 95 52 63 95 52 63 95 52 63 93 57 64 93 57 64 92 57 64 92 57 64 92 57 64 92 57 64 92 57 64 92 57 64 92 58 65 93 58 65 93 58 65 93 58 65 93 58 65 93 58 65 93 58 65 93 58 65 91 66 71 93 66 71 91 66 71 91 66 71 91 66 71 91 66 71 91 66 71 91 66 71 91 71 76 96 71 76 96 71 76 96 71 76 96 71 76 96 71 76 96 71 76 96 71 76 95 60 61 79 60 62 77 60 62 77 60 62 77 60 62 77 60 62 77 60 62 77 60 62 77 64 66 81 66 68 83 68 70 85 71 73 88 75 77 92 78 80 95 80 82 97 85 83 97 83 74 91 80 67 84 72 59 76 66 53 70 66 53 70 72 59 76 80 67 84 86 73 90 86 73 90 84 71 88 82 69 86 79 66 83 75 62 79 72 59 76 70 57 74 68 55 72 71 57 72 71 57 72 71 57 72 71 57 72 71 57 72 71 57 72 71 57 72 71 57 72 72 58 73 72 58 73 72 58 73 72 58 73 72 58 73 72 58 73 72 58 73 72 58 73 77 60 76 77 60 76 77 60 76 77 60 76 77 60 76 77 60 76 77 60 76 77 60 76 87 70 86 87 70 86 87 70 86 87 70 86 87 70 86 87 70 86 87 70 86 87 70 86 85 67 81 85 67 81 85 67 81 85 67 81 85 67 81 85 67 81 85 67 81 85 67 81 73 55 69 73 55 69 73 55 69 73 55 69 73 55 69 73 55 69 73 55 69 73 55 69 61 41 53 61 41 53 61 41 53 61 41 53 61 41 53 61 41 53 61 41 53 61 41 53 58 38 50 58 38 50 58 38 50 58 38 50 58 38 50 58 38 50 58 38 50 55 39 50 49 42 49 45 44 49 47 45 50 47 46 51 49 47 52 49 48 53 50 48 53 50 49 54 65 63 68 64 63 68 65 63 68 64 63 68 65 63 68 64 63 68 65 63 68 67 62 68 76 62 75 79 61 75 79 61 75 79 61 75 79 61 75 79 61 75 79 61 75 79 61 75 77 59 73 77 59 73 77 59 73 77 59 73 77 59 73 77 59 73 77 59 73 76 60 73 68 54 67 67 55 67 67 55 67 67 55 67 67 55 67 67 55 67 67 55 67 67 55 67 53 41 53 53 41 53 53 41 53 53 41 53 53 41 53 53 41 53 53 41 53 50 42 53 49 47 60 44 46 58 42 44 56 39 41 53 35 37 49 32 34 46 30 32 44 28 30 42 27 29 41 27 29 41
50 63 98 50 63 98 50 63 98 50 63 98 50 63 97 51 61 96 51 62 94 51 62 94 51 62 94 51 62 94 51 62 94 51 62 94 51 62 94 52 63 95 52 63 95 52 63 95 52 63 95 52 63 95 52 63 95 52 63 95 52 63 93 57 64 93 57 64 92 57 64 92 57 64 92 57 64 92 57 64 92 57 64 92 57 64 92 58 65 93 58 65 93 58 65 93 58 65 93 58 65 93 58 65 93 58 65 93 58 65 91 66 71 93 66 71 91 66 71 91 66 71 91 66 71 91 66 71 91 66 71 91 66 71 91 71 76 96 71 76 96 71 76 96 71 76 96 71 76 96 71 76 96 71 76 96 71 76 95 60 61 79 60 62 77 60 62 77 60 62 77 60 62 77 60 62 77 60 62 77 60 62 77 64 66 81 66 68 83 68 70 85 71 73 88 75 77 92 78 80 95 80 82 97 85 83 97 83 74 91 80 67 84 72 59 76 66 53 70 66 53 70 72 59 76 80 67 84 86 73 90 86 73 90 84 71 88 82 69 86 79 66 83 75 62 79 72 59 76 70 57 74 68 55 72 67 53 68 67 53 68 67 53 68 67 53 68 67 53 68 67 53 68 67 53 68 67 53 68 68 54 69 68 54 69 68 54 69 68 54 69 68 54 69 68 54 69 68 54 69 68 54 69 73 56 72 73 56 72 73 56 72 73 56 72 73 56 72 73 56 72 73 56 72 73 56 72 87 70 86 87 70 86 87 70 86 87 70 86 87 70 86 87 70 86 87 70 86 87 70 86 88 70 84 88 70 84 88 70 84 88 70 84 88 70 84 88 70 84 88 70 84 88 70 84 79 61 75 79 61 75 79 61 75 79 61 75 79 61 75 79 61 75 79 61 75 79 61 75 68 48 60 68 48 60 68 48 60 68 48 60 68 48 60 68 48 60 68 48 60 68 48 60 61 41 53 61 41 53 61 41 53 61 41 53 61 41 53 61 41 53 61 41 53 58 42 53 54 47 54 50 48 53 52 47 53 49 47 52 50 45 51 47 45 50 48 43 49 46 44 49 61 56 62 59 57 62 61 56 62 59 57 62 61 56 62 59 57 62 61 56 62 62 55 62 70 56 69 73 55 69 73 55 69 73 55 69 73 55 69 73 55 69 73 55 69 73 55 69 73 55 69 73 55 69 73 55 69 73 55 69 73 55 69 73 55 69 73 55 69 72 56 69 68 54 67 67 55 67 67 55 67 67 55 67 67 55 67 67 55 67 67 55 67 67 55 67 53 41 53 53 41 53 53 41 53 53 41 53 53 41 53 53 41 53 53 41 53 50 42 53 49 47 60 44 46 58 42 44 56 39 41 53 35 37 49 32 34 46 30 32 44 28 30 42 27 29 41 27 29 41
50 63 98 50 63 98 50 63 98 50 63 98 50 63 97 51 61 96 51 62 94 51 62 94 51 62 94 51 62 94 51 62 94 51 62 94 51 62 94 52 63 95 52 63 95 52 63 95 52 63 95 52 63 95 52 63 95 52 63 95 52 63 93 57 64 93 57 64 92 57 64 92 57 64 92 57 64 92 57 64 92 57 64 92 57 64 92 58 65 93 58 65 93 58 65 93 58 65 93 58 65 93 58 65 93 58 65 93 58 65 91 66 71 93 66 71 91 66 71 91 66 71 91 66 71 91 66 71 91 66 71 91 66 71 91 71 76 96 71 76 96 71 76 96 71 76 96 71 76 96 71 76 96 71 76 96 71 76 95 60 61 79 60 62 77 60 62 77 60 62 77 60 62 77 60 62 77 60 62 77 60 62 77 64 66 81 66 68 83 68 70 85 71 73 88 75 77 92 78 80 95 80 82 97 85 83 97 83 74 91 80 67 84 72 59 76 66 53 70 66 53 70 72 59 76 80 67 84 86 73 90 86 73 90 84 71 88 82 69 86 79 66 83 75 62 79 72 59 76 70 57 74 68 55 72 64 50 65 64 50 65 64 50 65 64 50 65 64 50 65 64 50 65 64 50 65 64 50 65 65 51 66 65 51 66 65 51 66 65 51 66 65 51 66 65 51 66 65 51 66 65 51 66 70 53 69 70 53 69 70 53 69 70 53 69 70 53 69 70 53 69 70 53 69 70 53 69 81 64 80 81 64 80 81 64 80 81 64 80 81 64 80 81 64 80 81 64 80 81 64 80 86 68 82 86 68 82 86 68 82 86 68 82 86 68 82 86 68 82 86 68 82 86 68 82 86 68 82 86 68 82 86 68 82 86 68 82 86 68 82 86 68 82 86 68 82 86 68 82 80 60 72 80 60 72 80 60 72 80 60 72 80 60 72 80 60 72 80 60 72 80 60 72 70 50 62 70 50 62 70 50 62 70 50 62 70 50 62 70 50 62 70 50 62 67 51 62 66 56 64 63 56 63 61 54 61 58 51 58 56 49 56 53 46 53 51 44 51 50 43 50 55 48 55 55 48 55 55 48 55 55 48 55 55 48 55 55 48 55 55 48 55 57 47 55 65 49 62 66 48 62 66 48 62 66 48 62 66 48 62 66 48 62 66 48 62 66 48 62 70 52 66 70 52 66 70 52 66 70 52 66 70 52 66 70 52 66 70 52 66 69 53 66 68 54 67 67 55 67 67 55 67 67 55 67 67 55 67 67 55 67 67 55 67 67 55 67 53 41 53 53 41 53 53 41 53 53 41 53 53 41 53 53 41 53 53 41 53 50 42 53 49 47 60 44 46 58 42 44 56 39 41 53 35 37 49 32 34 46 30 32 44 28 30 42 27 29 41 27 29 41
50 63 98 50 63 98 50 63 98 50 63 98 50 63 97 51 61 96 51 62 94 51 62 94 51 62 94 51 62 94 51 62 94 51 62 94 51 62 94 52 63 95 52 63 95 52 63 95 52 63 95 52 63 95 52 63 95 52 63 95 52 63 93 57 64 93 57 64 92 57 64 92 57 64 92 57 64 92 57 64 92 57 64 92 57 64 92 58 65 93 58 65 93 58 65 93 58 65 93 58 65 93 58 65 93 58 65 93 58 65 91 66 71 93 66 71 91 66 71 91 66 71 91 66 71 91 66 71 91 66 71 91 66 71 91 71 76 96 71 76 96 71 76 96 71 76 96 71 76 96 71 76 96 71 76 96 71 76 95 60 61 79 60 62 77 60 62 77 60 62 77 60 62 77 60 62 77 60 62 77 60 62 77 64 66 81 66 68 83 68 70 85 71 73 88 75 77 92 78 80 95 80 82 97 85 83 97 83 74 91 80 67 84 72 59 76 66 53 70 66 53 70 72 59 76 80 67 84 86 73 90 86 73 90 84 71 88 82 69 86 79 66 83 75 62 79 72 59 76 70 57 74 68 55 72 62 48 63 62 48 63 62 48 63 62 48 63 62 48 63 62 48 63 62 48 63 62 48 63 63 49 64 63 49 64 63 49 64 63 49 64 63 49 64 63 49 64 63 49 64 63 49 64 68 51 67 68 51 67 68 51 67 68 51 67 68 51 67 68 51 67 68 51 67 68 51 67 73 56 72 73 56 72 73 56 72 73 56 72 73 56 72 73 56 72 73 56 72 73 56 72 80 62 76 80 62 76 80 62 76 80 62 76 80 62 76 80 62 76 80 62 76 80 62 76 91 73 87 91 73 87 91 73 87 91 73 87 91 73 87 91 73 87 91 73 87 91 73 87 93 73 85 93 73 85 93 73 85 93 73 85 93 73 85 93 73 85 93 73 85 93 73 85 80 60 72 80 60 72 80 60 72 80 60 72 80 60 72 80 60 72 80 60 72 78 60 72 78 67 75 76 66 74 73 63 71 69 59 67 65 55 63 61 51 59 58 48 56 57 47 55 52 42 50 52 42 50 52 42 50 52 42 50 52 42 50 52 42 50 52 42 50 53 42 50 60 44 57 61 43 57 61 43 57 61 43 57 61 43 57 61 43 57 61 43 57 61 43 57 68 50 64 68 50 64 68 50 64 68 50 64 68 50 64 68 50 64 68 50 64 67 51 64 68 54 67 67 55 67 67 55 67 67 55 67 67 55 67 67 55 67 67 55 67 67 55 67 53 41 53 53 41 53 53 41 53 53 41 53 53 41 53 53 41 53 53 41 53 50 42 53 49 47 60 44 46 58 42 44 56 39 41 53 35 37 49 32 34 46 30 32 44 28 30 42 27 29 41 27 29 41
50 63 98 50 63 98 50 63 98 50 63 98 50 63 97 51 61 96 51 62 94 51 62 94 51 62 94 51 62 94 51 62 94 51 62 94 51 62 94 52 63 95 52 63 95 52 63 95 52 63 95 52 63 95 52 63 95 52 63 95 52 63 93 57 64 93 57 64 92 57 64 92 57 64 92 57 64 92 57 64 92 57 64 92 57 64 92 58 65 93 58 65 93 58 65 93 58 65 93 58 65 93 58 65 93 58 65 93 58 65 91 66 71 93 66 71 91 66 71 91 66 71 91 66 71 91 66 71 91 66 71 91 66 71 91 71 76 96 71 76 96 71 76 96 71 76 96 71 76 96 71 76 96 71 76 96 71 76 95 60 61 79 60 62 77 60 62 77 60 62 77 60 62 77 60 62 77 60 62 77 60 62 77 64 66 81 66 68 83 68 70 85 71 73 88 75 77 92 78 80 95 80 82 97 85 83 97 83 74 91 80 67 84 72 59 76 66 53 70 66 53 70 72 59 76 80 67 84 86 73 90 86 73 90 84 71 88 82 69 86 79 66 83 75 62 79 72 59 76 70 57 74 68 55 72 60 46 61 60 46 61 60 46 61 60 46 61 60 46 61 60 46 61 60 46 61 60 46 61 61 47 62 61 47 62 61 47 62 61 47 62 61 47 62 61 47 62 61 47 62 61 47 62 66 49 65 66 49 65 66 49 65 66 49 65 66 49 65 66 49 65 66 49 65 66 49 65 67 50 66 67 50 66 67 50 66 67 50 66 67 50 66 67 50 66 67 50 66 67 50 66 76 58 72 76 58 72 76 58 72 76 58 72 76 58 72 76 58 72 76 58 72 76 58 72 93 75 89 93 75 89 93 75 89 93 75 89 93 75 89 93 75 89 93 75 89 93 75 89 101 81 93 101 81 93 101 81 93 101 81 93 101 81 93 101 81 93 101 81 93 101 81 93 87 67 79 87 67 79 87 67 79 87 67 79 87 67 79 87 67 79 87 67 79 85 67 79 89 73 83 85 72 81 81 68 77 77 64 73 72 59 68 68 55 64 64 51 60 63 50 59 52 39 48 52 39 48 52 39 48 52 39 48 52 39 48 52 39 48 52 39 48 52 39 48 59 41 55 59 41 55 59 41 55 59 41 55 59 41 55 59 41 55 59 41 55 59 41 55 66 48 62 66 48 62 66 48 62 66 48 62 66 48 62 66 48 62 66 48 62 65 49 62 68 54 67 67 55 67 67 55 67 67 55 67 67 55 67 67 55 67 67 55 67 67 55 67 53 41 53 53 41 53 53 41 53 53 41 53 53 41 53 53 41 53 53 41 53 50 42 53 49 47 60 44 46 58 42 44 56 39 41 53 35 37 49 32 34 46 30 32 44 28 30 42 27 29 41 27 29 41
49 62 97 49 62 97 49 62 97 49 62 97 49 62 96 51 61 96 51 62 94 51 62 94 51 62 94 51 62 94 51 62 94 51 62 94 51 62 94 55 66 98 55 66 98 55 66 98 55 66 98 55 66 98 55 66 98 55 66 98 55 66 96 58 65 94 58 65 93 58 65 93 58 65 93 58 65 93 58 65 93 58 65 93 58 65 93 57 64 92 57 64 92 57 64 92 57 64 92 57 64 92 57 64 92 57 64 92 57 64 90 60 65 87 60 65 85 60 65 85 60 65 85 60 65 85 60 65 85 60 65 85 60 65 85 57 62 82 57 62 82 57 62 82 57 62 82 57 62 82 57 62 82 57 62 82 57 62 81 60 61 79 60 62 77 60 62 77 60 62 77 60 62 77 60 62 77 60 62 77 60 62 77 74 76 91 74 76 91 74 76 91 74 76 91 74 76 91 74 76 91 74 76 91 77 75 89 62 53 70 67 54 71 69 56 73 72 59 76 76 63 80 79 66 83 81 68 85 83 70 87 84 71 88 82 69 86 80 67 84 77 64 81 73 60 77 70 57 74 68 55 72 66 53 70 67 53 68 67 53 68 67 53 68 67 53 68 67 53 68 67 53 68 67 53 68 67 53 68 62 48 63 62 48 63 62 48 63 62 48 63 62 48 63 62 48 63 62 48 63 62 48 63 65 48 64 65 48 64 65 48 64 65 48 64 65 48 64 65 48 64 65 48 64 65 48 64 68 51 67 68 51 67 68 51 67 68 51 67 68 51 67 68 51 67 68 51 67 68 51 67 70 52 66 70 52 66 70 52 66 70 52 66 70 52 66 70 52 66 70 52 66 70 52 66 72 54 68 72 54 68 72 54 68 72 54 68 72 54 68 72 54 68 72 54 68 72 54 68 76 56 68 76 56 68 76 56 68 76 56 68 76 56 68 76 56 68 76 56 68 76 56 68 88 68 80 88 68 80 88 68 80 88 68 80 88 68 80 88 68 80 88 68 80 88 68 80 91 74 84 91 74 84 91 74 84 91 74 84 91 74 84 91 74 84 91 74 84 91 74 84 91 74 84 91 74 84 91 74 84 91 74 84 91 74 84 91 74 84 91 74 84 91 74 84 71 53 67 71 53 67 71 53 67 71 53 67 71 53 67 71 53 67 71 53 67 71 53 67 49 31 45 49 31 45 49 31 45 49 31 45 49 31 45 49 31 45 49 31 45 48 32 45 67 53 66 66 54 66 66 54 66 66 54 66 66 54 66 66 54 66 66 54 66 66 54 66 52 40 52 52 40 52 52 40 52 52 40 52 52 40 52 52 40 52 52 40 52 49 41 52 46 44 57 43 45 57 43 45 57 43 45 57 43 45 57 43 45 57 43 45 57 43 45 57 33 35 47 33 35 47
51 64 99 51 64 99 51 64 99 51 64 99 51 64 98 53 63 98 53 64 96 53 64 96 53 64 96 53 64 96 53 64 96 53 64 96 53 64 96 55 66 98 55 66 98 55 66 98 55 66 98 55 66 98 55 66 98 55 66 98 55 66 96 58 65 94 58 65 93 58 65 93 58 65 93 58 65 93 58 65 93 58 65 93 58 65 93 57 64 92 57 64 92 57 64 92 57 64 92 57 64 92 57 64 92 57 64 92 57 64 90 60 65 87 60 65 85 60 65 85 60 65 85 60 65 85 60 65 85 60 65 85 60 65 85 57 62 82 57 62 82 57 62 82 57 62 82 57 62 82 57 62 82 57 62 82 57 62 81 60 61 79 60 62 77 60 62 77 60 62 77 60 62 77 60 62 77 60 62 77 60 62 77 72 74 89 72 74 89 72 74 89 72 74 89 72 74 89 72 74 89 72 74 89 75 73 87 62 53 70 67 54 71 69 56 73 72 59 76 76 63 80 79 66 83 81 68 85 83 70 87 84 71 88 82 69 86 80 67 84 77 64 81 73 60 77 70 57 74 68 55 72 66 53 70 67 53 68 67 53 68 67 53 68 67 53 68 67 53 68 67 53 68 67 53 68 67 53 68 62 48 63 62 48 63 62 48 63 62 48 63 62 48 63 62 48 63 62 48 63 62 48 63 65 48 64 65 48 64 65 48 64 65 48 64 65 48 64 65 48 64 65 48 64 65 48 64 68 51 67 68 51 67 68 51 67 68 51 67 68 51 67 68 51 67 68 51 67 68 51 67 70 52 66 70 52 66 70 52 66 70 52 66 70 52 66 70 52 66 70 52 66 70 52 66 72 54 68 72 54 68 72 54 68 72 54 68 72 54 68 72 54 68 72 54 68 72 54 68 76 56 68 76 56 68 76 56 68 76 56 68 76 56 68 76 56 68 76 56 68 76 56 68 86 66 78 86 66 78 86 66 78 86 66 78 86 66 78 86 66 78 86 66 78 86 66 78 92 70 82 92 70 82 92 70 82 92 70 82 92 70 82 92 70 82 92 70 82 92 70 82 92 70 82 92 70 82 92 70 82 92 70 82 92 70 82 92 70 82 92 70 82 91 71 82 77 59 73 77 59 73 77 59 73 77 59 73 77 59 73 77 59 73 77 59 73 77 59 73 57 39 53 57 39 53 57 39 53 57 39 53 57 39 53 57 39 53 57 39 53 56 40 53 57 43 56 56 44 56 56 44 56 56 44 56 56 44 56 56 44 56 56 44 56 56 44 56 50 38 50 50 38 50 50 38 50 50 38 50 50 38 50 50 38 50 50 38 50 47 39 50 43 41 54 40 42 54 40 42 54 40 42 54 40 42 54 40 42 54 40 42 54 40 42 54 35 37 49 35 37 49
56 69 104 56 69 104 56 69 104 56 69 104 56 69 103 55 65 100 55 66 98 55 66 98 55 66 98 55 66 98 55 66 98 55 66 98 55 66 98 55 66 98 55 66 98 55 66 98 55 66 98 55 66 98 55 66 98 55 66 98 55 66 96 58 65 94 58 65 93 58 65 93 58 65 93 58 65 93 58 65 93 58 65 93 58 65 93 57 64 92 57 64 92 57 64 92 57 64 92 57 64 92 57 64 92 57 64 92 57 64 90 60 65 87 60 65 85 60 65 85 60 65 85 60 65 85 60 65 85 60 65 85 60 65 85 57 62 82 57 62 82 57 62 82 57 62 82 57 62 82 57 62 82 57 62 82 57 62 81 60 61 79 60 62 77 60 62 77 60 62 77 60 62 77 60 62 77 60 62 77 60 62 77 70 72 87 70 72 87 70 72 87 70 72 87 70 72 87 70 72 87 70 72 87 73 71 85 62 53 70 67 54 71 69 56 73 72 59 76 76 63 80 79 66 83 81 68 85 83 70 87 84 71 88 82 69 86 80 67 84 77 64 81 73 60 77 70 57 74 68 55 72 66 53 70 67 53 68 67 53 68 67 53 68 67 53 68 67 53 68 67 53 68 67 53 68 67 53 68 62 48 63 62 48 63 62 48 63 62 48 63 62 48 63 62 48 63 62 48 63 62 48 63 65 48 64 65 48 64 65 48 64 65 48 64 65 48 64 65 48 64 65 48 64 65 48 64 68 51 67 68 51 67 68 51 67 68 51 67 68 51 67 68 51 67 68 51 67 68 51 67 70 52 66 70 52 66 70 52 66 70 52 66 70 52 66 70 52 66 70 52 66 70 52 66 72 54 68 72 54 68 72 54 68 72 54 68 72 54 68 72 54 68 72 54 68 72 54 68 76 56 68 76 56 68 76 56 68 76 56 68 76 56 68 76 56 68 76 56 68 76 56 68 84 64 76 84 64 76 84 64 76 84 64 76 84 64 76 84 64 76 84 64 76 85 63 76 91 67 80 91 67 80 91 67 80 91 67 80 91 67 80 91 67 80 91 67 80 91 67 80 91 67 80 91 67 80 91 67 80 91 67 80 91 67 80 91 67 80 91 67 80 90 68 80 87 66 81 85 67 81 85 67 81 85 67 81 85 67 81 85 67 81 85 67 81 85 67 81 70 52 66 70 52 66 70 52 66 70 52 66 70 52 66 70 52 66 70 52 66 69 53 66 52 38 51 51 39 51 51 39 51 51 39 51 51 39 51 51 39 51 51 39 51 51 39 51 49 37 49 49 37 49 49 37 49 49 37 49 49 37 49 49 37 49 49 37 49 46 38 49 40 38 51 37 39 51 37 39 51 37 39 51 37 39 51 37 39 51 37 39 51 37 39 51 37 39 51 37 39 51
63 76 111 63 76 111 63 76 111 63 76 111 63 76 110 58 68 103 58 69 101 58 69 101 58 69 101 58 69 101 58 69 101 58 69 101 58 69 101 55 66 98 55 66 98 55 66 98 55 66 98 55 66 98 55 66 98 55 66 98 55 66 96 58 65 94 58 65 93 58 65 93 58 65 93 58 65 93 58 65 93 58 65 93 58 65 93 57 64 92 57 64 92 57 64 92 57 64 92 57 64 92 57 64 92 57 64 92 57 64 90 60 65 87 60 65 85 60 65 85 60 65 85 60 65 85 60 65 85 60 65 85 60 65 85 57 62 82 57 62 82 57 62 82 57 62 82 57 62 82 57 62 82 57 62 82 57 62 81 60 61 79 60 62 77 60 62 77 60 62 77 60 62 77 60 62 77 60 62 77 60 62 77 67 69 84 67 69 84 67 69 84 67 69 84 67 69 84 67 69 84 67 69 84 70 68 82 62 53 70 67 54 71 69 56 73 72 59 76 76 63 80 79 66 83 81 68 85 83 70 87 84 71 88 82 69 86 80 67 84 77 64 81 73 60 77 70 57 74 68 55 72 66 53 70 67 53 68 67 53 68 67 53 68 67 53 68 67 53 68 67 53 68 67 53 68 67 53 68 62 48 63 62 48 63 62 48 63 62 48 63 62 48 63 62 48 63 62 48 63 62 48 63 65 48 64 65 48 64 65 48 64 65 48 64 65 48 64 65 48 64 65 48 64 65 48 64 68 51 67 68 51 67 68 51 67 68 51 67 68 51 67 68 51 67 68 51 67 68 51 67 70 52 66 70 52 66 70 52 66 70 52 66 70 52 66 70 52 66 70 52 66 70 52 66 72 54 68 72 54 68 72 54 68 72 54 68 72 54 68 72 54 68 72 54 68 72 54 68 76 56 68 76 56 68 76 56 68 76 56 68 76 56 68 76 56 68 76 56 68 76 56 68 81 61 73 81 61 73 81 61 73 81 61 73 81 61 73 81 61 73 81 61 73 82 60 73 90 64 77 90 64 77 91 63 77 90 64 77 91 63 77 90 64 77 91 63 77 90 64 77 91 63 77 90 64 77 91 63 77 90 64 77 91 63 77 90 64 77 91 63 77 88 64 77 93 72 87 91 73 87 91 73 87 91 73 87 91 73 87 91 73 87 91 73 87 91 73 87 82 64 78 82 64 78 82 64 78 82 64 78 82 64 78 82 64 78 82 64 78 81 65 78 64 50 63 63 51 63 63 51 63 63 51 63 63 51 63 63 51 63 63 51 63 63 51 63 53 41 53 53 41 53 53 41 53 53 41 53 53 41 53 53 41 53 53 41 53 50 42 53 41 39 52 38 40 52 38 40 52 38 40 52 38 40 52 38 40 52 38 40 52 38 40 52 40 42 54 40 42 54
69 82 117 69 82 117 69 82 117 69 82 117 69 82 116 62 72 107 62 73 105 62 73 105 62 73 105 62 73 105 62 73 105 62 73 105 62 73 105 55 66 98 55 66 98 55 66 98 55 66 98 55 66 98 55 66 98 55 66 98 55 66 96 58 65 94 58 65 93 58 65 93 58 65 93 58 65 93 58 65 93 58 65 93 58 65 93 57 64 92 57 64 92 57 64 92 57 64 92 57 64 92 57 64 92 57 64 92 57 64 90 60 65 87 60 65 85 60 65 85 60 65 85 60 65 85 60 65 85 60 65 85 60 65 85 57 62 82 57 62 82 57 62 82 57 62 82 57 62 82 57 62 82 57 62 82 57 62 81 60 61 79 60 62 77 60 62 77 60 62 77 60 62 77 60 62 77 60 62 77 60 62 77 63 65 80 63 65 80 63 65 80 63 65 80 63 65 80 63 65 80 63 65 80 66 64 78 62 53 70 67 54 71 69 56 73 72 59 76 76 63 80 79 66 83 81 68 85 83 70 87 84 71 88 82 69 86 80 67 84 77 64 81 73 60 77 70 57 74 68 55 72 66 53 70 67 53 68 67 53 68 67 53 68 67 53 68 67 53 68 67 53 68 67 53 68 67 53 68 62 48 63 62 48 63 62 48 63 62 48 63 62 48 63 62 48 63 62 48 63 62 48 63 65 48 64 65 48 64 65 48 64 65 48 64 65 48 64 65 48 64 65 48 64 65 48 64 68 51 67 68 51 67 68 51 67 68 51 67 68 51 67 68 51 67 68 51 67 68 51 67 70 52 66 70 52 66 70 52 66 70 52 66 70 52 66 70 52 66 70 52 66 70 52 66 72 54 68 72 54 68 72 54 68 72 54 68 72 54 68 72 54 68 72 54 68 72 54 68 76 56 68 76 56 68 76 56 68 76 56 68 76 56 68 76 56 68 76 56 68 76 56 68 77 57 69 77 57 69 77 57 69 77 57 69 77 57 69 77 57 69 77 57 69 78 56 69 86 60 73 87 59 73 89 58 73 87 59 73 89 58 73 87 59 73 89 58 73 87 59 73 89 58 73 87 59 73 89 58 73 87 59 73 89 58 73 87 59 73 89 58 73 86 60 73 93 72 87 91 73 87 91 73 87 91 73 87 91 73 87 91 73 87 91 73 87 91 73 87 89 71 85 89 71 85 89 71 85 89 71 85 89 71 85 89 71 85 89 71 85 88 72 85 84 70 83 83 71 83 83 71 83 83 71 83 83 71 83 83 71 83 83 71 83 83 71 83 64 52 64 64 52 64 64 52 64 64 52 64 64 52 64 64 52 64 64 52 64 61 53 64 48 46 59 45 47 59 45 47 59 45 47 59 45 47 59 45 47 59 45 47 59 45 47 59 44 46 58 44 46 58
76 89 124 76 89 124 76 89 124 76 89 124 76 89 123 65 75 110 65 76 108 65 76 108 65 76 108 65 76 108 65 76 108 65 76 108 65 76 108 55 66 98 55 66 98 55 66 98 55 66 98 55 66 98 55 66 98 55 66 98 55 66 96 58 65 94 58 65 93 58 65 93 58 65 93 58 65 93 58 65 93 58 65 93 58 65 93 57 64 92 57 64 92 57 64 92 57 64 92 57 64 92 57 64 92 57 64 92 57 64 90 60 65 87 60 65 85 60 65 85 60 65 85 60 65 85 60 65 85 60 65 85 60 65 85 57 62 82 57 62 82 57 62 82 57 62 82 57 62 82 57 62 82 57 62 82 57 62 81 60 61 79 60 62 77 60 62 77 60 62 77 60 62 77 60 62 77 60 62 77 60 62 77 60 62 77 60 62 77 60 62 77 60 62 77 60 62 77 60 62 77 60 62 77 63 61 75 62 53 70 67 54 71 69 56 73 72 59 76 76 63 80 79 66 83 81 68 85 83 70 87 84 71 88 82 69 86 80 67 84 77 64 81 73 60 77 70 57 74 68 55 72 66 53 70 67 53 68 67 53 68 67 53 68 67 53 68 67 53 68 67 53 68 67 53 68 67 53 68 62 48 63 62 48 63 62 48 63 62 48 63 62 48 63 62 48 63 62 48 63 62 48 63 65 48 64 65 48 64 65 48 64 65 48 64 65 48 64 65 48 64 65 48 64 65 48 64 68 51 67 68 51 67 68 51 67 68 51 67 68 51 67 68 51 67 68 51 67 68 51 67 70 52 66 70 52 66 70 52 66 70 52 66 70 52 66 70 52 66 70 52 66 70 52 66 72 54 68 72 54 68 72 54 68 72 54 68 72 54 68 72 54 68 72 54 68 72 54 68 76 56 68 76 56 68 76 56 68 76 56 68 76 56 68 76 56 68 76 56 68 76 56 68 74 54 66 74 54 66 74 54 66 74 54 66 74 54 66 74 54 66 74 54 66 75 53 66 84 56 70 86 55 70 87 55 70 86 55 70 87 55 70 86 55 70 87 55 70 86 55 70 87 55 70 86 55 70 87 55 70 86 55 70 87 55 70 86 55 70 87 55 70 84 56 70 88 65 81 85 67 81 85 67 81 85 67 81 85 67 81 85 67 81 85 67 81 85 67 81 90 72 86 90 72 86 90 72 86 90 72 86 90 72 86 90 72 86 90 72 86 89 73 86 96 82 95 95 83 95 95 83 95 95 83 95 95 83 95 95 83 95 95 83 95 95 83 95 79 67 79 79 67 79 79 67 79 79 67 79 79 67 79 79 67 79 79 67 79 76 68 79 60 58 71 57 59 71 57 59 71 57 59 71 57 59 71 57 59 71 57 59 71 57 59 71 47 49 61 47 49 61
81 94 129 81 94 129 81 94 129 81 94 129 81 94 128 67 77 112 67 78 110 67 78 110 67 78 110 67 78 110 67 78 110 67 78 110 67 78 110 55 66 98 55 66 98 55 66 98 55 66 98 55 66 98 55 66 98 55 66 98 55 66 96 58 65 94 58 65 93 58 65 93 58 65 93 58 65 93 58 65 93 58 65 93 58 65 93 57 64 92 57 64 92 57 64 92 57 64 92 57 64 92 57 64 92 57 64 92 57 64 90 60 65 87 60 65 85 60 65 85 60 65 85 60 65 85 60 65 85 60 65 85 60 65 85 57 62 82 57 62 82 57 62 82 57 62 82 57 62 82 57 62 82 57 62 82 57 62 81 60 61 79 60 62 77 60 62 77 60 62 77 60 62 77 60 62 77 60 62 77 60 62 77 58 60 75 58 60 75 58 60 75 58 60 75 58 60 75 58 60 75 58 60 75 61 59 73 62 53 70 67 54 71 69 56 73 72 59 76 76 63 80 79 66 83 81 68 85 83 70 87 84 71 88 82 69 86 80 67 84 77 64 81 73 60 77 70 57 74 68 55 72 66 53 70 67 53 68 67 53 68 67 53 68 67 53 68 67 53 68 67 53 68 67 53 68 67 53 68 62 48 63 62 48 63 62 48 63 62 48 63 62 48 63 62 48 63 62 48 63 62 48 63 65 48 64 65 48 64 65 48 64 65 48 64 65 48 64 65 48 64 65 48 64 65 48 64 68 51 67 68 51 67 68 51 67 68 51 67 68 51 67 68 51 67 68 51 67 68 51 67 70 52 66 70 52 66 70 52 66 70 52 66 70 52 66 70 52 66 70 52 66 70 52 66 72 54 68 72 54 68 72 54 68 72 54 68 72 54 68 72 54 68 72 54 68 72 54 68 76 56 68 76 56 68 76 56 68 76 56 68 76 56 68 76 56 68 76 56 68 76 56 68 72 52 64 72 52 64 72 52 64 72 52 64 72 52 64 72 52 64 72 52 64 74 50 64 84 53 68 85 53 68 86 52 68 85 53 68 86 52 68 85 53 68 86 52 68 85 53 68 86 52 68 85 53 68 86 52 68 85 53 68 86 52 68 85 53 68 86 52 68 84 53 68 80 57 73 77 59 73 77 59 73 77 59 73 77 59 73 77 59 73 77 59 73 77 59 73 87 69 83 87 69 83 87 69 83 87 69 83 87 69 83 87 69 83 87 69 83 86 70 83 91 77 90 90 78 90 90 78 90 90 78 90 90 78 90 90 78 90 90 78 90 90 78 90 94 82 94 94 82 94 94 82 94 94 82 94 94 82 94 94 82 94 94 82 94 91 83 94 73 71 84 70 72 84 70 72 84 70 72 84 70 72 84 70 72 84 70 72 84 70 72 84 49 51 63 49 51 63
81 97 131 82 96 133 81 97 131 82 96 133 82 96 131 66 80 115 66 80 115 66 80 115 66 80 115 66 80 115 66 80 115 66 80 115 66 80 115 52 66 101 52 66 101 52 66 101 52 66 101 52 66 101 52 66 101 52 66 101 53 66 100 53 67 96 55 66 94 55 66 96 55 66 94 55 66 96 55 66 94 55 66 96 55 66 94 54 65 95 54 65 93 54 65 95 54 65 93 54 65 95 54 65 93 54 65 95 54 65 93 56 66 91 58 65 91 58 65 91 58 65 91 58 65 91 58 65 91 58 65 91 58 65 91 55 62 88 55 62 88 55 62 88 55 62 88 55 62 88 55 62 88 55 62 88 55 63 86 56 62 84 56 63 82 57 62 82 56 63 82 57 62 82 56 63 82 57 62 82 56 63 82 53 58 78 52 59 78 53 58 78 52 59 78 53 58 78 52 59 78 53 58 78 55 57 78 58 55 76 63 55 76 65 57 78 68 60 81 72 64 85 75 67 88 77 69 90 79 71 92 80 72 93 78 70 91 76 68 89 73 65 86 69 61 82 66 58 79 64 56 77 62 54 75 63 54 73 63 54 73 65 53 73 63 54 73 65 53 73 63 54 73 65 53 73 63 54 73 60 48 68 58 49 68 60 48 68 58 49 68 60 48 68 58 49 68 60 48 68 60 48 68 63 48 67 65 48 67 65 48 67 65 48 67 65 48 67 65 48 67 65 48 67 65 48 67 68 51 70 68 51 70 68 51 70 68 51 70 68 51 70 68 51 70 68 51 70 68 51 70 69 52 70 67 53 70 67 53 70 67 53 70 67 53 70 67 53 70 67 53 70 67 53 70 69 55 72 69 55 72 69 55 72 69 55 72 69 55 72 69 55 72 69 55 72 71 54 70 76 55 72 77 54 70 77 54 70 77 54 70 77 54 70 77 54 70 77 54 70 77 54 70 71 48 64 71 48 64 71 48 64 71 48 64 71 48 64 71 48 64 71 48 64 74 47 64 83 50 69 84 50 67 84 50 67 84 50 67 84 50 67 84 50 67 84 50 67 84 50 67 84 50 67 84 50 67 84 50 67 84 50 67 84 50 67 84 50 67 84 50 67 82 51 67 74 51 67 71 53 67 71 53 67 71 53 67 71 53 67 71 53 67 71 53 67 71 53 67 84 66 80 84 66 80 84 66 80 84 66 80 84 66 80 84 66 80 84 66 80 84 66 80 83 67 80 81 67 80 81 67 80 81 67 80 81 67 80 81 67 80 81 67 80 81 67 80 105 91 104 105 91 104 105 91 104 105 91 104 105 91 104 105 91 104 105 91 104 105 91 104 87 76 90 85 77 90 87 76 92 85 77 90 87 76 92 85 77 90 87 76 92 85 77 90 60 49 65 58 50 63
85 108 142 92 112 149 94 117 151 99 119 156 101 121 158 90 109 151 90 109 152 90 109 152 90 109 152 90 109 152 90 109 152 90 109 152 90 109 152 65 84 127 65 84 127 65 84 127 65 84 127 65 84 127 65 84 127 65 84 127 65 84 124 57 77 112 57 78 109 57 77 110 57 78 109 57 77 110 57 78 109 57 77 110 57 78 109 57 77 110 57 78 109 57 77 110 57 78 109 57 77 110 57 78 109 57 77 110 58 77 109 49 65 98 49 65 98 49 65 98 49 65 98 49 65 98 49 65 98 49 65 98 49 65 98 52 68 101 52 68 101 52 68 101 52 68 101 52 68 101 52 68 101 52 68 101 53 68 101 51 66 97 51 66 97 52 65 97 51 66 97 52 65 97 51 66 97 52 65 97 51 66 97 48 61 93 47 62 93 48 61 93 47 62 93 48 61 93 47 62 93 48 61 93 50 61 91 51 58 87 52 57 86 52 57 86 52 57 86 52 57 86 52 57 86 52 57 86 52 57 86 53 58 87 53 58 87 53 58 87 53 58 87 53 58 87 53 58 87 53 58 87 54 58 87 55 55 83 55 55 81 57 54 81 55 55 81 57 54 81 55 55 81 57 54 81 55 55 81 56 53 80 54 54 80 56 53 80 54 54 80 56 53 80 54 54 80 56 53 80 58 52 80 66 51 80 70 49 80 70 49 80 70 49 80 70 49 80 70 49 80 70 49 80 70 49 80 73 52 83 73 52 83 73 52 83 73 52 83 73 52 83 73 52 83 73 52 83 70 54 81 68 56 80 66 57 78 66 57 78 66 57 78 66 57 78 66 57 78 66 57 78 66 57 78 66 57 78 66 57 78 66 57 78 66 57 78 66 57 78 66 57 78 66 57 78 69 55 78 78 54 76 82 52 76 82 52 76 82 52 76 82 52 76 82 52 76 82 52 76 82 52 76 83 53 77 83 53 77 83 53 77 83 53 77 83 53 77 83 53 77 83 53 77 85 53 76 85 51 75 86 51 75 86 51 75 86 51 75 86 51 75 86 51 75 86 51 75 86 51 75 86 51 75 86 51 75 86 51 75 86 51 75 86 51 75 86 51 75 86 51 75 84 52 73 77 52 71 75 54 71 75 54 71 75 54 71 75 54 71 75 54 71 75 54 71 75 54 71 75 54 71 75 54 71 75 54 71 75 54 71 75 54 71 75 54 71 75 54 71 75 54 69 75 54 69 75 55 67 75 55 67 75 55 67 75 55 67 75 55 67 75 55 67 75 55 67 78 58 70 78 58 70 78 58 70 78 58 70 78 58 70 78 58 70 78 58 70 79 56 72 105 76 94 107 76 94 108 75 96 107 76 94 108 75 96 107 76 94 108 75 96 107 76 94 108 75 96 107 76 94
81 105 139 85 109 145 89 113 147 92 116 152 93 117 155 87 110 152 87 110 154 87 109 156 87 110 154 87 109 156 87 110 154 87 109 156 87 110 154 69 91 138 69 92 136 69 91 138 69 92 136 69 91 138 69 92 136 69 91 138 69 92 134 56 80 116 56 80 114 56 80 114 56 80 114 56 80 114 56 80 114 56 80 114 56 80 114 51 75 109 51 75 109 51 75 109 51 75 109 51 75 109 51 75 109 51 75 109 51 75 109 48 68 105 48 68 105 48 68 105 48 68 105 48 68 105 48 68 105 48 68 105 48 68 105 49 69 106 49 69 106 49 69 106 49 69 106 49 69 106 49 69 106 49 69 106 49 69 106 48 66 102 48 66 102 48 66 102 48 66 102 48 66 102 48 66 102 48 66 102 48 66 102 44 62 98 44 62 98 44 62 98 44 62 98 44 62 98 44 62 98 44 62 98 46 62 96 46 59 93 48 59 91 48 59 91 48 59 91 48 59 91 48 59 91 48 59 91 48 59 91 49 60 92 49 60 92 49 60 92 49 60 92 49 60 92 49 60 92 49 60 92 50 59 90 51 56 88 52 55 86 52 55 86 52 55 86 52 55 86 52 55 86 52 55 86 52 55 86 51 54 85 51 54 85 51 54 85 51 54 85 51 54 85 51 54 85 51 54 85 56 53 84 66 50 86 69 49 84 70 48 84 69 49 84 70 48 84 69 49 84 70 48 84 69 49 84 73 51 87 72 52 87 73 51 87 72 52 87 73 51 87 72 52 87 73 51 87 70 53 85 66 56 83 63 58 81 63 58 81 63 58 81 63 58 81 63 58 81 63 58 81 63 58 81 63 58 81 63 58 81 63 58 81 63 58 81 63 58 81 63 58 81 63 58 81 68 56 80 78 54 80 82 52 78 84 51 78 82 52 78 84 51 78 82 52 78 84 51 78 82 52 78 85 52 79 83 53 79 85 52 79 83 53 79 85 52 79 83 53 79 85 52 79 85 52 79 85 51 76 85 51 76 86 50 76 85 51 76 86 50 76 85 51 76 86 50 76 85 51 76 86 50 76 85 51 76 86 50 76 85 51 76 86 50 76 85 51 76 86 50 76 84 52 75 77 52 73 75 54 71 75 54 71 75 54 71 75 54 71 75 54 71 75 54 71 75 54 71 75 54 71 75 54 71 75 54 71 75 54 71 75 54 71 75 54 71 75 54 71 75 54 69 76 53 69 76 54 67 76 54 67 76 54 67 76 54 67 76 54 67 76 54 67 76 54 67 79 57 70 79 57 70 79 57 70 79 57 70 79 57 70 79 57 70 79 57 70 82 55 70 104 66 87 107 65 87 108 64 87 107 65 87 108 64 87 107 65 87 108 64 87 107 65 87 113 69 92 112 70 92
79 104 135 82 106 140 84 109 140 86 110 144 87 111 147 87 110 151 87 110 152 87 110 154 87 110 152 87 110 154 87 110 152 87 110 154 87 110 152 79 102 146 79 102 144 79 102 146 79 102 144 79 102 146 79 102 144 79 102 146 79 102 143 61 85 121 61 85 119 61 85 119 61 85 119 61 85 119 61 85 119 61 85 119 61 85 119 48 72 106 48 72 106 48 72 106 48 72 106 48 72 106 48 72 106 48 72 106 48 72 106 50 70 107 50 70 107 50 70 107 50 70 107 50 70 107 50 70 107 50 70 107 50 70 107 49 69 106 49 69 106 49 69 106 49 69 106 49 69 106 49 69 106 49 69 106 49 69 106 48 66 102 48 66 102 48 66 102 48 66 102 48 66 102 48 66 102 48 66 102 48 66 102 44 62 98 44 62 98 44 62 98 44 62 98 44 62 98 44 62 98 44 62 98 46 62 96 46 59 93 48 59 91 48 59 91 48 59 91 48 59 91 48 59 91 48 59 91 48 59 91 49 60 92 49 60 92 49 60 92 49 60 92 49 60 92 49 60 92 49 60 92 50 59 90 51 56 88 52 55 86 52 55 86 52 55 86 52 55 86 52 55 86 52 55 86 52 55 86 51 54 85 51 54 85 51 54 85 51 54 85 51 54 85 51 54 85 51 54 85 56 53 84 65 51 86 67 50 84 69 49 84 67 50 84 69 49 84 67 50 84 69 49 84 67 50 84 72 52 87 70 53 87 72 52 87 70 53 87 72 52 87 70 53 87 72 52 87 69 54 85 65 56 83 63 58 81 63 58 81 63 58 81 63 58 81 63 58 81 63 58 81 63 58 81 63 58 81 63 58 81 63 58 81 63 58 81 63 58 81 63 58 81 63 58 81 68 56 80 78 54 80 81 53 78 82 52 78 81 53 78 82 52 78 81 53 78 82 52 78 81 53 78 83 53 79 82 54 79 83 53 79 82 54 79 83 53 79 82 54 79 83 53 79 83 53 79 84 52 76 84 52 76 85 51 76 84 52 76 85 51 76 84 52 76 85 51 76 84 52 76 85 51 76 84 52 76 85 51 76 84 52 76 85 51 76 84 52 76 85 51 76 82 53 75 76 53 73 75 54 71 75 54 71 75 54 71 75 54 71 75 54 71 75 54 71 75 54 71 75 54 71 75 54 71 75 54 71 75 54 71 75 54 71 75 54 71 75 54 71 75 54 69 76 53 69 76 54 67 76 54 67 76 54 67 76 54 67 76 54 67 76 54 67 76 54 67 79 57 70 79 57 70 79 57 70 79 57 70 79 57 70 79 57 70 79 57 70 82 55 70 92 57 77 95 56 77 97 55 77 95 56 77 97 55 77 95 56 77 97 55 77 95 56 77 107 65 87 105 66 87
80 105 135 81 106 137 82 107 137 83 108 139 83 107 141 87 111 149 87 110 151 87 110 152 87 110 151 87 110 152 87 110 151 87 110 152 87 110 151 88 111 153 88 111 152 88 111 153 88 111 152 88 111 153 88 111 152 88 111 153 88 111 152 68 92 128 68 92 126 68 92 126 68 92 126 68 92 126 68 92 126 68 92 126 68 92 126 49 73 107 49 73 107 49 73 107 49 73 107 49 73 107 49 73 107 49 73 107 49 73 107 53 73 110 53 73 110 53 73 110 53 73 110 53 73 110 53 73 110 53 73 110 53 73 110 49 69 106 49 69 106 49 69 106 49 69 106 49 69 106 49 69 106 49 69 106 49 69 106 48 66 102 48 66 102 48 66 102 48 66 102 48 66 102 48 66 102 48 66 102 48 66 102 44 62 98 44 62 98 44 62 98 44 62 98 44 62 98 44 62 98 44 62 98 46 62 96 46 59 93 48 59 91 48 59 91 48 59 91 48 59 91 48 59 91 48 59 91 48 59 91 49 60 92 49 60 92 49 60 92 49 60 92 49 60 92 49 60 92 49 60 92 50 59 90 51 56 88 52 55 86 52 55 86 52 55 86 52 55 86 52 55 86 52 55 86 52 55 86 51 54 85 51 54 85 51 54 85 51 54 85 51 54 85 51 54 85 51 54 85 54 53 84 63 52 86 66 51 84 67 50 84 66 51 84 67 50 84 66 51 84 67 50 84 66 51 84 70 53 87 69 54 87 70 53 87 69 54 87 70 53 87 69 54 87 70 53 87 68 55 85 65 56 83 63 58 81 63 58 81 63 58 81 63 58 81 63 58 81 63 58 81 63 58 81 63 58 81 63 58 81 63 58 81 63 58 81 63 58 81 63 58 81 63 58 81 68 56 80 77 54 80 79 53 78 81 53 78 79 53 78 81 53 78 79 53 78 81 53 78 79 53 78 82 54 79 80 54 79 82 54 79 80 54 79 82 54 79 80 54 79 82 54 79 82 54 79 82 52 76 82 52 76 84 52 76 82 52 76 84 52 76 82 52 76 84 52 76 82 52 76 84 52 76 82 52 76 84 52 76 82 52 76 84 52 76 82 52 76 84 52 76 81 53 75 76 53 73 75 54 71 75 54 71 75 54 71 75 54 71 75 54 71 75 54 71 75 54 71 75 54 71 75 54 71 75 54 71 75 54 71 75 54 71 75 54 71 75 54 71 75 54 69 76 53 69 76 54 67 76 54 67 76 54 67 76 54 67 76 54 67 76 54 67 76 54 67 79 57 70 79 57 70 79 57 70 79 57 70 79 57 70 79 57 70 79 57 70 82 55 70 83 48 68 85 47 68 86 47 68 85 47 68 86 47 68 85 47 68 86 47 68 85 47 68 98 59 80 97 59 80
88 114 141 87 112 142 86 112 139 86 111 141 85 110 141 87 111 147 87 111 149 87 110 151 87 111 149 87 110 151 87 111 149 87 110 151 87 111 149 91 114 155 91 115 153 91 114 155 91 115 153 91 114 155 91 115 153 91 114 155 91 115 153 74 98 134 74 98 132 74 98 132 74 98 132 74 98 132 74 98 132 74 98 132 74 98 132 56 80 114 56 80 114 56 80 114 56 80 114 56 80 114 56 80 114 56 80 114 56 80 114 57 77 114 57 77 114 57 77 114 57 77 114 57 77 114 57 77 114 57 77 114 57 77 114 49 69 106 49 69 106 49 69 106 49 69 106 49 69 106 49 69 106 49 69 106 49 69 106 48 66 102 48 66 102 48 66 102 48 66 102 48 66 102 48 66 102 48 66 102 48 66 102 44 62 98 44 62 98 44 62 98 44 62 98 44 62 98 44 62 98 44 62 98 46 62 96 46 59 93 48 59 91 48 59 91 48 59 91 48 59 91 48 59 91 48 59 91 48 59 91 49 60 92 49 60 92 49 60 92 49 60 92 49 60 92 49 60 92 49 60 92 50 59 90 51 56 88 52 55 86 52 55 86 52 55 86 52 55 86 52 55 86 52 55 86 52 55 86 51 54 85 51 54 85 51 54 85 51 54 85 51 54 85 51 54 85 51 54 85 54 53 84 62 52 86 65 51 84 66 51 84 65 51 84 66 51 84 65 51 84 66 51 84 65 51 84 69 54 87 68 54 87 69 54 87 68 54 87 69 54 87 68 54 87 69 54 87 68 55 85 65 56 83 63 58 81 63 58 81 63 58 81 63 58 81 63 58 81 63 58 81 63 58 81 63 58 81 63 58 81 63 58 81 63 58 81 63 58 81 63 58 81 63 58 81 66 56 80 75 55 80 78 54 78 79 53 78 78 54 78 79 53 78 78 54 78 79 53 78 78 54 78 80 54 79 79 55 79 80 54 79 79 55 79 80 54 79 79 55 79 80 54 79 80 54 79 81 53 76 81 53 76 82 52 76 81 53 76 82 52 76 81 53 76 82 52 76 81 53 76 82 52 76 81 53 76 82 52 76 81 53 76 82 52 76 81 53 76 82 52 76 81 53 75 76 53 73 75 54 71 75 54 71 75 54 71 75 54 71 75 54 71 75 54 71 75 54 71 75 54 71 75 54 71 75 54 71 75 54 71 75 54 71 75 54 71 75 54 71 75 54 69 76 53 69 76 54 67 76 54 67 76 54 67 76 54 67 76 54 67 76 54 67 76 54 67 79 57 70 79 57 70 79 57 70 79 57 70 79 57 70 79 57 70 79 57 70 82 55 70 79 46 65 80 45 65 82 44 65 80 45 65 82 44 65 80 45 65 82 44 65 80 45 65 91 53 74 89 54 74
101 127 152 98 124 149 96 122 147 94 120 145 93 119 146 87 111 145 87 111 147 87 111 147 87 111 147 87 111 147 87 111 147 87 111 147 87 111 147 89 113 149 89 113 149 89 113 149 89 113 149 89 113 149 89 113 149 89 113 149 89 113 149 81 105 139 81 105 139 81 105 139 81 105 139 81 105 139 81 105 139 81 105 139 81 105 139 68 92 126 68 92 126 68 92 126 68 92 126 68 92 126 68 92 126 68 92 126 68 92 126 60 80 117 60 80 117 60 80 117 60 80 117 60 80 117 60 80 117 60 80 117 60 80 117 49 69 106 49 69 106 49 69 106 49 69 106 49 69 106 49 69 106 49 69 106 49 69 106 48 66 102 48 66 102 48 66 102 48 66 102 48 66 102 48 66 102 48 66 102 48 66 102 44 62 98 44 62 98 44 62 98 44 62 98 44 62 98 44 62 98 44 62 98 46 62 96 46 59 93 48 59 91 48 59 91 48 59 91 48 59 91 48 59 91 48 59 91 48 59 91 49 60 92 49 60 92 49 60 92 49 60 92 49 60 92 49 60 92 49 60 92 50 59 90 51 56 88 52 55 86 52 55 86 52 55 86 52 55 86 52 55 86 52 55 86 52 55 86 51 54 85 51 54 85 51 54 85 51 54 85 51 54 85 51 54 85 51 54 85 54 53 84 60 53 86 63 52 84 63 52 84 63 52 84 63 52 84 63 52 84 63 52 84 63 52 84 66 55 87 66 55 87 66 55 87 66 55 87 66 55 87 66 55 87 66 55 87 66 55 85 65 56 83 63 58 81 63 58 81 63 58 81 63 58 81 63 58 81 63 58 81 63 58 81 63 58 81 63 58 81 63 58 81 63 58 81 63 58 81 63 58 81 63 58 81 66 56 80 74 56 80 77 55 78 77 55 78 77 55 78 77 55 78 77 55 78 77 55 78 77 55 78 78 56 79 78 56 79 78 56 79 78 56 79 78 56 79 78 56 79 78 56 79 79 55 79 79 54 76 79 54 76 79 54 76 79 54 76 79 54 76 79 54 76 79 54 76 79 54 76 79 54 76 79 54 76 79 54 76 79 54 76 79 54 76 79 54 76 79 54 76 79 54 75 76 53 73 75 54 71 75 54 71 75 54 71 75 54 71 75 54 71 75 54 71 75 54 71 75 54 71 75 54 71 75 54 71 75 54 71 75 54 71 75 54 71 75 54 71 75 54 69 76 53 69 76 54 67 76 54 67 76 54 67 76 54 67 76 54 67 76 54 67 76 54 67 79 57 70 79 57 70 79 57 70 79 57 70 79 57 70 79 57 70 79 57 70 80 56 70 80 49 67 81 48 67 81 48 67 81 48 67 81 48 67 81 48 67 81 48 67 81 48 67 81 48 67 81 48 67
115 141 164 111 137 160 107 133 156 104 130 153 103 129 154 87 112 143 87 111 145 87 111 145 87 111 145 87 111 145 87 111 145 87 111 145 87 111 145 83 107 141 83 107 141 83 107 141 83 107 141 83 107 141 83 107 141 83 107 141 83 107 141 86 110 144 86 110 144 86 110 144 86 110 144 86 110 144 86 110 144 86 110 144 86 110 144 81 105 139 81 105 139 81 105 139 81 105 139 81 105 139 81 105 139 81 105 139 81 105 139 62 82 119 62 82 119 62 82 119 62 82 119 62 82 119 62 82 119 62 82 119 62 82 119 49 69 106 49 69 106 49 69 106 49 69 106 49 69 106 49 69 106 49 69 106 49 69 106 48 66 102 48 66 102 48 66 102 48 66 102 48 66 102 48 66 102 48 66 102 48 66 102 44 62 98 44 62 98 44 62 98 44 62 98 44 62 98 44 62 98 44 62 98 46 62 96 46 59 93 48 59 91 48 59 91 48 59 91 48 59 91 48 59 91 48 59 91 48 59 91 49 60 92 49 60 92 49 60 92 49 60 92 49 60 92 49 60 92 49 60 92 50 59 90 51 56 88 52 55 86 52 55 86 52 55 86 52 55 86 52 55 86 52 55 86 52 55 86 51 54 85 51 54 85 51 54 85 51 54 85 51 54 85 51 54 85 51 54 85 53 54 84 59 54 86 62 53 84 62 53 84 62 53 84 62 53 84 62 53 84 62 53 84 62 53 84 65 56 87 65 56 87 65 56 87 65 56 87 65 56 87 65 56 87 65 56 87 65 56 85 63 57 83 63 58 81 63 58 81 63 58 81 63 58 81 63 58 81 63 58 81 63 58 81 63 58 81 63 58 81 63 58 81 63 58 81 63 58 81 63 58 81 63 58 81 66 56 80 72 57 80 75 56 78 75 56 78 75 56 78 75 56 78 75 56 78 75 56 78 75 56 78 76 57 79 76 57 79 76 57 79 76 57 79 76 57 79 76 57 79 76 57 79 76 57 79 77 55 76 78 54 76 78 54 76 78 54 76 78 54 76 78 54 76 78 54 76 78 54 76 78 54 76 78 54 76 78 54 76 78 54 76 78 54 76 78 54 76 78 54 76 78 55 75 75 54 73 75 54 71 75 54 71 75 54 71 75 54 71 75 54 71 75 54 71 75 54 71 75 54 71 75 54 71 75 54 71 75 54 71 75 54 71 75 54 71 75 54 71 75 54 69 76 53 69 76 54 67 76 54 67 76 54 67 76 54 67 76 54 67 76 54 67 76 54 67 79 57 70 79 57 70 79 57 70 79 57 70 79 57 70 79 57 70 79 57 70 80 56 70 84 55 73 86 55 73 86 55 73 86 55 73 86 55 73 86 55 73 86 55 73 86 55 73 75 44 62 75 44 62
123 150 169 119 146 165 114 141 160 111 138 157 109 136 157 87 113 140 87 112 142 87 112 142 87 112 142 87 112 142 87 112 142 87 112 142 87 112 142 79 104 134 79 104 134 79 104 134 79 104 134 79 104 134 79 104 134 79 104 134 79 104 134 88 112 146 88 112 146 88 112 146 88 112 146 88 112 146 88 112 146 88 112 146 88 112 146 89 113 147 89 113 147 89 113 147 89 113 147 89 113 147 89 113 147 89 113 147 89 113 147 64 84 121 64 84 121 64 84 121 64 84 121 64 84 121 64 84 121 64 84 121 64 84 121 49 69 106 49 69 106 49 69 106 49 69 106 49 69 106 49 69 106 49 69 106 49 69 106 48 66 102 48 66 102 48 66 102 48 66 102 48 66 102 48 66 102 48 66 102 48 66 102 44 62 98 44 62 98 44 62 98 44 62 98 44 62 98 44 62 98 44 62 98 46 62 96 46 59 93 48 59 91 48 59 91 48 59 91 48 59 91 48 59 91 48 59 91 48 59 91 49 60 92 49 60 92 49 60 92 49 60 92 49 60 92 49 60 92 49 60 92 50 59 90 51 56 88 52 55 86 52 55 86 52 55 86 52 55 86 52 55 86 52 55 86 52 55 86 51 54 85 51 54 85 51 54 85 51 54 85 51 54 85 51 54 85 51 54 85 53 54 84 58 55 86 59 54 84 59 54 84 59 54 84 59 54 84 59 54 84 59 54 84 59 54 84 62 57 87 62 57 87 62 57 87 62 57 87 62 57 87 62 57 87 62 57 87 62 58 85 63 57 83 63 58 81 63 58 81 63 58 81 63 58 81 63 58 81 63 58 81 63 58 81 63 58 81 63 58 81 63 58 81 63 58 81 63 58 81 63 58 81 63 58 81 65 57 80 71 57 80 72 57 78 72 57 78 72 57 78 72 57 78 72 57 78 72 57 78 72 57 78 73 58 79 73 58 79 73 58 79 73 58 79 73 58 79 73 58 79 73 58 79 73 58 79 75 56 76 75 56 76 75 56 76 75 56 76 75 56 76 75 56 76 75 56 76 75 56 76 75 56 76 75 56 76 75 56 76 75 56 76 75 56 76 75 56 76 75 56 76 75 56 75 75 54 73 75 54 71 75 54 71 75 54 71 75 54 71 75 54 71 75 54 71 75 54 71 75 54 71 75 54 71 75 54 71 75 54 71 75 54 71 75 54 71 75 54 71 75 54 69 76 53 69 76 54 67 76 54 67 76 54 67 76 54 67 76 54 67 76 54 67 76 54 67 79 57 70 79 57 70 79 57 70 79 57 70 79 57 70 79 57 70 79 57 70 79 57 70 87 60 77 87 60 77 87 60 77 87 60 77 87 60 77 87 60 77 87 60 77 87 60 77 70 43 60 70 43 60
