P3
172 37
255
82 67 72 75 60 65 69 54 59 66 51 56 45 30 35 42 27 32 41 26 31 43 28 33 52 37 42 65 50 55 80 65 70 87 74 81 85 75 84 85 77 88 87 79 90 90 82 93 94 86 97 97 89 100 99 91 102 101 93 104 107 99 110 109 101 112 111 103 114 114 106 117 118 110 121 121 113 124 123 115 126 125 118 126 152 140 150 151 140 148 148 137 145 144 133 141 140 129 137 136 125 133 133 122 130 132 121 129 139 128 136 139 128 136 139 128 136 139 128 136 139 128 136 139 128 136 139 128 136 139 128 136 149 138 146 147 136 144 140 129 137 126 115 123 104 93 101 79 68 76 56 45 53 42 31 39 28 17 25 28 17 25 28 17 25 28 17 25 28 17 25 28 17 25 28 17 25 27 17 25 10 5 12 8 5 12 8 5 12 8 5 12 8 5 12 8 5 12 8 5 12 8 5 12 7 4 11 7 4 11 7 4 11 7 4 11 7 4 11 7 4 11 7 4 11 6 5 11 10 9 15 9 10 15 9 10 15 9 10 15 9 10 15 9 10 15 9 10 15 9 10 15 10 11 16 10 11 16 10 11 16 10 11 16 10 11 16 10 11 16 10 11 16 10 11 16 9 13 16 9 13 16 9 13 16 9 13 16 9 13 16 9 13 16 9 13 16 9 13 16 5 9 12 5 9 12 5 9 12 5 9 12 5 9 12 5 9 12 5 9 12 5 9 12 4 10 10 4 10 10 4 10 10 4 10 10 4 10 10 4 10 10 4 10 10 4 10 10 6 12 12 8 14 14 13 19 19 20 26 26 26 32 32 33 39 39 38 44 44 40 46 44 48 54 50 52 59 52 59 66 59 69 76 69 79 86 79 89 96 89 96 103 96 100 107 100 96 103 96 102 109 102 110 117 110 115 122 115 115 122 115 110 117 110 102 109 102 97 102 96 68 68 66 62 61 59 52 51 49 43 42 40 40 39 37 42 41 39 48 47 45 52 51 49 42 41 39 42 41 39 42 41 39 42 41 39 42 41 39 42 41 39 42 41 39 42 41 39 39 37 38 39 37 38 39 37 38 39 37 38 39 37 38 39 37 38 39 37 38 39 37 38 42 40 41 42 40 41 42 40 41 42 40 41 42 40 41 42 40 41 42 40 41 42 40 41
79 63 73 71 55 65 65 49 59 62 46 56 39 23 33 38 22 32 37 21 31 42 26 36 53 37 47 69 53 63 84 68 78 92 79 89 90 78 90 91 80 94 94 82 96 96 85 99 101 89 103 103 92 106 106 94 108 107 96 110 109 97 111 109 98 112 112 100 114 115 104 118 119 107 121 121 110 124 125 113 127 126 114 126 154 142 152 153 140 150 150 137 147 145 132 142 141 128 138 136 123 133 133 120 130 131 118 128 138 125 135 138 125 135 138 125 135 138 125 135 138 125 135 138 125 135 138 125 135 137 125 135 147 137 146 145 135 143 137 127 136 122 112 120 100 90 99 74 64 72 51 41 50 37 27 35 25 15 24 25 15 23 25 15 24 25 15 23 25 15 24 25 15 23 25 15 24 23 16 24 6 3 10 5 4 10 5 4 10 5 4 10 5 4 10 5 4 10 5 4 10 5 4 10 4 3 9 4 3 9 4 3 9 4 3 9 4 3 9 4 3 9 4 3 9 3 4 9 9 10 15 7 10 15 7 10 17 7 10 15 7 10 17 7 10 15 7 10 17 7 10 15 8 11 18 8 11 16 8 11 18 8 11 16 8 11 18 8 11 16 8 11 18 8 11 16 9 13 16 9 13 16 9 13 16 9 13 16 9 13 16 9 13 16 9 13 16 9 13 16 5 9 12 5 9 12 5 9 12 5 9 12 5 9 12 5 9 12 5 9 12 5 9 12 4 10 10 4 10 10 4 10 10 4 10 10 4 10 10 4 10 10 4 10 10 4 10 10 6 12 12 8 14 14 13 19 19 20 26 26 26 32 32 33 39 39 38 44 44 40 46 44 48 54 50 52 59 52 59 66 59 69 76 69 79 86 79 89 96 89 96 103 96 100 107 100 95 102 95 100 107 100 108 115 108 114 121 114 114 121 114 108 115 108 100 107 100 96 101 95 68 68 66 62 61 59 52 51 49 43 42 40 40 39 37 42 41 39 48 47 45 52 51 49 42 41 39 42 41 39 42 41 39 42 41 39 42 41 39 42 41 39 42 41 39 42 41 39 39 37 38 39 37 38 39 37 38 39 37 38 39 37 38 39 37 38 39 37 38 39 37 38 42 40 41 42 40 41 42 40 41 42 40 41 42 40 41 42 40 41 42 40 41 42 40 41
50 36 53 48 34 51 46 32 49 45 31 48 52 38 55 55 41 58 61 47 64 68 54 71 76 62 79 84 70 87 90 76 93 95 78 96 122 105 123 122 105 123 123 104 123 122 105 123 123 104 123 122 105 123 123 104 123 122 105 123 125 106 125 124 107 125 125 106 125 124 107 125 125 106 125 124 107 125 125 106 125 124 107 125 135 118 134 135 118 134 135 118 134 135 118 134 135 118 134 135 118 134 135 118 134 135 118 134 135 118 134 135 118 134 135 118 134 135 118 134 135 118 134 135 118 134 135 118 134 133 119 134 133 125 136 123 120 127 110 107 116 90 87 94 64 61 70 37 34 41 15 12 21 2 0 6 9 6 15 9 6 13 9 6 15 9 6 13 9 6 15 9 6 13 9 6 15 8 7 15 5 8 15 4 9 15 4 9 15 4 9 15 4 9 15 4 9 15 4 9 15 4 9 15 7 12 18 7 12 18 7 12 18 7 12 18 7 12 18 7 12 18 7 12 18 7 12 18 4 9 15 4 9 15 4 8 17 4 9 15 4 8 17 4 9 15 4 8 17 4 9 15 8 12 21 8 13 19 8 12 21 8 13 19 8 12 21 8 13 19 8 12 21 8 13 19 2 7 10 4 10 10 6 12 12 9 15 15 13 19 19 16 22 22 18 24 24 20 26 26 10 16 16 8 14 14 6 12 12 3 9 9 0 5 5 0 2 2 0 2 2 0 2 2 0 2 2 0 2 2 0 3 3 0 6 6 4 10 10 7 13 13 9 15 15 11 17 17 19 25 25 21 27 27 23 29 29 26 32 32 30 36 36 33 39 39 35 41 41 37 43 41 57 62 58 59 64 58 61 66 60 64 69 63 68 73 67 71 76 70 73 78 72 75 80 74 100 105 99 100 105 99 100 105 99 100 105 99 100 105 99 100 105 99 100 105 99 102 104 99 77 78 73 70 69 65 57 56 52 45 44 40 38 37 33 37 36 32 40 39 35 43 42 38 41 40 36 41 40 36 41 40 36 41 40 36 41 40 36 41 40 36 41 40 36 41 40 38 39 37 38 39 37 38 39 37 38 39 37 38 39 37 38 39 37 38 39 37 38 39 37 38 38 36 37 38 36 37 38 36 37 38 36 37 38 36 37 38 36 37 38 36 37 38 36 37
57 42 63 58 43 64 59 44 65 59 44 65 63 48 69 66 51 72 71 56 77 78 63 84 86 71 92 93 78 99 98 83 104 103 85 107 123 104 124 125 103 124 125 103 124 125 103 124 125 103 124 125 103 124 125 103 124 125 103 124 127 105 126 127 105 126 127 105 126 127 105 126 127 105 126 127 105 126 127 105 126 127 105 126 134 115 134 134 115 134 134 115 134 134 115 134 134 115 134 134 115 134 134 115 134 134 115 134 134 115 134 134 115 134 134 115 134 134 115 134 134 115 134 134 115 134 134 115 134 131 117 132 129 123 135 119 118 126 104 103 111 83 82 90 59 58 66 34 33 41 14 13 21 2 1 9 8 7 15 8 7 15 8 7 15 8 7 15 8 7 15 8 7 15 8 7 15 7 7 15 4 9 15 2 9 15 2 9 15 2 9 15 2 9 15 2 9 15 2 9 15 2 9 15 5 12 18 5 12 18 5 12 18 5 12 18 5 12 18 5 12 18 5 12 18 5 12 18 2 9 17 2 9 17 2 9 17 2 9 17 2 9 17 2 9 17 2 9 17 2 9 17 6 13 21 6 13 21 6 13 21 6 13 21 6 13 21 6 13 21 6 13 21 6 13 19 2 7 10 4 10 10 6 12 12 9 15 15 13 19 19 16 22 22 18 24 24 20 26 26 10 16 16 8 14 14 6 12 12 3 9 9 0 5 5 0 2 2 0 2 2 0 2 2 0 2 2 0 2 2 0 3 3 0 6 6 4 10 10 7 13 13 9 15 15 11 17 17 19 25 25 21 27 27 23 29 29 26 32 32 30 36 36 33 39 39 35 41 41 37 43 41 57 62 58 59 64 58 61 66 60 64 69 63 68 73 67 71 76 70 73 78 72 75 80 74 98 103 97 98 103 97 98 103 97 98 103 97 98 103 97 98 103 97 98 103 97 100 102 97 77 78 73 70 69 65 57 56 52 45 44 40 38 37 33 37 36 32 40 39 35 43 42 38 41 40 36 41 40 36 41 40 36 41 40 36 41 40 36 41 40 36 41 40 36 41 40 36 39 37 38 39 37 38 39 37 38 39 37 38 39 37 38 39 37 38 39 37 38 39 37 38 38 36 37 38 36 37 38 36 37 38 36 37 38 36 37 38 36 37 38 36 37 38 36 37
69 54 75 75 60 81 79 64 85 81 66 87 82 67 88 84 69 90 88 73 94 94 79 100 100 85 106 106 91 112 110 95 116 115 97 119 123 104 124 125 103 124 125 103 124 125 103 124 125 103 124 125 103 124 125 103 124 125 103 124 127 105 126 127 105 126 127 105 126 127 105 126 127 105 126 127 105 126 127 105 126 127 105 126 132 113 132 132 113 132 132 113 132 132 113 132 132 113 132 132 113 132 132 113 132 132 113 132 132 113 132 132 113 132 132 113 132 132 113 132 132 113 132 132 113 132 132 113 132 129 115 130 126 120 132 113 112 120 96 95 103 74 73 81 50 49 57 29 28 36 13 12 20 5 4 12 8 7 15 8 7 15 8 7 15 8 7 15 8 7 15 8 7 15 8 7 15 7 7 15 4 9 15 2 9 15 2 9 15 2 9 15 2 9 15 2 9 15 2 9 15 2 9 15 5 12 18 5 12 18 5 12 18 5 12 18 5 12 18 5 12 18 5 12 18 5 12 18 2 9 17 2 9 17 2 9 17 2 9 17 2 9 17 2 9 17 2 9 17 2 9 17 6 13 21 6 13 21 6 13 21 6 13 21 6 13 21 6 13 21 6 13 21 6 13 19 2 7 10 4 10 10 6 12 12 9 15 15 13 19 19 16 22 22 18 24 24 20 26 26 10 16 16 8 14 14 6 12 12 3 9 9 0 5 5 0 2 2 0 2 2 0 2 2 0 2 2 0 2 2 0 3 3 0 6 6 4 10 10 7 13 13 9 15 15 11 17 17 19 25 25 21 27 27 23 29 29 26 32 32 30 36 36 33 39 39 35 41 41 37 43 41 57 62 58 59 64 58 61 66 60 64 69 63 68 73 67 71 76 70 73 78 72 75 80 74 96 101 95 96 101 95 96 101 95 96 101 95 96 101 95 96 101 95 96 101 95 98 100 95 77 78 73 70 69 65 57 56 52 45 44 40 38 37 33 37 36 32 40 39 35 43 42 38 41 40 36 41 40 36 41 40 36 41 40 36 41 40 36 41 40 36 41 40 36 41 40 36 39 37 38 39 37 38 39 37 38 39 37 38 39 37 38 39 37 38 39 37 38 39 37 38 38 36 37 38 36 37 38 36 37 38 36 37 38 36 37 38 36 37 38 36 37 38 36 37
84 69 90 93 78 99 99 84 105 103 88 109 101 86 107 103 88 109 106 91 112 110 95 116 115 100 121 119 104 125 122 107 128 126 108 130 123 104 124 125 103 124 125 103 124 125 103 124 125 103 124 125 103 124 125 103 124 125 103 124 127 105 126 127 105 126 127 105 126 127 105 126 127 105 126 127 105 126 127 105 126 127 105 126 129 110 129 129 110 129 129 110 129 129 110 129 129 110 129 129 110 129 129 110 129 129 110 129 129 110 129 129 110 129 129 110 129 129 110 129 129 110 129 129 110 129 129 110 129 126 112 127 120 114 126 105 104 112 85 84 92 61 60 68 39 38 46 23 22 30 13 12 20 9 8 16 8 7 15 8 7 15 8 7 15 8 7 15 8 7 15 8 7 15 8 7 15 7 7 15 4 9 15 2 9 15 2 9 15 2 9 15 2 9 15 2 9 15 2 9 15 2 9 15 5 12 18 5 12 18 5 12 18 5 12 18 5 12 18 5 12 18 5 12 18 5 12 18 2 9 17 2 9 17 2 9 17 2 9 17 2 9 17 2 9 17 2 9 17 2 9 17 6 13 21 6 13 21 6 13 21 6 13 21 6 13 21 6 13 21 6 13 21 6 13 19 2 7 10 4 10 10 6 12 12 9 15 15 13 19 19 16 22 22 18 24 24 20 26 26 10 16 16 8 14 14 6 12 12 3 9 9 0 5 5 0 2 2 0 2 2 0 2 2 0 2 2 0 2 2 0 3 3 0 6 6 4 10 10 7 13 13 9 15 15 11 17 17 19 25 25 21 27 27 23 29 29 26 32 32 30 36 36 33 39 39 35 41 41 37 43 41 57 62 58 59 64 58 61 66 60 64 69 63 68 73 67 71 76 70 73 78 72 75 80 74 93 98 92 93 98 92 93 98 92 93 98 92 93 98 92 93 98 92 93 98 92 95 97 92 77 78 73 70 69 65 57 56 52 45 44 40 38 37 33 37 36 32 40 39 35 43 42 38 41 40 36 41 40 36 41 40 36 41 40 36 41 40 36 41 40 36 41 40 36 41 40 36 39 37 38 39 37 38 39 37 38 39 37 38 39 37 38 39 37 38 39 37 38 39 37 38 38 36 37 38 36 37 38 36 37 38 36 37 38 36 37 38 36 37 38 36 37 38 36 37
98 83 104 107 92 113 113 98 119 117 102 123 117 102 123 117 102 123 119 104 125 122 107 128 124 109 130 126 111 132 128 113 134 131 113 135 123 104 124 125 103 124 125 103 124 125 103 124 125 103 124 125 103 124 125 103 124 125 103 124 127 105 126 127 105 126 127 105 126 127 105 126 127 105 126 127 105 126 127 105 126 127 105 126 125 106 125 125 106 125 125 106 125 125 106 125 125 106 125 125 106 125 125 106 125 125 106 125 125 106 125 125 106 125 125 106 125 125 106 125 125 106 125 125 106 125 125 106 125 122 108 123 115 109 121 97 96 104 72 71 79 47 46 54 27 26 34 16 15 23 13 12 20 13 12 20 8 7 15 8 7 15 8 7 15 8 7 15 8 7 15 8 7 15 8 7 15 7 7 15 4 9 15 2 9 15 2 9 15 2 9 15 2 9 15 2 9 15 2 9 15 2 9 15 5 12 18 5 12 18 5 12 18 5 12 18 5 12 18 5 12 18 5 12 18 5 12 18 2 9 17 2 9 17 2 9 17 2 9 17 2 9 17 2 9 17 2 9 17 2 9 17 6 13 21 6 13 21 6 13 21 6 13 21 6 13 21 6 13 21 6 13 21 6 13 19 2 7 10 4 10 10 6 12 12 9 15 15 13 19 19 16 22 22 18 24 24 20 26 26 10 16 16 8 14 14 6 12 12 3 9 9 0 5 5 0 2 2 0 2 2 0 2 2 0 2 2 0 2 2 0 3 3 0 6 6 4 10 10 7 13 13 9 15 15 11 17 17 19 25 25 21 27 27 23 29 29 26 32 32 30 36 36 33 39 39 35 41 41 37 43 41 57 62 58 59 64 58 61 66 60 64 69 63 68 73 67 71 76 70 73 78 72 75 80 74 89 94 88 89 94 88 89 94 88 89 94 88 89 94 88 89 94 88 89 94 88 91 93 88 77 78 73 70 69 65 57 56 52 45 44 40 38 37 33 37 36 32 40 39 35 43 42 38 41 40 36 41 40 36 41 40 36 41 40 36 41 40 36 41 40 36 41 40 36 41 40 36 39 37 38 39 37 38 39 37 38 39 37 38 39 37 38 39 37 38 39 37 38 39 37 38 38 36 37 38 36 37 38 36 37 38 36 37 38 36 37 38 36 37 38 36 37 38 36 37
109 94 115 114 99 120 118 103 124 121 106 127 125 110 131 125 110 131 126 111 132 126 111 132 127 112 133 128 113 134 128 113 134 131 113 135 123 104 124 125 103 124 125 103 124 125 103 124 125 103 124 125 103 124 125 103 124 125 103 124 127 105 126 127 105 126 127 105 126 127 105 126 127 105 126 127 105 126 127 105 126 127 105 126 122 103 122 122 103 122 122 103 122 122 103 122 122 103 122 122 103 122 122 103 122 122 103 122 122 103 122 122 103 122 122 103 122 122 103 122 122 103 122 122 103 122 122 103 122 119 105 120 110 104 116 89 88 96 61 60 68 34 33 41 16 15 23 10 9 17 12 11 19 16 15 23 8 7 15 8 7 15 8 7 15 8 7 15 8 7 15 8 7 15 8 7 15 7 7 15 4 9 15 2 9 15 2 9 15 2 9 15 2 9 15 2 9 15 2 9 15 2 9 15 5 12 18 5 12 18 5 12 18 5 12 18 5 12 18 5 12 18 5 12 18 5 12 18 2 9 17 2 9 17 2 9 17 2 9 17 2 9 17 2 9 17 2 9 17 2 9 17 6 13 21 6 13 21 6 13 21 6 13 21 6 13 21 6 13 21 6 13 21 6 13 19 2 7 10 4 10 10 6 12 12 9 15 15 13 19 19 16 22 22 18 24 24 20 26 26 10 16 16 8 14 14 6 12 12 3 9 9 0 5 5 0 2 2 0 2 2 0 2 2 0 2 2 0 2 2 0 3 3 0 6 6 4 10 10 7 13 13 9 15 15 11 17 17 19 25 25 21 27 27 23 29 29 26 32 32 30 36 36 33 39 39 35 41 41 37 43 41 57 62 58 59 64 58 61 66 60 64 69 63 68 73 67 71 76 70 73 78 72 75 80 74 86 91 85 86 91 85 86 91 85 86 91 85 86 91 85 86 91 85 86 91 85 88 90 85 77 78 73 70 69 65 57 56 52 45 44 40 38 37 33 37 36 32 40 39 35 43 42 38 41 40 36 41 40 36 41 40 36 41 40 36 41 40 36 41 40 36 41 40 36 41 40 36 39 37 38 39 37 38 39 37 38 39 37 38 39 37 38 39 37 38 39 37 38 39 37 38 38 36 37 38 36 37 38 36 37 38 36 37 38 36 37 38 36 37 38 36 37 38 36 37
116 101 122 117 102 123 117 102 123 118 103 124 128 113 134 127 112 133 127 112 133 126 111 132 126 111 132 125 110 131 125 110 131 127 109 131 123 104 124 125 103 124 125 103 124 125 103 124 125 103 124 125 103 124 125 103 124 125 103 124 127 105 126 127 105 126 127 105 126 127 105 126 127 105 126 127 105 126 127 105 126 127 105 126 120 101 120 120 101 120 120 101 120 120 101 120 120 101 120 120 101 120 120 101 120 120 101 120 120 101 120 120 101 120 120 101 120 120 101 120 120 101 120 120 101 120 120 101 120 117 103 118 106 100 112 83 82 90 53 52 60 24 23 31 7 6 14 5 4 12 12 11 19 19 18 26 8 7 15 8 7 15 8 7 15 8 7 15 8 7 15 8 7 15 8 7 15 7 7 15 4 9 15 2 9 15 2 9 15 2 9 15 2 9 15 2 9 15 2 9 15 2 9 15 5 12 18 5 12 18 5 12 18 5 12 18 5 12 18 5 12 18 5 12 18 5 12 18 2 9 17 2 9 17 2 9 17 2 9 17 2 9 17 2 9 17 2 9 17 2 9 17 6 13 21 6 13 21 6 13 21 6 13 21 6 13 21 6 13 21 6 13 21 6 13 19 2 7 10 4 10 10 6 12 12 9 15 15 13 19 19 16 22 22 18 24 24 20 26 26 10 16 16 8 14 14 6 12 12 3 9 9 0 5 5 0 2 2 0 2 2 0 2 2 0 2 2 0 2 2 0 3 3 0 6 6 4 10 10 7 13 13 9 15 15 11 17 17 19 25 25 21 27 27 23 29 29 26 32 32 30 36 36 33 39 39 35 41 41 37 43 41 57 62 58 59 64 58 61 66 60 64 69 63 68 73 67 71 76 70 73 78 72 75 80 74 84 89 83 84 89 83 84 89 83 84 89 83 84 89 83 84 89 83 84 89 83 86 88 83 77 78 73 70 69 65 57 56 52 45 44 40 38 37 33 37 36 32 40 39 35 43 42 38 41 40 36 41 40 36 41 40 36 41 40 36 41 40 36 41 40 36 41 40 36 41 40 36 39 37 38 39 37 38 39 37 38 39 37 38 39 37 38 39 37 38 39 37 38 39 37 38 38 36 37 38 36 37 38 36 37 38 36 37 38 36 37 38 36 37 38 36 37 38 36 37
119 104 125 117 102 123 115 100 121 114 99 120 128 113 134 127 112 133 126 111 132 125 110 131 124 109 130 122 107 128 122 107 128 123 105 127 123 104 124 125 103 124 125 103 124 125 103 124 125 103 124 125 103 124 125 103 124 125 103 124 127 105 126 127 105 126 127 105 126 127 105 126 127 105 126 127 105 126 127 105 126 127 105 126 118 99 118 118 99 118 118 99 118 118 99 118 118 99 118 118 99 118 118 99 118 118 99 118 118 99 118 118 99 118 118 99 118 118 99 118 118 99 118 118 99 118 118 99 118 115 101 116 104 98 110 80 79 87 48 47 55 19 18 26 3 2 10 3 2 10 12 11 19 21 20 28 8 7 15 8 7 15 8 7 15 8 7 15 8 7 15 8 7 15 8 7 15 7 7 15 4 9 15 2 9 15 2 9 15 2 9 15 2 9 15 2 9 15 2 9 15 2 9 15 5 12 18 5 12 18 5 12 18 5 12 18 5 12 18 5 12 18 5 12 18 5 12 18 2 9 17 2 9 17 2 9 17 2 9 17 2 9 17 2 9 17 2 9 17 2 9 17 6 13 21 6 13 21 6 13 21 6 13 21 6 13 21 6 13 21 6 13 21 6 13 19 2 7 10 4 10 10 6 12 12 9 15 15 13 19 19 16 22 22 18 24 24 20 26 26 10 16 16 8 14 14 6 12 12 3 9 9 0 5 5 0 2 2 0 2 2 0 2 2 0 2 2 0 2 2 0 3 3 0 6 6 4 10 10 7 13 13 9 15 15 11 17 17 19 25 25 21 27 27 23 29 29 26 32 32 30 36 36 33 39 39 35 41 41 37 43 41 57 62 58 59 64 58 61 66 60 64 69 63 68 73 67 71 76 70 73 78 72 75 80 74 82 87 81 82 87 81 82 87 81 82 87 81 82 87 81 82 87 81 82 87 81 84 86 81 77 78 73 70 69 65 57 56 52 45 44 40 38 37 33 37 36 32 40 39 35 43 42 38 41 40 36 41 40 36 41 40 36 41 40 36 41 40 36 41 40 36 41 40 36 41 40 36 39 37 38 39 37 38 39 37 38 39 37 38 39 37 38 39 37 38 39 37 38 39 37 38 38 36 37 38 36 37 38 36 37 38 36 37 38 36 37 38 36 37 38 36 37 38 36 37
140 125 146 140 125 146 140 125 146 140 125 146 131 116 137 131 116 137 131 116 137 131 116 137 131 116 137 131 116 137 131 116 137 133 115 137 119 100 120 121 99 120 121 99 120 121 99 120 121 99 120 121 99 120 121 99 120 121 99 120 115 93 114 115 93 114 115 93 114 115 93 114 115 93 114 115 93 114 115 93 114 115 93 114 124 105 124 124 105 124 124 105 124 124 105 124 124 105 124 124 105 124 124 105 124 124 105 124 125 106 125 117 98 117 105 86 105 97 78 97 98 79 98 109 90 109 122 103 122 129 115 130 57 51 63 45 44 52 31 30 38 18 17 25 10 9 17 8 7 15 10 9 17 13 12 20 8 7 15 8 7 15 8 7 15 8 7 15 8 7 15 8 7 15 8 7 15 7 7 15 5 10 16 3 10 16 3 10 16 3 10 16 3 10 16 3 10 16 3 10 16 3 10 16 6 13 19 6 13 19 6 13 19 6 13 19 6 13 19 6 13 19 6 13 19 6 13 19 5 12 20 5 12 20 5 12 20 5 12 20 5 12 20 5 12 20 5 12 20 5 12 20 7 14 22 7 14 22 7 14 22 7 14 22 7 14 22 7 14 22 7 14 22 7 14 20 9 14 17 9 15 15 9 15 15 9 15 15 9 15 15 9 15 15 9 15 15 9 15 15 0 5 5 0 5 5 0 5 5 0 5 5 0 5 5 0 5 5 0 5 5 0 5 5 0 2 2 0 2 2 0 2 2 0 5 5 3 9 9 6 12 12 8 14 14 10 16 16 17 23 23 19 25 25 21 27 27 24 30 30 28 34 34 31 37 37 33 39 39 35 41 39 46 51 47 48 53 47 50 55 49 53 58 52 57 62 56 60 65 59 62 67 61 64 69 63 77 82 76 77 82 76 77 82 76 77 82 76 77 82 76 77 82 76 77 82 76 79 81 76 62 63 58 61 60 56 56 55 51 49 48 44 43 42 38 36 35 31 31 30 26 29 28 24 35 34 30 35 34 30 35 34 30 35 34 30 35 34 30 35 34 30 35 34 30 35 34 30 35 33 34 35 33 34 35 33 34 35 33 34 35 33 34 35 33 34 35 33 34 35 33 34 38 36 37 38 36 37 38 36 37 38 36 37 38 36 37 38 36 37 38 36 37 38 36 37
138 123 144 138 123 144 138 123 144 138 123 144 129 114 135 129 114 135 129 114 135 129 114 135 129 114 135 129 114 135 129 114 135 131 113 135 119 100 120 121 99 120 121 99 120 121 99 120 121 99 120 121 99 120 121 99 120 121 99 120 117 95 116 117 95 116 117 95 116 117 95 116 117 95 116 117 95 116 117 95 116 117 95 116 124 105 124 124 105 124 124 105 124 124 105 124 124 105 124 124 105 124 124 105 124 124 105 124 125 106 125 117 98 117 107 88 107 100 81 100 100 81 100 108 89 108 120 101 120 125 111 126 54 48 60 42 41 49 29 28 36 16 15 23 9 8 16 8 7 15 10 9 17 13 12 20 8 7 15 8 7 15 8 7 15 8 7 15 8 7 15 8 7 15 8 7 15 7 7 15 5 10 16 3 10 16 3 10 16 3 10 16 3 10 16 3 10 16 3 10 16 3 10 16 6 13 19 6 13 19 6 13 19 6 13 19 6 13 19 6 13 19 6 13 19 6 13 19 5 12 20 5 12 20 5 12 20 5 12 20 5 12 20 5 12 20 5 12 20 5 12 20 7 14 22 7 14 22 7 14 22 7 14 22 7 14 22 7 14 22 7 14 22 7 14 20 9 14 17 9 15 15 9 15 15 9 15 15 9 15 15 9 15 15 9 15 15 9 15 15 0 5 5 0 5 5 0 5 5 0 5 5 0 5 5 0 5 5 0 5 5 0 5 5 0 2 2 0 2 2 0 2 2 0 5 5 3 9 9 6 12 12 8 14 14 10 16 16 17 23 23 19 25 25 21 27 27 24 30 30 28 34 34 31 37 37 33 39 39 35 41 39 46 51 47 48 53 47 50 55 49 53 58 52 57 62 56 60 65 59 62 67 61 64 69 63 75 80 74 75 80 74 75 80 74 75 80 74 75 80 74 75 80 74 75 80 74 77 79 74 62 63 58 61 60 56 56 55 51 49 48 44 43 42 38 36 35 31 31 30 26 29 28 24 35 34 30 35 34 30 35 34 30 35 34 30 35 34 30 35 34 30 35 34 30 35 34 30 35 33 34 35 33 34 35 33 34 35 33 34 35 33 34 35 33 34 35 33 34 35 33 34 38 36 37 38 36 37 38 36 37 38 36 37 38 36 37 38 36 37 38 36 37 38 36 37
136 121 142 136 121 142 136 121 142 136 121 142 127 112 133 127 112 133 127 112 133 127 112 133 127 112 133 127 112 133 127 112 133 129 111 133 119 100 120 121 99 120 121 99 120 121 99 120 121 99 120 121 99 120 121 99 120 121 99 120 119 97 118 119 97 118 119 97 118 119 97 118 119 97 118 119 97 118 119 97 118 119 97 118 124 105 124 124 105 124 124 105 124 124 105 124 124 105 124 124 105 124 124 105 124 124 105 124 124 105 124 118 99 118 110 91 110 105 86 105 104 85 104 108 89 108 115 96 115 117 103 118 48 42 54 37 36 44 25 24 32 13 12 20 7 6 14 7 6 14 11 10 18 14 13 21 8 7 15 8 7 15 8 7 15 8 7 15 8 7 15 8 7 15 8 7 15 7 7 15 5 10 16 3 10 16 3 10 16 3 10 16 3 10 16 3 10 16 3 10 16 3 10 16 6 13 19 6 13 19 6 13 19 6 13 19 6 13 19 6 13 19 6 13 19 6 13 19 5 12 20 5 12 20 5 12 20 5 12 20 5 12 20 5 12 20 5 12 20 5 12 20 7 14 22 7 14 22 7 14 22 7 14 22 7 14 22 7 14 22 7 14 22 7 14 20 9 14 17 9 15 15 9 15 15 9 15 15 9 15 15 9 15 15 9 15 15 9 15 15 0 5 5 0 5 5 0 5 5 0 5 5 0 5 5 0 5 5 0 5 5 0 5 5 0 2 2 0 2 2 0 2 2 0 5 5 3 9 9 6 12 12 8 14 14 10 16 16 17 23 23 19 25 25 21 27 27 24 30 30 28 34 34 31 37 37 33 39 39 35 41 39 46 51 47 48 53 47 50 55 49 53 58 52 57 62 56 60 65 59 62 67 61 64 69 63 73 78 72 73 78 72 73 78 72 73 78 72 73 78 72 73 78 72 73 78 72 75 77 72 62 63 58 61 60 56 56 55 51 49 48 44 43 42 38 36 35 31 31 30 26 29 28 24 35 34 30 35 34 30 35 34 30 35 34 30 35 34 30 35 34 30 35 34 30 35 34 30 35 33 34 35 33 34 35 33 34 35 33 34 35 33 34 35 33 34 35 33 34 35 33 34 38 36 37 38 36 37 38 36 37 38 36 37 38 36 37 38 36 37 38 36 37 38 36 37
133 118 139 133 118 139 133 118 139 133 118 139 124 109 130 124 109 130 124 109 130 124 109 130 124 109 130 124 109 130 124 109 130 126 108 130 119 100 120 121 99 120 121 99 120 121 99 120 121 99 120 121 99 120 121 99 120 121 99 120 122 100 121 122 100 121 122 100 121 122 100 121 122 100 121 122 100 121 122 100 121 122 100 121 124 105 124 124 105 124 124 105 124 124 105 124 124 105 124 124 105 124 124 105 124 124 105 124 122 103 122 120 101 120 115 96 115 111 92 111 109 90 109 108 89 108 109 90 109 107 93 108 40 34 46 30 29 37 19 18 26 9 8 16 5 4 12 6 5 13 11 10 18 15 14 22 8 7 15 8 7 15 8 7 15 8 7 15 8 7 15 8 7 15 8 7 15 7 7 15 5 10 16 3 10 16 3 10 16 3 10 16 3 10 16 3 10 16 3 10 16 3 10 16 6 13 19 6 13 19 6 13 19 6 13 19 6 13 19 6 13 19 6 13 19 6 13 19 5 12 20 5 12 20 5 12 20 5 12 20 5 12 20 5 12 20 5 12 20 5 12 20 7 14 22 7 14 22 7 14 22 7 14 22 7 14 22 7 14 22 7 14 22 7 14 20 9 14 17 9 15 15 9 15 15 9 15 15 9 15 15 9 15 15 9 15 15 9 15 15 0 5 5 0 5 5 0 5 5 0 5 5 0 5 5 0 5 5 0 5 5 0 5 5 0 2 2 0 2 2 0 2 2 0 5 5 3 9 9 6 12 12 8 14 14 10 16 16 17 23 23 19 25 25 21 27 27 24 30 30 28 34 34 31 37 37 33 39 39 35 41 39 46 51 47 48 53 47 50 55 49 53 58 52 57 62 56 60 65 59 62 67 61 64 69 63 70 75 69 70 75 69 70 75 69 70 75 69 70 75 69 70 75 69 70 75 69 72 74 69 62 63 58 61 60 56 56 55 51 49 48 44 43 42 38 36 35 31 31 30 26 29 28 24 35 34 30 35 34 30 35 34 30 35 34 30 35 34 30 35 34 30 35 34 30 35 34 30 35 33 34 35 33 34 35 33 34 35 33 34 35 33 34 35 33 34 35 33 34 35 33 34 38 36 37 38 36 37 38 36 37 38 36 37 38 36 37 38 36 37 38 36 37 38 36 37
129 114 135 129 114 135 129 114 135 129 114 135 120 105 126 120 105 126 120 105 126 120 105 126 120 105 126 120 105 126 120 105 126 122 104 126 119 100 120 121 99 120 121 99 120 121 99 120 121 99 120 121 99 120 121 99 120 121 99 120 126 104 125 126 104 125 126 104 125 126 104 125 126 104 125 126 104 125 126 104 125 126 104 125 124 105 124 124 105 124 124 105 124 124 105 124 124 105 124 124 105 124 124 105 124 124 105 124 121 102 121 121 102 121 121 102 121 118 99 118 114 95 114 108 89 108 102 83 102 96 82 97 32 26 38 23 22 30 13 12 20 5 4 12 2 1 9 6 5 13 12 11 19 17 16 24 8 7 15 8 7 15 8 7 15 8 7 15 8 7 15 8 7 15 8 7 15 7 7 15 5 10 16 3 10 16 3 10 16 3 10 16 3 10 16 3 10 16 3 10 16 3 10 16 6 13 19 6 13 19 6 13 19 6 13 19 6 13 19 6 13 19 6 13 19 6 13 19 5 12 20 5 12 20 5 12 20 5 12 20 5 12 20 5 12 20 5 12 20 5 12 20 7 14 22 7 14 22 7 14 22 7 14 22 7 14 22 7 14 22 7 14 22 7 14 20 9 14 17 9 15 15 9 15 15 9 15 15 9 15 15 9 15 15 9 15 15 9 15 15 0 5 5 0 5 5 0 5 5 0 5 5 0 5 5 0 5 5 0 5 5 0 5 5 0 2 2 0 2 2 0 2 2 0 5 5 3 9 9 6 12 12 8 14 14 10 16 16 17 23 23 19 25 25 21 27 27 24 30 30 28 34 34 31 37 37 33 39 39 35 41 39 46 51 47 48 53 47 50 55 49 53 58 52 57 62 56 60 65 59 62 67 61 64 69 63 66 71 65 66 71 65 66 71 65 66 71 65 66 71 65 66 71 65 66 71 65 68 70 65 62 63 58 61 60 56 56 55 51 49 48 44 43 42 38 36 35 31 31 30 26 29 28 24 35 34 30 35 34 30 35 34 30 35 34 30 35 34 30 35 34 30 35 34 30 35 34 30 35 33 34 35 33 34 35 33 34 35 33 34 35 33 34 35 33 34 35 33 34 35 33 34 38 36 37 38 36 37 38 36 37 38 36 37 38 36 37 38 36 37 38 36 37 38 36 37
126 111 132 126 111 132 126 111 132 126 111 132 117 102 123 117 102 123 117 102 123 117 102 123 117 102 123 117 102 123 117 102 123 119 101 123 119 100 120 121 99 120 121 99 120 121 99 120 121 99 120 121 99 120 121 99 120 121 99 120 129 107 128 129 107 128 129 107 128 129 107 128 129 107 128 129 107 128 129 107 128 129 107 128 124 105 124 124 105 124 124 105 124 124 105 124 124 105 124 124 105 124 124 105 124 124 105 124 120 101 120 122 103 122 125 106 125 125 106 125 119 100 119 108 89 108 96 77 96 86 72 87 25 19 31 16 15 23 7 6 14 1 0 8 0 0 7 5 4 12 13 12 20 18 17 25 8 7 15 8 7 15 8 7 15 8 7 15 8 7 15 8 7 15 8 7 15 7 7 15 5 10 16 3 10 16 3 10 16 3 10 16 3 10 16 3 10 16 3 10 16 3 10 16 6 13 19 6 13 19 6 13 19 6 13 19 6 13 19 6 13 19 6 13 19 6 13 19 5 12 20 5 12 20 5 12 20 5 12 20 5 12 20 5 12 20 5 12 20 5 12 20 7 14 22 7 14 22 7 14 22 7 14 22 7 14 22 7 14 22 7 14 22 7 14 20 9 14 17 9 15 15 9 15 15 9 15 15 9 15 15 9 15 15 9 15 15 9 15 15 0 5 5 0 5 5 0 5 5 0 5 5 0 5 5 0 5 5 0 5 5 0 5 5 0 2 2 0 2 2 0 2 2 0 5 5 3 9 9 6 12 12 8 14 14 10 16 16 17 23 23 19 25 25 21 27 27 24 30 30 28 34 34 31 37 37 33 39 39 35 41 39 46 51 47 48 53 47 50 55 49 53 58 52 57 62 56 60 65 59 62 67 61 64 69 63 63 68 62 63 68 62 63 68 62 63 68 62 63 68 62 63 68 62 63 68 62 65 67 62 62 63 58 61 60 56 56 55 51 49 48 44 43 42 38 36 35 31 31 30 26 29 28 24 35 34 30 35 34 30 35 34 30 35 34 30 35 34 30 35 34 30 35 34 30 35 34 30 35 33 34 35 33 34 35 33 34 35 33 34 35 33 34 35 33 34 35 33 34 35 33 34 38 36 37 38 36 37 38 36 37 38 36 37 38 36 37 38 36 37 38 36 37 38 36 37
124 109 130 124 109 130 124 109 130 124 109 130 115 100 121 115 100 121 115 100 121 115 100 121 115 100 121 115 100 121 115 100 121 117 99 121 119 100 120 121 99 120 121 99 120 121 99 120 121 99 120 121 99 120 121 99 120 121 99 120 131 109 130 131 109 130 131 109 130 131 109 130 131 109 130 131 109 130 131 109 130 131 109 130 124 105 124 124 105 124 124 105 124 124 105 124 124 105 124 124 105 124 124 105 124 124 105 124 119 100 119 124 105 124 129 110 129 130 111 130 122 103 122 108 89 108 92 73 92 78 64 79 19 13 25 10 9 17 3 2 10 0 0 7 0 0 7 5 4 12 13 12 20 19 18 26 8 7 15 8 7 15 8 7 15 8 7 15 8 7 15 8 7 15 8 7 15 7 7 15 5 10 16 3 10 16 3 10 16 3 10 16 3 10 16 3 10 16 3 10 16 3 10 16 6 13 19 6 13 19 6 13 19 6 13 19 6 13 19 6 13 19 6 13 19 6 13 19 5 12 20 5 12 20 5 12 20 5 12 20 5 12 20 5 12 20 5 12 20 5 12 20 7 14 22 7 14 22 7 14 22 7 14 22 7 14 22 7 14 22 7 14 22 7 14 20 9 14 17 9 15 15 9 15 15 9 15 15 9 15 15 9 15 15 9 15 15 9 15 15 0 5 5 0 5 5 0 5 5 0 5 5 0 5 5 0 5 5 0 5 5 0 5 5 0 2 2 0 2 2 0 2 2 0 5 5 3 9 9 6 12 12 8 14 14 10 16 16 17 23 23 19 25 25 21 27 27 24 30 30 28 34 34 31 37 37 33 39 39 35 41 39 46 51 47 48 53 47 50 55 49 53 58 52 57 62 56 60 65 59 62 67 61 64 69 63 61 66 60 61 66 60 61 66 60 61 66 60 61 66 60 61 66 60 61 66 60 63 65 60 62 63 58 61 60 56 56 55 51 49 48 44 43 42 38 36 35 31 31 30 26 29 28 24 35 34 30 35 34 30 35 34 30 35 34 30 35 34 30 35 34 30 35 34 30 35 34 30 35 33 34 35 33 34 35 33 34 35 33 34 35 33 34 35 33 34 35 33 34 35 33 34 38 36 37 38 36 37 38 36 37 38 36 37 38 36 37 38 36 37 38 36 37 38 36 37
122 107 128 122 107 128 122 107 128 122 107 128 113 98 119 113 98 119 113 98 119 113 98 119 113 98 119 113 98 119 113 98 119 113 98 119 118 100 122 119 100 120 119 100 120 119 100 120 119 100 120 119 100 120 119 100 120 119 100 120 131 112 132 131 112 132 131 112 132 131 112 132 131 112 132 131 112 132 131 112 132 131 112 132 123 106 125 123 106 124 123 106 125 123 106 124 123 106 125 123 106 124 123 106 125 123 106 124 117 100 119 123 106 124 130 113 132 132 115 133 123 106 125 107 90 108 88 71 90 73 60 77 14 11 22 7 7 15 0 0 7 0 0 7 0 0 7 3 3 11 12 12 20 18 18 26 7 7 15 7 7 15 7 7 15 7 7 15 7 7 15 7 7 15 7 7 15 5 8 15 5 10 16 3 10 16 3 10 16 3 10 16 3 10 16 3 10 16 3 10 16 3 10 16 6 13 19 6 13 19 6 13 19 6 13 19 6 13 19 6 13 19 6 13 19 6 13 19 5 12 18 5 12 18 5 12 20 5 12 18 5 12 20 5 12 18 5 12 20 5 12 18 7 14 22 7 14 20 7 14 22 7 14 20 7 14 22 7 14 20 7 14 22 7 14 20 9 14 17 9 15 15 9 14 17 9 15 15 9 14 17 9 15 15 9 14 17 9 15 15 0 4 7 0 5 5 0 4 7 0 5 5 0 4 7 0 5 5 0 4 7 0 5 5 0 2 2 0 2 2 0 2 2 0 5 5 3 9 9 6 12 12 8 14 14 10 16 16 17 23 23 19 25 25 21 27 27 24 30 30 28 34 34 31 37 37 33 39 39 35 41 41 46 51 47 48 53 47 50 55 51 53 58 52 57 62 58 60 65 59 62 67 63 64 69 63 59 64 60 59 64 58 59 64 60 59 64 58 59 64 60 59 64 58 59 64 60 61 63 58 62 63 58 61 60 56 56 55 51 49 48 44 43 42 38 36 35 31 31 30 26 29 28 24 35 34 30 35 34 30 35 34 30 35 34 30 35 34 30 35 34 30 35 34 30 35 34 32 37 33 32 37 33 32 37 33 34 37 33 32 37 33 34 37 33 32 37 33 34 37 33 32 40 36 37 40 36 35 40 36 37 40 36 35 40 36 37 40 36 35 40 36 37 40 36 35
117 103 126 117 103 126 117 103 126 117 103 126 119 105 128 119 105 128 119 105 128 119 105 128 119 105 128 119 105 128 119 105 128 119 106 126 119 104 125 119 104 125 119 104 125 119 104 125 119 104 125 119 104 125 119 104 125 119 104 125 130 115 136 130 115 136 130 115 136 130 115 136 130 115 136 130 115 136 130 115 136 130 115 136 130 117 137 128 117 134 125 113 133 121 110 127 117 105 125 113 102 119 110 98 118 108 97 114 135 123 143 136 125 142 135 123 143 125 114 131 105 93 113 78 67 84 51 39 59 33 24 41 5 5 15 3 6 13 3 6 13 3 6 13 3 6 13 3 6 13 3 6 13 3 6 13 5 8 15 5 8 15 5 8 15 5 8 15 5 8 15 5 8 15 5 8 15 4 9 15 5 13 16 5 13 16 5 13 16 5 13 16 5 13 16 5 13 16 5 13 16 5 13 16 7 15 18 7 15 18 7 15 18 7 15 18 7 15 18 7 15 18 7 15 18 7 15 18 1 9 12 1 9 12 1 8 14 1 9 12 1 8 14 1 9 12 1 8 14 1 9 12 0 5 11 0 7 10 2 9 15 5 13 16 8 15 21 12 20 23 14 21 27 15 23 26 12 20 23 12 20 22 12 20 23 12 20 22 12 20 23 12 20 22 12 20 23 12 20 22 17 25 28 15 23 25 13 21 24 10 18 20 6 14 17 3 11 13 1 9 12 0 7 9 5 10 13 5 10 13 5 10 13 5 10 13 5 10 13 5 10 13 5 10 13 5 10 13 15 20 23 17 22 25 19 24 27 22 27 30 26 31 34 29 34 37 31 36 39 33 39 39 42 46 45 42 47 43 42 46 45 42 47 43 42 46 45 42 47 43 42 46 45 42 47 43 56 60 59 56 61 57 56 60 59 56 61 57 56 60 59 56 61 57 56 60 59 58 60 57 48 47 45 48 44 43 46 42 41 43 39 38 39 35 34 36 32 31 34 30 29 32 28 27 36 32 31 36 32 31 36 32 31 36 32 31 36 32 31 36 32 31 36 32 31 36 32 31 37 31 31 37 32 29 37 31 31 37 32 29 37 31 31 37 32 29 37 31 31 37 32 29 39 33 33 39 34 31 39 33 33 39 34 31 39 33 33 39 34 31 39 33 33 39 34 31
115 101 124 115 101 124 115 101 124 115 101 124 117 103 126 117 103 126 117 103 126 117 103 126 117 103 126 117 103 126 117 103 126 117 103 126 116 103 123 116 103 123 116 103 123 116 103 123 116 103 123 116 103 123 116 103 123 116 103 123 114 101 121 114 101 121 114 101 121 114 101 121 114 101 121 114 101 121 114 101 121 113 101 121 113 101 121 112 103 122 113 104 123 115 106 125 117 108 127 118 109 128 120 111 130 121 112 131 119 110 129 120 111 130 117 108 127 108 99 118 90 81 100 65 56 75 41 32 51 23 19 34 5 5 15 2 7 13 2 7 13 2 7 13 2 7 13 2 7 13 2 7 13 2 7 13 4 9 15 4 9 15 4 9 15 4 9 15 4 9 15 4 9 15 4 9 15 4 9 15 5 13 16 5 13 16 5 13 16 5 13 16 5 13 16 5 13 16 5 13 16 5 13 16 7 15 18 7 15 18 7 15 18 7 15 18 7 15 18 7 15 18 7 15 18 7 15 18 3 11 14 3 11 14 3 11 14 3 11 14 3 11 14 3 11 14 3 11 14 3 11 14 1 9 12 2 10 13 4 12 15 8 16 19 11 19 22 14 22 25 17 25 28 18 26 29 14 22 25 14 22 25 14 22 25 14 22 25 14 22 25 14 22 25 14 22 25 14 22 25 17 25 28 15 23 26 13 21 24 10 18 21 6 14 17 3 11 14 1 9 12 0 7 10 5 10 13 5 10 13 5 10 13 5 10 13 5 10 13 5 10 13 5 10 13 5 10 13 15 20 23 17 22 25 19 24 27 22 27 30 26 31 34 29 34 37 31 36 39 33 39 39 42 46 47 42 46 45 42 46 45 42 46 45 42 46 45 42 46 45 42 46 45 42 46 45 54 58 57 54 58 57 54 58 57 54 58 57 54 58 57 54 58 57 54 58 57 56 58 57 48 47 45 48 44 43 46 42 41 43 39 38 39 35 34 36 32 31 34 30 29 32 28 27 36 32 31 36 32 31 36 32 31 36 32 31 36 32 31 36 32 31 36 32 31 36 32 31 39 31 29 39 31 29 39 31 29 39 31 29 39 31 29 39 31 29 39 31 29 39 31 29 41 33 31 41 33 31 41 33 31 41 33 31 41 33 31 41 33 31 41 33 31 39 34 31
113 99 122 113 99 122 113 99 122 113 99 122 115 101 124 115 101 124 115 101 124 115 101 124 115 101 124 115 101 124 115 101 124 115 101 124 114 101 121 114 101 121 114 101 121 114 101 121 114 101 121 114 101 121 114 101 121 114 101 121 100 87 107 100 87 107 100 87 107 100 87 107 100 87 107 100 87 107 100 87 107 99 87 107 99 87 107 99 90 109 103 94 113 109 100 119 114 105 124 120 111 130 124 115 134 126 117 136 96 87 106 96 87 106 92 83 102 82 73 92 66 57 76 47 38 57 28 19 38 14 10 25 5 5 15 2 7 13 2 7 13 2 7 13 2 7 13 2 7 13 2 7 13 2 7 13 4 9 15 4 9 15 4 9 15 4 9 15 4 9 15 4 9 15 4 9 15 4 9 15 5 13 16 5 13 16 5 13 16 5 13 16 5 13 16 5 13 16 5 13 16 5 13 16 7 15 18 7 15 18 7 15 18 7 15 18 7 15 18 7 15 18 7 15 18 7 15 18 5 13 16 5 13 16 5 13 16 5 13 16 5 13 16 5 13 16 5 13 16 5 13 16 6 14 17 7 15 18 9 17 20 12 20 23 16 24 27 19 27 30 22 30 33 23 31 34 19 27 30 19 27 30 19 27 30 19 27 30 19 27 30 19 27 30 19 27 30 19 27 30 17 25 28 15 23 26 13 21 24 10 18 21 6 14 17 3 11 14 1 9 12 0 7 10 5 10 13 5 10 13 5 10 13 5 10 13 5 10 13 5 10 13 5 10 13 5 10 13 15 20 23 17 22 25 19 24 27 22 27 30 26 31 34 29 34 37 31 36 39 33 39 39 42 46 47 42 46 45 42 46 45 42 46 45 42 46 45 42 46 45 42 46 45 42 46 45 52 56 55 52 56 55 52 56 55 52 56 55 52 56 55 52 56 55 52 56 55 54 56 55 48 47 45 48 44 43 46 42 41 43 39 38 39 35 34 36 32 31 34 30 29 32 28 27 36 32 31 36 32 31 36 32 31 36 32 31 36 32 31 36 32 31 36 32 31 36 32 31 39 31 29 39 31 29 39 31 29 39 31 29 39 31 29 39 31 29 39 31 29 39 31 29 41 33 31 41 33 31 41 33 31 41 33 31 41 33 31 41 33 31 41 33 31 39 34 31
110 96 119 110 96 119 110 96 119 110 96 119 112 98 121 112 98 121 112 98 121 112 98 121 112 98 121 112 98 121 112 98 121 112 98 121 111 98 118 111 98 118 111 98 118 111 98 118 111 98 118 111 98 118 111 98 118 111 98 118 99 86 106 99 86 106 99 86 106 99 86 106 99 86 106 99 86 106 99 86 106 98 86 106 100 88 108 99 90 109 100 91 110 101 92 111 102 93 112 103 94 113 104 95 114 104 95 114 72 63 82 69 60 79 63 54 73 53 44 63 41 32 51 28 19 38 17 8 27 7 3 18 5 5 15 2 7 13 2 7 13 2 7 13 2 7 13 2 7 13 2 7 13 2 7 13 4 9 15 4 9 15 4 9 15 4 9 15 4 9 15 4 9 15 4 9 15 4 9 15 5 13 16 5 13 16 5 13 16 5 13 16 5 13 16 5 13 16 5 13 16 5 13 16 7 15 18 7 15 18 7 15 18 7 15 18 7 15 18 7 15 18 7 15 18 7 15 18 8 16 19 8 16 19 8 16 19 8 16 19 8 16 19 8 16 19 8 16 19 8 16 19 12 20 23 13 21 24 16 24 27 19 27 30 22 30 33 25 33 36 28 36 39 29 37 40 26 34 37 26 34 37 26 34 37 26 34 37 26 34 37 26 34 37 26 34 37 26 34 37 17 25 28 15 23 26 13 21 24 10 18 21 6 14 17 3 11 14 1 9 12 0 7 10 5 10 13 5 10 13 5 10 13 5 10 13 5 10 13 5 10 13 5 10 13 5 10 13 15 20 23 17 22 25 19 24 27 22 27 30 26 31 34 29 34 37 31 36 39 33 39 39 42 46 47 42 46 45 42 46 45 42 46 45 42 46 45 42 46 45 42 46 45 42 46 45 49 53 52 49 53 52 49 53 52 49 53 52 49 53 52 49 53 52 49 53 52 51 53 52 48 47 45 48 44 43 46 42 41 43 39 38 39 35 34 36 32 31 34 30 29 32 28 27 36 32 31 36 32 31 36 32 31 36 32 31 36 32 31 36 32 31 36 32 31 36 32 31 39 31 29 39 31 29 39 31 29 39 31 29 39 31 29 39 31 29 39 31 29 39 31 29 41 33 31 41 33 31 41 33 31 41 33 31 41 33 31 41 33 31 41 33 31 39 34 31
106 92 115 106 92 115 106 92 115 106 92 115 108 94 117 108 94 117 108 94 117 108 94 117 108 94 117 108 94 117 108 94 117 108 94 117 107 94 114 107 94 114 107 94 114 107 94 114 107 94 114 107 94 114 107 94 114 107 94 114 105 92 112 105 92 112 105 92 112 105 92 112 105 92 112 105 92 112 105 92 112 104 92 112 106 94 114 101 92 111 96 87 106 88 79 98 80 71 90 72 63 82 67 58 77 64 55 74 51 42 61 46 37 56 38 29 48 28 19 38 19 10 29 13 4 23 10 1 20 6 2 17 5 5 15 2 7 13 2 7 13 2 7 13 2 7 13 2 7 13 2 7 13 2 7 13 4 9 15 4 9 15 4 9 15 4 9 15 4 9 15 4 9 15 4 9 15 4 9 15 5 13 16 5 13 16 5 13 16 5 13 16 5 13 16 5 13 16 5 13 16 5 13 16 7 15 18 7 15 18 7 15 18 7 15 18 7 15 18 7 15 18 7 15 18 7 15 18 12 20 23 12 20 23 12 20 23 12 20 23 12 20 23 12 20 23 12 20 23 12 20 23 19 27 30 20 28 31 23 31 34 26 34 37 29 37 40 32 40 43 35 43 46 36 44 47 32 40 43 32 40 43 32 40 43 32 40 43 32 40 43 32 40 43 32 40 43 32 40 43 17 25 28 15 23 26 13 21 24 10 18 21 6 14 17 3 11 14 1 9 12 0 7 10 5 10 13 5 10 13 5 10 13 5 10 13 5 10 13 5 10 13 5 10 13 5 10 13 15 20 23 17 22 25 19 24 27 22 27 30 26 31 34 29 34 37 31 36 39 33 39 39 42 46 47 42 46 45 42 46 45 42 46 45 42 46 45 42 46 45 42 46 45 42 46 45 45 49 48 45 49 48 45 49 48 45 49 48 45 49 48 45 49 48 45 49 48 47 49 48 48 47 45 48 44 43 46 42 41 43 39 38 39 35 34 36 32 31 34 30 29 32 28 27 36 32 31 36 32 31 36 32 31 36 32 31 36 32 31 36 32 31 36 32 31 36 32 31 39 31 29 39 31 29 39 31 29 39 31 29 39 31 29 39 31 29 39 31 29 39 31 29 41 33 31 41 33 31 41 33 31 41 33 31 41 33 31 41 33 31 41 33 31 39 34 31
103 89 112 103 89 112 103 89 112 103 89 112 105 91 114 105 91 114 105 91 114 105 91 114 105 91 114 105 91 114 105 91 114 105 91 114 104 91 111 104 91 111 104 91 111 104 91 111 104 91 111 104 91 111 104 91 111 104 91 111 104 91 111 104 91 111 104 91 111 104 91 111 104 91 111 104 91 111 104 91 111 103 91 111 96 84 104 89 80 99 80 71 90 69 60 79 56 47 66 44 35 54 35 26 45 31 22 41 38 29 48 31 22 41 20 11 30 10 1 20 5 0 15 6 0 16 10 1 20 10 6 21 5 5 15 2 7 13 2 7 13 2 7 13 2 7 13 2 7 13 2 7 13 2 7 13 4 9 15 4 9 15 4 9 15 4 9 15 4 9 15 4 9 15 4 9 15 4 9 15 5 13 16 5 13 16 5 13 16 5 13 16 5 13 16 5 13 16 5 13 16 5 13 16 7 15 18 7 15 18 7 15 18 7 15 18 7 15 18 7 15 18 7 15 18 7 15 18 15 23 26 15 23 26 15 23 26 15 23 26 15 23 26 15 23 26 15 23 26 15 23 26 25 33 36 26 34 37 29 37 40 32 40 43 36 44 47 39 47 50 41 49 52 42 50 53 39 47 50 39 47 50 39 47 50 39 47 50 39 47 50 39 47 50 39 47 50 39 47 50 17 25 28 15 23 26 13 21 24 10 18 21 6 14 17 3 11 14 1 9 12 0 7 10 5 10 13 5 10 13 5 10 13 5 10 13 5 10 13 5 10 13 5 10 13 5 10 13 15 20 23 17 22 25 19 24 27 22 27 30 26 31 34 29 34 37 31 36 39 33 39 39 42 46 47 42 46 45 42 46 45 42 46 45 42 46 45 42 46 45 42 46 45 42 46 45 42 46 45 42 46 45 42 46 45 42 46 45 42 46 45 42 46 45 42 46 45 44 46 45 48 47 45 48 44 43 46 42 41 43 39 38 39 35 34 36 32 31 34 30 29 32 28 27 36 32 31 36 32 31 36 32 31 36 32 31 36 32 31 36 32 31 36 32 31 36 32 31 39 31 29 39 31 29 39 31 29 39 31 29 39 31 29 39 31 29 39 31 29 39 31 29 41 33 31 41 33 31 41 33 31 41 33 31 41 33 31 41 33 31 41 33 31 39 34 31
101 87 110 101 87 110 101 87 110 101 87 110 103 89 112 103 89 112 103 89 112 103 89 112 103 89 112 103 89 112 103 89 112 103 89 112 102 89 109 102 89 109 102 89 109 102 89 109 102 89 109 102 89 109 102 89 109 102 89 109 90 77 97 90 77 97 90 77 97 90 77 97 90 77 97 90 77 97 90 77 97 89 77 97 66 54 74 61 52 71 55 46 65 47 38 57 38 29 48 30 21 40 24 15 34 20 11 30 31 22 41 22 13 32 10 1 20 4 0 14 4 0 14 4 0 14 13 4 23 17 13 28 5 5 15 2 7 13 2 7 13 2 7 13 2 7 13 2 7 13 2 7 13 2 7 13 4 9 15 4 9 15 4 9 15 4 9 15 4 9 15 4 9 15 4 9 15 4 9 15 5 13 16 5 13 16 5 13 16 5 13 16 5 13 16 5 13 16 5 13 16 5 13 16 7 15 18 7 15 18 7 15 18 7 15 18 7 15 18 7 15 18 7 15 18 7 15 18 17 25 28 17 25 28 17 25 28 17 25 28 17 25 28 17 25 28 17 25 28 17 25 28 30 38 41 31 39 42 34 42 45 37 45 48 40 48 51 44 52 55 46 54 57 47 55 58 44 52 55 44 52 55 44 52 55 44 52 55 44 52 55 44 52 55 44 52 55 44 52 55 17 25 28 15 23 26 13 21 24 10 18 21 6 14 17 3 11 14 1 9 12 0 7 10 5 10 13 5 10 13 5 10 13 5 10 13 5 10 13 5 10 13 5 10 13 5 10 13 15 20 23 17 22 25 19 24 27 22 27 30 26 31 34 29 34 37 31 36 39 33 39 39 42 46 47 42 46 45 42 46 45 42 46 45 42 46 45 42 46 45 42 46 45 42 46 45 40 44 43 40 44 43 40 44 43 40 44 43 40 44 43 40 44 43 40 44 43 42 44 43 48 47 45 48 44 43 46 42 41 43 39 38 39 35 34 36 32 31 34 30 29 32 28 27 36 32 31 36 32 31 36 32 31 36 32 31 36 32 31 36 32 31 36 32 31 36 32 31 39 31 29 39 31 29 39 31 29 39 31 29 39 31 29 39 31 29 39 31 29 39 31 29 41 33 31 41 33 31 41 33 31 41 33 31 41 33 31 41 33 31 41 33 31 39 34 31
99 85 108 99 85 108 99 85 108 99 85 108 101 87 110 101 87 110 101 87 110 101 87 110 101 87 110 101 87 110 101 87 110 101 87 110 100 87 107 100 87 107 100 87 107 100 87 107 100 87 107 100 87 107 100 87 107 100 87 107 75 62 82 75 62 82 75 62 82 75 62 82 75 62 82 75 62 82 75 62 82 74 62 82 39 27 47 36 27 46 34 25 44 31 22 41 29 20 39 26 17 36 24 15 34 23 14 33 29 20 39 19 10 29 6 0 16 4 0 14 4 0 14 4 0 14 16 7 26 22 18 33 5 5 15 2 7 13 2 7 13 2 7 13 2 7 13 2 7 13 2 7 13 2 7 13 4 9 15 4 9 15 4 9 15 4 9 15 4 9 15 4 9 15 4 9 15 4 9 15 5 13 16 5 13 16 5 13 16 5 13 16 5 13 16 5 13 16 5 13 16 5 13 16 7 15 18 7 15 18 7 15 18 7 15 18 7 15 18 7 15 18 7 15 18 7 15 18 19 27 30 19 27 30 19 27 30 19 27 30 19 27 30 19 27 30 19 27 30 19 27 30 33 41 44 34 42 45 36 44 47 40 48 51 43 51 54 46 54 57 49 57 60 50 58 61 46 54 57 46 54 57 46 54 57 46 54 57 46 54 57 46 54 57 46 54 57 46 54 57 17 25 28 15 23 26 13 21 24 10 18 21 6 14 17 3 11 14 1 9 12 0 7 10 5 10 13 5 10 13 5 10 13 5 10 13 5 10 13 5 10 13 5 10 13 5 10 13 15 20 23 17 22 25 19 24 27 22 27 30 26 31 34 29 34 37 31 36 39 33 39 39 42 46 47 42 46 45 42 46 45 42 46 45 42 46 45 42 46 45 42 46 45 42 46 45 38 42 41 38 42 41 38 42 41 38 42 41 38 42 41 38 42 41 38 42 41 40 42 41 48 47 45 48 44 43 46 42 41 43 39 38 39 35 34 36 32 31 34 30 29 32 28 27 36 32 31 36 32 31 36 32 31 36 32 31 36 32 31 36 32 31 36 32 31 36 32 31 39 31 29 39 31 29 39 31 29 39 31 29 39 31 29 39 31 29 39 31 29 39 31 29 41 33 31 41 33 31 41 33 31 41 33 31 41 33 31 41 33 31 41 33 31 39 34 31
71 57 80 71 57 80 71 57 80 71 57 80 83 69 92 83 69 92 83 69 92 83 69 92 83 69 92 83 69 92 83 69 92 83 69 92 57 44 64 57 44 64 57 44 64 57 44 64 57 44 64 57 44 64 57 44 64 57 44 64 25 12 32 25 12 32 25 12 32 25 12 32 25 12 32 25 12 32 25 12 32 24 12 32 15 3 23 13 4 23 13 4 23 13 4 23 13 4 23 13 4 23 13 4 23 13 4 23 11 2 21 11 2 21 11 2 21 11 2 21 11 2 21 11 2 21 11 2 21 8 4 19 6 6 16 3 8 14 3 8 14 3 8 14 3 8 14 3 8 14 3 8 14 3 8 14 5 10 16 5 10 16 5 10 16 5 10 16 5 10 16 5 10 16 5 10 16 5 10 16 6 14 17 6 14 17 6 14 17 6 14 17 6 14 17 6 14 17 6 14 17 6 14 17 0 6 9 0 7 10 2 10 13 5 13 16 8 16 19 12 20 23 14 22 25 15 23 26 21 29 32 24 32 35 30 38 41 37 45 48 45 53 56 53 61 64 59 67 70 62 70 73 55 63 66 55 63 66 55 63 66 55 63 66 55 63 66 55 63 66 55 63 66 55 63 66 44 52 55 43 51 54 40 48 51 37 45 48 34 42 45 30 38 41 28 36 39 27 35 38 27 35 38 20 28 31 10 18 21 1 9 12 0 6 9 0 8 11 6 14 17 10 18 21 7 12 15 7 12 15 7 12 15 7 12 15 7 12 15 7 12 15 7 12 15 7 12 15 22 27 30 22 27 30 22 27 30 22 27 30 22 27 30 22 27 30 22 27 30 22 28 28 30 34 35 30 34 33 30 34 33 30 34 33 30 34 33 30 34 33 30 34 33 30 34 33 32 36 35 32 36 35 32 36 35 32 36 35 32 36 35 32 36 35 32 36 35 34 36 35 32 31 29 34 30 29 34 30 29 34 30 29 34 30 29 34 30 29 34 30 29 34 30 29 34 30 29 34 30 29 34 30 29 34 30 29 34 30 29 34 30 29 34 30 29 34 30 29 39 31 29 39 31 29 39 31 29 39 31 29 39 31 29 39 31 29 39 31 29 39 31 29 40 32 30 40 32 30 40 32 30 40 32 30 40 32 30 40 32 30 40 32 30 38 33 30
49 35 58 49 35 58 49 35 58 49 35 58 56 42 65 56 42 65 56 42 65 56 42 65 56 42 65 56 42 65 56 42 65 56 42 65 36 23 43 36 23 43 36 23 43 36 23 43 36 23 43 36 23 43 36 23 43 36 23 43 23 10 30 23 10 30 23 10 30 23 10 30 23 10 30 23 10 30 23 10 30 22 10 30 15 3 23 13 4 23 13 4 23 13 4 23 13 4 23 13 4 23 13 4 23 13 4 23 11 2 21 11 2 21 11 2 21 11 2 21 11 2 21 11 2 21 11 2 21 8 4 19 6 6 16 3 8 14 3 8 14 3 8 14 3 8 14 3 8 14 3 8 14 3 8 14 5 10 16 5 10 16 5 10 16 5 10 16 5 10 16 5 10 16 5 10 16 5 10 16 6 14 17 6 14 17 6 14 17 6 14 17 6 14 17 6 14 17 6 14 17 6 14 17 1 9 12 2 10 13 4 12 15 8 16 19 11 19 22 14 22 25 17 25 28 18 26 29 24 32 35 27 35 38 32 40 43 39 47 50 46 54 57 53 61 64 59 67 70 62 70 73 55 63 66 55 63 66 55 63 66 55 63 66 55 63 66 55 63 66 55 63 66 55 63 66 45 53 56 44 52 55 42 50 53 38 46 49 35 43 46 32 40 43 29 37 40 28 36 39 27 35 38 20 28 31 10 18 21 1 9 12 0 6 9 0 8 11 6 14 17 10 18 21 7 12 15 7 12 15 7 12 15 7 12 15 7 12 15 7 12 15 7 12 15 7 12 15 22 27 30 22 27 30 22 27 30 22 27 30 22 27 30 22 27 30 22 27 30 22 28 28 30 34 35 30 34 33 30 34 33 30 34 33 30 34 33 30 34 33 30 34 33 30 34 33 32 36 35 32 36 35 32 36 35 32 36 35 32 36 35 32 36 35 32 36 35 34 36 35 32 31 29 34 30 29 34 30 29 34 30 29 34 30 29 34 30 29 34 30 29 34 30 29 34 30 29 34 30 29 34 30 29 34 30 29 34 30 29 34 30 29 34 30 29 34 30 29 39 31 29 39 31 29 39 31 29 39 31 29 39 31 29 39 31 29 39 31 29 39 31 29 40 32 30 40 32 30 40 32 30 40 32 30 40 32 30 40 32 30 40 32 30 38 33 30
24 10 33 24 10 33 24 10 33 24 10 33 23 9 32 23 9 32 23 9 32 23 9 32 23 9 32 23 9 32 23 9 32 23 9 32 14 1 21 14 1 21 14 1 21 14 1 21 14 1 21 14 1 21 14 1 21 14 1 21 21 8 28 21 8 28 21 8 28 21 8 28 21 8 28 21 8 28 21 8 28 20 8 28 15 3 23 13 4 23 13 4 23 13 4 23 13 4 23 13 4 23 13 4 23 13 4 23 11 2 21 11 2 21 11 2 21 11 2 21 11 2 21 11 2 21 11 2 21 8 4 19 6 6 16 3 8 14 3 8 14 3 8 14 3 8 14 3 8 14 3 8 14 3 8 14 5 10 16 5 10 16 5 10 16 5 10 16 5 10 16 5 10 16 5 10 16 5 10 16 6 14 17 6 14 17 6 14 17 6 14 17 6 14 17 6 14 17 6 14 17 6 14 17 6 14 17 7 15 18 9 17 20 12 20 23 16 24 27 19 27 30 22 30 33 23 31 34 30 38 41 32 40 43 36 44 47 42 50 53 48 56 59 54 62 65 58 66 69 61 69 72 55 63 66 55 63 66 55 63 66 55 63 66 55 63 66 55 63 66 55 63 66 55 63 66 48 56 59 46 54 57 44 52 55 41 49 52 37 45 48 34 42 45 32 40 43 30 38 41 27 35 38 20 28 31 10 18 21 1 9 12 0 6 9 0 8 11 6 14 17 10 18 21 7 12 15 7 12 15 7 12 15 7 12 15 7 12 15 7 12 15 7 12 15 7 12 15 22 27 30 22 27 30 22 27 30 22 27 30 22 27 30 22 27 30 22 27 30 22 28 28 30 34 35 30 34 33 30 34 33 30 34 33 30 34 33 30 34 33 30 34 33 30 34 33 32 36 35 32 36 35 32 36 35 32 36 35 32 36 35 32 36 35 32 36 35 34 36 35 32 31 29 34 30 29 34 30 29 34 30 29 34 30 29 34 30 29 34 30 29 34 30 29 34 30 29 34 30 29 34 30 29 34 30 29 34 30 29 34 30 29 34 30 29 34 30 29 39 31 29 39 31 29 39 31 29 39 31 29 39 31 29 39 31 29 39 31 29 39 31 29 40 32 30 40 32 30 40 32 30 40 32 30 40 32 30 40 32 30 40 32 30 38 33 30
14 0 23 14 0 23 14 0 23 14 0 23 7 0 16 7 0 16 7 0 16 7 0 16 7 0 16 7 0 16 7 0 16 7 0 16 7 0 14 7 0 14 7 0 14 7 0 14 7 0 14 7 0 14 7 0 14 7 0 14 18 5 25 18 5 25 18 5 25 18 5 25 18 5 25 18 5 25 18 5 25 17 5 25 15 3 23 13 4 23 13 4 23 13 4 23 13 4 23 13 4 23 13 4 23 13 4 23 11 2 21 11 2 21 11 2 21 11 2 21 11 2 21 11 2 21 11 2 21 8 4 19 6 6 16 3 8 14 3 8 14 3 8 14 3 8 14 3 8 14 3 8 14 3 8 14 5 10 16 5 10 16 5 10 16 5 10 16 5 10 16 5 10 16 5 10 16 5 10 16 6 14 17 6 14 17 6 14 17 6 14 17 6 14 17 6 14 17 6 14 17 6 14 17 12 20 23 13 21 24 16 24 27 19 27 30 22 30 33 25 33 36 28 36 39 29 37 40 37 45 48 39 47 50 42 50 53 46 54 57 50 58 61 55 63 66 58 66 69 59 67 70 55 63 66 55 63 66 55 63 66 55 63 66 55 63 66 55 63 66 55 63 66 55 63 66 51 59 62 50 58 61 47 55 58 44 52 55 41 49 52 37 45 48 35 43 46 34 42 45 27 35 38 20 28 31 10 18 21 1 9 12 0 6 9 0 8 11 6 14 17 10 18 21 7 12 15 7 12 15 7 12 15 7 12 15 7 12 15 7 12 15 7 12 15 7 12 15 22 27 30 22 27 30 22 27 30 22 27 30 22 27 30 22 27 30 22 27 30 22 28 28 30 34 35 30 34 33 30 34 33 30 34 33 30 34 33 30 34 33 30 34 33 30 34 33 32 36 35 32 36 35 32 36 35 32 36 35 32 36 35 32 36 35 32 36 35 34 36 35 32 31 29 34 30 29 34 30 29 34 30 29 34 30 29 34 30 29 34 30 29 34 30 29 34 30 29 34 30 29 34 30 29 34 30 29 34 30 29 34 30 29 34 30 29 34 30 29 39 31 29 39 31 29 39 31 29 39 31 29 39 31 29 39 31 29 39 31 29 39 31 29 40 32 30 40 32 30 40 32 30 40 32 30 40 32 30 40 32 30 40 32 30 38 33 30
17 3 26 17 3 26 17 3 26 17 3 26 10 0 19 10 0 19 10 0 19 10 0 19 10 0 19 10 0 19 10 0 19 10 0 19 14 1 21 14 1 21 14 1 21 14 1 21 14 1 21 14 1 21 14 1 21 14 1 21 14 1 21 14 1 21 14 1 21 14 1 21 14 1 21 14 1 21 14 1 21 13 1 21 15 3 23 13 4 23 13 4 23 13 4 23 13 4 23 13 4 23 13 4 23 13 4 23 11 2 21 11 2 21 11 2 21 11 2 21 11 2 21 11 2 21 11 2 21 8 4 19 6 6 16 3 8 14 3 8 14 3 8 14 3 8 14 3 8 14 3 8 14 3 8 14 5 10 16 5 10 16 5 10 16 5 10 16 5 10 16 5 10 16 5 10 16 5 10 16 6 14 17 6 14 17 6 14 17 6 14 17 6 14 17 6 14 17 6 14 17 6 14 17 19 27 30 20 28 31 23 31 34 26 34 37 29 37 40 32 40 43 35 43 46 36 44 47 45 53 56 46 54 57 48 56 59 50 58 61 53 61 64 55 63 66 57 65 68 58 66 69 55 63 66 55 63 66 55 63 66 55 63 66 55 63 66 55 63 66 55 63 66 55 63 66 54 62 65 53 61 64 51 59 62 47 55 58 44 52 55 41 49 52 38 46 49 37 45 48 27 35 38 20 28 31 10 18 21 1 9 12 0 6 9 0 8 11 6 14 17 10 18 21 7 12 15 7 12 15 7 12 15 7 12 15 7 12 15 7 12 15 7 12 15 7 12 15 22 27 30 22 27 30 22 27 30 22 27 30 22 27 30 22 27 30 22 27 30 22 28 28 30 34 35 30 34 33 30 34 33 30 34 33 30 34 33 30 34 33 30 34 33 30 34 33 32 36 35 32 36 35 32 36 35 32 36 35 32 36 35 32 36 35 32 36 35 34 36 35 32 31 29 34 30 29 34 30 29 34 30 29 34 30 29 34 30 29 34 30 29 34 30 29 34 30 29 34 30 29 34 30 29 34 30 29 34 30 29 34 30 29 34 30 29 34 30 29 39 31 29 39 31 29 39 31 29 39 31 29 39 31 29 39 31 29 39 31 29 39 31 29 40 32 30 40 32 30 40 32 30 40 32 30 40 32 30 40 32 30 40 32 30 38 33 30
18 4 27 18 4 27 18 4 27 18 4 27 17 3 26 17 3 26 17 3 26 17 3 26 17 3 26 17 3 26 17 3 26 17 3 26 18 5 25 18 5 25 18 5 25 18 5 25 18 5 25 18 5 25 18 5 25 18 5 25 11 0 18 11 0 18 11 0 18 11 0 18 11 0 18 11 0 18 11 0 18 10 0 18 15 3 23 13 4 23 13 4 23 13 4 23 13 4 23 13 4 23 13 4 23 13 4 23 11 2 21 11 2 21 11 2 21 11 2 21 11 2 21 11 2 21 11 2 21 8 4 19 6 6 16 3 8 14 3 8 14 3 8 14 3 8 14 3 8 14 3 8 14 3 8 14 5 10 16 5 10 16 5 10 16 5 10 16 5 10 16 5 10 16 5 10 16 5 10 16 6 14 17 6 14 17 6 14 17 6 14 17 6 14 17 6 14 17 6 14 17 6 14 17 25 33 36 26 34 37 29 37 40 32 40 43 36 44 47 39 47 50 41 49 52 42 50 53 53 61 64 53 61 64 54 62 65 55 63 66 55 63 66 56 64 67 56 64 67 57 65 68 55 63 66 55 63 66 55 63 66 55 63 66 55 63 66 55 63 66 55 63 66 55 63 66 58 66 69 56 64 67 54 62 65 51 59 62 47 55 58 44 52 55 42 50 53 40 48 51 27 35 38 20 28 31 10 18 21 1 9 12 0 6 9 0 8 11 6 14 17 10 18 21 7 12 15 7 12 15 7 12 15 7 12 15 7 12 15 7 12 15 7 12 15 7 12 15 22 27 30 22 27 30 22 27 30 22 27 30 22 27 30 22 27 30 22 27 30 22 28 28 30 34 35 30 34 33 30 34 33 30 34 33 30 34 33 30 34 33 30 34 33 30 34 33 32 36 35 32 36 35 32 36 35 32 36 35 32 36 35 32 36 35 32 36 35 34 36 35 32 31 29 34 30 29 34 30 29 34 30 29 34 30 29 34 30 29 34 30 29 34 30 29 34 30 29 34 30 29 34 30 29 34 30 29 34 30 29 34 30 29 34 30 29 34 30 29 39 31 29 39 31 29 39 31 29 39 31 29 39 31 29 39 31 29 39 31 29 39 31 29 40 32 30 40 32 30 40 32 30 40 32 30 40 32 30 40 32 30 40 32 30 38 33 30
9 0 18 9 0 18 9 0 18 9 0 18 16 2 25 16 2 25 16 2 25 16 2 25 16 2 25 16 2 25 16 2 25 16 2 25 12 0 19 12 0 19 12 0 19 12 0 19 12 0 19 12 0 19 12 0 19 12 0 19 9 0 16 9 0 16 9 0 16 9 0 16 9 0 16 9 0 16 9 0 16 8 0 16 15 3 23 13 4 23 13 4 23 13 4 23 13 4 23 13 4 23 13 4 23 13 4 23 11 2 21 11 2 21 11 2 21 11 2 21 11 2 21 11 2 21 11 2 21 8 4 19 6 6 16 3 8 14 3 8 14 3 8 14 3 8 14 3 8 14 3 8 14 3 8 14 5 10 16 5 10 16 5 10 16 5 10 16 5 10 16 5 10 16 5 10 16 5 10 16 6 14 17 6 14 17 6 14 17 6 14 17 6 14 17 6 14 17 6 14 17 6 14 17 30 38 41 31 39 42 34 42 45 37 45 48 40 48 51 44 52 55 46 54 57 47 55 58 59 67 70 59 67 70 58 66 69 58 66 69 57 65 68 56 64 67 56 64 67 56 64 67 55 63 66 55 63 66 55 63 66 55 63 66 55 63 66 55 63 66 55 63 66 55 63 66 60 68 71 59 67 70 56 64 67 53 61 64 50 58 61 46 54 57 44 52 55 43 51 54 27 35 38 20 28 31 10 18 21 1 9 12 0 6 9 0 8 11 6 14 17 10 18 21 7 12 15 7 12 15 7 12 15 7 12 15 7 12 15 7 12 15 7 12 15 7 12 15 22 27 30 22 27 30 22 27 30 22 27 30 22 27 30 22 27 30 22 27 30 22 28 28 30 34 35 30 34 33 30 34 33 30 34 33 30 34 33 30 34 33 30 34 33 30 34 33 32 36 35 32 36 35 32 36 35 32 36 35 32 36 35 32 36 35 32 36 35 34 36 35 32 31 29 34 30 29 34 30 29 34 30 29 34 30 29 34 30 29 34 30 29 34 30 29 34 30 29 34 30 29 34 30 29 34 30 29 34 30 29 34 30 29 34 30 29 34 30 29 39 31 29 39 31 29 39 31 29 39 31 29 39 31 29 39 31 29 39 31 29 39 31 29 40 32 30 40 32 30 40 32 30 40 32 30 40 32 30 40 32 30 40 32 30 38 33 30
6 0 14 6 0 14 6 0 14 6 0 14 10 0 18 10 0 18 10 0 18 10 0 18 10 0 18 10 0 18 10 0 18 10 0 18 6 0 12 6 0 12 6 0 12 6 0 12 6 0 12 6 0 12 6 0 12 6 0 12 6 0 12 6 0 12 6 0 12 6 0 12 6 0 12 6 0 12 6 0 12 4 0 12 12 5 21 12 5 21 12 5 21 12 5 21 12 5 21 12 5 21 12 5 21 12 5 21 10 3 19 10 3 19 10 3 19 10 3 19 10 3 19 10 3 19 10 3 19 8 4 18 4 7 16 3 8 14 3 8 14 3 8 14 3 8 14 3 8 14 3 8 14 3 8 14 5 10 16 5 10 16 5 10 16 5 10 16 5 10 16 5 10 16 5 10 16 5 10 16 6 14 17 6 14 17 6 14 17 6 14 17 6 14 17 6 14 17 6 14 17 6 14 17 33 41 44 34 42 45 36 44 47 40 48 51 43 51 54 46 54 57 49 57 60 50 58 61 62 70 73 61 69 72 61 69 72 59 67 70 58 66 69 57 65 68 56 64 67 55 63 66 55 63 66 55 63 66 55 63 66 55 63 66 55 63 66 55 63 66 55 63 66 55 63 66 61 69 72 60 68 71 58 66 69 54 62 65 51 59 62 48 56 59 45 53 56 44 52 55 27 35 38 20 28 31 10 18 21 1 9 12 0 6 9 0 8 11 6 14 17 10 18 21 5 13 15 5 13 15 7 12 15 5 13 15 7 12 15 5 13 15 7 12 15 5 13 15 22 27 30 20 28 30 22 27 30 20 28 30 22 27 30 20 28 30 22 27 30 22 27 30 29 35 35 30 34 33 30 34 35 30 34 33 30 34 35 30 34 33 30 34 35 30 34 33 32 36 37 32 36 35 32 36 37 32 36 35 32 36 37 32 36 35 32 36 37 34 36 35 32 31 29 34 30 29 34 30 29 34 30 29 34 30 29 34 30 29 34 30 29 34 30 29 34 30 29 34 30 29 34 30 29 34 30 29 34 30 29 34 30 29 34 30 29 35 30 27 39 31 29 39 31 29 39 31 29 39 31 29 39 31 29 39 31 29 39 31 29 39 31 29 40 32 30 40 32 30 40 32 30 40 32 30 40 32 30 40 32 30 40 32 30 40 32 30
4 0 14 4 0 14 4 0 14 4 0 14 4 0 14 4 0 14 4 0 14 4 0 14 4 0 14 4 0 14 4 0 14 4 0 14 3 0 11 3 0 11 3 0 11 3 0 11 3 0 11 3 0 11 3 0 11 3 0 11 4 1 12 4 1 12 4 1 12 4 1 12 4 1 12 4 1 12 4 1 12 4 1 12 4 2 15 4 2 15 4 2 15 4 2 15 4 2 15 4 2 15 4 2 15 4 2 15 5 3 16 5 3 16 5 3 16 5 3 16 5 3 16 5 3 16 5 3 16 4 4 14 4 9 15 2 9 15 2 9 15 2 9 15 2 9 15 2 9 15 2 9 15 2 9 15 6 13 19 5 12 18 4 11 17 3 10 16 2 9 15 0 7 13 0 7 13 0 6 12 13 20 26 14 21 27 17 24 30 20 27 33 23 30 36 27 34 40 29 36 42 30 37 43 59 66 72 59 66 72 59 66 72 59 66 72 59 66 72 59 66 72 59 66 72 59 66 72 61 66 72 61 66 72 61 66 72 61 66 72 61 66 72 61 66 72 61 66 72 61 66 72 74 79 85 74 79 85 74 79 85 74 79 85 74 79 85 74 79 85 74 79 85 74 79 85 63 71 74 61 69 72 59 67 70 56 64 67 52 60 63 49 57 60 47 55 58 45 53 56 19 27 30 17 25 28 15 23 26 12 20 23 8 16 19 5 13 16 3 11 14 1 9 12 11 19 22 10 20 22 11 19 22 10 20 22 11 19 22 10 20 22 11 19 22 10 20 22 25 33 36 24 34 36 25 33 36 24 34 36 25 33 36 24 34 36 25 33 36 25 33 35 23 28 31 23 29 29 23 28 31 23 29 29 23 28 31 23 29 29 23 28 31 23 29 29 21 26 29 21 27 27 21 26 29 21 27 27 21 26 29 21 27 27 21 26 29 24 25 27 30 29 27 33 28 25 33 28 25 33 28 25 33 28 25 33 28 25 33 28 25 33 28 25 35 30 27 35 30 27 35 30 27 35 30 27 35 30 27 35 30 27 35 30 27 35 30 27 39 31 29 40 30 28 40 30 28 40 30 28 40 30 28 40 30 28 40 30 28 40 30 28 40 30 28 40 30 28 40 30 28 40 30 28 40 30 28 40 30 28 40 30 28 39 31 28
3 1 12 3 1 12 3 1 12 3 1 12 3 1 12 3 1 12 3 1 12 3 1 12 3 1 12 3 1 12 3 1 12 3 1 12 2 1 9 2 1 9 2 1 9 2 1 9 2 1 9 2 1 9 2 1 9 2 1 9 3 2 10 3 2 10 3 2 10 3 2 10 3 2 10 3 2 10 3 2 10 3 2 10 3 3 13 3 3 13 3 3 13 3 3 13 3 3 13 3 3 13 3 3 13 3 3 13 4 4 14 4 4 14 4 4 14 4 4 14 4 4 14 4 4 14 4 4 14 2 5 14 4 9 15 2 9 15 2 9 15 2 9 15 2 9 15 2 9 15 2 9 15 2 9 15 5 12 18 5 12 18 5 12 18 4 11 17 3 10 16 3 10 16 2 9 15 2 9 15 16 23 29 17 24 30 19 26 32 23 30 36 26 33 39 29 36 42 32 39 45 33 40 46 59 66 72 59 66 72 59 66 72 59 66 72 59 66 72 59 66 72 59 66 72 59 66 72 63 68 74 63 68 74 63 68 74 63 68 74 63 68 74 63 68 74 63 68 74 63 68 74 74 79 85 74 79 85 74 79 85 74 79 85 74 79 85 74 79 85 74 79 85 74 79 85 63 71 74 61 69 72 59 67 70 56 64 67 52 60 63 49 57 60 47 55 58 45 53 56 19 27 30 17 25 28 15 23 26 12 20 23 8 16 19 5 13 16 3 11 14 1 9 12 10 20 22 10 20 22 10 20 22 10 20 22 10 20 22 10 20 22 10 20 22 10 20 22 22 32 34 22 32 34 22 32 34 22 32 34 22 32 34 22 32 34 22 32 34 22 32 34 23 28 31 23 28 31 23 28 31 23 28 31 23 28 31 23 28 31 23 28 31 23 28 31 21 26 29 21 26 29 21 26 29 21 26 29 21 26 29 21 26 29 21 26 29 22 26 27 32 28 27 33 28 25 33 28 25 33 28 25 33 28 25 33 28 25 33 28 25 33 28 25 35 30 27 35 30 27 35 30 27 35 30 27 35 30 27 35 30 27 35 30 27 35 30 27 40 30 28 40 30 28 40 30 28 40 30 28 40 30 28 40 30 28 40 30 28 40 30 28 40 30 28 40 30 28 40 30 28 40 30 28 40 30 28 40 30 28 40 30 28 39 31 28
3 1 12 3 1 12 3 1 12 3 1 12 3 1 12 3 1 12 3 1 12 3 1 12 3 1 12 3 1 12 3 1 12 3 1 12 2 1 9 2 1 9 2 1 9 2 1 9 2 1 9 2 1 9 2 1 9 2 1 9 3 2 10 3 2 10 3 2 10 3 2 10 3 2 10 3 2 10 3 2 10 3 2 10 3 3 13 3 3 13 3 3 13 3 3 13 3 3 13 3 3 13 3 3 13 3 3 13 4 4 14 4 4 14 4 4 14 4 4 14 4 4 14 4 4 14 4 4 14 2 5 14 4 9 15 2 9 15 2 9 15 2 9 15 2 9 15 2 9 15 2 9 15 2 9 15 4 11 17 5 12 18 5 12 18 6 13 19 6 13 19 7 14 20 8 15 21 8 15 21 21 28 34 22 29 35 24 31 37 27 34 40 31 38 44 34 41 47 37 44 50 38 45 51 59 66 72 59 66 72 59 66 72 59 66 72 59 66 72 59 66 72 59 66 72 59 66 72 65 70 76 65 70 76 65 70 76 65 70 76 65 70 76 65 70 76 65 70 76 65 70 76 74 79 85 74 79 85 74 79 85 74 79 85 74 79 85 74 79 85 74 79 85 74 79 85 63 71 74 61 69 72 59 67 70 56 64 67 52 60 63 49 57 60 47 55 58 45 53 56 19 27 30 17 25 28 15 23 26 12 20 23 8 16 19 5 13 16 3 11 14 1 9 12 10 20 22 10 20 22 10 20 22 10 20 22 10 20 22 10 20 22 10 20 22 10 20 22 20 30 32 20 30 32 20 30 32 20 30 32 20 30 32 20 30 32 20 30 32 20 30 32 23 28 31 23 28 31 23 28 31 23 28 31 23 28 31 23 28 31 23 28 31 23 28 31 21 26 29 21 26 29 21 26 29 21 26 29 21 26 29 21 26 29 21 26 29 22 26 27 32 28 27 33 28 25 33 28 25 33 28 25 33 28 25 33 28 25 33 28 25 33 28 25 35 30 27 35 30 27 35 30 27 35 30 27 35 30 27 35 30 27 35 30 27 35 30 27 40 30 28 40 30 28 40 30 28 40 30 28 40 30 28 40 30 28 40 30 28 40 30 28 40 30 28 40 30 28 40 30 28 40 30 28 40 30 28 40 30 28 40 30 28 39 31 28
