P3
172 37
255
131 113 129 131 113 129 131 113 129 131 113 129 136 118 134 136 118 134 136 118 134 136 118 134 136 118 134 136 118 134 136 118 134 136 118 132 129 111 125 129 111 123 129 111 123 129 111 123 129 111 123 129 111 123 129 111 123 129 111 123 110 92 104 109 91 103 107 89 101 103 85 97 100 82 94 97 79 91 94 76 88 92 76 87 91 74 90 88 74 89 86 72 87 82 68 83 79 65 80 76 62 77 73 59 74 72 58 73 38 24 39 36 22 37 34 20 35 31 17 32 27 13 28 24 10 25 22 8 23 19 7 21 15 7 20 14 8 20 14 8 20 14 8 20 14 8 20 14 8 20 14 8 20 14 8 20 12 6 18 12 6 18 12 6 18 12 6 18 12 6 18 12 6 18 12 6 18 10 7 18 10 8 19 9 9 19 9 9 19 9 9 19 9 9 19 9 9 19 9 9 19 9 9 19 8 8 18 8 8 18 8 8 18 8 8 18 8 8 18 8 8 18 8 8 18 6 9 18 7 10 17 6 11 17 6 11 17 6 11 17 6 11 17 6 11 17 6 11 17 6 11 17 8 13 19 8 13 19 8 13 19 8 13 19 8 13 19 8 13 19 8 13 19 8 13 19 8 11 16 8 11 16 8 11 16 8 11 16 8 11 16 8 11 16 8 11 16 8 11 16 2 5 10 2 5 10 2 5 10 2 5 10 2 5 10 2 5 10 2 5 10 2 5 10 0 1 4 0 3 6 1 5 8 4 8 11 8 12 15 11 15 18 13 17 20 15 19 22 16 20 23 18 22 25 20 24 27 23 27 30 27 31 34 30 34 37 32 36 39 34 38 41 49 50 52 53 54 56 60 61 63 70 71 73 80 81 83 90 91 93 97 98 100 101 102 104 99 100 102 105 106 108 113 114 116 118 119 121 118 119 121 113 114 116 105 106 108 99 101 100 79 77 78 71 70 68 58 57 55 46 45 43 39 38 36 38 37 35 41 40 38 44 43 41 43 42 40 43 42 40 43 42 40 43 42 40 43 42 40 43 42 40 43 42 40 43 42 40 39 37 38 39 37 38 39 37 38 39 37 38 39 37 38 39 37 38 39 37 38 39 37 38 43 41 42 43 41 42 43 41 42 43 41 42 43 41 42 43 41 42 43 41 42 43 41 42
133 112 129 131 113 129 133 112 129 131 113 129 138 117 134 136 118 134 138 117 134 136 118 134 138 117 134 136 118 134 138 117 134 136 118 134 129 111 125 129 111 125 129 111 125 129 111 125 129 111 125 129 111 125 129 111 125 129 111 125 109 91 105 108 90 104 105 87 101 102 84 98 99 81 95 95 77 91 93 75 89 91 75 88 88 74 89 86 73 90 83 70 87 80 67 84 77 64 81 73 60 77 71 58 75 70 57 74 33 20 37 31 18 35 29 16 33 26 13 30 22 9 26 19 6 23 17 4 21 14 3 19 17 11 23 15 12 23 15 12 23 15 12 23 15 12 23 15 12 23 15 12 23 15 12 23 8 5 16 8 5 16 8 5 16 8 5 16 8 5 16 8 5 16 8 5 16 7 5 16 9 9 19 7 10 19 7 10 19 7 10 19 7 10 19 7 10 19 7 10 19 7 10 19 6 9 18 6 9 18 6 9 18 6 9 18 6 9 18 6 9 18 6 9 18 6 9 18 6 11 17 6 11 17 6 11 17 6 11 17 6 11 17 6 11 17 6 11 17 6 11 17 8 13 19 8 13 19 8 13 19 8 13 19 8 13 19 8 13 19 8 13 19 8 13 19 8 11 16 8 11 16 8 11 16 8 11 16 8 11 16 8 11 16 8 11 16 8 11 16 2 5 10 2 5 10 2 5 10 2 5 10 2 5 10 2 5 10 2 5 10 2 5 10 0 1 4 0 3 6 1 5 8 4 8 11 8 12 15 11 15 18 13 17 20 15 19 22 16 20 23 18 22 25 20 24 27 23 27 30 27 31 34 30 34 37 32 36 39 34 38 41 49 50 52 53 55 54 60 62 61 70 72 71 80 82 81 90 92 91 97 99 98 101 103 102 98 100 99 103 105 104 111 113 112 117 119 118 117 119 118 111 113 112 103 105 104 98 100 99 79 78 76 71 70 68 58 57 55 46 45 43 39 38 36 38 37 35 41 40 38 44 43 41 43 42 40 43 42 40 43 42 40 43 42 40 43 42 40 43 42 40 43 42 40 43 42 40 39 37 38 39 37 38 39 37 38 39 37 38 39 37 38 39 37 38 39 37 38 39 37 38 43 41 42 43 41 42 43 41 42 43 41 42 43 41 42 43 41 42 43 41 42 43 41 42
142 119 139 141 120 139 142 119 139 141 120 139 149 126 146 147 126 145 146 123 143 141 120 139 139 116 136 135 114 133 133 110 130 131 110 129 129 111 127 128 110 126 126 108 124 122 104 120 119 101 117 116 98 114 113 95 111 112 94 110 94 76 92 95 77 93 96 78 94 97 79 95 98 80 96 100 82 98 100 82 98 100 83 101 92 81 98 86 77 94 78 69 86 67 58 75 55 46 63 44 35 52 36 27 44 32 23 40 10 1 18 10 1 18 10 1 18 10 1 18 10 1 18 10 1 18 10 1 18 9 2 18 8 8 20 6 9 18 6 9 18 6 9 18 6 9 18 6 9 18 6 9 18 6 9 18 8 11 20 8 11 20 8 11 20 8 11 20 8 11 20 8 11 20 8 11 20 8 11 20 8 13 19 8 13 19 8 13 19 8 13 19 8 13 19 8 13 19 8 13 19 8 13 19 10 15 21 10 15 21 10 15 21 10 15 21 10 15 21 10 15 21 10 15 21 10 15 21 7 14 20 7 14 20 7 14 20 7 14 20 7 14 20 7 14 20 7 14 20 7 14 20 7 14 20 7 14 20 7 14 20 7 14 20 7 14 20 7 14 20 7 14 20 7 14 20 1 6 10 3 8 12 5 10 14 8 13 17 12 17 21 15 20 24 17 22 26 19 24 28 2 7 11 2 7 11 2 7 11 2 7 11 2 7 11 2 7 11 2 7 11 2 7 11 0 1 4 0 2 5 0 4 7 2 7 10 6 11 14 9 14 17 11 16 19 13 18 21 11 16 19 13 18 21 18 23 26 25 30 33 31 36 39 38 43 46 43 48 51 45 51 51 56 60 59 58 63 59 60 65 61 63 68 64 67 72 68 70 75 71 72 77 73 74 79 75 90 95 91 91 96 92 94 99 95 97 102 98 100 105 101 104 109 105 106 111 107 109 111 108 78 77 75 72 68 67 59 55 54 47 43 42 40 36 35 39 35 34 42 38 37 45 41 40 42 38 37 42 38 37 42 38 37 42 38 37 42 38 37 42 38 37 42 38 37 40 39 37 39 38 36 38 38 36 38 38 36 38 38 36 38 38 36 38 38 36 38 38 36 38 38 36 38 38 36 38 38 36 38 38 36 38 38 36 38 38 36 38 38 36 38 38 36 38 38 36
142 119 139 142 119 139 142 119 139 142 119 139 148 125 145 147 124 144 144 121 141 141 118 138 138 115 135 134 111 131 132 109 129 130 109 128 130 109 128 127 108 127 124 105 124 121 102 121 118 99 118 114 95 114 112 93 112 111 92 111 95 76 95 95 76 95 95 76 95 96 77 96 97 78 97 97 78 97 98 79 98 95 81 98 87 75 95 79 72 90 72 65 83 62 55 73 51 44 62 40 33 51 33 26 44 29 22 40 9 2 20 9 2 20 9 2 20 9 2 20 9 2 20 9 2 20 9 2 20 7 3 18 6 8 20 5 9 18 5 9 18 5 9 18 5 9 18 5 9 18 5 9 18 5 9 18 7 11 20 7 11 20 7 11 20 7 11 20 7 11 20 7 11 20 7 11 20 7 11 20 6 13 19 6 13 19 6 13 19 6 13 19 6 13 19 6 13 19 6 13 19 6 13 19 8 15 21 8 15 21 8 15 21 8 15 21 8 15 21 8 15 21 8 15 21 8 15 21 7 14 20 7 14 20 7 14 20 7 14 20 7 14 20 7 14 20 7 14 20 7 14 20 7 14 20 7 14 20 7 14 20 7 14 20 7 14 20 7 14 20 7 14 20 7 14 20 1 6 10 3 8 12 5 10 14 8 13 17 12 17 21 15 20 24 17 22 26 19 24 28 2 7 11 2 7 11 2 7 11 2 7 11 2 7 11 2 7 11 2 7 11 2 7 11 0 1 4 0 2 5 0 4 7 2 7 10 6 11 14 9 14 17 11 16 19 13 18 21 11 16 19 13 18 21 18 23 26 25 30 33 31 36 39 38 43 46 43 48 51 45 51 51 56 61 57 58 63 57 60 65 59 63 68 62 67 72 66 70 75 69 72 77 71 74 79 73 89 94 88 90 95 89 92 97 91 96 101 95 99 104 98 102 107 101 105 110 104 108 110 105 78 77 75 72 68 67 59 55 54 47 43 42 40 36 35 39 35 34 42 38 37 45 41 40 42 38 37 42 38 37 42 38 37 42 38 37 42 38 37 42 38 37 42 38 37 40 39 37 39 38 36 38 38 36 38 38 36 38 38 36 38 38 36 38 38 36 38 38 36 38 38 36 38 38 36 38 38 36 38 38 36 38 38 36 38 38 36 38 38 36 38 38 36 38 38 36
142 119 139 142 119 139 142 119 139 142 119 139 146 123 143 144 121 141 142 119 139 139 116 136 135 112 132 132 109 129 130 107 127 127 106 125 128 107 126 124 105 124 122 103 122 119 100 119 115 96 115 112 93 112 110 91 110 108 89 108 96 77 96 95 76 95 95 76 95 94 75 94 94 75 94 93 74 93 92 73 92 89 75 92 76 64 84 69 62 80 62 55 73 54 47 65 44 37 55 35 28 46 28 21 39 25 18 36 9 2 20 9 2 20 9 2 20 9 2 20 9 2 20 9 2 20 9 2 20 7 3 18 6 8 20 5 9 18 5 9 18 5 9 18 5 9 18 5 9 18 5 9 18 5 9 18 7 11 20 7 11 20 7 11 20 7 11 20 7 11 20 7 11 20 7 11 20 7 11 20 6 13 19 6 13 19 6 13 19 6 13 19 6 13 19 6 13 19 6 13 19 6 13 19 8 15 21 8 15 21 8 15 21 8 15 21 8 15 21 8 15 21 8 15 21 8 15 21 7 14 20 7 14 20 7 14 20 7 14 20 7 14 20 7 14 20 7 14 20 7 14 20 7 14 20 7 14 20 7 14 20 7 14 20 7 14 20 7 14 20 7 14 20 7 14 20 1 6 10 3 8 12 5 10 14 8 13 17 12 17 21 15 20 24 17 22 26 19 24 28 2 7 11 2 7 11 2 7 11 2 7 11 2 7 11 2 7 11 2 7 11 2 7 11 0 1 4 0 2 5 0 4 7 2 7 10 6 11 14 9 14 17 11 16 19 13 18 21 11 16 19 13 18 21 18 23 26 25 30 33 31 36 39 38 43 46 43 48 51 45 51 51 56 61 57 58 63 57 60 65 59 63 68 62 67 72 66 70 75 69 72 77 71 74 79 73 86 91 85 88 93 87 90 95 89 93 98 92 97 102 96 100 105 99 102 107 101 106 108 103 78 77 75 72 68 67 59 55 54 47 43 42 40 36 35 39 35 34 42 38 37 45 41 40 42 38 37 42 38 37 42 38 37 42 38 37 42 38 37 42 38 37 42 38 37 40 39 37 39 38 36 38 38 36 38 38 36 38 38 36 38 38 36 38 38 36 38 38 36 38 38 36 38 38 36 38 38 36 38 38 36 38 38 36 38 38 36 38 38 36 38 38 36 38 38 36
142 119 139 142 119 139 142 119 139 142 119 139 142 119 139 141 118 138 139 116 136 135 112 132 132 109 129 129 106 126 126 103 123 124 103 122 124 103 122 121 102 121 119 100 119 115 96 115 112 93 112 109 90 109 106 87 106 105 86 105 97 78 97 96 77 96 94 75 94 92 73 92 89 70 89 87 68 87 85 66 85 81 67 84 62 50 70 56 49 67 50 43 61 43 36 54 35 28 46 28 21 39 22 15 33 19 12 30 9 2 20 9 2 20 9 2 20 9 2 20 9 2 20 9 2 20 9 2 20 7 3 18 6 8 20 5 9 18 5 9 18 5 9 18 5 9 18 5 9 18 5 9 18 5 9 18 7 11 20 7 11 20 7 11 20 7 11 20 7 11 20 7 11 20 7 11 20 7 11 20 6 13 19 6 13 19 6 13 19 6 13 19 6 13 19 6 13 19 6 13 19 6 13 19 8 15 21 8 15 21 8 15 21 8 15 21 8 15 21 8 15 21 8 15 21 8 15 21 7 14 20 7 14 20 7 14 20 7 14 20 7 14 20 7 14 20 7 14 20 7 14 20 7 14 20 7 14 20 7 14 20 7 14 20 7 14 20 7 14 20 7 14 20 7 14 20 1 6 10 3 8 12 5 10 14 8 13 17 12 17 21 15 20 24 17 22 26 19 24 28 2 7 11 2 7 11 2 7 11 2 7 11 2 7 11 2 7 11 2 7 11 2 7 11 0 1 4 0 2 5 0 4 7 2 7 10 6 11 14 9 14 17 11 16 19 13 18 21 11 16 19 13 18 21 18 23 26 25 30 33 31 36 39 38 43 46 43 48 51 45 51 51 56 61 57 58 63 57 60 65 59 63 68 62 67 72 66 70 75 69 72 77 71 74 79 73 83 88 82 84 89 83 87 92 86 90 95 89 93 98 92 97 102 96 99 104 98 102 104 99 78 77 75 72 68 67 59 55 54 47 43 42 40 36 35 39 35 34 42 38 37 45 41 40 42 38 37 42 38 37 42 38 37 42 38 37 42 38 37 42 38 37 42 38 37 40 39 37 39 38 36 38 38 36 38 38 36 38 38 36 38 38 36 38 38 36 38 38 36 38 38 36 38 38 36 38 38 36 38 38 36 38 38 36 38 38 36 38 38 36 38 38 36 38 38 36
142 119 139 142 119 139 142 119 139 142 119 139 139 116 136 138 115 135 135 112 132 132 109 129 129 106 126 125 102 122 123 100 120 121 100 119 121 100 119 118 99 118 115 96 115 112 93 112 109 90 109 105 86 105 103 84 103 102 83 102 98 79 98 97 78 97 94 75 94 89 70 89 85 66 85 81 62 81 78 59 78 73 59 76 47 35 55 41 34 52 37 30 48 32 25 43 26 19 37 20 13 31 16 9 27 14 7 25 9 2 20 9 2 20 9 2 20 9 2 20 9 2 20 9 2 20 9 2 20 7 3 18 6 8 20 5 9 18 5 9 18 5 9 18 5 9 18 5 9 18 5 9 18 5 9 18 7 11 20 7 11 20 7 11 20 7 11 20 7 11 20 7 11 20 7 11 20 7 11 20 6 13 19 6 13 19 6 13 19 6 13 19 6 13 19 6 13 19 6 13 19 6 13 19 8 15 21 8 15 21 8 15 21 8 15 21 8 15 21 8 15 21 8 15 21 8 15 21 7 14 20 7 14 20 7 14 20 7 14 20 7 14 20 7 14 20 7 14 20 7 14 20 7 14 20 7 14 20 7 14 20 7 14 20 7 14 20 7 14 20 7 14 20 7 14 20 1 6 10 3 8 12 5 10 14 8 13 17 12 17 21 15 20 24 17 22 26 19 24 28 2 7 11 2 7 11 2 7 11 2 7 11 2 7 11 2 7 11 2 7 11 2 7 11 0 1 4 0 2 5 0 4 7 2 7 10 6 11 14 9 14 17 11 16 19 13 18 21 11 16 19 13 18 21 18 23 26 25 30 33 31 36 39 38 43 46 43 48 51 45 51 51 56 61 57 58 63 57 60 65 59 63 68 62 67 72 66 70 75 69 72 77 71 74 79 73 80 85 79 81 86 80 83 88 82 87 92 86 90 95 89 93 98 92 96 101 95 99 101 96 78 77 75 72 68 67 59 55 54 47 43 42 40 36 35 39 35 34 42 38 37 45 41 40 42 38 37 42 38 37 42 38 37 42 38 37 42 38 37 42 38 37 42 38 37 40 39 37 39 38 36 38 38 36 38 38 36 38 38 36 38 38 36 38 38 36 38 38 36 38 38 36 38 38 36 38 38 36 38 38 36 38 38 36 38 38 36 38 38 36 38 38 36 38 38 36
142 119 139 142 119 139 142 119 139 142 119 139 136 113 133 134 111 131 132 109 129 129 106 126 125 102 122 122 99 119 120 97 117 117 96 115 118 97 116 114 95 114 112 93 112 109 90 109 105 86 105 102 83 102 100 81 100 98 79 98 100 81 100 97 78 97 93 74 93 87 68 87 81 62 81 75 56 75 71 52 71 66 52 69 33 21 41 28 21 39 25 18 36 21 14 32 17 10 28 13 6 24 10 3 21 9 2 20 9 2 20 9 2 20 9 2 20 9 2 20 9 2 20 9 2 20 9 2 20 7 3 18 6 8 20 5 9 18 5 9 18 5 9 18 5 9 18 5 9 18 5 9 18 5 9 18 7 11 20 7 11 20 7 11 20 7 11 20 7 11 20 7 11 20 7 11 20 7 11 20 6 13 19 6 13 19 6 13 19 6 13 19 6 13 19 6 13 19 6 13 19 6 13 19 8 15 21 8 15 21 8 15 21 8 15 21 8 15 21 8 15 21 8 15 21 8 15 21 7 14 20 7 14 20 7 14 20 7 14 20 7 14 20 7 14 20 7 14 20 7 14 20 7 14 20 7 14 20 7 14 20 7 14 20 7 14 20 7 14 20 7 14 20 7 14 20 1 6 10 3 8 12 5 10 14 8 13 17 12 17 21 15 20 24 17 22 26 19 24 28 2 7 11 2 7 11 2 7 11 2 7 11 2 7 11 2 7 11 2 7 11 2 7 11 0 1 4 0 2 5 0 4 7 2 7 10 6 11 14 9 14 17 11 16 19 13 18 21 11 16 19 13 18 21 18 23 26 25 30 33 31 36 39 38 43 46 43 48 51 45 51 51 56 61 57 58 63 57 60 65 59 63 68 62 67 72 66 70 75 69 72 77 71 74 79 73 76 81 75 78 83 77 80 85 79 83 88 82 87 92 86 90 95 89 92 97 91 96 98 93 78 77 75 72 68 67 59 55 54 47 43 42 40 36 35 39 35 34 42 38 37 45 41 40 42 38 37 42 38 37 42 38 37 42 38 37 42 38 37 42 38 37 42 38 37 40 39 37 39 38 36 38 38 36 38 38 36 38 38 36 38 38 36 38 38 36 38 38 36 38 38 36 38 38 36 38 38 36 38 38 36 38 38 36 38 38 36 38 38 36 38 38 36 38 38 36
142 119 139 142 119 139 142 119 139 142 119 139 133 110 130 132 109 129 130 107 127 126 103 123 123 100 120 120 97 117 117 94 114 115 94 113 115 94 113 112 93 112 110 91 110 106 87 106 103 84 103 100 81 100 97 78 97 96 77 96 101 82 101 98 79 98 92 73 92 85 66 85 78 59 78 71 52 71 66 47 66 60 46 63 22 10 30 18 11 29 16 9 27 13 6 24 11 4 22 8 1 19 6 0 17 5 0 16 9 2 20 9 2 20 9 2 20 9 2 20 9 2 20 9 2 20 9 2 20 7 3 18 6 8 20 5 9 18 5 9 18 5 9 18 5 9 18 5 9 18 5 9 18 5 9 18 7 11 20 7 11 20 7 11 20 7 11 20 7 11 20 7 11 20 7 11 20 7 11 20 6 13 19 6 13 19 6 13 19 6 13 19 6 13 19 6 13 19 6 13 19 6 13 19 8 15 21 8 15 21 8 15 21 8 15 21 8 15 21 8 15 21 8 15 21 8 15 21 7 14 20 7 14 20 7 14 20 7 14 20 7 14 20 7 14 20 7 14 20 7 14 20 7 14 20 7 14 20 7 14 20 7 14 20 7 14 20 7 14 20 7 14 20 7 14 20 1 6 10 3 8 12 5 10 14 8 13 17 12 17 21 15 20 24 17 22 26 19 24 28 2 7 11 2 7 11 2 7 11 2 7 11 2 7 11 2 7 11 2 7 11 2 7 11 0 1 4 0 2 5 0 4 7 2 7 10 6 11 14 9 14 17 11 16 19 13 18 21 11 16 19 13 18 21 18 23 26 25 30 33 31 36 39 38 43 46 43 48 51 45 51 51 56 61 57 58 63 57 60 65 59 63 68 62 67 72 66 70 75 69 72 77 71 74 79 73 74 79 73 75 80 74 78 83 77 81 86 80 84 89 83 88 93 87 90 95 89 93 95 90 78 77 75 72 68 67 59 55 54 47 43 42 40 36 35 39 35 34 42 38 37 45 41 40 42 38 37 42 38 37 42 38 37 42 38 37 42 38 37 42 38 37 42 38 37 40 39 37 39 38 36 38 38 36 38 38 36 38 38 36 38 38 36 38 38 36 38 38 36 38 38 36 38 38 36 38 38 36 38 38 36 38 38 36 38 38 36 38 38 36 38 38 36 38 38 36
142 119 139 142 119 139 142 119 139 142 119 139 132 109 129 131 108 128 128 105 125 125 102 122 122 99 119 118 95 115 116 93 113 114 93 112 114 93 112 111 92 111 108 89 108 105 86 105 102 83 102 98 79 98 96 77 96 95 76 95 101 82 101 98 79 98 92 73 92 84 65 84 76 57 76 69 50 69 63 44 63 57 43 60 16 4 24 13 6 24 11 4 22 9 2 20 7 0 18 5 0 16 3 0 14 3 0 14 9 2 20 9 2 20 9 2 20 9 2 20 9 2 20 9 2 20 9 2 20 7 3 18 6 8 20 5 9 18 5 9 18 5 9 18 5 9 18 5 9 18 5 9 18 5 9 18 7 11 20 7 11 20 7 11 20 7 11 20 7 11 20 7 11 20 7 11 20 7 11 20 6 13 19 6 13 19 6 13 19 6 13 19 6 13 19 6 13 19 6 13 19 6 13 19 8 15 21 8 15 21 8 15 21 8 15 21 8 15 21 8 15 21 8 15 21 8 15 21 7 14 20 7 14 20 7 14 20 7 14 20 7 14 20 7 14 20 7 14 20 7 14 20 7 14 20 7 14 20 7 14 20 7 14 20 7 14 20 7 14 20 7 14 20 7 14 20 1 6 10 3 8 12 5 10 14 8 13 17 12 17 21 15 20 24 17 22 26 19 24 28 2 7 11 2 7 11 2 7 11 2 7 11 2 7 11 2 7 11 2 7 11 2 7 11 0 1 4 0 2 5 0 4 7 2 7 10 6 11 14 9 14 17 11 16 19 13 18 21 11 16 19 13 18 21 18 23 26 25 30 33 31 36 39 38 43 46 43 48 51 45 51 51 56 61 57 58 63 57 60 65 59 63 68 62 67 72 66 70 75 69 72 77 71 74 79 73 73 78 72 74 79 73 76 81 75 80 85 79 83 88 82 86 91 85 89 94 88 92 94 89 78 77 75 72 68 67 59 55 54 47 43 42 40 36 35 39 35 34 42 38 37 45 41 40 42 38 37 42 38 37 42 38 37 42 38 37 42 38 37 42 38 37 42 38 37 40 39 37 39 38 36 38 38 36 38 38 36 38 38 36 38 38 36 38 38 36 38 38 36 38 38 36 38 38 36 38 38 36 38 38 36 38 38 36 38 38 36 38 38 36 38 38 36 38 38 36
126 103 123 126 103 123 126 103 123 126 103 123 118 95 115 119 96 116 120 97 117 121 98 118 122 99 119 124 101 121 124 101 121 124 103 122 103 82 101 100 81 100 98 79 98 96 77 96 94 75 94 92 73 92 91 72 91 90 71 90 90 71 90 86 67 86 78 59 78 67 48 67 55 36 55 44 25 44 36 17 36 29 15 32 13 1 21 10 3 21 10 3 21 10 3 21 10 3 21 10 3 21 10 3 21 10 3 21 11 4 22 11 4 22 11 4 22 11 4 22 11 4 22 11 4 22 11 4 22 9 5 20 6 8 20 5 9 18 5 9 18 5 9 18 5 9 18 5 9 18 5 9 18 5 9 18 8 12 21 8 12 21 8 12 21 8 12 21 8 12 21 8 12 21 8 12 21 8 12 21 6 13 19 6 13 19 6 13 19 6 13 19 6 13 19 6 13 19 6 13 19 6 13 19 8 15 21 8 15 21 8 15 21 8 15 21 8 15 21 8 15 21 8 15 21 8 15 21 7 14 20 7 14 20 7 14 20 7 14 20 7 14 20 7 14 20 7 14 20 7 14 20 7 14 20 7 14 20 7 14 20 7 14 20 7 14 20 7 14 20 7 14 20 7 14 20 8 13 17 8 13 17 8 13 17 8 13 17 8 13 17 8 13 17 8 13 17 8 13 17 1 6 10 1 6 10 1 6 10 1 6 10 1 6 10 1 6 10 1 6 10 1 6 10 5 10 13 5 10 13 5 10 13 5 10 13 5 10 13 5 10 13 5 10 13 5 10 13 19 24 27 21 26 29 23 28 31 26 31 34 30 35 38 33 38 41 35 40 43 37 43 43 45 50 46 47 52 46 49 54 48 52 57 51 56 61 55 59 64 58 61 66 60 63 68 62 76 81 75 76 81 75 76 81 75 76 81 75 76 81 75 76 81 75 76 81 75 78 80 75 63 62 60 63 59 58 58 54 53 51 47 46 45 41 40 38 34 33 33 29 28 31 27 26 36 32 31 36 32 31 36 32 31 36 32 31 36 32 31 36 32 31 36 32 31 34 33 31 35 34 32 34 34 32 34 34 32 34 34 32 34 34 32 34 34 32 34 34 32 34 34 32 37 37 35 37 37 35 37 37 35 37 37 35 37 37 35 37 37 35 37 37 35 37 37 35
126 103 123 126 103 123 126 103 123 126 103 123 119 96 116 119 96 116 119 96 116 120 97 117 121 98 118 121 98 118 122 99 119 121 100 119 106 85 104 103 84 103 101 82 101 98 79 98 96 77 96 93 74 93 91 72 91 90 71 90 80 61 80 76 57 76 68 49 68 58 39 58 47 28 47 37 18 37 29 10 29 22 8 25 13 1 21 10 3 21 10 3 21 10 3 21 10 3 21 10 3 21 10 3 21 10 3 21 11 4 22 11 4 22 11 4 22 11 4 22 11 4 22 11 4 22 11 4 22 9 5 20 6 8 20 5 9 18 5 9 18 5 9 18 5 9 18 5 9 18 5 9 18 5 9 18 8 12 21 8 12 21 8 12 21 8 12 21 8 12 21 8 12 21 8 12 21 8 12 21 6 13 19 6 13 19 6 13 19 6 13 19 6 13 19 6 13 19 6 13 19 6 13 19 8 15 21 8 15 21 8 15 21 8 15 21 8 15 21 8 15 21 8 15 21 8 15 21 7 14 20 7 14 20 7 14 20 7 14 20 7 14 20 7 14 20 7 14 20 7 14 20 7 14 20 7 14 20 7 14 20 7 14 20 7 14 20 7 14 20 7 14 20 7 14 20 8 13 17 8 13 17 8 13 17 8 13 17 8 13 17 8 13 17 8 13 17 8 13 17 1 6 10 1 6 10 1 6 10 1 6 10 1 6 10 1 6 10 1 6 10 1 6 10 5 10 13 5 10 13 5 10 13 5 10 13 5 10 13 5 10 13 5 10 13 5 10 13 19 24 27 21 26 29 23 28 31 26 31 34 30 35 38 33 38 41 35 40 43 37 43 43 45 50 46 47 52 46 49 54 48 52 57 51 56 61 55 59 64 58 61 66 60 63 68 62 74 79 73 74 79 73 74 79 73 74 79 73 74 79 73 74 79 73 74 79 73 76 78 73 63 62 60 63 59 58 58 54 53 51 47 46 45 41 40 38 34 33 33 29 28 31 27 26 36 32 31 36 32 31 36 32 31 36 32 31 36 32 31 36 32 31 36 32 31 34 33 31 35 34 32 34 34 32 34 34 32 34 34 32 34 34 32 34 34 32 34 34 32 34 34 32 37 37 35 37 37 35 37 37 35 37 37 35 37 37 35 37 37 35 37 37 35 37 37 35
126 103 123 126 103 123 126 103 123 126 103 123 120 97 117 119 96 116 119 96 116 118 95 115 118 95 115 117 94 114 116 93 113 115 94 113 110 89 108 107 88 107 104 85 104 100 81 100 96 77 96 92 73 92 89 70 89 87 68 87 64 45 64 60 41 60 54 35 54 45 26 45 35 16 35 26 7 26 19 0 19 13 0 16 13 1 21 10 3 21 10 3 21 10 3 21 10 3 21 10 3 21 10 3 21 10 3 21 11 4 22 11 4 22 11 4 22 11 4 22 11 4 22 11 4 22 11 4 22 9 5 20 6 8 20 5 9 18 5 9 18 5 9 18 5 9 18 5 9 18 5 9 18 5 9 18 8 12 21 8 12 21 8 12 21 8 12 21 8 12 21 8 12 21 8 12 21 8 12 21 6 13 19 6 13 19 6 13 19 6 13 19 6 13 19 6 13 19 6 13 19 6 13 19 8 15 21 8 15 21 8 15 21 8 15 21 8 15 21 8 15 21 8 15 21 8 15 21 7 14 20 7 14 20 7 14 20 7 14 20 7 14 20 7 14 20 7 14 20 7 14 20 7 14 20 7 14 20 7 14 20 7 14 20 7 14 20 7 14 20 7 14 20 7 14 20 8 13 17 8 13 17 8 13 17 8 13 17 8 13 17 8 13 17 8 13 17 8 13 17 1 6 10 1 6 10 1 6 10 1 6 10 1 6 10 1 6 10 1 6 10 1 6 10 5 10 13 5 10 13 5 10 13 5 10 13 5 10 13 5 10 13 5 10 13 5 10 13 19 24 27 21 26 29 23 28 31 26 31 34 30 35 38 33 38 41 35 40 43 37 43 43 45 50 46 47 52 46 49 54 48 52 57 51 56 61 55 59 64 58 61 66 60 63 68 62 72 77 71 72 77 71 72 77 71 72 77 71 72 77 71 72 77 71 72 77 71 74 76 71 63 62 60 63 59 58 58 54 53 51 47 46 45 41 40 38 34 33 33 29 28 31 27 26 36 32 31 36 32 31 36 32 31 36 32 31 36 32 31 36 32 31 36 32 31 34 33 31 35 34 32 34 34 32 34 34 32 34 34 32 34 34 32 34 34 32 34 34 32 34 34 32 37 37 35 37 37 35 37 37 35 37 37 35 37 37 35 37 37 35 37 37 35 37 37 35
126 103 123 126 103 123 126 103 123 126 103 123 121 98 118 120 97 117 118 95 115 116 93 113 113 90 110 111 88 108 109 86 106 107 86 105 111 90 109 106 87 106 102 83 102 97 78 97 91 72 91 85 66 85 81 62 81 79 60 79 48 29 48 45 26 45 39 20 39 32 13 32 24 5 24 17 0 17 11 0 11 8 0 11 13 1 21 10 3 21 10 3 21 10 3 21 10 3 21 10 3 21 10 3 21 10 3 21 11 4 22 11 4 22 11 4 22 11 4 22 11 4 22 11 4 22 11 4 22 9 5 20 6 8 20 5 9 18 5 9 18 5 9 18 5 9 18 5 9 18 5 9 18 5 9 18 8 12 21 8 12 21 8 12 21 8 12 21 8 12 21 8 12 21 8 12 21 8 12 21 6 13 19 6 13 19 6 13 19 6 13 19 6 13 19 6 13 19 6 13 19 6 13 19 8 15 21 8 15 21 8 15 21 8 15 21 8 15 21 8 15 21 8 15 21 8 15 21 7 14 20 7 14 20 7 14 20 7 14 20 7 14 20 7 14 20 7 14 20 7 14 20 7 14 20 7 14 20 7 14 20 7 14 20 7 14 20 7 14 20 7 14 20 7 14 20 8 13 17 8 13 17 8 13 17 8 13 17 8 13 17 8 13 17 8 13 17 8 13 17 1 6 10 1 6 10 1 6 10 1 6 10 1 6 10 1 6 10 1 6 10 1 6 10 5 10 13 5 10 13 5 10 13 5 10 13 5 10 13 5 10 13 5 10 13 5 10 13 19 24 27 21 26 29 23 28 31 26 31 34 30 35 38 33 38 41 35 40 43 37 43 43 45 50 46 47 52 46 49 54 48 52 57 51 56 61 55 59 64 58 61 66 60 63 68 62 69 74 68 69 74 68 69 74 68 69 74 68 69 74 68 69 74 68 69 74 68 71 73 68 63 62 60 63 59 58 58 54 53 51 47 46 45 41 40 38 34 33 33 29 28 31 27 26 36 32 31 36 32 31 36 32 31 36 32 31 36 32 31 36 32 31 36 32 31 34 33 31 35 34 32 34 34 32 34 34 32 34 34 32 34 34 32 34 34 32 34 34 32 34 34 32 37 37 35 37 37 35 37 37 35 37 37 35 37 37 35 37 37 35 37 37 35 37 37 35
126 103 123 126 103 123 126 103 123 126 103 123 122 99 119 121 98 118 118 95 115 113 90 110 109 86 106 105 82 102 102 79 99 99 78 97 105 84 103 100 81 100 95 76 95 87 68 87 80 61 80 72 53 72 67 48 67 64 45 64 36 17 36 34 15 34 29 10 29 24 5 24 18 0 18 12 0 12 11 0 11 8 0 11 13 1 21 10 3 21 10 3 21 10 3 21 10 3 21 10 3 21 10 3 21 10 3 21 11 4 22 11 4 22 11 4 22 11 4 22 11 4 22 11 4 22 11 4 22 9 5 20 6 8 20 5 9 18 5 9 18 5 9 18 5 9 18 5 9 18 5 9 18 5 9 18 8 12 21 8 12 21 8 12 21 8 12 21 8 12 21 8 12 21 8 12 21 8 12 21 6 13 19 6 13 19 6 13 19 6 13 19 6 13 19 6 13 19 6 13 19 6 13 19 8 15 21 8 15 21 8 15 21 8 15 21 8 15 21 8 15 21 8 15 21 8 15 21 7 14 20 7 14 20 7 14 20 7 14 20 7 14 20 7 14 20 7 14 20 7 14 20 7 14 20 7 14 20 7 14 20 7 14 20 7 14 20 7 14 20 7 14 20 7 14 20 8 13 17 8 13 17 8 13 17 8 13 17 8 13 17 8 13 17 8 13 17 8 13 17 1 6 10 1 6 10 1 6 10 1 6 10 1 6 10 1 6 10 1 6 10 1 6 10 5 10 13 5 10 13 5 10 13 5 10 13 5 10 13 5 10 13 5 10 13 5 10 13 19 24 27 21 26 29 23 28 31 26 31 34 30 35 38 33 38 41 35 40 43 37 43 43 45 50 46 47 52 46 49 54 48 52 57 51 56 61 55 59 64 58 61 66 60 63 68 62 65 70 64 65 70 64 65 70 64 65 70 64 65 70 64 65 70 64 65 70 64 67 69 64 63 62 60 63 59 58 58 54 53 51 47 46 45 41 40 38 34 33 33 29 28 31 27 26 36 32 31 36 32 31 36 32 31 36 32 31 36 32 31 36 32 31 36 32 31 34 33 31 35 34 32 34 34 32 34 34 32 34 34 32 34 34 32 34 34 32 34 34 32 34 34 32 37 37 35 37 37 35 37 37 35 37 37 35 37 37 35 37 37 35 37 37 35 37 37 35
126 103 123 126 103 123 126 103 123 126 103 123 124 101 121 121 98 118 117 94 114 111 88 108 105 82 102 99 76 96 95 72 92 92 71 90 94 73 92 89 70 89 82 63 82 73 54 73 63 44 63 55 36 55 48 29 48 44 25 44 31 12 31 29 10 29 26 7 26 22 3 22 18 0 18 14 0 14 11 0 11 8 0 11 13 1 21 10 3 21 10 3 21 10 3 21 10 3 21 10 3 21 10 3 21 10 3 21 11 4 22 11 4 22 11 4 22 11 4 22 11 4 22 11 4 22 11 4 22 9 5 20 6 8 20 5 9 18 5 9 18 5 9 18 5 9 18 5 9 18 5 9 18 5 9 18 8 12 21 8 12 21 8 12 21 8 12 21 8 12 21 8 12 21 8 12 21 8 12 21 6 13 19 6 13 19 6 13 19 6 13 19 6 13 19 6 13 19 6 13 19 6 13 19 8 15 21 8 15 21 8 15 21 8 15 21 8 15 21 8 15 21 8 15 21 8 15 21 7 14 20 7 14 20 7 14 20 7 14 20 7 14 20 7 14 20 7 14 20 7 14 20 7 14 20 7 14 20 7 14 20 7 14 20 7 14 20 7 14 20 7 14 20 7 14 20 8 13 17 8 13 17 8 13 17 8 13 17 8 13 17 8 13 17 8 13 17 8 13 17 1 6 10 1 6 10 1 6 10 1 6 10 1 6 10 1 6 10 1 6 10 1 6 10 5 10 13 5 10 13 5 10 13 5 10 13 5 10 13 5 10 13 5 10 13 5 10 13 19 24 27 21 26 29 23 28 31 26 31 34 30 35 38 33 38 41 35 40 43 37 43 43 45 50 46 47 52 46 49 54 48 52 57 51 56 61 55 59 64 58 61 66 60 63 68 62 62 67 61 62 67 61 62 67 61 62 67 61 62 67 61 62 67 61 62 67 61 64 66 61 63 62 60 63 59 58 58 54 53 51 47 46 45 41 40 38 34 33 33 29 28 31 27 26 36 32 31 36 32 31 36 32 31 36 32 31 36 32 31 36 32 31 36 32 31 34 33 31 35 34 32 34 34 32 34 34 32 34 34 32 34 34 32 34 34 32 34 34 32 34 34 32 37 37 35 37 37 35 37 37 35 37 37 35 37 37 35 37 37 35 37 37 35 37 37 35
126 103 123 126 103 123 126 103 123 126 103 123 125 102 122 122 99 119 116 93 113 109 86 106 102 79 99 95 72 92 90 67 87 86 65 84 82 61 80 76 57 76 69 50 69 58 39 58 47 28 47 37 18 37 30 11 30 25 6 25 30 11 30 29 10 29 27 8 27 25 6 25 22 3 22 19 0 19 17 0 17 13 0 16 13 1 21 10 3 21 10 3 21 10 3 21 10 3 21 10 3 21 10 3 21 10 3 21 11 4 22 11 4 22 11 4 22 11 4 22 11 4 22 11 4 22 11 4 22 9 5 20 6 8 20 5 9 18 5 9 18 5 9 18 5 9 18 5 9 18 5 9 18 5 9 18 8 12 21 8 12 21 8 12 21 8 12 21 8 12 21 8 12 21 8 12 21 8 12 21 6 13 19 6 13 19 6 13 19 6 13 19 6 13 19 6 13 19 6 13 19 6 13 19 8 15 21 8 15 21 8 15 21 8 15 21 8 15 21 8 15 21 8 15 21 8 15 21 7 14 20 7 14 20 7 14 20 7 14 20 7 14 20 7 14 20 7 14 20 7 14 20 7 14 20 7 14 20 7 14 20 7 14 20 7 14 20 7 14 20 7 14 20 7 14 20 8 13 17 8 13 17 8 13 17 8 13 17 8 13 17 8 13 17 8 13 17 8 13 17 1 6 10 1 6 10 1 6 10 1 6 10 1 6 10 1 6 10 1 6 10 1 6 10 5 10 13 5 10 13 5 10 13 5 10 13 5 10 13 5 10 13 5 10 13 5 10 13 19 24 27 21 26 29 23 28 31 26 31 34 30 35 38 33 38 41 35 40 43 37 43 43 45 50 46 47 52 46 49 54 48 52 57 51 56 61 55 59 64 58 61 66 60 63 68 62 60 65 59 60 65 59 60 65 59 60 65 59 60 65 59 60 65 59 60 65 59 62 64 59 63 62 60 63 59 58 58 54 53 51 47 46 45 41 40 38 34 33 33 29 28 31 27 26 36 32 31 36 32 31 36 32 31 36 32 31 36 32 31 36 32 31 36 32 31 34 33 31 35 34 32 34 34 32 34 34 32 34 34 32 34 34 32 34 34 32 34 34 32 34 34 32 37 37 35 37 37 35 37 37 35 37 37 35 37 37 35 37 37 35 37 37 35 37 37 35
123 104 124 123 104 123 123 104 124 123 104 123 122 103 123 119 100 119 113 94 114 105 86 105 97 78 98 90 71 90 84 65 85 80 63 81 72 55 74 65 51 68 57 42 61 46 32 49 35 20 39 24 10 27 15 0 19 11 0 14 29 14 33 28 14 31 26 11 30 24 10 27 22 7 26 20 6 23 19 4 23 17 4 22 10 3 19 8 4 19 8 4 21 8 4 19 8 4 21 8 4 19 8 4 21 8 4 19 9 5 22 9 5 20 9 5 22 9 5 20 9 5 22 9 5 20 9 5 22 8 6 20 6 8 20 5 9 18 5 9 18 5 9 18 5 9 18 5 9 18 5 9 18 5 9 18 8 12 21 8 12 21 8 12 21 8 12 21 8 12 21 8 12 21 8 12 21 8 12 21 6 13 19 6 13 19 6 13 19 6 13 19 6 13 19 6 13 19 6 13 19 6 13 19 8 15 21 8 15 21 8 15 21 8 15 21 8 15 21 8 15 21 8 15 21 8 15 21 7 14 20 7 14 20 7 14 20 7 14 20 7 14 20 7 14 20 7 14 20 7 14 20 7 14 20 7 14 20 7 14 20 7 14 20 7 14 20 7 14 20 7 14 20 7 14 20 8 13 17 8 13 17 8 13 17 8 13 17 8 13 17 8 13 17 8 13 17 8 13 17 1 6 10 1 6 10 1 6 10 1 6 10 1 6 10 1 6 10 1 6 10 1 6 10 5 10 14 5 10 13 5 10 13 5 10 13 5 10 13 5 10 13 5 10 13 5 10 13 19 24 27 21 26 29 23 28 31 26 31 34 30 35 38 33 38 41 35 40 43 37 43 43 45 49 48 47 52 48 49 54 50 52 57 53 56 61 57 59 64 60 61 66 62 63 68 64 58 63 59 58 63 59 58 63 59 58 63 59 58 63 59 58 63 59 58 63 59 60 62 59 63 62 60 63 59 58 58 54 53 51 47 46 45 41 40 38 34 33 33 29 28 31 27 26 36 32 31 36 32 31 36 32 31 36 32 31 36 32 31 36 32 31 36 32 31 36 32 31 35 34 32 35 34 32 35 34 32 35 34 32 35 34 32 35 34 32 35 34 32 35 34 32 38 37 35 38 37 35 38 37 35 38 37 35 38 37 35 38 37 35 38 37 35 38 37 35
112 100 120 108 97 114 105 93 113 103 92 109 84 72 92 81 70 87 75 63 83 68 57 74 60 48 68 52 41 58 46 34 54 41 32 49 11 2 21 10 3 19 10 3 21 10 3 19 10 3 21 10 3 19 10 3 21 10 3 19 10 3 21 10 3 19 10 3 21 10 3 19 10 3 21 10 3 19 10 3 21 8 4 19 7 5 19 7 5 18 7 5 19 7 5 18 7 5 19 7 5 18 7 5 19 7 5 18 8 6 20 8 6 19 8 6 20 8 6 19 8 6 20 8 6 19 8 6 20 7 7 19 5 7 19 4 8 19 4 8 19 4 8 19 4 8 19 4 8 19 4 8 19 4 8 19 6 10 21 6 10 21 6 10 21 6 10 21 6 10 21 6 10 21 6 10 21 6 10 19 5 12 18 5 12 18 5 12 18 5 12 18 5 12 18 5 12 18 5 12 18 5 12 18 8 15 21 8 15 21 8 15 21 8 15 21 8 15 21 8 15 21 8 15 21 8 15 21 2 9 15 2 9 15 2 9 15 2 9 15 2 9 15 2 9 15 2 9 15 2 9 15 9 16 22 9 16 22 9 16 22 9 16 22 9 16 22 9 16 22 9 16 22 9 16 22 12 19 25 12 19 25 12 19 25 12 19 25 12 19 25 12 19 25 12 19 25 12 19 25 17 24 30 15 22 28 13 20 26 10 17 23 6 13 19 3 10 16 1 8 14 0 7 10 5 13 16 5 13 16 5 13 16 5 13 16 5 13 16 5 13 16 5 13 16 5 13 16 15 23 26 17 25 28 19 27 30 22 30 33 26 34 37 29 37 40 31 39 42 35 40 43 42 46 47 42 46 45 42 46 45 42 46 45 42 46 45 42 46 45 42 46 45 42 46 45 57 61 60 57 61 60 57 61 60 57 61 60 57 61 60 57 61 60 57 61 60 59 61 60 48 47 45 48 44 43 46 42 41 43 39 38 39 35 34 36 32 31 34 30 29 32 28 27 35 31 30 35 31 30 35 31 30 35 31 30 35 31 30 35 31 30 35 31 30 35 31 30 38 32 34 38 32 34 38 32 34 38 32 34 38 32 34 38 32 34 38 32 34 38 32 34 39 33 35 39 33 35 39 33 35 39 33 35 39 33 35 39 33 35 39 33 35 39 33 35
99 92 110 92 85 103 86 79 97 83 76 94 70 63 81 67 60 78 62 55 73 55 48 66 47 40 58 40 33 51 35 28 46 30 26 43 8 4 21 7 4 21 7 4 21 7 4 21 7 4 21 7 4 21 7 4 21 7 4 21 7 4 21 7 4 21 7 4 21 7 4 21 7 4 21 7 4 21 7 4 21 7 5 19 6 5 19 6 6 18 6 6 18 6 6 18 6 6 18 6 6 18 6 6 18 6 6 18 7 7 19 7 7 19 7 7 19 7 7 19 7 7 19 7 7 19 7 7 19 5 7 19 5 7 19 4 8 19 4 8 19 4 8 19 4 8 19 4 8 19 4 8 19 4 8 19 6 10 21 6 10 21 6 10 21 6 10 21 6 10 21 6 10 21 6 10 21 6 10 19 5 12 20 5 12 18 5 12 18 5 12 18 5 12 18 5 12 18 5 12 18 5 12 18 8 15 21 8 15 21 8 15 21 8 15 21 8 15 21 8 15 21 8 15 21 8 15 21 4 11 17 4 11 17 4 11 17 4 11 17 4 11 17 4 11 17 4 11 17 4 11 17 11 18 24 11 18 24 11 18 24 11 18 24 11 18 24 11 18 24 11 18 24 11 18 24 14 21 27 14 21 27 14 21 27 14 21 27 14 21 27 14 21 27 14 21 27 14 21 27 17 24 30 15 22 28 13 20 26 10 17 23 6 13 19 3 10 16 1 8 14 0 6 12 5 13 16 5 13 16 5 13 16 5 13 16 5 13 16 5 13 16 5 13 16 5 13 16 15 23 26 17 25 28 19 27 30 22 30 33 26 34 37 29 37 40 31 39 42 33 41 43 42 46 49 42 46 47 42 46 47 42 46 47 42 46 47 42 46 47 42 46 47 42 46 47 55 59 60 55 59 60 55 59 60 55 59 60 55 59 60 55 59 60 55 59 60 57 59 58 48 46 47 48 44 43 46 42 41 43 39 38 39 35 34 36 32 31 34 30 29 32 28 27 35 31 30 35 31 30 35 31 30 35 31 30 35 31 30 35 31 30 35 31 30 35 31 30 40 31 34 40 31 34 40 31 34 40 31 34 40 31 34 40 31 34 40 31 34 40 31 34 41 32 35 41 32 35 41 32 35 41 32 35 41 32 35 41 32 35 41 32 35 39 33 35
82 75 93 70 63 81 61 54 72 56 49 67 51 44 62 49 42 60 45 38 56 39 32 50 33 26 44 27 20 38 23 16 34 18 14 31 8 4 21 7 4 21 7 4 21 7 4 21 7 4 21 7 4 21 7 4 21 7 4 21 7 4 21 7 4 21 7 4 21 7 4 21 7 4 21 7 4 21 7 4 21 7 5 19 6 5 19 6 6 18 6 6 18 6 6 18 6 6 18 6 6 18 6 6 18 6 6 18 7 7 19 7 7 19 7 7 19 7 7 19 7 7 19 7 7 19 7 7 19 5 7 19 5 7 19 4 8 19 4 8 19 4 8 19 4 8 19 4 8 19 4 8 19 4 8 19 6 10 21 6 10 21 6 10 21 6 10 21 6 10 21 6 10 21 6 10 21 6 10 19 5 12 20 5 12 18 5 12 18 5 12 18 5 12 18 5 12 18 5 12 18 5 12 18 8 15 21 8 15 21 8 15 21 8 15 21 8 15 21 8 15 21 8 15 21 8 15 21 6 13 19 6 13 19 6 13 19 6 13 19 6 13 19 6 13 19 6 13 19 6 13 19 16 23 29 16 23 29 16 23 29 16 23 29 16 23 29 16 23 29 16 23 29 16 23 29 19 26 32 19 26 32 19 26 32 19 26 32 19 26 32 19 26 32 19 26 32 19 26 32 17 24 30 15 22 28 13 20 26 10 17 23 6 13 19 3 10 16 1 8 14 0 6 12 5 13 16 5 13 16 5 13 16 5 13 16 5 13 16 5 13 16 5 13 16 5 13 16 15 23 26 17 25 28 19 27 30 22 30 33 26 34 37 29 37 40 31 39 42 33 41 43 42 46 49 42 46 47 42 46 47 42 46 47 42 46 47 42 46 47 42 46 47 42 46 47 53 57 58 53 57 58 53 57 58 53 57 58 53 57 58 53 57 58 53 57 58 55 57 56 48 46 47 48 44 43 46 42 41 43 39 38 39 35 34 36 32 31 34 30 29 32 28 27 35 31 30 35 31 30 35 31 30 35 31 30 35 31 30 35 31 30 35 31 30 35 31 30 40 31 34 40 31 34 40 31 34 40 31 34 40 31 34 40 31 34 40 31 34 40 31 34 41 32 35 41 32 35 41 32 35 41 32 35 41 32 35 41 32 35 41 32 35 39 33 35
61 54 72 46 39 57 34 27 45 28 21 39 32 25 43 30 23 41 27 20 38 23 16 34 18 11 29 14 7 25 11 4 22 7 3 20 8 4 21 7 4 21 7 4 21 7 4 21 7 4 21 7 4 21 7 4 21 7 4 21 7 4 21 7 4 21 7 4 21 7 4 21 7 4 21 7 4 21 7 4 21 7 5 19 6 5 19 6 6 18 6 6 18 6 6 18 6 6 18 6 6 18 6 6 18 6 6 18 7 7 19 7 7 19 7 7 19 7 7 19 7 7 19 7 7 19 7 7 19 5 7 19 5 7 19 4 8 19 4 8 19 4 8 19 4 8 19 4 8 19 4 8 19 4 8 19 6 10 21 6 10 21 6 10 21 6 10 21 6 10 21 6 10 21 6 10 21 6 10 19 5 12 20 5 12 18 5 12 18 5 12 18 5 12 18 5 12 18 5 12 18 5 12 18 8 15 21 8 15 21 8 15 21 8 15 21 8 15 21 8 15 21 8 15 21 8 15 21 9 16 22 9 16 22 9 16 22 9 16 22 9 16 22 9 16 22 9 16 22 9 16 22 23 30 36 23 30 36 23 30 36 23 30 36 23 30 36 23 30 36 23 30 36 23 30 36 26 33 39 26 33 39 26 33 39 26 33 39 26 33 39 26 33 39 26 33 39 26 33 39 17 24 30 15 22 28 13 20 26 10 17 23 6 13 19 3 10 16 1 8 14 0 6 12 5 13 16 5 13 16 5 13 16 5 13 16 5 13 16 5 13 16 5 13 16 5 13 16 15 23 26 17 25 28 19 27 30 22 30 33 26 34 37 29 37 40 31 39 42 33 41 43 42 46 49 42 46 47 42 46 47 42 46 47 42 46 47 42 46 47 42 46 47 42 46 47 50 54 55 50 54 55 50 54 55 50 54 55 50 54 55 50 54 55 50 54 55 52 54 53 48 46 47 48 44 43 46 42 41 43 39 38 39 35 34 36 32 31 34 30 29 32 28 27 35 31 30 35 31 30 35 31 30 35 31 30 35 31 30 35 31 30 35 31 30 35 31 30 40 31 34 40 31 34 40 31 34 40 31 34 40 31 34 40 31 34 40 31 34 40 31 34 41 32 35 41 32 35 41 32 35 41 32 35 41 32 35 41 32 35 41 32 35 39 33 35
40 33 51 25 18 36 14 7 25 7 0 18 16 9 27 16 9 27 14 7 25 11 4 22 9 2 20 7 0 18 5 0 16 2 0 15 8 4 21 7 4 21 7 4 21 7 4 21 7 4 21 7 4 21 7 4 21 7 4 21 7 4 21 7 4 21 7 4 21 7 4 21 7 4 21 7 4 21 7 4 21 7 5 19 6 5 19 6 6 18 6 6 18 6 6 18 6 6 18 6 6 18 6 6 18 6 6 18 7 7 19 7 7 19 7 7 19 7 7 19 7 7 19 7 7 19 7 7 19 5 7 19 5 7 19 4 8 19 4 8 19 4 8 19 4 8 19 4 8 19 4 8 19 4 8 19 6 10 21 6 10 21 6 10 21 6 10 21 6 10 21 6 10 21 6 10 21 6 10 19 5 12 20 5 12 18 5 12 18 5 12 18 5 12 18 5 12 18 5 12 18 5 12 18 8 15 21 8 15 21 8 15 21 8 15 21 8 15 21 8 15 21 8 15 21 8 15 21 13 20 26 13 20 26 13 20 26 13 20 26 13 20 26 13 20 26 13 20 26 13 20 26 29 36 42 29 36 42 29 36 42 29 36 42 29 36 42 29 36 42 29 36 42 29 36 42 32 39 45 32 39 45 32 39 45 32 39 45 32 39 45 32 39 45 32 39 45 32 39 45 17 24 30 15 22 28 13 20 26 10 17 23 6 13 19 3 10 16 1 8 14 0 6 12 5 13 16 5 13 16 5 13 16 5 13 16 5 13 16 5 13 16 5 13 16 5 13 16 15 23 26 17 25 28 19 27 30 22 30 33 26 34 37 29 37 40 31 39 42 33 41 43 42 46 49 42 46 47 42 46 47 42 46 47 42 46 47 42 46 47 42 46 47 42 46 47 46 50 51 46 50 51 46 50 51 46 50 51 46 50 51 46 50 51 46 50 51 48 50 49 48 46 47 48 44 43 46 42 41 43 39 38 39 35 34 36 32 31 34 30 29 32 28 27 35 31 30 35 31 30 35 31 30 35 31 30 35 31 30 35 31 30 35 31 30 35 31 30 40 31 34 40 31 34 40 31 34 40 31 34 40 31 34 40 31 34 40 31 34 40 31 34 41 32 35 41 32 35 41 32 35 41 32 35 41 32 35 41 32 35 41 32 35 39 33 35
23 16 34 11 4 22 3 0 14 3 0 14 8 1 19 8 1 19 7 0 18 7 0 18 6 0 17 5 0 16 5 0 16 2 0 15 8 4 21 7 4 21 7 4 21 7 4 21 7 4 21 7 4 21 7 4 21 7 4 21 7 4 21 7 4 21 7 4 21 7 4 21 7 4 21 7 4 21 7 4 21 7 5 19 6 5 19 6 6 18 6 6 18 6 6 18 6 6 18 6 6 18 6 6 18 6 6 18 7 7 19 7 7 19 7 7 19 7 7 19 7 7 19 7 7 19 7 7 19 5 7 19 5 7 19 4 8 19 4 8 19 4 8 19 4 8 19 4 8 19 4 8 19 4 8 19 6 10 21 6 10 21 6 10 21 6 10 21 6 10 21 6 10 21 6 10 21 6 10 19 5 12 20 5 12 18 5 12 18 5 12 18 5 12 18 5 12 18 5 12 18 5 12 18 8 15 21 8 15 21 8 15 21 8 15 21 8 15 21 8 15 21 8 15 21 8 15 21 16 23 29 16 23 29 16 23 29 16 23 29 16 23 29 16 23 29 16 23 29 16 23 29 36 43 49 36 43 49 36 43 49 36 43 49 36 43 49 36 43 49 36 43 49 36 43 49 39 46 52 39 46 52 39 46 52 39 46 52 39 46 52 39 46 52 39 46 52 39 46 52 17 24 30 15 22 28 13 20 26 10 17 23 6 13 19 3 10 16 1 8 14 0 6 12 5 13 16 5 13 16 5 13 16 5 13 16 5 13 16 5 13 16 5 13 16 5 13 16 15 23 26 17 25 28 19 27 30 22 30 33 26 34 37 29 37 40 31 39 42 33 41 43 42 46 49 42 46 47 42 46 47 42 46 47 42 46 47 42 46 47 42 46 47 42 46 47 43 47 48 43 47 48 43 47 48 43 47 48 43 47 48 43 47 48 43 47 48 45 47 46 48 46 47 48 44 43 46 42 41 43 39 38 39 35 34 36 32 31 34 30 29 32 28 27 35 31 30 35 31 30 35 31 30 35 31 30 35 31 30 35 31 30 35 31 30 35 31 30 40 31 34 40 31 34 40 31 34 40 31 34 40 31 34 40 31 34 40 31 34 40 31 34 41 32 35 41 32 35 41 32 35 41 32 35 41 32 35 41 32 35 41 32 35 39 33 35
11 4 22 4 0 15 3 0 14 3 0 14 5 0 16 6 0 17 6 0 17 7 0 18 7 0 18 8 1 19 8 1 19 6 2 19 8 4 21 7 4 21 7 4 21 7 4 21 7 4 21 7 4 21 7 4 21 7 4 21 7 4 21 7 4 21 7 4 21 7 4 21 7 4 21 7 4 21 7 4 21 7 5 19 6 5 19 6 6 18 6 6 18 6 6 18 6 6 18 6 6 18 6 6 18 6 6 18 7 7 19 7 7 19 7 7 19 7 7 19 7 7 19 7 7 19 7 7 19 5 7 19 5 7 19 4 8 19 4 8 19 4 8 19 4 8 19 4 8 19 4 8 19 4 8 19 6 10 21 6 10 21 6 10 21 6 10 21 6 10 21 6 10 21 6 10 21 6 10 19 5 12 20 5 12 18 5 12 18 5 12 18 5 12 18 5 12 18 5 12 18 5 12 18 8 15 21 8 15 21 8 15 21 8 15 21 8 15 21 8 15 21 8 15 21 8 15 21 18 25 31 18 25 31 18 25 31 18 25 31 18 25 31 18 25 31 18 25 31 18 25 31 41 48 54 41 48 54 41 48 54 41 48 54 41 48 54 41 48 54 41 48 54 41 48 54 44 51 57 44 51 57 44 51 57 44 51 57 44 51 57 44 51 57 44 51 57 44 51 57 17 24 30 15 22 28 13 20 26 10 17 23 6 13 19 3 10 16 1 8 14 0 6 12 5 13 16 5 13 16 5 13 16 5 13 16 5 13 16 5 13 16 5 13 16 5 13 16 15 23 26 17 25 28 19 27 30 22 30 33 26 34 37 29 37 40 31 39 42 33 41 43 42 46 49 42 46 47 42 46 47 42 46 47 42 46 47 42 46 47 42 46 47 42 46 47 41 45 46 41 45 46 41 45 46 41 45 46 41 45 46 41 45 46 41 45 46 43 45 44 48 46 47 48 44 43 46 42 41 43 39 38 39 35 34 36 32 31 34 30 29 32 28 27 35 31 30 35 31 30 35 31 30 35 31 30 35 31 30 35 31 30 35 31 30 35 31 30 40 31 34 40 31 34 40 31 34 40 31 34 40 31 34 40 31 34 40 31 34 40 31 34 41 32 35 41 32 35 41 32 35 41 32 35 41 32 35 41 32 35 41 32 35 39 33 35
5 0 16 3 0 14 3 0 14 3 0 14 5 0 16 6 0 17 7 0 18 8 1 19 9 2 20 11 4 22 11 4 22 10 6 23 8 4 21 7 4 21 7 4 21 7 4 21 7 4 21 7 4 21 7 4 21 7 4 21 7 4 21 7 4 21 7 4 21 7 4 21 7 4 21 7 4 21 7 4 21 7 5 19 6 5 19 6 6 18 6 6 18 6 6 18 6 6 18 6 6 18 6 6 18 6 6 18 7 7 19 7 7 19 7 7 19 7 7 19 7 7 19 7 7 19 7 7 19 5 7 19 5 7 19 4 8 19 4 8 19 4 8 19 4 8 19 4 8 19 4 8 19 4 8 19 6 10 21 6 10 21 6 10 21 6 10 21 6 10 21 6 10 21 6 10 21 6 10 19 5 12 20 5 12 18 5 12 18 5 12 18 5 12 18 5 12 18 5 12 18 5 12 18 8 15 21 8 15 21 8 15 21 8 15 21 8 15 21 8 15 21 8 15 21 8 15 21 20 27 33 20 27 33 20 27 33 20 27 33 20 27 33 20 27 33 20 27 33 20 27 33 43 50 56 43 50 56 43 50 56 43 50 56 43 50 56 43 50 56 43 50 56 43 50 56 46 53 59 46 53 59 46 53 59 46 53 59 46 53 59 46 53 59 46 53 59 46 53 59 17 24 30 15 22 28 13 20 26 10 17 23 6 13 19 3 10 16 1 8 14 0 6 12 5 13 16 5 13 16 5 13 16 5 13 16 5 13 16 5 13 16 5 13 16 5 13 16 15 23 26 17 25 28 19 27 30 22 30 33 26 34 37 29 37 40 31 39 42 33 41 43 42 46 49 42 46 47 42 46 47 42 46 47 42 46 47 42 46 47 42 46 47 42 46 47 39 43 44 39 43 44 39 43 44 39 43 44 39 43 44 39 43 44 39 43 44 41 43 42 48 46 47 48 44 43 46 42 41 43 39 38 39 35 34 36 32 31 34 30 29 32 28 27 35 31 30 35 31 30 35 31 30 35 31 30 35 31 30 35 31 30 35 31 30 35 31 30 40 31 34 40 31 34 40 31 34 40 31 34 40 31 34 40 31 34 40 31 34 40 31 34 41 32 35 41 32 35 41 32 35 41 32 35 41 32 35 41 32 35 41 32 35 39 33 35
8 1 19 8 1 19 8 1 19 8 1 19 8 1 19 8 1 19 8 1 19 8 1 19 8 1 19 8 1 19 8 1 19 6 2 19 6 2 19 5 2 19 5 2 19 5 2 19 5 2 19 5 2 19 5 2 19 5 2 19 7 4 21 7 4 21 7 4 21 7 4 21 7 4 21 7 4 21 7 4 21 7 5 19 6 5 19 6 6 18 6 6 18 6 6 18 6 6 18 6 6 18 6 6 18 6 6 18 7 7 19 7 7 19 7 7 19 7 7 19 7 7 19 7 7 19 7 7 19 5 7 19 7 9 21 6 10 21 6 10 21 6 10 21 6 10 21 6 10 21 6 10 21 6 10 21 6 10 21 6 10 21 6 10 21 6 10 21 6 10 21 6 10 21 6 10 21 6 10 19 9 16 24 9 16 22 9 16 22 9 16 22 9 16 22 9 16 22 9 16 22 9 16 22 2 9 15 3 10 16 6 13 19 9 16 22 12 19 25 16 23 29 18 25 31 19 26 32 33 40 46 35 42 48 39 46 52 43 50 56 48 55 61 52 59 65 56 63 69 57 64 70 51 58 64 51 58 64 51 58 64 51 58 64 51 58 64 51 58 64 51 58 64 51 58 64 47 54 60 46 53 59 43 50 56 40 47 53 37 44 50 33 40 46 31 38 44 30 37 43 30 37 43 23 30 36 13 20 26 4 11 17 1 8 14 3 10 16 9 16 22 13 20 26 9 17 20 9 17 20 9 17 20 9 17 20 9 17 20 9 17 20 9 17 20 9 17 20 21 29 32 21 29 32 21 29 32 21 29 32 21 29 32 21 29 32 21 29 32 21 29 31 30 34 37 30 34 35 30 34 35 30 34 35 30 34 35 30 34 35 30 34 35 30 34 35 32 36 37 32 36 37 32 36 37 32 36 37 32 36 37 32 36 37 32 36 37 34 36 35 31 29 30 33 29 28 33 29 28 33 29 28 33 29 28 33 29 28 33 29 28 33 29 28 34 30 29 34 30 29 34 30 29 34 30 29 34 30 29 34 30 29 34 30 29 34 30 29 38 29 32 38 29 32 38 29 32 38 29 32 38 29 32 38 29 32 38 29 32 38 29 32 41 32 35 41 32 35 41 32 35 41 32 35 41 32 35 41 32 35 41 32 35 39 33 35
8 1 19 8 1 19 8 1 19 8 1 19 8 1 19 8 1 19 8 1 19 8 1 19 8 1 19 8 1 19 8 1 19 6 2 19 6 2 19 5 2 19 5 2 19 5 2 19 5 2 19 5 2 19 5 2 19 5 2 19 7 4 21 7 4 21 7 4 21 7 4 21 7 4 21 7 4 21 7 4 21 7 5 19 6 5 19 6 6 18 6 6 18 6 6 18 6 6 18 6 6 18 6 6 18 6 6 18 7 7 19 7 7 19 7 7 19 7 7 19 7 7 19 7 7 19 7 7 19 5 7 19 7 9 21 6 10 21 6 10 21 6 10 21 6 10 21 6 10 21 6 10 21 6 10 21 6 10 21 6 10 21 6 10 21 6 10 21 6 10 21 6 10 21 6 10 21 6 10 19 9 16 24 9 16 22 9 16 22 9 16 22 9 16 22 9 16 22 9 16 22 9 16 22 5 12 18 6 13 19 8 15 21 12 19 25 15 22 28 18 25 31 21 28 34 22 29 35 36 43 49 38 45 51 41 48 54 45 52 58 49 56 62 52 59 65 55 62 68 57 64 70 53 60 66 53 60 66 53 60 66 53 60 66 53 60 66 53 60 66 53 60 66 53 60 66 48 55 61 47 54 60 45 52 58 41 48 54 38 45 51 35 42 48 32 39 45 31 38 44 30 37 43 23 30 36 13 20 26 4 11 17 1 8 14 3 10 16 9 16 22 13 20 26 9 17 20 9 17 20 9 17 20 9 17 20 9 17 20 9 17 20 9 17 20 9 17 20 21 29 32 21 29 32 21 29 32 21 29 32 21 29 32 21 29 32 21 29 32 21 29 31 30 34 37 30 34 35 30 34 35 30 34 35 30 34 35 30 34 35 30 34 35 30 34 35 32 36 37 32 36 37 32 36 37 32 36 37 32 36 37 32 36 37 32 36 37 34 36 35 31 29 30 33 29 28 33 29 28 33 29 28 33 29 28 33 29 28 33 29 28 33 29 28 34 30 29 34 30 29 34 30 29 34 30 29 34 30 29 34 30 29 34 30 29 34 30 29 38 29 32 38 29 32 38 29 32 38 29 32 38 29 32 38 29 32 38 29 32 38 29 32 41 32 35 41 32 35 41 32 35 41 32 35 41 32 35 41 32 35 41 32 35 39 33 35
8 1 19 8 1 19 8 1 19 8 1 19 8 1 19 8 1 19 8 1 19 8 1 19 8 1 19 8 1 19 8 1 19 6 2 19 6 2 19 5 2 19 5 2 19 5 2 19 5 2 19 5 2 19 5 2 19 5 2 19 7 4 21 7 4 21 7 4 21 7 4 21 7 4 21 7 4 21 7 4 21 7 5 19 6 5 19 6 6 18 6 6 18 6 6 18 6 6 18 6 6 18 6 6 18 6 6 18 7 7 19 7 7 19 7 7 19 7 7 19 7 7 19 7 7 19 7 7 19 5 7 19 7 9 21 6 10 21 6 10 21 6 10 21 6 10 21 6 10 21 6 10 21 6 10 21 6 10 21 6 10 21 6 10 21 6 10 21 6 10 21 6 10 21 6 10 21 6 10 19 9 16 24 9 16 22 9 16 22 9 16 22 9 16 22 9 16 22 9 16 22 9 16 22 10 17 23 11 18 24 13 20 26 16 23 29 20 27 33 23 30 36 26 33 39 27 34 40 42 49 55 43 50 56 45 52 58 48 55 61 50 57 63 53 60 66 55 62 68 56 63 69 55 62 68 55 62 68 55 62 68 55 62 68 55 62 68 55 62 68 55 62 68 55 62 68 51 58 64 49 56 62 47 54 60 44 51 57 40 47 53 37 44 50 35 42 48 33 40 46 30 37 43 23 30 36 13 20 26 4 11 17 1 8 14 3 10 16 9 16 22 13 20 26 9 17 20 9 17 20 9 17 20 9 17 20 9 17 20 9 17 20 9 17 20 9 17 20 21 29 32 21 29 32 21 29 32 21 29 32 21 29 32 21 29 32 21 29 32 21 29 31 30 34 37 30 34 35 30 34 35 30 34 35 30 34 35 30 34 35 30 34 35 30 34 35 32 36 37 32 36 37 32 36 37 32 36 37 32 36 37 32 36 37 32 36 37 34 36 35 31 29 30 33 29 28 33 29 28 33 29 28 33 29 28 33 29 28 33 29 28 33 29 28 34 30 29 34 30 29 34 30 29 34 30 29 34 30 29 34 30 29 34 30 29 34 30 29 38 29 32 38 29 32 38 29 32 38 29 32 38 29 32 38 29 32 38 29 32 38 29 32 41 32 35 41 32 35 41 32 35 41 32 35 41 32 35 41 32 35 41 32 35 39 33 35
8 1 19 8 1 19 8 1 19 8 1 19 8 1 19 8 1 19 8 1 19 8 1 19 8 1 19 8 1 19 8 1 19 6 2 19 6 2 19 5 2 19 5 2 19 5 2 19 5 2 19 5 2 19 5 2 19 5 2 19 7 4 21 7 4 21 7 4 21 7 4 21 7 4 21 7 4 21 7 4 21 7 5 19 6 5 19 6 6 18 6 6 18 6 6 18 6 6 18 6 6 18 6 6 18 6 6 18 7 7 19 7 7 19 7 7 19 7 7 19 7 7 19 7 7 19 7 7 19 5 7 19 7 9 21 6 10 21 6 10 21 6 10 21 6 10 21 6 10 21 6 10 21 6 10 21 6 10 21 6 10 21 6 10 21 6 10 21 6 10 21 6 10 21 6 10 21 6 10 19 9 16 24 9 16 22 9 16 22 9 16 22 9 16 22 9 16 22 9 16 22 9 16 22 16 23 29 17 24 30 20 27 33 23 30 36 26 33 39 29 36 42 32 39 45 33 40 46 50 57 63 50 57 63 51 58 64 52 59 65 53 60 66 54 61 67 54 61 67 55 62 68 58 65 71 58 65 71 58 65 71 58 65 71 58 65 71 58 65 71 58 65 71 58 65 71 54 61 67 53 60 66 50 57 63 47 54 60 44 51 57 40 47 53 38 45 51 37 44 50 30 37 43 23 30 36 13 20 26 4 11 17 1 8 14 3 10 16 9 16 22 13 20 26 9 17 20 9 17 20 9 17 20 9 17 20 9 17 20 9 17 20 9 17 20 9 17 20 21 29 32 21 29 32 21 29 32 21 29 32 21 29 32 21 29 32 21 29 32 21 29 31 30 34 37 30 34 35 30 34 35 30 34 35 30 34 35 30 34 35 30 34 35 30 34 35 32 36 37 32 36 37 32 36 37 32 36 37 32 36 37 32 36 37 32 36 37 34 36 35 31 29 30 33 29 28 33 29 28 33 29 28 33 29 28 33 29 28 33 29 28 33 29 28 34 30 29 34 30 29 34 30 29 34 30 29 34 30 29 34 30 29 34 30 29 34 30 29 38 29 32 38 29 32 38 29 32 38 29 32 38 29 32 38 29 32 38 29 32 38 29 32 41 32 35 41 32 35 41 32 35 41 32 35 41 32 35 41 32 35 41 32 35 39 33 35
8 1 19 8 1 19 8 1 19 8 1 19 8 1 19 8 1 19 8 1 19 8 1 19 8 1 19 8 1 19 8 1 19 6 2 19 6 2 19 5 2 19 5 2 19 5 2 19 5 2 19 5 2 19 5 2 19 5 2 19 7 4 21 7 4 21 7 4 21 7 4 21 7 4 21 7 4 21 7 4 21 7 5 19 6 5 19 6 6 18 6 6 18 6 6 18 6 6 18 6 6 18 6 6 18 6 6 18 7 7 19 7 7 19 7 7 19 7 7 19 7 7 19 7 7 19 7 7 19 5 7 19 7 9 21 6 10 21 6 10 21 6 10 21 6 10 21 6 10 21 6 10 21 6 10 21 6 10 21 6 10 21 6 10 21 6 10 21 6 10 21 6 10 21 6 10 21 6 10 19 9 16 24 9 16 22 9 16 22 9 16 22 9 16 22 9 16 22 9 16 22 9 16 22 23 30 36 24 31 37 27 34 40 30 37 43 33 40 46 36 43 49 39 46 52 40 47 53 58 65 71 58 65 71 57 64 70 56 63 69 55 62 68 54 61 67 54 61 67 53 60 66 62 69 75 62 69 75 62 69 75 62 69 75 62 69 75 62 69 75 62 69 75 62 69 75 57 64 70 56 63 69 54 61 67 50 57 63 47 54 60 44 51 57 41 48 54 40 47 53 30 37 43 23 30 36 13 20 26 4 11 17 1 8 14 3 10 16 9 16 22 13 20 26 9 17 20 9 17 20 9 17 20 9 17 20 9 17 20 9 17 20 9 17 20 9 17 20 21 29 32 21 29 32 21 29 32 21 29 32 21 29 32 21 29 32 21 29 32 21 29 31 30 34 37 30 34 35 30 34 35 30 34 35 30 34 35 30 34 35 30 34 35 30 34 35 32 36 37 32 36 37 32 36 37 32 36 37 32 36 37 32 36 37 32 36 37 34 36 35 31 29 30 33 29 28 33 29 28 33 29 28 33 29 28 33 29 28 33 29 28 33 29 28 34 30 29 34 30 29 34 30 29 34 30 29 34 30 29 34 30 29 34 30 29 34 30 29 38 29 32 38 29 32 38 29 32 38 29 32 38 29 32 38 29 32 38 29 32 38 29 32 41 32 35 41 32 35 41 32 35 41 32 35 41 32 35 41 32 35 41 32 35 39 33 35
8 1 19 8 1 19 8 1 19 8 1 19 8 1 19 8 1 19 8 1 19 8 1 19 8 1 19 8 1 19 8 1 19 6 2 19 6 2 19 5 2 19 5 2 19 5 2 19 5 2 19 5 2 19 5 2 19 5 2 19 7 4 21 7 4 21 7 4 21 7 4 21 7 4 21 7 4 21 7 4 21 7 5 19 6 5 19 6 6 18 6 6 18 6 6 18 6 6 18 6 6 18 6 6 18 6 6 18 7 7 19 7 7 19 7 7 19 7 7 19 7 7 19 7 7 19 7 7 19 5 7 19 7 9 21 6 10 21 6 10 21 6 10 21 6 10 21 6 10 21 6 10 21 6 10 21 6 10 21 6 10 21 6 10 21 6 10 21 6 10 21 6 10 21 6 10 21 6 10 19 9 16 24 9 16 22 9 16 22 9 16 22 9 16 22 9 16 22 9 16 22 9 16 22 29 36 42 30 37 43 33 40 46 36 43 49 40 47 53 43 50 56 45 52 58 46 53 59 66 73 79 65 72 78 63 70 76 60 67 73 58 65 71 55 62 68 53 60 66 52 59 65 65 72 78 65 72 78 65 72 78 65 72 78 65 72 78 65 72 78 65 72 78 65 72 78 61 68 74 59 66 72 57 64 70 54 61 67 50 57 63 47 54 60 45 52 58 43 50 56 30 37 43 23 30 36 13 20 26 4 11 17 1 8 14 3 10 16 9 16 22 13 20 26 9 17 20 9 17 20 9 17 20 9 17 20 9 17 20 9 17 20 9 17 20 9 17 20 21 29 32 21 29 32 21 29 32 21 29 32 21 29 32 21 29 32 21 29 32 21 29 31 30 34 37 30 34 35 30 34 35 30 34 35 30 34 35 30 34 35 30 34 35 30 34 35 32 36 37 32 36 37 32 36 37 32 36 37 32 36 37 32 36 37 32 36 37 34 36 35 31 29 30 33 29 28 33 29 28 33 29 28 33 29 28 33 29 28 33 29 28 33 29 28 34 30 29 34 30 29 34 30 29 34 30 29 34 30 29 34 30 29 34 30 29 34 30 29 38 29 32 38 29 32 38 29 32 38 29 32 38 29 32 38 29 32 38 29 32 38 29 32 41 32 35 41 32 35 41 32 35 41 32 35 41 32 35 41 32 35 41 32 35 39 33 35
8 1 19 8 1 19 8 1 19 8 1 19 8 1 19 8 1 19 8 1 19 8 1 19 8 1 19 8 1 19 8 1 19 6 2 19 6 2 19 5 2 19 5 2 19 5 2 19 5 2 19 5 2 19 5 2 19 5 2 19 7 4 21 7 4 21 7 4 21 7 4 21 7 4 21 7 4 21 7 4 21 7 5 19 6 5 19 6 6 18 6 6 18 6 6 18 6 6 18 6 6 18 6 6 18 6 6 18 7 7 19 7 7 19 7 7 19 7 7 19 7 7 19 7 7 19 7 7 19 5 7 19 7 9 21 6 10 21 6 10 21 6 10 21 6 10 21 6 10 21 6 10 21 6 10 21 6 10 21 6 10 21 6 10 21 6 10 21 6 10 21 6 10 21 6 10 21 6 10 19 9 16 24 9 16 22 9 16 22 9 16 22 9 16 22 9 16 22 9 16 22 9 16 22 34 41 47 35 42 48 38 45 51 41 48 54 44 51 57 48 55 61 50 57 63 51 58 64 72 79 85 70 77 83 67 74 80 63 70 76 59 66 72 56 63 69 53 60 66 51 58 64 67 74 80 67 74 80 67 74 80 67 74 80 67 74 80 67 74 80 67 74 80 67 74 80 63 70 76 62 69 75 59 66 72 56 63 69 53 60 66 49 56 62 47 54 60 46 53 59 30 37 43 23 30 36 13 20 26 4 11 17 1 8 14 3 10 16 9 16 22 13 20 26 9 17 20 9 17 20 9 17 20 9 17 20 9 17 20 9 17 20 9 17 20 9 17 20 21 29 32 21 29 32 21 29 32 21 29 32 21 29 32 21 29 32 21 29 32 21 29 31 30 34 37 30 34 35 30 34 35 30 34 35 30 34 35 30 34 35 30 34 35 30 34 35 32 36 37 32 36 37 32 36 37 32 36 37 32 36 37 32 36 37 32 36 37 34 36 35 31 29 30 33 29 28 33 29 28 33 29 28 33 29 28 33 29 28 33 29 28 33 29 28 34 30 29 34 30 29 34 30 29 34 30 29 34 30 29 34 30 29 34 30 29 34 30 29 38 29 32 38 29 32 38 29 32 38 29 32 38 29 32 38 29 32 38 29 32 38 29 32 41 32 35 41 32 35 41 32 35 41 32 35 41 32 35 41 32 35 41 32 35 39 33 35
8 1 19 6 2 17 8 1 19 6 2 17 8 1 19 6 2 17 8 1 19 6 2 17 8 1 19 6 2 17 8 1 19 6 2 17 5 2 19 5 3 17 5 2 19 5 3 17 5 2 19 5 3 17 5 2 19 5 3 17 7 4 21 7 5 19 7 4 21 7 5 19 7 4 21 7 5 19 7 4 21 7 5 19 6 6 18 6 6 18 6 6 18 6 6 18 6 6 18 6 6 18 6 6 18 6 6 18 7 7 19 7 7 19 7 7 19 7 7 19 7 7 19 7 7 19 7 7 19 5 7 19 6 10 21 6 10 21 6 10 21 6 10 21 6 10 21 6 10 21 6 10 21 6 10 21 6 10 21 6 10 21 6 10 21 6 10 21 6 10 21 6 10 21 6 10 21 6 10 19 9 16 22 9 16 22 9 16 22 9 16 22 9 16 22 9 16 22 9 16 22 9 16 22 37 44 50 38 45 51 40 47 53 44 51 57 47 54 60 50 57 63 53 60 66 54 61 67 75 82 88 73 80 86 69 76 82 65 72 78 60 67 73 56 63 69 52 59 65 51 58 64 69 76 82 69 76 82 69 76 82 69 76 82 69 76 82 69 76 82 69 76 82 69 76 82 64 71 77 63 70 76 61 68 74 57 64 70 54 61 67 51 58 64 48 55 61 47 54 60 30 37 43 23 30 36 13 20 26 4 11 17 1 8 14 3 10 16 9 16 22 13 20 26 9 17 20 9 17 20 9 17 20 9 17 20 9 17 20 9 17 20 9 17 20 9 17 20 21 29 32 21 29 32 21 29 32 21 29 32 21 29 32 21 29 32 21 29 32 21 29 32 29 34 37 30 34 35 30 34 37 30 34 35 30 34 37 30 34 35 30 34 37 30 34 35 32 36 39 32 36 37 32 36 39 32 36 37 32 36 39 32 36 37 32 36 39 34 35 37 31 29 30 33 29 28 33 29 28 33 29 28 33 29 28 33 29 28 33 29 28 33 29 28 34 30 29 34 30 29 34 30 29 34 30 29 34 30 29 34 30 29 34 30 29 35 29 29 38 29 32 38 29 32 38 29 32 38 29 32 38 29 32 38 29 32 38 29 32 38 29 32 41 32 35 41 32 35 41 32 35 41 32 35 41 32 35 41 32 35 41 32 35 41 32 33
6 2 17 5 3 16 6 2 17 5 3 16 7 3 18 6 4 17 7 3 18 6 4 17 7 3 18 6 4 17 7 3 18 6 4 17 5 3 17 5 3 16 5 3 17 5 3 16 5 3 17 5 3 16 5 3 17 5 3 16 5 3 17 5 3 16 5 3 17 5 3 16 5 3 17 5 3 16 5 3 17 5 3 16 5 5 17 5 5 15 5 5 15 5 5 15 5 5 15 5 5 15 5 5 15 5 5 15 9 9 19 9 9 19 9 9 19 9 9 19 9 9 19 9 9 19 9 9 19 7 10 19 6 10 19 4 11 19 4 11 19 4 11 19 4 11 19 4 11 19 4 11 19 4 11 19 16 23 31 15 22 30 14 21 29 13 20 28 12 19 27 10 17 25 9 16 24 9 16 24 20 27 33 21 28 34 24 31 37 27 34 40 30 37 43 34 41 47 36 43 49 37 44 50 63 70 76 63 70 76 63 70 76 63 70 76 63 70 76 63 70 76 63 70 76 63 70 76 65 70 76 65 70 76 65 70 76 65 70 76 65 70 76 65 70 76 65 70 76 65 70 76 78 83 89 78 83 89 78 83 89 78 83 89 78 83 89 78 83 89 78 83 89 78 83 89 68 75 81 66 73 79 64 71 77 61 68 74 57 64 70 54 61 67 52 59 65 50 57 63 29 36 42 22 29 35 12 19 25 3 10 16 0 7 13 2 9 15 8 15 21 12 19 25 12 22 24 12 22 24 12 22 24 12 22 24 12 22 24 12 22 24 12 22 24 12 22 24 24 34 36 24 34 36 24 34 36 24 34 36 24 34 36 24 34 36 24 34 36 25 33 36 24 29 33 24 29 32 24 29 33 24 29 32 24 29 33 24 29 32 24 29 33 24 29 32 21 26 30 21 26 29 21 26 30 21 26 29 21 26 30 21 26 29 21 26 30 24 25 29 30 28 29 33 27 27 33 27 27 33 27 27 33 27 27 33 27 27 33 27 27 33 27 27 35 29 29 35 29 29 35 29 29 35 29 29 35 29 29 35 29 29 35 29 29 35 29 29 39 30 31 40 30 31 40 30 31 40 30 31 40 30 31 40 30 31 40 30 31 40 30 31 40 30 31 40 30 31 40 30 31 40 30 31 40 30 31 40 30 31 40 30 31 39 30 31
5 3 16 5 3 16 5 3 16 5 3 16 6 4 17 6 4 17 6 4 17 6 4 17 6 4 17 6 4 17 6 4 17 6 4 17 5 3 16 5 3 16 5 3 16 5 3 16 5 3 16 5 3 16 5 3 16 5 3 16 5 3 16 5 3 16 5 3 16 5 3 16 5 3 16 5 3 16 5 3 16 5 3 16 5 5 15 5 5 15 5 5 15 5 5 15 5 5 15 5 5 15 5 5 15 5 5 15 9 9 19 9 9 19 9 9 19 9 9 19 9 9 19 9 9 19 9 9 19 7 10 19 6 10 19 4 11 19 4 11 19 4 11 19 4 11 19 4 11 19 4 11 19 4 11 19 11 18 26 11 18 26 10 17 25 10 17 25 9 16 24 8 15 23 8 15 23 8 15 23 23 30 36 24 31 37 26 33 39 30 37 43 33 40 46 36 43 49 39 46 52 40 47 53 63 70 76 63 70 76 63 70 76 63 70 76 63 70 76 63 70 76 63 70 76 63 70 76 67 72 78 67 72 78 67 72 78 67 72 78 67 72 78 67 72 78 67 72 78 67 72 78 78 83 89 78 83 89 78 83 89 78 83 89 78 83 89 78 83 89 78 83 89 78 83 89 68 75 81 66 73 79 64 71 77 61 68 74 57 64 70 54 61 67 52 59 65 50 57 63 29 36 42 22 29 35 12 19 25 3 10 16 0 7 13 2 9 15 8 15 21 12 19 25 12 22 24 12 22 24 12 22 24 12 22 24 12 22 24 12 22 24 12 22 24 12 22 24 22 32 34 22 32 34 22 32 34 22 32 34 22 32 34 22 32 34 22 32 34 22 32 34 24 29 33 24 29 33 24 29 33 24 29 33 24 29 33 24 29 33 24 29 33 24 29 33 21 26 30 21 26 30 21 26 30 21 26 30 21 26 30 21 26 30 21 26 30 22 26 29 32 28 29 33 27 27 33 27 27 33 27 27 33 27 27 33 27 27 33 27 27 33 27 27 35 29 29 35 29 29 35 29 29 35 29 29 35 29 29 35 29 29 35 29 29 35 29 29 40 30 31 40 30 31 40 30 31 40 30 31 40 30 31 40 30 31 40 30 31 40 30 31 40 30 31 40 30 31 40 30 31 40 30 31 40 30 31 40 30 31 40 30 31 40 30 31
5 3 16 5 3 16 5 3 16 5 3 16 6 4 17 6 4 17 6 4 17 6 4 17 6 4 17 6 4 17 6 4 17 6 4 17 5 3 16 5 3 16 5 3 16 5 3 16 5 3 16 5 3 16 5 3 16 5 3 16 5 3 16 5 3 16 5 3 16 5 3 16 5 3 16 5 3 16 5 3 16 5 3 16 5 5 15 5 5 15 5 5 15 5 5 15 5 5 15 5 5 15 5 5 15 5 5 15 9 9 19 9 9 19 9 9 19 9 9 19 9 9 19 9 9 19 9 9 19 7 10 19 6 10 19 4 11 19 4 11 19 4 11 19 4 11 19 4 11 19 4 11 19 4 11 19 4 11 19 5 12 20 5 12 20 6 13 21 7 14 22 7 14 22 8 15 23 8 15 23 28 35 41 29 36 42 31 38 44 34 41 47 38 45 51 41 48 54 44 51 57 45 52 58 63 70 76 63 70 76 63 70 76 63 70 76 63 70 76 63 70 76 63 70 76 63 70 76 69 74 80 69 74 80 69 74 80 69 74 80 69 74 80 69 74 80 69 74 80 69 74 80 78 83 89 78 83 89 78 83 89 78 83 89 78 83 89 78 83 89 78 83 89 78 83 89 68 75 81 66 73 79 64 71 77 61 68 74 57 64 70 54 61 67 52 59 65 50 57 63 29 36 42 22 29 35 12 19 25 3 10 16 0 7 13 2 9 15 8 15 21 12 19 25 12 22 24 12 22 24 12 22 24 12 22 24 12 22 24 12 22 24 12 22 24 12 22 24 20 30 32 20 30 32 20 30 32 20 30 32 20 30 32 20 30 32 20 30 32 20 30 32 24 29 33 24 29 33 24 29 33 24 29 33 24 29 33 24 29 33 24 29 33 24 29 33 21 26 30 21 26 30 21 26 30 21 26 30 21 26 30 21 26 30 21 26 30 22 26 29 32 28 29 33 27 27 33 27 27 33 27 27 33 27 27 33 27 27 33 27 27 33 27 27 35 29 29 35 29 29 35 29 29 35 29 29 35 29 29 35 29 29 35 29 29 35 29 29 40 30 31 40 30 31 40 30 31 40 30 31 40 30 31 40 30 31 40 30 31 40 30 31 40 30 31 40 30 31 40 30 31 40 30 31 40 30 31 40 30 31 40 30 31 40 30 31
