P3
172 37
255
0 0 0 0 0 0 0 0 0 0 0 0 0 0 0 0 0 0 0 0 0 0 0 0 0 0 0 0 0 0 0 0 0 0 0 0 0 0 0 0 0 0 0 0 0 0 0 0 0 0 0 0 0 0 0 0 0 0 0 0 0 0 0 0 0 0 0 0 0 0 0 0 0 0 0 0 0 0 0 0 0 0 0 0 0 0 0 0 0 0 0 0 0 0 0 0 0 0 0 0 0 0 0 0 0 0 0 0 0 0 0 0 0 0 0 0 0 0 0 0 0 0 0 0 0 0 0 0 0 0 0 0 0 0 0 0 0 0 0 0 0 0 0 0 0 0 0 0 0 0 0 0 0 0 0 0 0 0 0 0 0 0 0 0 0 0 0 0 0 0 0 0 0 0 0 0 0 0 0 0 0 0 0 0 0 0 0 0 0 0 0 0 0 0 0 0 0 0 0 0 0 0 0 0 0 0 0 0 0 0 0 0 0 0 0 0 0 0 0 0 0 0 0 0 0 0 0 0 0 0 2 0 0 2 0 0 2 0 0 2 0 0 2 0 0 2 0 0 2 0 0 2 0 0 2 0 0 2 0 0 2 0 0 2 0 0 2 0 0 2 0 0 2 0 0 2 0 1 2 0 2 2 0 2 2 0 5 5 3 9 9 6 12 12 8 14 14 10 16 16 16 22 22 16 22 22 16 22 22 16 22 22 16 22 22 16 22 22 16 22 22 16 22 22 18 22 21 18 22 21 18 22 21 18 22 21 18 22 21 18 22 21 18 22 21 18 22 21 0 1 0 0 2 1 1 5 4 4 8 7 7 11 10 11 15 14 13 17 16 14 18 17 41 43 40 44 46 43 49 51 48 55 57 54 62 64 61 68 70 67 73 75 72 76 78 75 86 88 85 87 89 86 90 92 89 93 95 92 96 98 95 100 102 99 102 104 101 103 105 102 103 105 102 106 108 105 110 112 109 110 112 109 103 105 102 92 94 91 80 82 79 72 74 71 35 37 34 35 37 34 35 37 34 35 37 34 35 37 34 35 37 34 35 37 34 35 37 34 33 32 28 33 32 28 33 32 28 33 32 28 33 32 28 33 32 28 33 32 28 33 32 28 36 35 31 36 35 31 36 35 31 36 35 31 36 35 31 36 35 31 36 35 31 36 35 31
0 0 0 0 0 0 0 0 0 0 0 0 0 0 0 0 0 0 0 0 0 0 0 0 0 0 0 0 0 0 0 0 0 0 0 0 0 0 0 0 0 0 0 0 0 0 0 0 0 0 0 0 0 0 0 0 0 0 0 0 0 0 0 0 0 0 0 0 0 0 0 0 0 0 0 0 0 0 0 0 0 0 0 0 0 0 0 0 0 0 0 0 0 0 0 0 0 0 0 0 0 0 0 0 0 0 0 0 0 0 0 0 0 0 0 0 0 0 0 0 0 0 0 0 0 0 0 0 0 0 0 0 0 0 0 0 0 0 0 0 0 0 0 0 0 0 0 0 0 0 0 0 0 0 0 0 0 0 0 0 0 0 0 0 0 0 0 0 0 0 0 0 0 0 0 0 0 0 0 0 0 0 0 0 0 0 0 0 0 0 0 0 0 0 0 0 0 0 0 0 0 0 0 0 0 0 0 0 0 0 0 0 0 0 0 0 0 0 0 0 0 0 0 0 0 0 0 0 0 0 2 0 0 2 0 0 2 0 0 2 0 0 2 0 0 2 0 0 2 0 0 2 0 0 2 0 0 2 0 0 2 0 0 2 0 0 2 0 0 2 0 0 2 0 0 2 0 1 2 0 2 2 0 2 2 0 5 5 3 9 9 6 12 12 8 14 14 10 16 16 16 22 22 16 22 22 16 22 22 16 22 22 16 22 22 16 22 22 16 22 22 16 22 22 18 22 21 18 22 21 18 22 21 18 22 21 18 22 21 18 22 21 18 22 21 18 22 21 0 1 0 0 1 0 0 3 2 3 7 6 6 10 9 9 13 12 12 16 15 13 17 16 38 43 39 41 46 42 48 50 47 52 57 53 61 63 60 65 70 66 72 74 71 73 78 74 85 87 84 84 89 85 88 90 87 90 95 91 95 97 94 96 101 97 101 103 100 102 104 101 101 103 100 105 107 102 109 111 108 109 111 106 104 106 103 93 95 90 81 83 80 73 75 70 35 37 34 35 37 32 35 37 34 35 37 32 35 37 34 35 37 32 35 37 34 36 37 32 33 32 30 33 32 28 33 32 30 33 32 28 33 32 30 33 32 28 33 32 30 33 32 28 36 35 33 36 35 31 36 35 33 36 35 31 36 35 33 36 35 31 36 35 33 36 35 33
0 0 0 0 0 0 0 0 0 0 0 0 0 0 0 0 0 0 0 0 0 0 0 0 0 0 0 0 0 0 0 0 0 0 0 0 0 0 0 0 0 0 0 0 0 0 0 0 0 0 0 0 0 0 0 0 0 0 0 0 0 0 0 0 0 0 0 0 0 0 0 0 0 0 0 0 0 0 0 0 0 0 0 0 0 0 0 0 0 0 0 0 0 0 0 0 0 0 0 0 0 0 0 0 0 0 0 0 0 0 0 0 0 0 0 0 0 0 0 0 0 0 0 0 0 0 0 0 0 0 0 0 0 0 0 0 0 0 0 0 0 0 0 0 0 0 0 0 0 0 0 0 0 0 0 0 0 0 0 0 0 0 0 0 0 0 0 0 0 0 0 0 0 0 0 0 0 0 0 0 0 0 0 0 0 0 0 0 0 0 0 0 0 0 0 0 0 0 0 0 0 0 0 0 0 0 0 0 0 0 0 0 0 0 0 0 0 0 0 0 0 0 0 0 0 0 0 0 0 0 0 0 0 0 0 0 0 0 0 0 0 0 0 0 0 0 0 0 0 0 0 0 0 0 0 0 0 0 0 0 0 0 0 0 0 0 0 0 0 0 0 0 0 0 1 0 0 2 2 0 5 4 0 7 6 1 10 9 5 14 13 8 17 16 10 19 18 12 21 20 12 21 20 12 21 20 12 21 20 12 21 20 12 21 20 12 21 20 12 21 20 14 20 20 21 25 24 19 23 22 17 21 20 14 18 17 10 14 13 7 11 10 5 9 8 3 7 6 0 1 0 0 1 0 0 2 1 1 5 4 5 9 8 8 12 11 10 14 13 12 16 15 40 45 41 42 48 44 48 53 49 53 59 55 61 66 62 66 72 68 72 77 73 74 80 76 77 82 78 77 83 79 81 86 82 83 89 85 87 92 88 90 96 92 93 98 94 94 99 95 102 104 99 106 107 101 109 110 105 109 110 104 102 103 98 90 91 85 77 78 73 69 70 64 37 38 33 37 38 32 37 38 33 37 38 32 37 38 33 37 38 32 37 38 33 37 38 33 33 32 30 33 32 30 33 31 32 33 32 30 33 31 32 33 32 30 33 31 32 33 32 30 31 29 30 31 30 28 31 29 30 31 30 28 31 29 30 31 30 28 31 29 30 31 30 28
0 0 0 0 0 0 0 0 0 0 0 0 0 0 0 0 0 0 0 0 0 0 0 0 0 0 0 0 0 0 0 0 0 0 0 0 0 0 0 0 0 0 0 0 0 0 0 0 0 0 0 0 0 0 0 0 0 0 0 0 0 0 0 0 0 0 0 0 0 0 0 0 0 0 0 0 0 0 0 0 0 0 0 0 0 0 0 0 0 0 0 0 0 0 0 0 0 0 0 0 0 0 0 0 0 0 0 0 0 0 0 0 0 0 0 0 0 0 0 0 0 0 0 0 0 0 0 0 0 0 0 0 0 0 0 0 0 0 0 0 0 0 0 0 0 0 0 0 0 0 0 0 0 0 0 0 0 0 0 0 0 0 0 0 0 0 0 0 0 0 0 0 0 0 0 0 0 0 0 0 0 0 0 0 0 0 0 0 0 0 0 0 0 0 0 0 0 0 0 0 0 0 0 0 0 0 0 0 0 0 0 0 0 0 0 0 0 0 0 0 0 0 0 0 0 0 0 0 0 0 0 0 0 0 0 0 0 0 0 0 0 0 0 0 0 0 0 0 0 0 0 0 0 0 0 0 0 0 0 0 0 0 0 0 0 0 0 0 0 0 0 0 0 0 1 0 0 2 2 0 5 4 0 7 6 1 10 9 5 14 13 8 17 16 10 19 18 12 21 20 12 21 20 12 21 20 12 21 20 12 21 20 12 21 20 12 21 20 12 21 20 12 21 20 21 25 24 19 23 22 17 21 20 14 18 17 10 14 13 7 11 10 5 9 8 3 7 6 0 1 0 0 1 0 0 2 1 1 5 4 5 9 8 8 12 11 10 14 13 12 16 15 38 44 40 41 47 43 46 52 48 52 58 54 59 65 61 65 71 67 70 76 72 73 79 75 75 81 77 76 82 78 78 84 80 82 88 84 85 91 87 88 94 90 91 97 93 93 98 92 101 103 98 105 106 100 108 109 103 107 108 102 101 102 96 89 90 84 76 77 71 67 68 62 37 38 32 37 38 32 37 38 32 37 38 32 37 38 32 37 38 32 37 38 32 37 38 33 33 32 30 33 31 32 33 31 32 33 31 32 33 31 32 33 31 32 33 31 32 33 31 32 31 29 30 31 29 30 31 29 30 31 29 30 31 29 30 31 29 30 31 29 30 31 29 30
0 0 0 0 0 0 0 0 0 0 0 0 0 0 0 0 0 0 0 0 0 0 0 0 0 0 0 0 0 0 0 0 0 0 0 0 0 0 0 0 0 0 0 0 0 0 0 0 0 0 0 0 0 0 0 0 0 0 0 0 0 0 0 0 0 0 0 0 0 0 0 0 0 0 0 0 0 0 0 0 0 0 0 0 0 0 0 0 0 0 0 0 0 0 0 0 0 0 0 0 0 0 0 0 0 0 0 0 0 0 0 0 0 0 0 0 0 0 0 0 0 0 0 0 0 0 0 0 0 0 0 0 0 0 0 0 0 0 0 0 0 0 0 0 0 0 0 0 0 0 0 0 0 0 0 0 0 0 0 0 0 0 0 0 0 0 0 0 0 0 0 0 0 0 0 0 0 0 0 0 0 0 0 0 0 0 0 0 0 0 0 0 0 0 0 0 0 0 0 0 0 0 0 0 0 0 0 0 0 0 0 0 0 0 0 0 0 0 0 0 0 0 0 0 0 0 0 0 0 0 0 0 0 0 0 0 0 0 0 0 0 0 0 0 0 0 0 0 0 0 0 0 0 0 0 0 0 0 0 0 0 0 0 0 0 0 0 0 0 0 0 0 0 0 1 0 0 2 2 0 5 4 0 7 6 1 10 9 5 14 13 8 17 16 10 19 18 12 21 20 12 21 20 12 21 20 12 21 20 12 21 20 12 21 20 12 21 20 12 21 20 12 21 20 21 25 24 19 23 22 17 21 20 14 18 17 10 14 13 7 11 10 5 9 8 3 7 6 0 1 0 0 1 0 0 2 1 1 5 4 5 9 8 8 12 11 10 14 13 12 16 15 36 42 38 38 44 40 43 49 45 49 55 51 56 62 58 63 69 65 68 74 70 70 76 72 72 78 74 74 80 76 76 82 78 79 85 81 83 89 85 86 92 88 88 94 90 91 96 90 99 101 96 103 104 98 106 107 101 105 106 100 98 99 93 86 87 81 73 74 68 65 66 60 37 38 32 37 38 32 37 38 32 37 38 32 37 38 32 37 38 32 37 38 32 37 38 33 33 32 30 33 31 32 33 31 32 33 31 32 33 31 32 33 31 32 33 31 32 33 31 32 31 29 30 31 29 30 31 29 30 31 29 30 31 29 30 31 29 30 31 29 30 31 29 30
0 0 0 0 0 0 0 0 0 0 0 0 0 0 0 0 0 0 0 0 0 0 0 0 0 0 0 0 0 0 0 0 0 0 0 0 0 0 0 0 0 0 0 0 0 0 0 0 0 0 0 0 0 0 0 0 0 0 0 0 0 0 0 0 0 0 0 0 0 0 0 0 0 0 0 0 0 0 0 0 0 0 0 0 0 0 0 0 0 0 0 0 0 0 0 0 0 0 0 0 0 0 0 0 0 0 0 0 0 0 0 0 0 0 0 0 0 0 0 0 0 0 0 0 0 0 0 0 0 0 0 0 0 0 0 0 0 0 0 0 0 0 0 0 0 0 0 0 0 0 0 0 0 0 0 0 0 0 0 0 0 0 0 0 0 0 0 0 0 0 0 0 0 0 0 0 0 0 0 0 0 0 0 0 0 0 0 0 0 0 0 0 0 0 0 0 0 0 0 0 0 0 0 0 0 0 0 0 0 0 0 0 0 0 0 0 0 0 0 0 0 0 0 0 0 0 0 0 0 0 0 0 0 0 0 0 0 0 0 0 0 0 0 0 0 0 0 0 0 0 0 0 0 0 0 0 0 0 0 0 0 0 0 0 0 0 0 0 0 0 0 0 0 0 1 0 0 2 2 0 5 4 0 7 6 1 10 9 5 14 13 8 17 16 10 19 18 12 21 20 12 21 20 12 21 20 12 21 20 12 21 20 12 21 20 12 21 20 12 21 20 12 21 20 21 25 24 19 23 22 17 21 20 14 18 17 10 14 13 7 11 10 5 9 8 3 7 6 0 1 0 0 1 0 0 2 1 1 5 4 5 9 8 8 12 11 10 14 13 12 16 15 32 38 34 35 41 37 40 46 42 46 52 48 53 59 55 60 66 62 64 70 66 67 73 69 69 75 71 70 76 72 73 79 75 76 82 78 79 85 81 83 89 85 85 91 87 87 92 86 95 97 92 99 100 94 103 104 98 102 103 97 95 96 90 83 84 78 70 71 65 62 63 57 37 38 32 37 38 32 37 38 32 37 38 32 37 38 32 37 38 32 37 38 32 37 38 33 33 32 30 33 31 32 33 31 32 33 31 32 33 31 32 33 31 32 33 31 32 33 31 32 31 29 30 31 29 30 31 29 30 31 29 30 31 29 30 31 29 30 31 29 30 31 29 30
0 0 0 0 0 0 0 0 0 0 0 0 0 0 0 0 0 0 0 0 0 0 0 0 0 0 0 0 0 0 0 0 0 0 0 0 0 0 0 0 0 0 0 0 0 0 0 0 0 0 0 0 0 0 0 0 0 0 0 0 0 0 0 0 0 0 0 0 0 0 0 0 0 0 0 0 0 0 0 0 0 0 0 0 0 0 0 0 0 0 0 0 0 0 0 0 0 0 0 0 0 0 0 0 0 0 0 0 0 0 0 0 0 0 0 0 0 0 0 0 0 0 0 0 0 0 0 0 0 0 0 0 0 0 0 0 0 0 0 0 0 0 0 0 0 0 0 0 0 0 0 0 0 0 0 0 0 0 0 0 0 0 0 0 0 0 0 0 0 0 0 0 0 0 0 0 0 0 0 0 0 0 0 0 0 0 0 0 0 0 0 0 0 0 0 0 0 0 0 0 0 0 0 0 0 0 0 0 0 0 0 0 0 0 0 0 0 0 0 0 0 0 0 0 0 0 0 0 0 0 0 0 0 0 0 0 0 0 0 0 0 0 0 0 0 0 0 0 0 0 0 0 0 0 0 0 0 0 0 0 0 0 0 0 0 0 0 0 0 0 0 0 0 0 1 0 0 2 2 0 5 4 0 7 6 1 10 9 5 14 13 8 17 16 10 19 18 12 21 20 12 21 20 12 21 20 12 21 20 12 21 20 12 21 20 12 21 20 12 21 20 12 21 20 21 25 24 19 23 22 17 21 20 14 18 17 10 14 13 7 11 10 5 9 8 3 7 6 0 1 0 0 1 0 0 2 1 1 5 4 5 9 8 8 12 11 10 14 13 12 16 15 29 35 31 32 38 34 36 42 38 43 49 45 50 56 52 56 62 58 61 67 63 64 70 66 66 72 68 67 73 69 69 75 71 73 79 75 76 82 78 79 85 81 82 88 84 84 89 83 92 94 89 96 97 91 99 100 94 98 99 93 91 92 86 79 80 74 67 68 62 58 59 53 37 38 32 37 38 32 37 38 32 37 38 32 37 38 32 37 38 32 37 38 32 37 38 33 33 32 30 33 31 32 33 31 32 33 31 32 33 31 32 33 31 32 33 31 32 33 31 32 31 29 30 31 29 30 31 29 30 31 29 30 31 29 30 31 29 30 31 29 30 31 29 30
0 0 0 0 0 0 0 0 0 0 0 0 0 0 0 0 0 0 0 0 0 0 0 0 0 0 0 0 0 0 0 0 0 0 0 0 0 0 0 0 0 0 0 0 0 0 0 0 0 0 0 0 0 0 0 0 0 0 0 0 0 0 0 0 0 0 0 0 0 0 0 0 0 0 0 0 0 0 0 0 0 0 0 0 0 0 0 0 0 0 0 0 0 0 0 0 0 0 0 0 0 0 0 0 0 0 0 0 0 0 0 0 0 0 0 0 0 0 0 0 0 0 0 0 0 0 0 0 0 0 0 0 0 0 0 0 0 0 0 0 0 0 0 0 0 0 0 0 0 0 0 0 0 0 0 0 0 0 0 0 0 0 0 0 0 0 0 0 0 0 0 0 0 0 0 0 0 0 0 0 0 0 0 0 0 0 0 0 0 0 0 0 0 0 0 0 0 0 0 0 0 0 0 0 0 0 0 0 0 0 0 0 0 0 0 0 0 0 0 0 0 0 0 0 0 0 0 0 0 0 0 0 0 0 0 0 0 0 0 0 0 0 0 0 0 0 0 0 0 0 0 0 0 0 0 0 0 0 0 0 0 0 0 0 0 0 0 0 0 0 0 0 0 0 1 0 0 2 2 0 5 4 0 7 6 1 10 9 5 14 13 8 17 16 10 19 18 12 21 20 12 21 20 12 21 20 12 21 20 12 21 20 12 21 20 12 21 20 12 21 20 12 21 20 21 25 24 19 23 22 17 21 20 14 18 17 10 14 13 7 11 10 5 9 8 3 7 6 0 1 0 0 1 0 0 2 1 1 5 4 5 9 8 8 12 11 10 14 13 12 16 15 26 32 28 28 34 30 33 39 35 40 46 42 47 53 49 53 59 55 58 64 60 60 66 62 62 68 64 64 70 66 66 72 68 69 75 71 73 79 75 76 82 78 78 84 80 81 86 80 89 91 86 93 94 88 96 97 91 95 96 90 88 89 83 76 77 71 63 64 58 55 56 50 37 38 32 37 38 32 37 38 32 37 38 32 37 38 32 37 38 32 37 38 32 37 38 33 33 32 30 33 31 32 33 31 32 33 31 32 33 31 32 33 31 32 33 31 32 33 31 32 31 29 30 31 29 30 31 29 30 31 29 30 31 29 30 31 29 30 31 29 30 31 29 30
0 0 0 0 0 0 0 0 0 0 0 0 0 0 0 0 0 0 0 0 0 0 0 0 0 0 0 0 0 0 0 0 0 0 0 0 0 0 0 0 0 0 0 0 0 0 0 0 0 0 0 0 0 0 0 0 0 0 0 0 0 0 0 0 0 0 0 0 0 0 0 0 0 0 0 0 0 0 0 0 0 0 0 0 0 0 0 0 0 0 0 0 0 0 0 0 0 0 0 0 0 0 0 0 0 0 0 0 0 0 0 0 0 0 0 0 0 0 0 0 0 0 0 0 0 0 0 0 0 0 0 0 0 0 0 0 0 0 0 0 0 0 0 0 0 0 0 0 0 0 0 0 0 0 0 0 0 0 0 0 0 0 0 0 0 0 0 0 0 0 0 0 0 0 0 0 0 0 0 0 0 0 0 0 0 0 0 0 0 0 0 0 0 0 0 0 0 0 0 0 0 0 0 0 0 0 0 0 0 0 0 0 0 0 0 0 0 0 0 0 0 0 0 0 0 0 0 0 0 0 0 0 0 0 0 0 0 0 0 0 0 0 0 0 0 0 0 0 0 0 0 0 0 0 0 0 0 0 0 0 0 0 0 0 0 0 0 0 0 0 0 0 0 0 1 0 0 2 2 0 5 4 0 7 6 1 10 9 5 14 13 8 17 16 10 19 18 12 21 20 12 21 20 12 21 20 12 21 20 12 21 20 12 21 20 12 21 20 12 21 20 12 21 20 21 25 24 19 23 22 17 21 20 14 18 17 10 14 13 7 11 10 5 9 8 3 7 6 0 1 0 0 1 0 0 2 1 1 5 4 5 9 8 8 12 11 10 14 13 12 16 15 23 29 25 26 32 28 31 37 33 37 43 39 44 50 46 50 56 52 55 61 57 58 64 60 60 66 62 61 67 63 64 70 66 67 73 69 70 76 72 74 80 76 76 82 78 78 83 77 86 88 83 90 91 85 93 94 88 93 94 88 86 87 81 74 75 69 61 62 56 53 54 48 37 38 32 37 38 32 37 38 32 37 38 32 37 38 32 37 38 32 37 38 32 37 38 33 33 32 30 33 31 32 33 31 32 33 31 32 33 31 32 33 31 32 33 31 32 33 31 32 31 29 30 31 29 30 31 29 30 31 29 30 31 29 30 31 29 30 31 29 30 31 29 30
0 0 0 0 0 0 0 0 0 0 0 0 0 0 0 0 0 0 0 0 0 0 0 0 0 0 0 0 0 0 0 0 0 0 0 0 0 0 0 0 0 0 0 0 0 0 0 0 0 0 0 0 0 0 0 0 0 0 0 0 0 0 0 0 0 0 0 0 0 0 0 0 0 0 0 0 0 0 0 0 0 0 0 0 0 0 0 0 0 0 0 0 0 0 0 0 0 0 0 0 0 0 0 0 0 0 0 0 0 0 0 0 0 0 0 0 0 0 0 0 0 0 0 0 0 0 0 0 0 0 0 0 0 0 0 0 0 0 0 0 0 0 0 0 0 0 0 0 0 0 0 0 0 0 0 0 0 0 0 0 0 0 0 0 0 0 0 0 0 0 0 0 0 0 0 0 0 0 0 0 0 0 0 0 0 0 0 0 0 0 0 0 0 0 0 0 0 0 0 0 0 0 0 0 0 0 0 0 0 0 0 0 0 0 0 0 0 0 0 0 0 0 0 0 0 0 0 0 0 0 0 0 0 0 0 0 0 0 0 0 0 0 0 0 0 0 0 0 0 0 0 0 0 0 0 0 0 0 0 0 0 0 0 0 0 0 0 0 0 0 0 0 0 0 1 0 0 2 2 0 5 4 0 7 6 1 10 9 5 14 13 8 17 16 10 19 18 12 21 20 12 21 20 12 21 20 12 21 20 12 21 20 12 21 20 12 21 20 12 21 20 12 21 20 21 25 24 19 23 22 17 21 20 14 18 17 10 14 13 7 11 10 5 9 8 3 7 6 0 1 0 0 1 0 0 2 1 1 5 4 5 9 8 8 12 11 10 14 13 12 16 15 22 28 24 25 31 27 30 36 32 36 42 38 43 49 45 49 55 51 54 60 56 57 63 59 59 65 61 60 66 62 62 68 64 66 72 68 69 75 71 72 78 74 75 81 77 77 82 76 85 87 82 89 90 84 92 93 87 91 92 86 85 86 80 73 74 68 60 61 55 51 52 46 37 38 32 37 38 32 37 38 32 37 38 32 37 38 32 37 38 32 37 38 32 37 38 33 33 32 30 33 31 32 33 31 32 33 31 32 33 31 32 33 31 32 33 31 32 33 31 32 31 29 30 31 29 30 31 29 30 31 29 30 31 29 30 31 29 30 31 29 30 31 29 30
0 0 0 0 0 0 0 0 0 0 0 0 0 0 0 0 0 0 0 0 0 0 0 0 0 0 0 0 0 0 0 0 0 0 0 0 0 0 0 0 0 0 0 0 0 0 0 0 0 0 0 0 0 0 0 0 0 0 0 0 0 0 0 0 0 0 0 0 0 0 0 0 0 0 0 0 0 0 0 0 0 0 0 0 0 0 0 0 0 0 0 0 0 0 0 0 0 0 0 0 0 0 0 0 0 0 0 0 0 0 0 0 0 0 0 0 0 0 0 0 0 0 0 0 0 0 0 0 0 0 0 0 0 0 0 0 0 0 0 0 0 0 0 0 0 0 0 0 0 0 0 0 0 0 0 0 0 0 0 0 0 0 0 0 0 0 0 0 0 0 0 0 0 0 0 0 0 0 0 0 0 0 0 0 0 0 0 0 0 0 0 0 0 0 0 0 0 0 0 0 0 0 0 0 0 0 0 0 0 0 0 0 0 0 0 0 0 0 0 0 0 0 0 0 0 0 0 0 0 0 0 0 0 0 0 0 0 0 0 0 0 0 0 0 0 0 0 0 0 0 0 0 1 1 1 1 1 1 1 1 1 1 1 1 1 1 1 1 1 1 1 1 1 0 2 1 7 13 13 5 14 13 5 14 13 5 14 13 5 14 13 5 14 13 5 14 13 5 14 13 9 18 17 9 18 17 9 18 17 9 18 17 9 18 17 9 18 17 9 18 17 9 18 17 13 17 16 11 15 14 9 13 12 6 10 9 2 6 5 0 3 2 0 1 0 0 1 0 0 4 3 0 4 3 0 4 3 0 4 3 0 4 3 0 4 3 0 4 3 0 4 3 26 32 28 28 34 30 30 36 32 33 39 35 37 43 39 40 46 42 42 48 44 44 50 46 56 62 58 57 63 59 60 66 62 63 69 65 66 72 68 70 76 72 72 78 74 74 79 73 76 78 73 77 78 72 77 78 72 77 78 72 77 78 72 77 78 72 77 78 72 77 78 72 40 41 35 38 39 33 36 37 31 33 34 28 29 30 24 26 27 21 24 25 19 22 23 18 27 26 24 27 25 26 27 25 26 27 25 26 27 25 26 27 25 26 27 25 26 27 25 26 29 27 28 29 27 28 29 27 28 29 27 28 29 27 28 29 27 28 29 27 28 29 27 28
0 0 0 0 0 0 0 0 0 0 0 0 0 0 0 0 0 0 0 0 0 0 0 0 0 0 0 0 0 0 0 0 0 0 0 0 0 0 0 0 0 0 0 0 0 0 0 0 0 0 0 0 0 0 0 0 0 0 0 0 0 0 0 0 0 0 0 0 0 0 0 0 0 0 0 0 0 0 0 0 0 0 0 0 0 0 0 0 0 0 0 0 0 0 0 0 0 0 0 0 0 0 0 0 0 0 0 0 0 0 0 0 0 0 0 0 0 0 0 0 0 0 0 0 0 0 0 0 0 0 0 0 0 0 0 0 0 0 0 0 0 0 0 0 0 0 0 0 0 0 0 0 0 0 0 0 0 0 0 0 0 0 0 0 0 0 0 0 0 0 0 0 0 0 0 0 0 0 0 0 0 0 0 0 0 0 0 0 0 0 0 0 0 0 0 0 0 0 0 0 0 0 0 0 0 0 0 0 0 0 0 0 0 0 0 0 0 0 0 0 0 0 0 0 0 0 0 0 0 0 0 0 0 0 0 0 0 0 0 0 0 0 0 0 0 0 0 0 0 0 0 0 1 1 1 1 1 1 1 1 1 1 1 1 1 1 1 1 1 1 1 1 1 0 2 1 7 13 13 5 14 13 5 14 13 5 14 13 5 14 13 5 14 13 5 14 13 5 14 13 9 18 17 9 18 17 9 18 17 9 18 17 9 18 17 9 18 17 9 18 17 9 18 17 13 17 16 11 15 14 9 13 12 6 10 9 2 6 5 0 3 2 0 1 0 0 1 0 0 4 3 0 4 3 0 4 3 0 4 3 0 4 3 0 4 3 0 4 3 0 4 3 26 32 28 28 34 30 30 36 32 33 39 35 37 43 39 40 46 42 42 48 44 44 50 46 55 61 57 56 62 58 58 64 60 62 68 64 65 71 67 68 74 70 71 77 73 73 78 72 74 76 71 75 76 70 75 76 70 75 76 70 75 76 70 75 76 70 75 76 70 75 76 70 40 41 35 38 39 33 36 37 31 33 34 28 29 30 24 26 27 21 24 25 19 22 23 18 27 26 24 27 25 26 27 25 26 27 25 26 27 25 26 27 25 26 27 25 26 27 25 26 29 27 28 29 27 28 29 27 28 29 27 28 29 27 28 29 27 28 29 27 28 29 27 28
0 0 0 0 0 0 0 0 0 0 0 0 0 0 0 0 0 0 0 0 0 0 0 0 0 0 0 0 0 0 0 0 0 0 0 0 0 0 0 0 0 0 0 0 0 0 0 0 0 0 0 0 0 0 0 0 0 0 0 0 0 0 0 0 0 0 0 0 0 0 0 0 0 0 0 0 0 0 0 0 0 0 0 0 0 0 0 0 0 0 0 0 0 0 0 0 0 0 0 0 0 0 0 0 0 0 0 0 0 0 0 0 0 0 0 0 0 0 0 0 0 0 0 0 0 0 0 0 0 0 0 0 0 0 0 0 0 0 0 0 0 0 0 0 0 0 0 0 0 0 0 0 0 0 0 0 0 0 0 0 0 0 0 0 0 0 0 0 0 0 0 0 0 0 0 0 0 0 0 0 0 0 0 0 0 0 0 0 0 0 0 0 0 0 0 0 0 0 0 0 0 0 0 0 0 0 0 0 0 0 0 0 0 0 0 0 0 0 0 0 0 0 0 0 0 0 0 0 0 0 0 0 0 0 0 0 0 0 0 0 0 0 0 0 0 0 0 0 0 0 0 0 1 1 1 1 1 1 1 1 1 1 1 1 1 1 1 1 1 1 1 1 1 0 2 1 7 13 13 5 14 13 5 14 13 5 14 13 5 14 13 5 14 13 5 14 13 5 14 13 9 18 17 9 18 17 9 18 17 9 18 17 9 18 17 9 18 17 9 18 17 9 18 17 13 17 16 11 15 14 9 13 12 6 10 9 2 6 5 0 3 2 0 1 0 0 1 0 0 4 3 0 4 3 0 4 3 0 4 3 0 4 3 0 4 3 0 4 3 0 4 3 26 32 28 28 34 30 30 36 32 33 39 35 37 43 39 40 46 42 42 48 44 44 50 46 52 58 54 54 60 56 56 62 58 59 65 61 63 69 65 66 72 68 68 74 70 71 76 70 72 74 69 73 74 68 73 74 68 73 74 68 73 74 68 73 74 68 73 74 68 73 74 68 40 41 35 38 39 33 36 37 31 33 34 28 29 30 24 26 27 21 24 25 19 22 23 18 27 26 24 27 25 26 27 25 26 27 25 26 27 25 26 27 25 26 27 25 26 27 25 26 29 27 28 29 27 28 29 27 28 29 27 28 29 27 28 29 27 28 29 27 28 29 27 28
0 0 0 0 0 0 0 0 0 0 0 0 0 0 0 0 0 0 0 0 0 0 0 0 0 0 0 0 0 0 0 0 0 0 0 0 0 0 0 0 0 0 0 0 0 0 0 0 0 0 0 0 0 0 0 0 0 0 0 0 0 0 0 0 0 0 0 0 0 0 0 0 0 0 0 0 0 0 0 0 0 0 0 0 0 0 0 0 0 0 0 0 0 0 0 0 0 0 0 0 0 0 0 0 0 0 0 0 0 0 0 0 0 0 0 0 0 0 0 0 0 0 0 0 0 0 0 0 0 0 0 0 0 0 0 0 0 0 0 0 0 0 0 0 0 0 0 0 0 0 0 0 0 0 0 0 0 0 0 0 0 0 0 0 0 0 0 0 0 0 0 0 0 0 0 0 0 0 0 0 0 0 0 0 0 0 0 0 0 0 0 0 0 0 0 0 0 0 0 0 0 0 0 0 0 0 0 0 0 0 0 0 0 0 0 0 0 0 0 0 0 0 0 0 0 0 0 0 0 0 0 0 0 0 0 0 0 0 0 0 0 0 0 0 0 0 0 0 0 0 0 0 1 1 1 1 1 1 1 1 1 1 1 1 1 1 1 1 1 1 1 1 1 0 2 1 7 13 13 5 14 13 5 14 13 5 14 13 5 14 13 5 14 13 5 14 13 5 14 13 9 18 17 9 18 17 9 18 17 9 18 17 9 18 17 9 18 17 9 18 17 9 18 17 13 17 16 11 15 14 9 13 12 6 10 9 2 6 5 0 3 2 0 1 0 0 1 0 0 4 3 0 4 3 0 4 3 0 4 3 0 4 3 0 4 3 0 4 3 0 4 3 26 32 28 28 34 30 30 36 32 33 39 35 37 43 39 40 46 42 42 48 44 44 50 46 49 55 51 50 56 52 53 59 55 56 62 58 59 65 61 63 69 65 65 71 67 67 72 66 69 71 66 70 71 65 70 71 65 70 71 65 70 71 65 70 71 65 70 71 65 70 71 65 40 41 35 38 39 33 36 37 31 33 34 28 29 30 24 26 27 21 24 25 19 22 23 18 27 26 24 27 25 26 27 25 26 27 25 26 27 25 26 27 25 26 27 25 26 27 25 26 29 27 28 29 27 28 29 27 28 29 27 28 29 27 28 29 27 28 29 27 28 29 27 28
0 0 0 0 0 0 0 0 0 0 0 0 0 0 0 0 0 0 0 0 0 0 0 0 0 0 0 0 0 0 0 0 0 0 0 0 0 0 0 0 0 0 0 0 0 0 0 0 0 0 0 0 0 0 0 0 0 0 0 0 0 0 0 0 0 0 0 0 0 0 0 0 0 0 0 0 0 0 0 0 0 0 0 0 0 0 0 0 0 0 0 0 0 0 0 0 0 0 0 0 0 0 0 0 0 0 0 0 0 0 0 0 0 0 0 0 0 0 0 0 0 0 0 0 0 0 0 0 0 0 0 0 0 0 0 0 0 0 0 0 0 0 0 0 0 0 0 0 0 0 0 0 0 0 0 0 0 0 0 0 0 0 0 0 0 0 0 0 0 0 0 0 0 0 0 0 0 0 0 0 0 0 0 0 0 0 0 0 0 0 0 0 0 0 0 0 0 0 0 0 0 0 0 0 0 0 0 0 0 0 0 0 0 0 0 0 0 0 0 0 0 0 0 0 0 0 0 0 0 0 0 0 0 0 0 0 0 0 0 0 0 0 0 0 0 0 0 0 0 0 0 0 1 1 1 1 1 1 1 1 1 1 1 1 1 1 1 1 1 1 1 1 1 0 2 1 7 13 13 5 14 13 5 14 13 5 14 13 5 14 13 5 14 13 5 14 13 5 14 13 9 18 17 9 18 17 9 18 17 9 18 17 9 18 17 9 18 17 9 18 17 9 18 17 13 17 16 11 15 14 9 13 12 6 10 9 2 6 5 0 3 2 0 1 0 0 1 0 0 4 3 0 4 3 0 4 3 0 4 3 0 4 3 0 4 3 0 4 3 0 4 3 26 32 28 28 34 30 30 36 32 33 39 35 37 43 39 40 46 42 42 48 44 44 50 46 46 52 48 47 53 49 49 55 51 53 59 55 56 62 58 59 65 61 62 68 64 64 69 63 65 67 62 66 67 61 66 67 61 66 67 61 66 67 61 66 67 61 66 67 61 66 67 61 40 41 35 38 39 33 36 37 31 33 34 28 29 30 24 26 27 21 24 25 19 22 23 18 27 26 24 27 25 26 27 25 26 27 25 26 27 25 26 27 25 26 27 25 26 27 25 26 29 27 28 29 27 28 29 27 28 29 27 28 29 27 28 29 27 28 29 27 28 29 27 28
0 0 0 0 0 0 0 0 0 0 0 0 0 0 0 0 0 0 0 0 0 0 0 0 0 0 0 0 0 0 0 0 0 0 0 0 0 0 0 0 0 0 0 0 0 0 0 0 0 0 0 0 0 0 0 0 0 0 0 0 0 0 0 0 0 0 0 0 0 0 0 0 0 0 0 0 0 0 0 0 0 0 0 0 0 0 0 0 0 0 0 0 0 0 0 0 0 0 0 0 0 0 0 0 0 0 0 0 0 0 0 0 0 0 0 0 0 0 0 0 0 0 0 0 0 0 0 0 0 0 0 0 0 0 0 0 0 0 0 0 0 0 0 0 0 0 0 0 0 0 0 0 0 0 0 0 0 0 0 0 0 0 0 0 0 0 0 0 0 0 0 0 0 0 0 0 0 0 0 0 0 0 0 0 0 0 0 0 0 0 0 0 0 0 0 0 0 0 0 0 0 0 0 0 0 0 0 0 0 0 0 0 0 0 0 0 0 0 0 0 0 0 0 0 0 0 0 0 0 0 0 0 0 0 0 0 0 0 0 0 0 0 0 0 0 0 0 0 0 0 0 0 1 1 1 1 1 1 1 1 1 1 1 1 1 1 1 1 1 1 1 1 1 0 2 1 7 13 13 5 14 13 5 14 13 5 14 13 5 14 13 5 14 13 5 14 13 5 14 13 9 18 17 9 18 17 9 18 17 9 18 17 9 18 17 9 18 17 9 18 17 9 18 17 13 17 16 11 15 14 9 13 12 6 10 9 2 6 5 0 3 2 0 1 0 0 1 0 0 4 3 0 4 3 0 4 3 0 4 3 0 4 3 0 4 3 0 4 3 0 4 3 26 32 28 28 34 30 30 36 32 33 39 35 37 43 39 40 46 42 42 48 44 44 50 46 42 48 44 44 50 46 46 52 48 49 55 51 53 59 55 56 62 58 58 64 60 61 66 60 62 64 59 63 64 58 63 64 58 63 64 58 63 64 58 63 64 58 63 64 58 63 64 58 40 41 35 38 39 33 36 37 31 33 34 28 29 30 24 26 27 21 24 25 19 22 23 18 27 26 24 27 25 26 27 25 26 27 25 26 27 25 26 27 25 26 27 25 26 27 25 26 29 27 28 29 27 28 29 27 28 29 27 28 29 27 28 29 27 28 29 27 28 29 27 28
0 0 0 0 0 0 0 0 0 0 0 0 0 0 0 0 0 0 0 0 0 0 0 0 0 0 0 0 0 0 0 0 0 0 0 0 0 0 0 0 0 0 0 0 0 0 0 0 0 0 0 0 0 0 0 0 0 0 0 0 0 0 0 0 0 0 0 0 0 0 0 0 0 0 0 0 0 0 0 0 0 0 0 0 0 0 0 0 0 0 0 0 0 0 0 0 0 0 0 0 0 0 0 0 0 0 0 0 0 0 0 0 0 0 0 0 0 0 0 0 0 0 0 0 0 0 0 0 0 0 0 0 0 0 0 0 0 0 0 0 0 0 0 0 0 0 0 0 0 0 0 0 0 0 0 0 0 0 0 0 0 0 0 0 0 0 0 0 0 0 0 0 0 0 0 0 0 0 0 0 0 0 0 0 0 0 0 0 0 0 0 0 0 0 0 0 0 0 0 0 0 0 0 0 0 0 0 0 0 0 0 0 0 0 0 0 0 0 0 0 0 0 0 0 0 0 0 0 0 0 0 0 0 0 0 0 0 0 0 0 0 0 0 0 0 0 0 0 0 0 0 0 1 1 1 1 1 1 1 1 1 1 1 1 1 1 1 1 1 1 1 1 1 0 2 1 7 13 13 5 14 13 5 14 13 5 14 13 5 14 13 5 14 13 5 14 13 5 14 13 9 18 17 9 18 17 9 18 17 9 18 17 9 18 17 9 18 17 9 18 17 9 18 17 13 17 16 11 15 14 9 13 12 6 10 9 2 6 5 0 3 2 0 1 0 0 1 0 0 4 3 0 4 3 0 4 3 0 4 3 0 4 3 0 4 3 0 4 3 0 4 3 26 32 28 28 34 30 30 36 32 33 39 35 37 43 39 40 46 42 42 48 44 44 50 46 40 46 42 41 47 43 44 50 46 47 53 49 50 56 52 54 60 56 56 62 58 58 63 57 60 62 57 61 62 56 61 62 56 61 62 56 61 62 56 61 62 56 61 62 56 61 62 56 40 41 35 38 39 33 36 37 31 33 34 28 29 30 24 26 27 21 24 25 19 22 23 18 27 26 24 27 25 26 27 25 26 27 25 26 27 25 26 27 25 26 27 25 26 27 25 26 29 27 28 29 27 28 29 27 28 29 27 28 29 27 28 29 27 28 29 27 28 29 27 28
0 0 0 0 0 0 0 0 0 0 0 0 0 0 0 0 0 0 0 0 0 0 0 0 0 0 0 0 0 0 0 0 0 0 0 0 0 0 0 0 0 0 0 0 0 0 0 0 0 0 0 0 0 0 0 0 0 0 0 0 0 0 0 0 0 0 0 0 0 0 0 0 0 0 0 0 0 0 0 0 0 0 0 0 0 0 0 0 0 0 0 0 0 0 0 0 0 0 0 0 0 0 0 0 0 0 0 0 0 0 0 0 0 0 0 0 0 0 0 0 0 0 0 0 0 0 0 0 0 0 0 0 0 0 0 0 0 0 0 0 0 0 0 0 0 0 0 0 0 0 0 0 0 0 0 0 0 0 0 0 0 0 0 0 0 0 0 0 0 0 0 0 0 0 0 0 0 0 0 0 0 0 0 0 0 0 0 0 0 0 0 0 0 0 0 0 0 0 0 0 0 0 0 0 0 0 0 0 0 0 0 0 0 0 0 0 0 0 0 0 0 0 0 0 0 0 0 0 0 0 0 0 0 0 0 0 0 0 0 0 0 0 0 0 0 0 0 0 0 0 0 0 1 1 1 1 1 1 1 1 1 1 1 1 1 1 1 1 1 1 1 1 1 0 2 1 7 13 13 5 14 13 5 14 13 5 14 13 5 14 13 5 14 13 5 14 13 5 14 13 9 18 17 9 18 17 9 18 17 9 18 17 9 18 17 9 18 17 9 18 17 11 17 17 13 17 16 11 15 14 11 13 12 6 10 9 4 6 5 0 3 2 0 1 0 0 1 0 2 4 3 0 4 3 2 4 3 0 4 3 2 4 3 0 4 3 2 4 3 0 4 3 26 32 28 28 34 30 30 36 32 33 39 35 37 43 39 40 46 42 42 48 44 44 50 46 39 45 41 40 46 42 42 48 44 46 52 48 49 55 51 52 58 54 55 61 57 57 62 58 58 60 55 59 60 54 59 60 54 59 60 54 59 60 54 59 60 54 59 60 54 59 60 54 40 41 35 38 39 33 36 37 31 33 34 28 29 30 24 26 27 21 24 25 19 22 23 18 27 26 24 27 26 24 29 25 24 27 26 24 29 25 24 27 26 24 29 25 24 27 26 24 31 27 26 29 28 26 31 27 26 29 28 26 31 27 26 29 28 26 31 27 26 29 28 26
0 0 0 0 0 0 0 0 0 0 0 0 0 0 0 0 0 0 0 0 0 0 0 0 0 0 0 0 0 0 0 0 0 0 0 0 0 0 0 0 0 0 0 0 0 0 0 0 0 0 0 0 0 0 0 0 0 0 0 0 0 0 0 0 0 0 0 0 0 0 0 0 0 0 0 0 0 0 0 0 0 0 0 0 0 0 0 0 0 0 0 0 0 0 0 0 0 0 0 0 0 0 0 0 0 0 0 0 0 0 0 0 0 0 0 0 0 0 0 0 0 0 0 0 0 0 0 0 0 0 0 0 0 0 0 0 0 0 0 0 0 0 0 0 0 0 0 0 0 0 0 0 0 0 0 0 0 0 0 0 0 0 0 0 0 0 0 0 0 0 0 0 0 0 0 0 0 0 0 0 0 0 0 0 0 0 0 0 0 0 0 0 0 0 0 0 0 0 0 0 0 0 0 0 0 0 0 0 0 0 0 0 0 0 0 0 0 0 0 0 0 0 0 0 0 0 0 0 0 0 0 0 0 0 0 0 0 0 0 0 0 0 0 0 0 0 0 0 0 0 0 0 0 0 0 0 0 0 0 0 0 0 0 0 0 0 0 0 0 0 0 0 0 0 1 0 3 7 6 2 8 6 2 8 6 2 8 6 2 8 6 2 8 6 2 8 6 2 8 6 9 15 13 9 15 13 9 15 13 9 15 13 9 15 13 9 15 13 9 15 13 9 15 13 0 1 0 0 1 0 0 0 0 0 1 0 0 0 0 0 1 0 0 0 0 0 1 0 1 1 1 0 2 1 1 1 1 0 2 1 1 1 1 0 2 1 1 1 1 0 2 1 17 21 20 18 24 22 20 26 24 23 29 27 27 33 31 30 36 34 32 38 36 34 40 38 42 48 46 42 48 46 42 48 46 42 48 46 42 48 46 42 48 46 42 48 46 43 48 44 50 52 47 50 52 47 50 52 47 50 52 47 50 52 47 50 52 47 50 52 47 50 52 47 29 31 26 29 31 26 29 31 26 29 31 26 29 31 26 29 31 26 29 31 26 30 31 26 29 25 22 29 25 22 30 25 22 29 25 22 30 25 22 29 25 22 30 25 22 29 25 22 31 26 23 30 26 23 31 26 23 30 26 23 31 26 23 30 26 23 31 26 23 30 26 23
0 0 0 0 0 0 0 0 0 0 0 0 0 0 0 0 0 0 0 0 0 0 0 0 0 0 0 0 0 0 0 0 0 0 0 0 0 0 0 0 0 0 0 0 0 0 0 0 0 0 0 0 0 0 0 0 0 0 0 0 0 0 0 0 0 0 0 0 0 0 0 0 0 0 0 0 0 0 0 0 0 0 0 0 0 0 0 0 0 0 0 0 0 0 0 0 0 0 0 0 0 0 0 0 0 0 0 0 0 0 0 0 0 0 0 0 0 0 0 0 0 0 0 0 0 0 0 0 0 0 0 0 0 0 0 0 0 0 0 0 0 0 0 0 0 0 0 0 0 0 0 0 0 0 0 0 0 0 0 0 0 0 0 0 0 0 0 0 0 0 0 0 0 0 0 0 0 0 0 0 0 0 0 0 0 0 0 0 0 0 0 0 0 0 0 0 0 0 0 0 0 0 0 0 0 0 0 0 0 0 0 0 0 0 0 0 0 0 0 0 0 0 0 0 0 0 0 0 0 0 0 0 0 0 0 0 0 0 0 0 0 0 0 0 0 0 0 0 0 0 0 0 0 0 0 0 0 0 0 0 0 0 0 0 0 0 0 0 0 0 0 0 0 0 1 0 3 7 6 2 8 6 2 8 6 2 8 6 2 8 6 2 8 6 2 8 6 2 8 6 9 15 13 9 15 13 9 15 13 9 15 13 9 15 13 9 15 13 9 15 13 10 14 13 0 1 0 0 0 0 0 0 0 0 0 0 0 0 0 0 0 0 0 0 0 0 0 0 1 1 1 1 1 1 1 1 1 1 1 1 1 1 1 1 1 1 1 1 1 0 2 1 17 21 20 18 24 22 20 26 24 23 29 27 27 33 31 30 36 34 32 38 36 34 40 38 42 48 46 42 48 46 42 48 46 42 48 46 42 48 46 42 48 46 42 48 46 42 48 44 50 52 49 50 52 47 50 52 47 50 52 47 50 52 47 50 52 47 50 52 47 50 52 47 29 31 26 29 31 26 29 31 26 29 31 26 29 31 26 29 31 26 29 31 26 30 31 26 29 26 21 30 25 21 30 25 21 30 25 21 30 25 21 30 25 21 30 25 21 30 25 21 31 26 22 31 26 22 31 26 22 31 26 22 31 26 22 31 26 22 31 26 22 31 26 22
0 0 0 0 0 0 0 0 0 0 0 0 0 0 0 0 0 0 0 0 0 0 0 0 0 0 0 0 0 0 0 0 0 0 0 0 0 0 0 0 0 0 0 0 0 0 0 0 0 0 0 0 0 0 0 0 0 0 0 0 0 0 0 0 0 0 0 0 0 0 0 0 0 0 0 0 0 0 0 0 0 0 0 0 0 0 0 0 0 0 0 0 0 0 0 0 0 0 0 0 0 0 0 0 0 0 0 0 0 0 0 0 0 0 0 0 0 0 0 0 0 0 0 0 0 0 0 0 0 0 0 0 0 0 0 0 0 0 0 0 0 0 0 0 0 0 0 0 0 0 0 0 0 0 0 0 0 0 0 0 0 0 0 0 0 0 0 0 0 0 0 0 0 0 0 0 0 0 0 0 0 0 0 0 0 0 0 0 0 0 0 0 0 0 0 0 0 0 0 0 0 0 0 0 0 0 0 0 0 0 0 0 0 0 0 0 0 0 0 0 0 0 0 0 0 0 0 0 0 0 0 0 0 0 0 0 0 0 0 0 0 0 0 0 0 0 0 0 0 0 0 0 0 0 0 0 0 0 0 0 0 0 0 0 0 0 0 0 0 0 0 0 0 0 1 0 3 7 6 2 8 6 2 8 6 2 8 6 2 8 6 2 8 6 2 8 6 2 8 6 9 15 13 9 15 13 9 15 13 9 15 13 9 15 13 9 15 13 9 15 13 10 14 13 0 1 0 0 0 0 0 0 0 0 0 0 0 0 0 0 0 0 0 0 0 0 0 0 1 1 1 1 1 1 1 1 1 1 1 1 1 1 1 1 1 1 1 1 1 0 2 1 17 21 20 18 24 22 20 26 24 23 29 27 27 33 31 30 36 34 32 38 36 34 40 38 42 48 46 42 48 46 42 48 46 42 48 46 42 48 46 42 48 46 42 48 46 42 48 44 50 52 49 50 52 47 50 52 47 50 52 47 50 52 47 50 52 47 50 52 47 50 52 47 29 31 26 29 31 26 29 31 26 29 31 26 29 31 26 29 31 26 29 31 26 30 31 26 29 26 21 30 25 21 30 25 21 30 25 21 30 25 21 30 25 21 30 25 21 30 25 21 31 26 22 31 26 22 31 26 22 31 26 22 31 26 22 31 26 22 31 26 22 31 26 22
0 0 0 0 0 0 0 0 0 0 0 0 0 0 0 0 0 0 0 0 0 0 0 0 0 0 0 0 0 0 0 0 0 0 0 0 0 0 0 0 0 0 0 0 0 0 0 0 0 0 0 0 0 0 0 0 0 0 0 0 0 0 0 0 0 0 0 0 0 0 0 0 0 0 0 0 0 0 0 0 0 0 0 0 0 0 0 0 0 0 0 0 0 0 0 0 0 0 0 0 0 0 0 0 0 0 0 0 0 0 0 0 0 0 0 0 0 0 0 0 0 0 0 0 0 0 0 0 0 0 0 0 0 0 0 0 0 0 0 0 0 0 0 0 0 0 0 0 0 0 0 0 0 0 0 0 0 0 0 0 0 0 0 0 0 0 0 0 0 0 0 0 0 0 0 0 0 0 0 0 0 0 0 0 0 0 0 0 0 0 0 0 0 0 0 0 0 0 0 0 0 0 0 0 0 0 0 0 0 0 0 0 0 0 0 0 0 0 0 0 0 0 0 0 0 0 0 0 0 0 0 0 0 0 0 0 0 0 0 0 0 0 0 0 0 0 0 0 0 0 0 0 0 0 0 0 0 0 0 0 0 0 0 0 0 0 0 0 0 0 0 0 0 0 1 0 3 7 6 2 8 6 2 8 6 2 8 6 2 8 6 2 8 6 2 8 6 2 8 6 9 15 13 9 15 13 9 15 13 9 15 13 9 15 13 9 15 13 9 15 13 10 14 13 0 1 0 0 0 0 0 0 0 0 0 0 0 0 0 0 0 0 0 0 0 0 0 0 1 1 1 1 1 1 1 1 1 1 1 1 1 1 1 1 1 1 1 1 1 0 2 1 17 21 20 18 24 22 20 26 24 23 29 27 27 33 31 30 36 34 32 38 36 34 40 38 42 48 46 42 48 46 42 48 46 42 48 46 42 48 46 42 48 46 42 48 46 42 48 44 50 52 49 50 52 47 50 52 47 50 52 47 50 52 47 50 52 47 50 52 47 50 52 47 29 31 26 29 31 26 29 31 26 29 31 26 29 31 26 29 31 26 29 31 26 30 31 26 29 26 21 30 25 21 30 25 21 30 25 21 30 25 21 30 25 21 30 25 21 30 25 21 31 26 22 31 26 22 31 26 22 31 26 22 31 26 22 31 26 22 31 26 22 31 26 22
0 0 0 0 0 0 0 0 0 0 0 0 0 0 0 0 0 0 0 0 0 0 0 0 0 0 0 0 0 0 0 0 0 0 0 0 0 0 0 0 0 0 0 0 0 0 0 0 0 0 0 0 0 0 0 0 0 0 0 0 0 0 0 0 0 0 0 0 0 0 0 0 0 0 0 0 0 0 0 0 0 0 0 0 0 0 0 0 0 0 0 0 0 0 0 0 0 0 0 0 0 0 0 0 0 0 0 0 0 0 0 0 0 0 0 0 0 0 0 0 0 0 0 0 0 0 0 0 0 0 0 0 0 0 0 0 0 0 0 0 0 0 0 0 0 0 0 0 0 0 0 0 0 0 0 0 0 0 0 0 0 0 0 0 0 0 0 0 0 0 0 0 0 0 0 0 0 0 0 0 0 0 0 0 0 0 0 0 0 0 0 0 0 0 0 0 0 0 0 0 0 0 0 0 0 0 0 0 0 0 0 0 0 0 0 0 0 0 0 0 0 0 0 0 0 0 0 0 0 0 0 0 0 0 0 0 0 0 0 0 0 0 0 0 0 0 0 0 0 0 0 0 0 0 0 0 0 0 0 0 0 0 0 0 0 0 0 0 0 0 0 0 0 0 1 0 3 7 6 2 8 6 2 8 6 2 8 6 2 8 6 2 8 6 2 8 6 2 8 6 9 15 13 9 15 13 9 15 13 9 15 13 9 15 13 9 15 13 9 15 13 10 14 13 0 1 0 0 0 0 0 0 0 0 0 0 0 0 0 0 0 0 0 0 0 0 0 0 1 1 1 1 1 1 1 1 1 1 1 1 1 1 1 1 1 1 1 1 1 0 2 1 17 21 20 18 24 22 20 26 24 23 29 27 27 33 31 30 36 34 32 38 36 34 40 38 42 48 46 42 48 46 42 48 46 42 48 46 42 48 46 42 48 46 42 48 46 42 48 44 50 52 49 50 52 47 50 52 47 50 52 47 50 52 47 50 52 47 50 52 47 50 52 47 29 31 26 29 31 26 29 31 26 29 31 26 29 31 26 29 31 26 29 31 26 30 31 26 29 26 21 30 25 21 30 25 21 30 25 21 30 25 21 30 25 21 30 25 21 30 25 21 31 26 22 31 26 22 31 26 22 31 26 22 31 26 22 31 26 22 31 26 22 31 26 22
0 0 0 0 0 0 0 0 0 0 0 0 0 0 0 0 0 0 0 0 0 0 0 0 0 0 0 0 0 0 0 0 0 0 0 0 0 0 0 0 0 0 0 0 0 0 0 0 0 0 0 0 0 0 0 0 0 0 0 0 0 0 0 0 0 0 0 0 0 0 0 0 0 0 0 0 0 0 0 0 0 0 0 0 0 0 0 0 0 0 0 0 0 0 0 0 0 0 0 0 0 0 0 0 0 0 0 0 0 0 0 0 0 0 0 0 0 0 0 0 0 0 0 0 0 0 0 0 0 0 0 0 0 0 0 0 0 0 0 0 0 0 0 0 0 0 0 0 0 0 0 0 0 0 0 0 0 0 0 0 0 0 0 0 0 0 0 0 0 0 0 0 0 0 0 0 0 0 0 0 0 0 0 0 0 0 0 0 0 0 0 0 0 0 0 0 0 0 0 0 0 0 0 0 0 0 0 0 0 0 0 0 0 0 0 0 0 0 0 0 0 0 0 0 0 0 0 0 0 0 0 0 0 0 0 0 0 0 0 0 0 0 0 0 0 0 0 0 0 0 0 0 0 0 0 0 0 0 0 0 0 0 0 0 0 0 0 0 0 0 0 0 0 0 1 0 3 7 6 2 8 6 2 8 6 2 8 6 2 8 6 2 8 6 2 8 6 2 8 6 9 15 13 9 15 13 9 15 13 9 15 13 9 15 13 9 15 13 9 15 13 10 14 13 0 1 0 0 0 0 0 0 0 0 0 0 0 0 0 0 0 0 0 0 0 0 0 0 1 1 1 1 1 1 1 1 1 1 1 1 1 1 1 1 1 1 1 1 1 0 2 1 17 21 20 18 24 22 20 26 24 23 29 27 27 33 31 30 36 34 32 38 36 34 40 38 42 48 46 42 48 46 42 48 46 42 48 46 42 48 46 42 48 46 42 48 46 42 48 44 50 52 49 50 52 47 50 52 47 50 52 47 50 52 47 50 52 47 50 52 47 50 52 47 29 31 26 29 31 26 29 31 26 29 31 26 29 31 26 29 31 26 29 31 26 30 31 26 29 26 21 30 25 21 30 25 21 30 25 21 30 25 21 30 25 21 30 25 21 30 25 21 31 26 22 31 26 22 31 26 22 31 26 22 31 26 22 31 26 22 31 26 22 31 26 22
0 0 0 0 0 0 0 0 0 0 0 0 0 0 0 0 0 0 0 0 0 0 0 0 0 0 0 0 0 0 0 0 0 0 0 0 0 0 0 0 0 0 0 0 0 0 0 0 0 0 0 0 0 0 0 0 0 0 0 0 0 0 0 0 0 0 0 0 0 0 0 0 0 0 0 0 0 0 0 0 0 0 0 0 0 0 0 0 0 0 0 0 0 0 0 0 0 0 0 0 0 0 0 0 0 0 0 0 0 0 0 0 0 0 0 0 0 0 0 0 0 0 0 0 0 0 0 0 0 0 0 0 0 0 0 0 0 0 0 0 0 0 0 0 0 0 0 0 0 0 0 0 0 0 0 0 0 0 0 0 0 0 0 0 0 0 0 0 0 0 0 0 0 0 0 0 0 0 0 0 0 0 0 0 0 0 0 0 0 0 0 0 0 0 0 0 0 0 0 0 0 0 0 0 0 0 0 0 0 0 0 0 0 0 0 0 0 0 0 0 0 0 0 0 0 0 0 0 0 0 0 0 0 0 0 0 0 0 0 0 0 0 0 0 0 0 0 0 0 0 0 0 0 0 0 0 0 0 0 0 0 0 0 0 0 0 0 0 0 0 0 0 0 0 1 0 3 7 6 2 8 6 2 8 6 2 8 6 2 8 6 2 8 6 2 8 6 2 8 6 9 15 13 9 15 13 9 15 13 9 15 13 9 15 13 9 15 13 9 15 13 10 14 13 0 1 0 0 0 0 0 0 0 0 0 0 0 0 0 0 0 0 0 0 0 0 0 0 1 1 1 1 1 1 1 1 1 1 1 1 1 1 1 1 1 1 1 1 1 0 2 1 17 21 20 18 24 22 20 26 24 23 29 27 27 33 31 30 36 34 32 38 36 34 40 38 42 48 46 42 48 46 42 48 46 42 48 46 42 48 46 42 48 46 42 48 46 42 48 44 50 52 49 50 52 47 50 52 47 50 52 47 50 52 47 50 52 47 50 52 47 50 52 47 29 31 26 29 31 26 29 31 26 29 31 26 29 31 26 29 31 26 29 31 26 30 31 26 29 26 21 30 25 21 30 25 21 30 25 21 30 25 21 30 25 21 30 25 21 30 25 21 31 26 22 31 26 22 31 26 22 31 26 22 31 26 22 31 26 22 31 26 22 31 26 22
0 0 0 0 0 0 0 0 0 0 0 0 0 0 0 0 0 0 0 0 0 0 0 0 0 0 0 0 0 0 0 0 0 0 0 0 0 0 0 0 0 0 0 0 0 0 0 0 0 0 0 0 0 0 0 0 0 0 0 0 0 0 0 0 0 0 0 0 0 0 0 0 0 0 0 0 0 0 0 0 0 0 0 0 0 0 0 0 0 0 0 0 0 0 0 0 0 0 0 0 0 0 0 0 0 0 0 0 0 0 0 0 0 0 0 0 0 0 0 0 0 0 0 0 0 0 0 0 0 0 0 0 0 0 0 0 0 0 0 0 0 0 0 0 0 0 0 0 0 0 0 0 0 0 0 0 0 0 0 0 0 0 0 0 0 0 0 0 0 0 0 0 0 0 0 0 0 0 0 0 0 0 0 0 0 0 0 0 0 0 0 0 0 0 0 0 0 0 0 0 0 0 0 0 0 0 0 0 0 0 0 0 0 0 0 0 0 0 0 0 0 0 0 0 0 0 0 0 0 0 0 0 0 0 0 0 0 0 0 0 0 0 0 0 0 0 0 0 0 0 0 0 0 0 0 0 0 0 0 0 0 0 0 0 0 0 0 0 0 0 0 0 0 0 1 0 3 7 6 2 8 6 2 8 6 2 8 6 2 8 6 2 8 6 2 8 6 2 8 6 9 15 13 9 15 13 9 15 13 9 15 13 9 15 13 9 15 13 9 15 13 10 14 13 0 1 0 0 0 0 0 0 0 0 0 0 0 0 0 0 0 0 0 0 0 0 0 0 1 1 1 1 1 1 1 1 1 1 1 1 1 1 1 1 1 1 1 1 1 0 2 1 17 21 20 18 24 22 20 26 24 23 29 27 27 33 31 30 36 34 32 38 36 34 40 38 42 48 46 42 48 46 42 48 46 42 48 46 42 48 46 42 48 46 42 48 46 42 48 44 50 52 49 50 52 47 50 52 47 50 52 47 50 52 47 50 52 47 50 52 47 50 52 47 29 31 26 29 31 26 29 31 26 29 31 26 29 31 26 29 31 26 29 31 26 30 31 26 29 26 21 30 25 21 30 25 21 30 25 21 30 25 21 30 25 21 30 25 21 30 25 21 31 26 22 31 26 22 31 26 22 31 26 22 31 26 22 31 26 22 31 26 22 31 26 22
0 0 0 0 0 0 0 0 0 0 0 0 0 0 0 0 0 0 0 0 0 0 0 0 0 0 0 0 0 0 0 0 0 0 0 0 0 0 0 0 0 0 0 0 0 0 0 0 0 0 0 0 0 0 0 0 0 0 0 0 0 0 0 0 0 0 0 0 0 0 0 0 0 0 0 0 0 0 0 0 0 0 0 0 0 0 0 0 0 0 0 0 0 0 0 0 0 0 0 0 0 0 0 0 0 0 0 0 0 0 0 0 0 0 0 0 0 0 0 0 0 0 0 0 0 0 0 0 0 0 0 0 0 0 0 0 0 0 0 0 0 0 0 0 0 0 0 0 0 0 0 0 0 0 0 0 0 0 0 0 0 0 0 0 0 0 0 0 0 0 0 0 0 0 0 0 0 0 0 0 0 0 0 0 0 0 0 0 0 0 0 0 0 0 0 0 0 0 0 0 0 0 0 0 0 0 0 0 0 0 0 0 0 0 0 0 0 0 0 0 0 0 0 0 0 0 0 0 0 0 0 0 0 0 0 0 0 0 0 0 0 0 0 0 0 0 0 0 0 0 0 0 1 1 1 1 1 1 1 1 1 1 1 1 1 1 1 1 1 1 1 1 1 0 2 1 1 5 4 0 6 4 0 6 4 0 6 4 0 6 4 0 6 4 0 6 4 0 6 4 15 21 19 15 21 19 15 21 19 15 21 19 15 21 19 15 21 19 15 21 19 16 20 19 0 1 0 0 0 0 0 0 0 0 0 0 0 0 0 0 0 0 0 0 0 0 0 0 1 1 1 1 1 1 1 1 1 1 1 1 1 1 1 1 1 1 1 1 1 0 2 1 6 10 9 7 13 11 9 15 13 12 18 16 16 22 20 19 25 23 21 27 25 23 29 27 39 45 43 39 45 43 39 45 43 39 45 43 39 45 43 39 45 43 39 45 43 39 45 41 37 39 36 37 39 34 37 39 34 37 39 34 37 39 34 37 39 34 37 39 34 37 39 34 27 29 24 27 29 24 27 29 24 27 29 24 27 29 24 27 29 24 27 29 24 28 29 24 29 26 21 30 25 21 30 25 21 30 25 21 30 25 21 30 25 21 30 25 21 30 25 21 31 26 22 31 26 22 31 26 22 31 26 22 31 26 22 31 26 22 31 26 22 31 26 22
0 0 0 0 0 0 0 0 0 0 0 0 0 0 0 0 0 0 0 0 0 0 0 0 0 0 0 0 0 0 0 0 0 0 0 0 0 0 0 0 0 0 0 0 0 0 0 0 0 0 0 0 0 0 0 0 0 0 0 0 0 0 0 0 0 0 0 0 0 0 0 0 0 0 0 0 0 0 0 0 0 0 0 0 0 0 0 0 0 0 0 0 0 0 0 0 0 0 0 0 0 0 0 0 0 0 0 0 0 0 0 0 0 0 0 0 0 0 0 0 0 0 0 0 0 0 0 0 0 0 0 0 0 0 0 0 0 0 0 0 0 0 0 0 0 0 0 0 0 0 0 0 0 0 0 0 0 0 0 0 0 0 0 0 0 0 0 0 0 0 0 0 0 0 0 0 0 0 0 0 0 0 0 0 0 0 0 0 0 0 0 0 0 0 0 0 0 0 0 0 0 0 0 0 0 0 0 0 0 0 0 0 0 0 0 0 0 0 0 0 0 0 0 0 0 0 0 0 0 0 0 0 0 0 0 0 0 0 0 0 0 0 0 0 0 0 0 0 0 0 0 0 1 1 1 1 1 1 1 1 1 1 1 1 1 1 1 1 1 1 1 1 1 0 2 1 1 5 4 0 6 4 0 6 4 0 6 4 0 6 4 0 6 4 0 6 4 0 6 4 15 21 19 15 21 19 15 21 19 15 21 19 15 21 19 15 21 19 15 21 19 16 20 19 0 1 0 0 0 0 0 0 0 0 0 0 0 0 0 0 0 0 0 0 0 0 0 0 1 1 1 1 1 1 1 1 1 1 1 1 1 1 1 1 1 1 1 1 1 0 2 1 6 10 9 7 13 11 9 15 13 12 18 16 16 22 20 19 25 23 21 27 25 23 29 27 37 43 41 37 43 41 37 43 41 37 43 41 37 43 41 37 43 41 37 43 41 37 43 39 37 39 36 37 39 34 37 39 34 37 39 34 37 39 34 37 39 34 37 39 34 37 39 34 27 29 24 27 29 24 27 29 24 27 29 24 27 29 24 27 29 24 27 29 24 28 29 24 29 26 21 30 25 21 30 25 21 30 25 21 30 25 21 30 25 21 30 25 21 30 25 21 31 26 22 31 26 22 31 26 22 31 26 22 31 26 22 31 26 22 31 26 22 31 26 22
0 0 0 0 0 0 0 0 0 0 0 0 0 0 0 0 0 0 0 0 0 0 0 0 0 0 0 0 0 0 0 0 0 0 0 0 0 0 0 0 0 0 0 0 0 0 0 0 0 0 0 0 0 0 0 0 0 0 0 0 0 0 0 0 0 0 0 0 0 0 0 0 0 0 0 0 0 0 0 0 0 0 0 0 0 0 0 0 0 0 0 0 0 0 0 0 0 0 0 0 0 0 0 0 0 0 0 0 0 0 0 0 0 0 0 0 0 0 0 0 0 0 0 0 0 0 0 0 0 0 0 0 0 0 0 0 0 0 0 0 0 0 0 0 0 0 0 0 0 0 0 0 0 0 0 0 0 0 0 0 0 0 0 0 0 0 0 0 0 0 0 0 0 0 0 0 0 0 0 0 0 0 0 0 0 0 0 0 0 0 0 0 0 0 0 0 0 0 0 0 0 0 0 0 0 0 0 0 0 0 0 0 0 0 0 0 0 0 0 0 0 0 0 0 0 0 0 0 0 0 0 0 0 0 0 0 0 0 0 0 0 0 0 0 0 0 0 0 0 0 0 0 1 1 1 1 1 1 1 1 1 1 1 1 1 1 1 1 1 1 1 1 1 0 2 1 1 5 4 0 6 4 0 6 4 0 6 4 0 6 4 0 6 4 0 6 4 0 6 4 15 21 19 15 21 19 15 21 19 15 21 19 15 21 19 15 21 19 15 21 19 16 20 19 0 1 0 0 0 0 0 0 0 0 0 0 0 0 0 0 0 0 0 0 0 0 0 0 1 1 1 1 1 1 1 1 1 1 1 1 1 1 1 1 1 1 1 1 1 0 2 1 6 10 9 7 13 11 9 15 13 12 18 16 16 22 20 19 25 23 21 27 25 23 29 27 35 41 39 35 41 39 35 41 39 35 41 39 35 41 39 35 41 39 35 41 39 35 41 37 37 39 36 37 39 34 37 39 34 37 39 34 37 39 34 37 39 34 37 39 34 37 39 34 27 29 24 27 29 24 27 29 24 27 29 24 27 29 24 27 29 24 27 29 24 28 29 24 29 26 21 30 25 21 30 25 21 30 25 21 30 25 21 30 25 21 30 25 21 30 25 21 31 26 22 31 26 22 31 26 22 31 26 22 31 26 22 31 26 22 31 26 22 31 26 22
0 0 0 0 0 0 0 0 0 0 0 0 0 0 0 0 0 0 0 0 0 0 0 0 0 0 0 0 0 0 0 0 0 0 0 0 0 0 0 0 0 0 0 0 0 0 0 0 0 0 0 0 0 0 0 0 0 0 0 0 0 0 0 0 0 0 0 0 0 0 0 0 0 0 0 0 0 0 0 0 0 0 0 0 0 0 0 0 0 0 0 0 0 0 0 0 0 0 0 0 0 0 0 0 0 0 0 0 0 0 0 0 0 0 0 0 0 0 0 0 0 0 0 0 0 0 0 0 0 0 0 0 0 0 0 0 0 0 0 0 0 0 0 0 0 0 0 0 0 0 0 0 0 0 0 0 0 0 0 0 0 0 0 0 0 0 0 0 0 0 0 0 0 0 0 0 0 0 0 0 0 0 0 0 0 0 0 0 0 0 0 0 0 0 0 0 0 0 0 0 0 0 0 0 0 0 0 0 0 0 0 0 0 0 0 0 0 0 0 0 0 0 0 0 0 0 0 0 0 0 0 0 0 0 0 0 0 0 0 0 0 0 0 0 0 0 0 0 0 0 0 0 1 1 1 1 1 1 1 1 1 1 1 1 1 1 1 1 1 1 1 1 1 0 2 1 1 5 4 0 6 4 0 6 4 0 6 4 0 6 4 0 6 4 0 6 4 0 6 4 15 21 19 15 21 19 15 21 19 15 21 19 15 21 19 15 21 19 15 21 19 16 20 19 0 1 0 0 0 0 0 0 0 0 0 0 0 0 0 0 0 0 0 0 0 0 0 0 1 1 1 1 1 1 1 1 1 1 1 1 1 1 1 1 1 1 1 1 1 0 2 1 6 10 9 7 13 11 9 15 13 12 18 16 16 22 20 19 25 23 21 27 25 23 29 27 32 38 36 32 38 36 32 38 36 32 38 36 32 38 36 32 38 36 32 38 36 32 38 34 37 39 36 37 39 34 37 39 34 37 39 34 37 39 34 37 39 34 37 39 34 37 39 34 27 29 24 27 29 24 27 29 24 27 29 24 27 29 24 27 29 24 27 29 24 28 29 24 29 26 21 30 25 21 30 25 21 30 25 21 30 25 21 30 25 21 30 25 21 30 25 21 31 26 22 31 26 22 31 26 22 31 26 22 31 26 22 31 26 22 31 26 22 31 26 22
0 0 0 0 0 0 0 0 0 0 0 0 0 0 0 0 0 0 0 0 0 0 0 0 0 0 0 0 0 0 0 0 0 0 0 0 0 0 0 0 0 0 0 0 0 0 0 0 0 0 0 0 0 0 0 0 0 0 0 0 0 0 0 0 0 0 0 0 0 0 0 0 0 0 0 0 0 0 0 0 0 0 0 0 0 0 0 0 0 0 0 0 0 0 0 0 0 0 0 0 0 0 0 0 0 0 0 0 0 0 0 0 0 0 0 0 0 0 0 0 0 0 0 0 0 0 0 0 0 0 0 0 0 0 0 0 0 0 0 0 0 0 0 0 0 0 0 0 0 0 0 0 0 0 0 0 0 0 0 0 0 0 0 0 0 0 0 0 0 0 0 0 0 0 0 0 0 0 0 0 0 0 0 0 0 0 0 0 0 0 0 0 0 0 0 0 0 0 0 0 0 0 0 0 0 0 0 0 0 0 0 0 0 0 0 0 0 0 0 0 0 0 0 0 0 0 0 0 0 0 0 0 0 0 0 0 0 0 0 0 0 0 0 0 0 0 0 0 0 0 0 0 1 1 1 1 1 1 1 1 1 1 1 1 1 1 1 1 1 1 1 1 1 0 2 1 1 5 4 0 6 4 0 6 4 0 6 4 0 6 4 0 6 4 0 6 4 0 6 4 15 21 19 15 21 19 15 21 19 15 21 19 15 21 19 15 21 19 15 21 19 16 20 19 0 1 0 0 0 0 0 0 0 0 0 0 0 0 0 0 0 0 0 0 0 0 0 0 1 1 1 1 1 1 1 1 1 1 1 1 1 1 1 1 1 1 1 1 1 0 2 1 6 10 9 7 13 11 9 15 13 12 18 16 16 22 20 19 25 23 21 27 25 23 29 27 28 34 32 28 34 32 28 34 32 28 34 32 28 34 32 28 34 32 28 34 32 28 34 30 37 39 36 37 39 34 37 39 34 37 39 34 37 39 34 37 39 34 37 39 34 37 39 34 27 29 24 27 29 24 27 29 24 27 29 24 27 29 24 27 29 24 27 29 24 28 29 24 29 26 21 30 25 21 30 25 21 30 25 21 30 25 21 30 25 21 30 25 21 30 25 21 31 26 22 31 26 22 31 26 22 31 26 22 31 26 22 31 26 22 31 26 22 31 26 22
0 0 0 0 0 0 0 0 0 0 0 0 0 0 0 0 0 0 0 0 0 0 0 0 0 0 0 0 0 0 0 0 0 0 0 0 0 0 0 0 0 0 0 0 0 0 0 0 0 0 0 0 0 0 0 0 0 0 0 0 0 0 0 0 0 0 0 0 0 0 0 0 0 0 0 0 0 0 0 0 0 0 0 0 0 0 0 0 0 0 0 0 0 0 0 0 0 0 0 0 0 0 0 0 0 0 0 0 0 0 0 0 0 0 0 0 0 0 0 0 0 0 0 0 0 0 0 0 0 0 0 0 0 0 0 0 0 0 0 0 0 0 0 0 0 0 0 0 0 0 0 0 0 0 0 0 0 0 0 0 0 0 0 0 0 0 0 0 0 0 0 0 0 0 0 0 0 0 0 0 0 0 0 0 0 0 0 0 0 0 0 0 0 0 0 0 0 0 0 0 0 0 0 0 0 0 0 0 0 0 0 0 0 0 0 0 0 0 0 0 0 0 0 0 0 0 0 0 0 0 0 0 0 0 0 0 0 0 0 0 0 0 0 0 0 0 0 0 0 0 0 0 1 1 1 1 1 1 1 1 1 1 1 1 1 1 1 1 1 1 1 1 1 0 2 1 1 5 4 0 6 4 0 6 4 0 6 4 0 6 4 0 6 4 0 6 4 0 6 4 15 21 19 15 21 19 15 21 19 15 21 19 15 21 19 15 21 19 15 21 19 16 20 19 0 1 0 0 0 0 0 0 0 0 0 0 0 0 0 0 0 0 0 0 0 0 0 0 1 1 1 1 1 1 1 1 1 1 1 1 1 1 1 1 1 1 1 1 1 0 2 1 6 10 9 7 13 11 9 15 13 12 18 16 16 22 20 19 25 23 21 27 25 23 29 27 25 31 29 25 31 29 25 31 29 25 31 29 25 31 29 25 31 29 25 31 29 25 31 27 37 39 36 37 39 34 37 39 34 37 39 34 37 39 34 37 39 34 37 39 34 37 39 34 27 29 24 27 29 24 27 29 24 27 29 24 27 29 24 27 29 24 27 29 24 28 29 24 29 26 21 30 25 21 30 25 21 30 25 21 30 25 21 30 25 21 30 25 21 30 25 21 31 26 22 31 26 22 31 26 22 31 26 22 31 26 22 31 26 22 31 26 22 31 26 22
0 0 0 0 0 0 0 0 0 0 0 0 0 0 0 0 0 0 0 0 0 0 0 0 0 0 0 0 0 0 0 0 0 0 0 0 0 0 0 0 0 0 0 0 0 0 0 0 0 0 0 0 0 0 0 0 0 0 0 0 0 0 0 0 0 0 0 0 0 0 0 0 0 0 0 0 0 0 0 0 0 0 0 0 0 0 0 0 0 0 0 0 0 0 0 0 0 0 0 0 0 0 0 0 0 0 0 0 0 0 0 0 0 0 0 0 0 0 0 0 0 0 0 0 0 0 0 0 0 0 0 0 0 0 0 0 0 0 0 0 0 0 0 0 0 0 0 0 0 0 0 0 0 0 0 0 0 0 0 0 0 0 0 0 0 0 0 0 0 0 0 0 0 0 0 0 0 0 0 0 0 0 0 0 0 0 0 0 0 0 0 0 0 0 0 0 0 0 0 0 0 0 0 0 0 0 0 0 0 0 0 0 0 0 0 0 0 0 0 0 0 0 0 0 0 0 0 0 0 0 0 0 0 0 0 0 0 0 0 0 0 0 0 0 0 0 0 0 0 0 0 0 1 1 1 1 1 1 1 1 1 1 1 1 1 1 1 1 1 1 1 1 1 0 2 1 1 5 4 0 6 4 0 6 4 0 6 4 0 6 4 0 6 4 0 6 4 0 6 4 15 21 19 15 21 19 15 21 19 15 21 19 15 21 19 15 21 19 15 21 19 16 20 19 0 1 0 0 0 0 0 0 0 0 0 0 0 0 0 0 0 0 0 0 0 0 0 0 1 1 1 1 1 1 1 1 1 1 1 1 1 1 1 1 1 1 1 1 1 0 2 1 6 10 9 7 13 11 9 15 13 12 18 16 16 22 20 19 25 23 21 27 25 23 29 27 23 29 27 23 29 27 23 29 27 23 29 27 23 29 27 23 29 27 23 29 27 23 29 25 37 39 36 37 39 34 37 39 34 37 39 34 37 39 34 37 39 34 37 39 34 37 39 34 27 29 24 27 29 24 27 29 24 27 29 24 27 29 24 27 29 24 27 29 24 28 29 24 29 26 21 30 25 21 30 25 21 30 25 21 30 25 21 30 25 21 30 25 21 30 25 21 31 26 22 31 26 22 31 26 22 31 26 22 31 26 22 31 26 22 31 26 22 31 26 22
0 0 0 0 0 0 0 0 0 0 0 0 0 0 0 0 0 0 0 0 0 0 0 0 0 0 0 0 0 0 0 0 0 0 0 0 0 0 0 0 0 0 0 0 0 0 0 0 0 0 0 0 0 0 0 0 0 0 0 0 0 0 0 0 0 0 0 0 0 0 0 0 0 0 0 0 0 0 0 0 0 0 0 0 0 0 0 0 0 0 0 0 0 0 0 0 0 0 0 0 0 0 0 0 0 0 0 0 0 0 0 0 0 0 0 0 0 0 0 0 0 0 0 0 0 0 0 0 0 0 0 0 0 0 0 0 0 0 0 0 0 0 0 0 0 0 0 0 0 0 0 0 0 0 0 0 0 0 0 0 0 0 0 0 0 0 0 0 0 0 0 0 0 0 0 0 0 0 0 0 0 0 0 0 0 0 0 0 0 0 0 0 0 0 0 0 0 0 0 0 0 0 0 0 0 0 0 0 0 0 0 0 0 0 0 0 0 0 0 0 0 0 0 0 0 0 0 0 0 0 0 0 0 0 0 0 0 0 0 0 0 0 0 0 0 0 0 0 0 0 0 0 1 1 1 1 1 1 1 1 1 1 1 1 1 1 1 1 1 1 1 1 1 0 2 1 1 5 4 0 6 4 0 6 4 0 6 4 0 6 4 0 6 4 0 6 4 0 6 4 15 21 19 15 21 19 15 21 19 15 21 19 15 21 19 15 21 19 15 21 19 16 20 19 0 1 0 0 1 0 0 1 0 0 1 0 0 1 0 0 1 0 0 1 0 0 1 0 0 2 1 0 2 1 0 2 1 0 2 1 0 2 1 0 2 1 0 2 1 0 2 1 6 10 9 7 13 11 9 15 13 12 18 16 16 22 20 19 25 23 21 27 25 23 29 27 21 27 25 21 27 25 21 27 25 21 27 25 21 27 25 21 27 25 21 27 25 21 27 25 37 39 36 37 39 34 37 39 36 37 39 34 37 39 36 37 39 34 37 39 36 37 39 34 27 29 26 27 29 24 27 29 26 27 29 24 27 29 26 27 29 24 27 29 26 28 29 24 29 26 21 30 25 21 30 25 21 30 25 21 30 25 21 30 25 21 30 25 21 30 25 21 31 26 22 31 26 22 31 26 22 31 26 22 31 26 22 31 26 22 31 26 22 31 26 22
0 0 0 0 0 0 0 0 0 0 0 0 0 0 0 0 0 0 0 0 0 0 0 0 0 0 0 0 0 0 0 0 0 0 0 0 0 0 0 0 0 0 0 0 0 0 0 0 0 0 0 0 0 0 0 0 0 0 0 0 0 0 0 0 0 0 0 0 0 0 0 0 0 0 0 0 0 0 0 0 0 0 0 0 0 0 0 0 0 0 0 0 0 0 0 0 0 0 0 0 0 0 0 0 0 0 0 0 0 0 0 0 0 0 0 0 0 0 0 0 0 0 0 0 0 0 0 0 0 0 0 0 0 0 0 0 0 0 0 0 0 0 0 0 0 0 0 0 0 0 0 0 0 0 0 0 0 0 0 0 0 0 0 0 0 0 0 0 0 0 0 0 0 0 0 0 0 0 0 0 0 0 0 0 0 0 0 0 0 0 0 0 0 0 0 0 0 0 0 0 0 0 0 0 0 0 0 0 0 0 0 0 0 0 0 0 0 0 0 0 0 0 0 0 0 0 0 0 0 1 0 0 1 0 0 1 0 0 1 0 0 1 0 0 1 0 0 1 0 0 1 0 0 2 1 0 2 1 0 2 1 0 2 1 0 2 1 0 2 1 0 2 1 0 2 1 2 6 5 0 6 4 0 5 3 2 8 6 8 14 12 17 23 21 27 33 31 32 38 36 43 49 47 39 45 43 33 39 37 25 31 29 15 21 19 7 13 11 1 7 5 0 3 1 0 4 3 0 4 3 0 4 3 0 4 3 0 4 3 0 4 3 0 4 3 0 4 3 0 3 2 0 3 2 0 3 2 0 3 2 0 3 2 0 3 2 0 3 2 0 3 2 11 17 17 11 17 17 11 17 17 11 17 17 11 17 17 11 17 17 11 17 17 11 17 17 18 24 24 18 24 24 18 24 24 18 24 24 18 24 24 18 24 24 18 24 24 18 24 22 24 26 25 24 26 23 24 26 25 24 26 23 24 26 25 24 26 23 24 26 25 24 26 23 23 25 24 23 25 22 23 25 24 23 25 22 23 25 24 23 25 22 23 25 24 24 24 22 30 25 21 32 25 19 32 25 19 32 25 19 32 25 19 32 25 19 32 25 19 32 25 19 33 26 20 33 26 20 33 26 20 33 26 20 33 26 20 33 26 20 33 26 20 33 26 20
0 0 0 0 0 0 0 0 0 0 0 0 0 0 0 0 0 0 0 0 0 0 0 0 0 0 0 0 0 0 0 0 0 0 0 0 0 0 0 0 0 0 0 0 0 0 0 0 0 0 0 0 0 0 0 0 0 0 0 0 0 0 0 0 0 0 0 0 0 0 0 0 0 0 0 0 0 0 0 0 0 0 0 0 0 0 0 0 0 0 0 0 0 0 0 0 0 0 0 0 0 0 0 0 0 0 0 0 0 0 0 0 0 0 0 0 0 0 0 0 0 0 0 0 0 0 0 0 0 0 0 0 0 0 0 0 0 0 0 0 0 0 0 0 0 0 0 0 0 0 0 0 0 0 0 0 0 0 0 0 0 0 0 0 0 0 0 0 0 0 0 0 0 0 0 0 0 0 0 0 0 0 0 0 0 0 0 0 0 0 0 0 0 0 0 0 0 0 0 0 0 0 0 0 0 0 0 0 0 0 0 0 0 0 0 0 0 0 0 0 0 0 0 0 0 0 0 0 0 1 0 0 1 0 0 1 0 0 1 0 0 1 0 0 1 0 0 1 0 0 1 0 0 2 1 0 2 1 0 2 1 0 2 1 0 2 1 0 2 1 0 2 1 0 2 1 0 1 0 0 2 0 1 7 5 8 14 12 19 25 23 31 37 35 41 47 45 47 53 51 48 54 52 45 51 49 38 44 42 29 35 33 19 25 23 10 16 14 3 9 7 0 5 3 0 5 3 0 5 3 0 5 3 0 5 3 0 5 3 0 5 3 0 5 3 0 5 3 0 4 2 0 4 2 0 4 2 0 4 2 0 4 2 0 4 2 0 4 2 0 4 2 11 17 17 11 17 17 11 17 17 11 17 17 11 17 17 11 17 17 11 17 17 11 17 17 18 24 24 18 24 24 18 24 24 18 24 24 18 24 24 18 24 24 18 24 24 18 24 24 24 26 25 24 26 25 24 26 25 24 26 25 24 26 25 24 26 25 24 26 25 24 26 25 23 25 24 23 25 24 23 25 24 23 25 24 23 25 24 23 25 24 23 25 24 24 24 22 30 25 21 32 25 19 32 25 19 32 25 19 32 25 19 32 25 19 32 25 19 32 25 19 33 26 20 33 26 20 33 26 20 33 26 20 33 26 20 33 26 20 33 26 20 33 26 20
0 0 0 0 0 0 0 0 0 0 0 0 0 0 0 0 0 0 0 0 0 0 0 0 0 0 0 0 0 0 0 0 0 0 0 0 0 0 0 0 0 0 0 0 0 0 0 0 0 0 0 0 0 0 0 0 0 0 0 0 0 0 0 0 0 0 0 0 0 0 0 0 0 0 0 0 0 0 0 0 0 0 0 0 0 0 0 0 0 0 0 0 0 0 0 0 0 0 0 0 0 0 0 0 0 0 0 0 0 0 0 0 0 0 0 0 0 0 0 0 0 0 0 0 0 0 0 0 0 0 0 0 0 0 0 0 0 0 0 0 0 0 0 0 0 0 0 0 0 0 0 0 0 0 0 0 0 0 0 0 0 0 0 0 0 0 0 0 0 0 0 0 0 0 0 0 0 0 0 0 0 0 0 0 0 0 0 0 0 0 0 0 0 0 0 0 0 0 0 0 0 0 0 0 0 0 0 0 0 0 0 0 0 0 0 0 0 0 0 0 0 0 0 0 0 0 0 0 0 1 0 0 1 0 0 1 0 0 1 0 0 1 0 0 1 0 0 1 0 0 1 0 0 2 1 0 2 1 0 2 1 0 2 1 0 2 1 0 2 1 0 2 1 0 2 1 0 1 0 0 2 0 5 11 9 22 28 26 39 45 43 54 60 58 65 71 69 71 77 75 59 65 63 55 61 59 47 53 51 37 43 41 26 32 30 15 21 19 8 14 12 3 9 7 0 5 3 0 5 3 0 5 3 0 5 3 0 5 3 0 5 3 0 5 3 0 5 3 0 4 2 0 4 2 0 4 2 0 4 2 0 4 2 0 4 2 0 4 2 0 4 2 11 17 17 11 17 17 11 17 17 11 17 17 11 17 17 11 17 17 11 17 17 11 17 17 18 24 24 18 24 24 18 24 24 18 24 24 18 24 24 18 24 24 18 24 24 18 24 24 24 26 25 24 26 25 24 26 25 24 26 25 24 26 25 24 26 25 24 26 25 24 26 25 23 25 24 23 25 24 23 25 24 23 25 24 23 25 24 23 25 24 23 25 24 24 24 22 30 25 21 32 25 19 32 25 19 32 25 19 32 25 19 32 25 19 32 25 19 32 25 19 33 26 20 33 26 20 33 26 20 33 26 20 33 26 20 33 26 20 33 26 20 33 26 20
