P3
172 37
255
108 91 97 107 92 97 108 91 97 107 92 97 105 88 94 106 91 96 112 95 101 118 103 108 125 108 114 131 116 121 137 120 126 138 123 128 142 127 132 140 128 132 142 127 132 140 128 132 142 127 132 140 128 132 142 127 132 140 128 132 140 125 130 138 126 130 140 125 130 138 126 130 140 125 130 138 126 130 140 125 130 138 126 130 130 115 120 128 116 120 130 115 120 128 116 120 130 115 120 128 116 120 130 115 120 128 116 120 119 104 109 115 103 107 115 100 105 110 98 102 108 93 98 103 91 95 103 88 93 99 87 91 85 73 77 85 73 77 85 73 77 85 73 77 85 73 77 85 73 77 85 73 77 85 73 77 84 72 76 84 72 76 84 72 76 84 72 76 84 72 76 84 72 76 84 72 76 84 72 76 87 74 81 87 74 81 87 74 81 87 74 81 87 74 81 87 74 81 87 74 81 87 74 81 72 59 66 72 59 66 72 59 66 72 59 66 72 59 66 72 59 66 72 59 66 72 59 66 56 45 51 54 45 50 51 42 47 48 39 44 45 36 41 41 32 37 39 30 35 38 29 34 35 26 31 34 25 30 31 22 27 28 19 24 25 16 21 21 12 17 19 10 15 15 10 14 10 19 16 8 20 16 8 20 16 8 20 16 8 20 16 8 20 16 8 20 16 8 20 16 23 35 31 20 32 28 15 27 23 8 20 16 0 12 8 0 5 1 0 4 0 0 6 0 0 14 4 0 16 4 0 16 4 0 16 4 0 16 4 0 16 4 0 16 4 0 16 4 0 27 15 1 29 17 3 31 19 6 34 22 10 38 26 13 41 29 15 43 31 20 43 33 40 55 48 45 56 50 50 61 55 57 68 62 63 74 68 70 81 75 75 86 80 77 88 82 82 93 87 83 94 88 86 97 91 89 100 94 92 103 97 96 107 101 98 109 103 96 112 102 100 120 109 87 111 97 70 94 80 51 75 61 37 61 47 30 54 40 29 53 39 29 53 39 27 51 37 27 51 37 27 51 37 27 51 37 27 51 37 27 51 37 27 51 37 27 51 37 24 46 33 24 46 33 24 46 33 24 46 33 24 46 33 24 46 33 24 46 33 24 46 33 27 49 36 27 49 36 27 49 36 27 49 36 27 49 36 27 49 36 27 49 36 27 49 36
108 88 97 108 88 97 108 88 97 108 88 97 107 87 96 109 89 98 114 94 103 121 101 110 127 107 116 134 114 123 139 119 128 141 121 130 145 125 134 143 126 134 143 126 134 143 126 134 143 126 134 143 126 134 143 126 134 143 126 134 141 124 132 141 124 132 141 124 132 141 124 132 141 124 132 141 124 132 141 124 132 141 124 132 131 114 122 131 114 122 131 114 122 131 114 122 131 114 122 131 114 122 131 114 122 131 114 122 120 103 111 118 101 109 116 99 107 113 96 104 109 92 100 106 89 97 104 87 95 102 85 93 85 72 79 84 73 79 85 72 79 84 73 79 85 72 79 84 73 79 85 72 79 84 73 79 84 71 78 83 72 78 84 71 78 83 72 78 84 71 78 83 72 78 84 71 78 83 72 78 83 76 83 82 77 83 83 76 83 82 77 83 83 76 83 82 77 83 83 76 83 82 77 83 66 59 66 65 60 66 66 59 66 65 60 66 66 59 66 65 60 66 66 59 66 65 60 66 50 43 50 48 43 47 47 40 47 42 37 41 40 33 40 36 31 35 34 27 34 32 27 31 30 23 30 28 23 27 27 20 27 22 17 21 20 13 20 16 11 15 14 7 14 10 8 11 10 16 16 7 17 16 8 17 16 7 17 16 8 17 16 7 17 16 8 17 16 7 17 16 27 36 35 23 33 32 18 27 26 9 19 18 2 11 10 0 3 2 0 3 2 0 5 0 0 13 6 0 15 6 0 15 6 0 15 6 0 15 6 0 15 6 0 15 6 0 15 6 0 26 17 1 28 19 4 30 21 6 33 24 11 37 28 13 40 31 16 42 33 20 43 35 42 55 48 45 56 50 51 60 55 57 68 62 64 73 68 70 81 75 76 85 80 77 88 82 82 91 86 82 93 87 85 94 89 88 99 93 92 101 96 94 105 99 98 107 102 97 110 103 100 120 109 88 110 98 71 93 81 52 74 62 38 60 48 31 53 41 30 52 40 30 52 40 28 50 38 28 50 38 28 50 38 28 50 38 28 50 38 28 50 38 28 50 38 28 50 38 24 46 33 24 46 33 25 45 33 24 46 33 25 45 33 24 46 33 25 45 33 24 46 33 28 48 36 27 49 36 28 48 36 27 49 36 28 48 36 27 49 36 28 48 36 28 48 37
103 81 94 105 83 96 106 84 97 107 85 98 131 109 122 133 111 124 135 113 126 138 116 129 142 120 133 145 123 136 147 125 138 148 128 140 148 128 139 148 128 139 148 128 139 148 128 139 148 128 139 148 128 139 148 128 139 148 128 139 141 121 132 141 121 132 141 121 132 141 121 132 141 121 132 141 121 132 141 121 132 141 121 132 130 110 121 130 110 121 130 110 121 130 110 121 130 110 121 130 110 121 130 110 121 130 110 121 115 95 106 113 93 104 111 91 102 108 88 99 104 84 95 101 81 92 99 79 90 95 78 88 77 64 74 75 65 74 76 64 74 75 65 74 76 64 74 75 65 74 76 64 74 75 65 74 75 63 73 76 66 75 81 69 79 84 74 83 90 78 88 93 83 92 98 86 96 98 88 97 84 79 86 80 77 84 80 75 82 75 72 79 73 68 75 68 65 72 68 63 70 64 61 68 68 63 70 63 60 67 59 54 61 49 46 53 43 38 45 34 31 38 30 25 32 25 22 29 16 15 21 15 16 20 16 15 21 15 16 20 16 15 21 15 16 20 16 15 21 15 16 20 14 13 19 13 14 18 14 13 19 13 14 18 14 13 19 13 14 18 14 13 19 13 14 18 12 17 20 10 18 20 12 17 20 10 18 20 12 17 20 10 18 20 12 17 20 10 18 20 31 36 39 27 35 37 24 29 32 15 23 25 11 16 19 2 10 12 0 4 7 0 3 5 0 6 7 0 7 5 0 6 5 0 7 5 0 6 5 0 7 5 0 6 5 0 7 5 6 16 15 7 19 17 10 20 19 12 24 22 17 27 26 19 31 29 22 32 31 24 34 33 43 52 49 45 54 51 49 55 53 50 59 56 56 62 60 57 66 63 61 67 65 61 70 67 77 83 81 76 85 82 81 87 85 82 91 88 87 93 91 89 98 95 93 99 97 94 100 98 86 92 88 82 88 84 75 81 77 65 71 67 55 61 57 45 51 47 38 44 40 34 40 36 36 42 38 36 42 38 36 42 38 36 42 38 36 42 38 36 42 38 36 42 38 36 42 38 34 41 34 34 41 34 35 40 34 34 41 34 35 40 34 34 41 34 35 40 34 34 41 34 34 39 33 33 40 33 34 39 33 33 40 33 34 39 33 33 40 33 34 39 33 34 39 33
97 74 90 100 77 93 102 79 95 103 80 96 131 108 124 133 110 126 135 112 128 138 115 131 142 119 135 145 122 138 147 124 140 149 126 142 148 128 140 148 128 140 148 128 140 148 128 140 148 128 140 148 128 140 148 128 140 148 128 140 141 121 133 141 121 133 141 121 133 141 121 133 141 121 133 141 121 133 141 121 133 141 121 133 130 110 122 130 110 122 130 110 122 130 110 122 130 110 122 130 110 122 130 110 122 130 110 122 115 95 107 113 93 105 111 91 103 108 88 100 104 84 96 101 81 93 99 79 91 95 77 89 76 64 76 75 65 76 75 65 76 75 65 76 75 65 76 75 65 76 75 65 76 75 65 76 74 64 75 75 65 76 78 68 79 82 72 83 86 76 87 89 79 90 92 82 93 92 84 95 80 74 84 76 73 82 74 71 80 71 68 77 67 64 73 64 61 70 62 59 68 60 57 66 62 59 68 59 56 65 53 50 59 46 43 52 39 36 45 32 29 38 27 24 33 23 22 30 15 16 21 13 16 21 13 16 21 13 16 21 13 16 21 13 16 21 13 16 21 13 16 21 11 14 19 11 14 19 11 14 19 11 14 19 11 14 19 11 14 19 11 14 19 11 14 19 12 17 21 12 17 21 12 17 21 12 17 21 12 17 21 12 17 21 12 17 21 12 17 21 31 36 40 29 34 38 24 29 33 17 22 26 11 16 20 4 9 13 0 4 8 0 2 6 0 4 7 0 4 7 0 4 7 0 4 7 0 4 7 0 4 7 0 4 7 0 4 7 10 14 17 12 16 19 14 18 21 17 21 24 21 25 28 24 28 31 26 30 33 28 32 33 45 51 51 47 53 51 49 55 53 52 58 56 56 62 60 59 65 63 61 67 65 63 69 67 76 82 80 77 83 81 79 85 83 83 89 87 86 92 90 89 95 93 92 98 96 94 98 97 90 90 90 87 85 86 80 78 79 70 68 69 60 58 59 50 48 49 43 41 42 39 37 38 41 39 40 41 39 40 41 39 40 41 39 40 41 39 40 41 39 40 41 39 40 41 40 38 39 38 36 39 38 34 39 38 34 39 38 34 39 38 34 39 38 34 39 38 34 39 38 34 38 37 33 38 37 33 38 37 33 38 37 33 38 37 33 38 37 33 38 37 33 38 37 33
90 67 83 94 71 87 97 74 90 99 76 92 131 108 124 133 110 126 135 112 128 138 115 131 142 119 135 145 122 138 147 124 140 149 126 142 148 128 140 148 128 140 148 128 140 148 128 140 148 128 140 148 128 140 148 128 140 148 128 140 141 121 133 141 121 133 141 121 133 141 121 133 141 121 133 141 121 133 141 121 133 141 121 133 130 110 122 130 110 122 130 110 122 130 110 122 130 110 122 130 110 122 130 110 122 130 110 122 115 95 107 113 93 105 111 91 103 108 88 100 104 84 96 101 81 93 99 79 91 95 77 89 76 64 76 75 65 76 75 65 76 75 65 76 75 65 76 75 65 76 75 65 76 75 65 76 72 62 73 73 63 74 75 65 76 77 67 78 80 70 81 83 73 84 85 75 86 84 76 87 72 66 76 69 66 75 67 64 73 63 60 69 60 57 66 57 54 63 54 51 60 53 50 59 53 50 59 51 48 57 47 44 53 41 38 47 35 32 41 29 26 35 25 22 31 21 20 28 15 16 21 13 16 21 13 16 21 13 16 21 13 16 21 13 16 21 13 16 21 13 16 21 11 14 19 11 14 19 11 14 19 11 14 19 11 14 19 11 14 19 11 14 19 11 14 19 12 17 21 12 17 21 12 17 21 12 17 21 12 17 21 12 17 21 12 17 21 12 17 21 31 36 40 29 34 38 24 29 33 17 22 26 11 16 20 4 9 13 0 4 8 0 2 6 0 4 7 0 4 7 0 4 7 0 4 7 0 4 7 0 4 7 0 4 7 0 4 7 10 14 17 12 16 19 14 18 21 17 21 24 21 25 28 24 28 31 26 30 33 28 32 33 45 51 51 47 53 51 49 55 53 52 58 56 56 62 60 59 65 63 61 67 65 63 69 67 73 79 77 75 81 79 77 83 81 80 86 84 84 90 88 87 93 91 89 95 93 92 96 95 90 90 90 87 85 86 80 78 79 70 68 69 60 58 59 50 48 49 43 41 42 39 37 38 41 39 40 41 39 40 41 39 40 41 39 40 41 39 40 41 39 40 41 39 40 41 40 38 39 38 36 39 38 34 39 38 34 39 38 34 39 38 34 39 38 34 39 38 34 39 38 34 38 37 33 38 37 33 38 37 33 38 37 33 38 37 33 38 37 33 38 37 33 38 37 33
85 62 78 91 68 84 95 72 88 97 74 90 131 108 124 133 110 126 135 112 128 138 115 131 142 119 135 145 122 138 147 124 140 149 126 142 148 128 140 148 128 140 148 128 140 148 128 140 148 128 140 148 128 140 148 128 140 148 128 140 141 121 133 141 121 133 141 121 133 141 121 133 141 121 133 141 121 133 141 121 133 141 121 133 130 110 122 130 110 122 130 110 122 130 110 122 130 110 122 130 110 122 130 110 122 130 110 122 115 95 107 113 93 105 111 91 103 108 88 100 104 84 96 101 81 93 99 79 91 95 77 89 76 64 76 75 65 76 75 65 76 75 65 76 75 65 76 75 65 76 75 65 76 75 65 76 70 60 71 70 60 71 71 61 72 72 62 73 73 63 74 74 64 75 74 64 75 73 65 76 63 57 67 60 57 66 57 54 63 54 51 60 50 47 56 47 44 53 45 42 51 44 41 50 42 39 48 41 38 47 38 35 44 34 31 40 29 26 35 25 22 31 22 19 28 19 18 26 15 16 21 13 16 21 13 16 21 13 16 21 13 16 21 13 16 21 13 16 21 13 16 21 11 14 19 11 14 19 11 14 19 11 14 19 11 14 19 11 14 19 11 14 19 11 14 19 12 17 21 12 17 21 12 17 21 12 17 21 12 17 21 12 17 21 12 17 21 12 17 21 31 36 40 29 34 38 24 29 33 17 22 26 11 16 20 4 9 13 0 4 8 0 2 6 0 4 7 0 4 7 0 4 7 0 4 7 0 4 7 0 4 7 0 4 7 0 4 7 10 14 17 12 16 19 14 18 21 17 21 24 21 25 28 24 28 31 26 30 33 28 32 33 45 51 51 47 53 51 49 55 53 52 58 56 56 62 60 59 65 63 61 67 65 63 69 67 70 76 74 71 77 75 74 80 78 77 83 81 80 86 84 84 90 88 86 92 90 88 92 91 90 90 90 87 85 86 80 78 79 70 68 69 60 58 59 50 48 49 43 41 42 39 37 38 41 39 40 41 39 40 41 39 40 41 39 40 41 39 40 41 39 40 41 39 40 41 40 38 39 38 36 39 38 34 39 38 34 39 38 34 39 38 34 39 38 34 39 38 34 39 38 34 38 37 33 38 37 33 38 37 33 38 37 33 38 37 33 38 37 33 38 37 33 38 37 33
86 63 79 94 71 87 99 76 92 102 79 95 131 108 124 133 110 126 135 112 128 138 115 131 142 119 135 145 122 138 147 124 140 149 126 142 148 128 140 148 128 140 148 128 140 148 128 140 148 128 140 148 128 140 148 128 140 148 128 140 141 121 133 141 121 133 141 121 133 141 121 133 141 121 133 141 121 133 141 121 133 141 121 133 130 110 122 130 110 122 130 110 122 130 110 122 130 110 122 130 110 122 130 110 122 130 110 122 115 95 107 113 93 105 111 91 103 108 88 100 104 84 96 101 81 93 99 79 91 95 77 89 76 64 76 75 65 76 75 65 76 75 65 76 75 65 76 75 65 76 75 65 76 75 65 76 68 58 69 68 58 69 67 57 68 66 56 67 65 55 66 64 54 65 64 54 65 61 53 64 52 46 56 49 46 55 47 44 53 44 41 50 40 37 46 37 34 43 34 31 40 33 30 39 31 28 37 30 27 36 28 25 34 26 23 32 23 20 29 21 18 27 19 16 25 17 16 24 15 16 21 13 16 21 13 16 21 13 16 21 13 16 21 13 16 21 13 16 21 13 16 21 11 14 19 11 14 19 11 14 19 11 14 19 11 14 19 11 14 19 11 14 19 11 14 19 12 17 21 12 17 21 12 17 21 12 17 21 12 17 21 12 17 21 12 17 21 12 17 21 31 36 40 29 34 38 24 29 33 17 22 26 11 16 20 4 9 13 0 4 8 0 2 6 0 4 7 0 4 7 0 4 7 0 4 7 0 4 7 0 4 7 0 4 7 0 4 7 10 14 17 12 16 19 14 18 21 17 21 24 21 25 28 24 28 31 26 30 33 28 32 33 45 51 51 47 53 51 49 55 53 52 58 56 56 62 60 59 65 63 61 67 65 63 69 67 67 73 71 68 74 72 70 76 74 74 80 78 77 83 81 80 86 84 83 89 87 85 89 88 90 90 90 87 85 86 80 78 79 70 68 69 60 58 59 50 48 49 43 41 42 39 37 38 41 39 40 41 39 40 41 39 40 41 39 40 41 39 40 41 39 40 41 39 40 41 40 38 39 38 36 39 38 34 39 38 34 39 38 34 39 38 34 39 38 34 39 38 34 39 38 34 38 37 33 38 37 33 38 37 33 38 37 33 38 37 33 38 37 33 38 37 33 38 37 33
93 70 86 102 79 95 108 85 101 112 89 105 131 108 124 133 110 126 135 112 128 138 115 131 142 119 135 145 122 138 147 124 140 149 126 142 148 128 140 148 128 140 148 128 140 148 128 140 148 128 140 148 128 140 148 128 140 148 128 140 141 121 133 141 121 133 141 121 133 141 121 133 141 121 133 141 121 133 141 121 133 141 121 133 130 110 122 130 110 122 130 110 122 130 110 122 130 110 122 130 110 122 130 110 122 130 110 122 115 95 107 113 93 105 111 91 103 108 88 100 104 84 96 101 81 93 99 79 91 95 77 89 76 64 76 75 65 76 75 65 76 75 65 76 75 65 76 75 65 76 75 65 76 75 65 76 66 56 67 65 55 66 63 53 64 61 51 62 58 48 59 55 45 56 53 43 54 50 42 53 43 37 47 40 37 46 37 34 43 34 31 40 31 28 37 27 24 33 25 22 31 24 21 30 20 17 26 20 17 26 19 16 25 19 16 25 18 15 24 17 14 23 17 14 23 15 14 22 15 16 21 13 16 21 13 16 21 13 16 21 13 16 21 13 16 21 13 16 21 13 16 21 11 14 19 11 14 19 11 14 19 11 14 19 11 14 19 11 14 19 11 14 19 11 14 19 12 17 21 12 17 21 12 17 21 12 17 21 12 17 21 12 17 21 12 17 21 12 17 21 31 36 40 29 34 38 24 29 33 17 22 26 11 16 20 4 9 13 0 4 8 0 2 6 0 4 7 0 4 7 0 4 7 0 4 7 0 4 7 0 4 7 0 4 7 0 4 7 10 14 17 12 16 19 14 18 21 17 21 24 21 25 28 24 28 31 26 30 33 28 32 33 45 51 51 47 53 51 49 55 53 52 58 56 56 62 60 59 65 63 61 67 65 63 69 67 63 69 67 65 71 69 67 73 71 70 76 74 74 80 78 77 83 81 79 85 83 82 86 85 90 90 90 87 85 86 80 78 79 70 68 69 60 58 59 50 48 49 43 41 42 39 37 38 41 39 40 41 39 40 41 39 40 41 39 40 41 39 40 41 39 40 41 39 40 41 40 38 39 38 36 39 38 34 39 38 34 39 38 34 39 38 34 39 38 34 39 38 34 39 38 34 38 37 33 38 37 33 38 37 33 38 37 33 38 37 33 38 37 33 38 37 33 38 37 33
101 78 94 112 89 105 119 96 112 124 101 117 131 108 124 133 110 126 135 112 128 138 115 131 142 119 135 145 122 138 147 124 140 149 126 142 148 128 140 148 128 140 148 128 140 148 128 140 148 128 140 148 128 140 148 128 140 148 128 140 141 121 133 141 121 133 141 121 133 141 121 133 141 121 133 141 121 133 141 121 133 141 121 133 130 110 122 130 110 122 130 110 122 130 110 122 130 110 122 130 110 122 130 110 122 130 110 122 115 95 107 113 93 105 111 91 103 108 88 100 104 84 96 101 81 93 99 79 91 95 77 89 76 64 76 75 65 76 75 65 76 75 65 76 75 65 76 75 65 76 75 65 76 75 65 76 64 54 65 63 53 64 60 50 61 56 46 57 52 42 53 49 39 50 46 36 47 42 34 45 36 30 40 32 29 38 30 27 36 27 24 33 23 20 29 20 17 26 18 15 24 16 13 22 12 9 18 12 9 18 12 9 18 13 10 19 14 11 20 14 11 20 15 12 21 14 13 21 15 16 21 13 16 21 13 16 21 13 16 21 13 16 21 13 16 21 13 16 21 13 16 21 11 14 19 11 14 19 11 14 19 11 14 19 11 14 19 11 14 19 11 14 19 11 14 19 12 17 21 12 17 21 12 17 21 12 17 21 12 17 21 12 17 21 12 17 21 12 17 21 31 36 40 29 34 38 24 29 33 17 22 26 11 16 20 4 9 13 0 4 8 0 2 6 0 4 7 0 4 7 0 4 7 0 4 7 0 4 7 0 4 7 0 4 7 0 4 7 10 14 17 12 16 19 14 18 21 17 21 24 21 25 28 24 28 31 26 30 33 28 32 33 45 51 51 47 53 51 49 55 53 52 58 56 56 62 60 59 65 63 61 67 65 63 69 67 61 67 65 62 68 66 65 71 69 68 74 72 71 77 75 75 81 79 77 83 81 79 83 82 90 90 90 87 85 86 80 78 79 70 68 69 60 58 59 50 48 49 43 41 42 39 37 38 41 39 40 41 39 40 41 39 40 41 39 40 41 39 40 41 39 40 41 39 40 41 40 38 39 38 36 39 38 34 39 38 34 39 38 34 39 38 34 39 38 34 39 38 34 39 38 34 38 37 33 38 37 33 38 37 33 38 37 33 38 37 33 38 37 33 38 37 33 38 37 33
107 84 100 118 95 111 127 104 120 131 108 124 131 108 124 133 110 126 135 112 128 138 115 131 142 119 135 145 122 138 147 124 140 149 126 142 148 128 140 148 128 140 148 128 140 148 128 140 148 128 140 148 128 140 148 128 140 148 128 140 141 121 133 141 121 133 141 121 133 141 121 133 141 121 133 141 121 133 141 121 133 141 121 133 130 110 122 130 110 122 130 110 122 130 110 122 130 110 122 130 110 122 130 110 122 130 110 122 115 95 107 113 93 105 111 91 103 108 88 100 104 84 96 101 81 93 99 79 91 95 77 89 76 64 76 75 65 76 75 65 76 75 65 76 75 65 76 75 65 76 75 65 76 75 65 76 64 54 65 62 52 63 58 48 59 54 44 55 49 39 50 45 35 46 41 31 42 38 30 41 32 26 36 28 25 34 26 23 32 23 20 29 19 16 25 16 13 22 14 11 20 12 9 18 7 4 13 8 5 14 9 6 15 10 7 16 11 8 17 13 10 19 13 10 19 13 12 20 15 16 21 13 16 21 13 16 21 13 16 21 13 16 21 13 16 21 13 16 21 13 16 21 11 14 19 11 14 19 11 14 19 11 14 19 11 14 19 11 14 19 11 14 19 11 14 19 12 17 21 12 17 21 12 17 21 12 17 21 12 17 21 12 17 21 12 17 21 12 17 21 31 36 40 29 34 38 24 29 33 17 22 26 11 16 20 4 9 13 0 4 8 0 2 6 0 4 7 0 4 7 0 4 7 0 4 7 0 4 7 0 4 7 0 4 7 0 4 7 10 14 17 12 16 19 14 18 21 17 21 24 21 25 28 24 28 31 26 30 33 28 32 33 45 51 51 47 53 51 49 55 53 52 58 56 56 62 60 59 65 63 61 67 65 63 69 67 60 66 64 61 67 65 63 69 67 67 73 71 70 76 74 73 79 77 76 82 80 78 82 81 90 90 90 87 85 86 80 78 79 70 68 69 60 58 59 50 48 49 43 41 42 39 37 38 41 39 40 41 39 40 41 39 40 41 39 40 41 39 40 41 39 40 41 39 40 41 40 38 39 38 36 39 38 34 39 38 34 39 38 34 39 38 34 39 38 34 39 38 34 39 38 34 38 37 33 38 37 33 38 37 33 38 37 33 38 37 33 38 37 33 38 37 33 38 37 33
112 89 105 119 96 112 125 102 118 128 105 121 145 122 138 145 122 138 145 122 138 145 122 138 145 122 138 145 122 138 145 122 138 145 122 138 148 128 140 148 128 140 148 128 140 148 128 140 148 128 140 148 128 140 148 128 140 148 128 140 145 125 137 143 123 135 141 121 133 138 118 130 134 114 126 131 111 123 129 109 121 127 107 119 136 116 128 135 115 127 133 113 125 129 109 121 126 106 118 123 103 115 120 100 112 119 99 111 119 99 111 116 96 108 111 91 103 105 85 97 98 78 90 92 72 84 87 67 79 82 64 76 71 59 71 68 58 69 66 56 67 63 53 64 59 49 60 56 46 57 54 44 55 52 42 53 29 19 30 29 19 30 29 19 30 29 19 30 29 19 30 29 19 30 29 19 30 27 19 30 14 8 18 12 9 18 12 9 18 12 9 18 12 9 18 12 9 18 12 9 18 12 9 18 12 9 18 12 9 18 12 9 18 12 9 18 12 9 18 12 9 18 12 9 18 11 10 18 10 11 16 8 11 16 8 11 16 8 11 16 8 11 16 8 11 16 8 11 16 8 11 16 5 8 13 6 9 14 8 11 16 12 15 20 15 18 23 18 21 26 21 24 29 22 25 30 32 37 41 32 37 41 32 37 41 32 37 41 32 37 41 32 37 41 32 37 41 32 37 41 19 24 28 17 22 26 15 20 24 12 17 21 8 13 17 5 10 14 3 8 12 1 6 10 0 3 6 0 3 6 0 3 6 0 3 6 0 3 6 0 3 6 0 3 6 0 3 6 7 11 14 9 13 16 11 15 18 14 18 21 18 22 25 21 25 28 23 27 30 25 29 30 35 41 41 37 43 41 39 45 43 42 48 46 46 52 50 49 55 53 51 57 55 53 59 57 67 73 71 67 73 71 67 73 71 67 73 71 67 73 71 67 73 71 67 73 71 68 72 71 71 71 71 70 68 69 65 63 64 58 56 57 52 50 51 45 43 44 40 38 39 38 36 37 35 33 34 35 33 34 35 33 34 35 33 34 35 33 34 35 33 34 35 33 34 35 34 32 35 34 32 35 34 30 35 34 30 35 34 30 35 34 30 35 34 30 35 34 30 35 34 30 37 36 32 37 36 32 37 36 32 37 36 32 37 36 32 37 36 32 37 36 32 37 36 32
114 91 107 121 98 114 126 103 119 129 106 122 145 122 138 145 122 138 145 122 138 145 122 138 145 122 138 145 122 138 145 122 138 145 122 138 148 128 140 148 128 140 148 128 140 148 128 140 148 128 140 148 128 140 148 128 140 148 128 140 145 125 137 143 123 135 141 121 133 138 118 130 134 114 126 131 111 123 129 109 121 127 107 119 135 115 127 134 114 126 131 111 123 128 108 120 125 105 117 121 101 113 119 99 111 118 98 110 116 96 108 113 93 105 109 89 101 102 82 94 95 75 87 89 69 81 84 64 76 79 61 73 67 55 67 64 54 65 62 52 63 59 49 60 55 45 56 52 42 53 50 40 51 48 38 49 27 17 28 27 17 28 27 17 28 27 17 28 27 17 28 27 17 28 27 17 28 25 17 28 14 8 18 12 9 18 12 9 18 12 9 18 12 9 18 12 9 18 12 9 18 12 9 18 12 9 18 12 9 18 12 9 18 12 9 18 12 9 18 12 9 18 12 9 18 11 10 18 10 11 16 8 11 16 8 11 16 8 11 16 8 11 16 8 11 16 8 11 16 8 11 16 6 9 14 7 10 15 10 13 18 13 16 21 16 19 24 20 23 28 22 25 30 23 26 31 32 37 41 32 37 41 32 37 41 32 37 41 32 37 41 32 37 41 32 37 41 32 37 41 19 24 28 17 22 26 15 20 24 12 17 21 8 13 17 5 10 14 3 8 12 1 6 10 0 3 6 0 3 6 0 3 6 0 3 6 0 3 6 0 3 6 0 3 6 0 3 6 7 11 14 9 13 16 11 15 18 14 18 21 18 22 25 21 25 28 23 27 30 25 29 30 35 41 41 37 43 41 39 45 43 42 48 46 46 52 50 49 55 53 51 57 55 53 59 57 65 71 69 65 71 69 65 71 69 65 71 69 65 71 69 65 71 69 65 71 69 66 70 69 71 71 71 70 68 69 65 63 64 58 56 57 52 50 51 45 43 44 40 38 39 38 36 37 35 33 34 35 33 34 35 33 34 35 33 34 35 33 34 35 33 34 35 33 34 35 34 32 35 34 32 35 34 30 35 34 30 35 34 30 35 34 30 35 34 30 35 34 30 35 34 30 37 36 32 37 36 32 37 36 32 37 36 32 37 36 32 37 36 32 37 36 32 37 36 32
118 95 111 124 101 117 128 105 121 131 108 124 145 122 138 145 122 138 145 122 138 145 122 138 145 122 138 145 122 138 145 122 138 145 122 138 148 128 140 148 128 140 148 128 140 148 128 140 148 128 140 148 128 140 148 128 140 148 128 140 145 125 137 143 123 135 141 121 133 138 118 130 134 114 126 131 111 123 129 109 121 127 107 119 133 113 125 131 111 123 129 109 121 126 106 118 122 102 114 119 99 111 117 97 109 115 95 107 111 91 103 109 89 101 104 84 96 97 77 89 90 70 82 84 64 76 79 59 71 74 56 68 59 47 59 57 47 58 55 45 56 51 41 52 48 38 49 45 35 46 42 32 43 41 31 42 25 15 26 25 15 26 25 15 26 25 15 26 25 15 26 25 15 26 25 15 26 23 15 26 14 8 18 12 9 18 12 9 18 12 9 18 12 9 18 12 9 18 12 9 18 12 9 18 12 9 18 12 9 18 12 9 18 12 9 18 12 9 18 12 9 18 12 9 18 11 10 18 10 11 16 8 11 16 8 11 16 8 11 16 8 11 16 8 11 16 8 11 16 8 11 16 8 11 16 10 13 18 12 15 20 15 18 23 19 22 27 22 25 30 24 27 32 26 29 34 32 37 41 32 37 41 32 37 41 32 37 41 32 37 41 32 37 41 32 37 41 32 37 41 19 24 28 17 22 26 15 20 24 12 17 21 8 13 17 5 10 14 3 8 12 1 6 10 0 3 6 0 3 6 0 3 6 0 3 6 0 3 6 0 3 6 0 3 6 0 3 6 7 11 14 9 13 16 11 15 18 14 18 21 18 22 25 21 25 28 23 27 30 25 29 30 35 41 41 37 43 41 39 45 43 42 48 46 46 52 50 49 55 53 51 57 55 53 59 57 63 69 67 63 69 67 63 69 67 63 69 67 63 69 67 63 69 67 63 69 67 64 68 67 71 71 71 70 68 69 65 63 64 58 56 57 52 50 51 45 43 44 40 38 39 38 36 37 35 33 34 35 33 34 35 33 34 35 33 34 35 33 34 35 33 34 35 33 34 35 34 32 35 34 32 35 34 30 35 34 30 35 34 30 35 34 30 35 34 30 35 34 30 35 34 30 37 36 32 37 36 32 37 36 32 37 36 32 37 36 32 37 36 32 37 36 32 37 36 32
124 101 117 128 105 121 131 108 124 133 110 126 145 122 138 145 122 138 145 122 138 145 122 138 145 122 138 145 122 138 145 122 138 145 122 138 148 128 140 148 128 140 148 128 140 148 128 140 148 128 140 148 128 140 148 128 140 148 128 140 145 125 137 143 123 135 141 121 133 138 118 130 134 114 126 131 111 123 129 109 121 127 107 119 129 109 121 128 108 120 126 106 118 122 102 114 119 99 111 116 96 108 113 93 105 112 92 104 105 85 97 102 82 94 97 77 89 91 71 83 84 64 76 78 58 70 73 53 65 68 50 62 50 38 50 48 38 49 45 35 46 42 32 43 38 28 39 35 25 36 33 23 34 32 22 33 22 12 23 22 12 23 22 12 23 22 12 23 22 12 23 22 12 23 22 12 23 20 12 23 14 8 18 12 9 18 12 9 18 12 9 18 12 9 18 12 9 18 12 9 18 12 9 18 12 9 18 12 9 18 12 9 18 12 9 18 12 9 18 12 9 18 12 9 18 11 10 18 10 11 16 8 11 16 8 11 16 8 11 16 8 11 16 8 11 16 8 11 16 8 11 16 12 15 20 13 16 21 15 18 23 19 22 27 22 25 30 25 28 33 28 31 36 29 32 37 32 37 41 32 37 41 32 37 41 32 37 41 32 37 41 32 37 41 32 37 41 32 37 41 19 24 28 17 22 26 15 20 24 12 17 21 8 13 17 5 10 14 3 8 12 1 6 10 0 3 6 0 3 6 0 3 6 0 3 6 0 3 6 0 3 6 0 3 6 0 3 6 7 11 14 9 13 16 11 15 18 14 18 21 18 22 25 21 25 28 23 27 30 25 29 30 35 41 41 37 43 41 39 45 43 42 48 46 46 52 50 49 55 53 51 57 55 53 59 57 60 66 64 60 66 64 60 66 64 60 66 64 60 66 64 60 66 64 60 66 64 61 65 64 71 71 71 70 68 69 65 63 64 58 56 57 52 50 51 45 43 44 40 38 39 38 36 37 35 33 34 35 33 34 35 33 34 35 33 34 35 33 34 35 33 34 35 33 34 35 34 32 35 34 32 35 34 30 35 34 30 35 34 30 35 34 30 35 34 30 35 34 30 35 34 30 37 36 32 37 36 32 37 36 32 37 36 32 37 36 32 37 36 32 37 36 32 37 36 32
130 107 123 132 109 125 134 111 127 135 112 128 145 122 138 145 122 138 145 122 138 145 122 138 145 122 138 145 122 138 145 122 138 145 122 138 148 128 140 148 128 140 148 128 140 148 128 140 148 128 140 148 128 140 148 128 140 148 128 140 145 125 137 143 123 135 141 121 133 138 118 130 134 114 126 131 111 123 129 109 121 127 107 119 126 106 118 125 105 117 122 102 114 119 99 111 116 96 108 112 92 104 110 90 102 109 89 101 98 78 90 95 75 87 90 70 82 84 64 76 77 57 69 71 51 63 66 46 58 61 43 55 39 27 39 37 27 38 35 25 36 32 22 33 28 18 29 25 15 26 22 12 23 21 11 22 18 8 19 18 8 19 18 8 19 18 8 19 18 8 19 18 8 19 18 8 19 16 8 19 14 8 18 12 9 18 12 9 18 12 9 18 12 9 18 12 9 18 12 9 18 12 9 18 12 9 18 12 9 18 12 9 18 12 9 18 12 9 18 12 9 18 12 9 18 11 10 18 10 11 16 8 11 16 8 11 16 8 11 16 8 11 16 8 11 16 8 11 16 8 11 16 15 18 23 16 19 24 19 22 27 22 25 30 25 28 33 29 32 37 31 34 39 32 35 40 32 37 41 32 37 41 32 37 41 32 37 41 32 37 41 32 37 41 32 37 41 32 37 41 19 24 28 17 22 26 15 20 24 12 17 21 8 13 17 5 10 14 3 8 12 1 6 10 0 3 6 0 3 6 0 3 6 0 3 6 0 3 6 0 3 6 0 3 6 0 3 6 7 11 14 9 13 16 11 15 18 14 18 21 18 22 25 21 25 28 23 27 30 25 29 30 35 41 41 37 43 41 39 45 43 42 48 46 46 52 50 49 55 53 51 57 55 53 59 57 56 62 60 56 62 60 56 62 60 56 62 60 56 62 60 56 62 60 56 62 60 57 61 60 71 71 71 70 68 69 65 63 64 58 56 57 52 50 51 45 43 44 40 38 39 38 36 37 35 33 34 35 33 34 35 33 34 35 33 34 35 33 34 35 33 34 35 33 34 35 34 32 35 34 32 35 34 30 35 34 30 35 34 30 35 34 30 35 34 30 35 34 30 35 34 30 37 36 32 37 36 32 37 36 32 37 36 32 37 36 32 37 36 32 37 36 32 37 36 32
135 112 128 136 113 129 136 113 129 137 114 130 145 122 138 145 122 138 145 122 138 145 122 138 145 122 138 145 122 138 145 122 138 145 122 138 148 128 140 148 128 140 148 128 140 148 128 140 148 128 140 148 128 140 148 128 140 148 128 140 145 125 137 143 123 135 141 121 133 138 118 130 134 114 126 131 111 123 129 109 121 127 107 119 123 103 115 121 101 113 119 99 111 116 96 108 112 92 104 109 89 101 107 87 99 105 85 97 92 72 84 89 69 81 84 64 76 78 58 70 71 51 63 64 44 56 59 39 51 55 37 49 30 18 30 28 18 29 25 15 26 22 12 23 19 9 20 15 5 16 13 3 14 12 2 13 15 5 16 15 5 16 15 5 16 15 5 16 15 5 16 15 5 16 15 5 16 13 5 16 14 8 18 12 9 18 12 9 18 12 9 18 12 9 18 12 9 18 12 9 18 12 9 18 12 9 18 12 9 18 12 9 18 12 9 18 12 9 18 12 9 18 12 9 18 11 10 18 10 11 16 8 11 16 8 11 16 8 11 16 8 11 16 8 11 16 8 11 16 8 11 16 18 21 26 20 23 28 22 25 30 25 28 33 29 32 37 32 35 40 34 37 42 36 39 44 32 37 41 32 37 41 32 37 41 32 37 41 32 37 41 32 37 41 32 37 41 32 37 41 19 24 28 17 22 26 15 20 24 12 17 21 8 13 17 5 10 14 3 8 12 1 6 10 0 3 6 0 3 6 0 3 6 0 3 6 0 3 6 0 3 6 0 3 6 0 3 6 7 11 14 9 13 16 11 15 18 14 18 21 18 22 25 21 25 28 23 27 30 25 29 30 35 41 41 37 43 41 39 45 43 42 48 46 46 52 50 49 55 53 51 57 55 53 59 57 53 59 57 53 59 57 53 59 57 53 59 57 53 59 57 53 59 57 53 59 57 54 58 57 71 71 71 70 68 69 65 63 64 58 56 57 52 50 51 45 43 44 40 38 39 38 36 37 35 33 34 35 33 34 35 33 34 35 33 34 35 33 34 35 33 34 35 33 34 35 34 32 35 34 32 35 34 30 35 34 30 35 34 30 35 34 30 35 34 30 35 34 30 35 34 30 37 36 32 37 36 32 37 36 32 37 36 32 37 36 32 37 36 32 37 36 32 37 36 32
139 116 132 139 116 132 138 115 131 138 115 131 145 122 138 145 122 138 145 122 138 145 122 138 145 122 138 145 122 138 145 122 138 145 122 138 148 128 140 148 128 140 148 128 140 148 128 140 148 128 140 148 128 140 148 128 140 148 128 140 145 125 137 143 123 135 141 121 133 138 118 130 134 114 126 131 111 123 129 109 121 127 107 119 120 100 112 119 99 111 117 97 109 113 93 105 110 90 102 107 87 99 104 84 96 103 83 95 87 67 79 84 64 76 79 59 71 73 53 65 66 46 58 59 39 51 55 35 47 50 32 44 23 11 23 20 10 21 18 8 19 15 5 16 11 1 12 8 0 9 6 0 7 6 0 7 13 3 14 13 3 14 13 3 14 13 3 14 13 3 14 13 3 14 13 3 14 11 3 14 14 8 18 12 9 18 12 9 18 12 9 18 12 9 18 12 9 18 12 9 18 12 9 18 12 9 18 12 9 18 12 9 18 12 9 18 12 9 18 12 9 18 12 9 18 11 10 18 10 11 16 8 11 16 8 11 16 8 11 16 8 11 16 8 11 16 8 11 16 8 11 16 21 24 29 22 25 30 24 27 32 28 31 36 31 34 39 34 37 42 37 40 45 38 41 46 32 37 41 32 37 41 32 37 41 32 37 41 32 37 41 32 37 41 32 37 41 32 37 41 19 24 28 17 22 26 15 20 24 12 17 21 8 13 17 5 10 14 3 8 12 1 6 10 0 3 6 0 3 6 0 3 6 0 3 6 0 3 6 0 3 6 0 3 6 0 3 6 7 11 14 9 13 16 11 15 18 14 18 21 18 22 25 21 25 28 23 27 30 25 29 30 35 41 41 37 43 41 39 45 43 42 48 46 46 52 50 49 55 53 51 57 55 53 59 57 51 57 55 51 57 55 51 57 55 51 57 55 51 57 55 51 57 55 51 57 55 52 56 55 71 71 71 70 68 69 65 63 64 58 56 57 52 50 51 45 43 44 40 38 39 38 36 37 35 33 34 35 33 34 35 33 34 35 33 34 35 33 34 35 33 34 35 33 34 35 34 32 35 34 32 35 34 30 35 34 30 35 34 30 35 34 30 35 34 30 35 34 30 35 34 30 37 36 32 37 36 32 37 36 32 37 36 32 37 36 32 37 36 32 37 36 32 37 36 32
141 120 135 139 118 133 139 118 133 138 117 132 144 123 138 144 123 138 144 123 138 144 123 138 144 123 138 144 123 138 144 123 138 144 123 138 148 127 142 148 128 140 148 127 142 148 128 140 148 127 142 148 128 140 148 127 142 148 128 140 145 124 139 143 123 135 141 120 135 138 118 130 134 113 128 131 111 123 129 108 123 127 106 121 117 99 113 115 99 112 113 95 109 109 93 106 107 89 103 102 86 99 101 83 97 99 83 96 82 64 78 78 62 75 74 56 70 67 51 64 61 43 57 54 38 51 50 32 46 44 30 43 18 8 19 14 6 17 12 4 15 9 1 12 5 0 8 4 0 7 4 0 7 4 0 7 9 1 12 9 1 12 9 1 12 9 1 12 9 1 12 9 1 12 9 1 12 8 2 12 12 9 18 11 10 16 11 10 18 11 10 16 11 10 18 11 10 16 11 10 18 11 10 16 11 10 18 11 10 16 11 10 18 11 10 16 11 10 18 11 10 16 11 10 18 10 11 16 8 11 16 7 12 16 8 11 16 7 12 16 8 11 16 7 12 16 8 11 16 7 12 16 22 25 30 22 27 31 26 29 34 28 33 37 32 35 40 35 40 44 38 41 46 38 43 47 32 37 41 32 37 41 32 37 41 32 37 41 32 37 41 32 37 41 32 37 41 32 37 41 19 24 28 17 22 26 15 20 24 12 17 21 8 13 17 5 10 14 3 8 12 1 6 10 0 3 6 0 3 6 0 3 6 0 3 6 0 3 6 0 3 6 0 3 6 0 3 6 7 11 14 9 13 16 11 15 18 14 18 21 18 22 25 21 25 28 23 27 30 25 29 30 35 41 41 37 43 41 39 45 43 42 48 46 46 52 50 49 55 53 51 57 55 53 59 57 49 55 53 49 55 53 49 55 53 49 55 53 49 55 53 49 55 53 49 55 53 50 54 53 71 71 71 70 68 69 65 63 64 58 56 57 52 50 51 45 43 44 40 38 39 38 36 37 35 33 34 35 33 34 35 33 34 35 33 34 35 33 34 35 33 34 35 33 34 35 34 32 35 34 30 35 34 30 37 33 30 35 34 30 37 33 30 35 34 30 37 33 30 35 34 30 39 35 32 37 36 32 39 35 32 37 36 32 39 35 32 37 36 32 39 35 32 37 36 32
143 125 141 143 125 141 143 125 141 143 125 141 143 125 141 143 125 141 143 125 141 143 125 141 143 125 141 143 125 141 143 125 141 143 125 141 142 121 138 142 121 136 142 121 138 142 121 136 142 121 138 142 121 136 142 121 138 142 121 136 130 109 126 130 109 124 130 109 126 130 109 124 130 109 126 130 109 124 130 109 126 128 110 126 111 97 112 109 98 112 108 96 110 105 94 108 104 92 106 101 90 104 100 88 102 99 88 102 71 59 73 65 54 68 58 46 60 46 35 49 36 24 38 24 13 27 16 4 18 9 1 14 6 3 14 5 3 14 5 3 14 5 3 14 5 3 14 5 3 14 5 3 14 5 3 14 7 5 16 7 5 16 7 5 16 7 5 16 7 5 16 7 5 16 7 5 16 6 6 14 8 11 16 7 12 15 7 12 16 7 12 15 7 12 16 7 12 15 7 12 16 7 12 15 9 14 18 9 14 17 9 14 18 9 14 17 9 14 18 9 14 17 9 14 18 9 14 18 15 20 24 12 19 25 13 18 24 10 17 23 11 16 22 7 14 20 9 14 20 6 13 19 47 52 58 45 52 58 47 52 58 45 52 58 47 52 58 45 52 58 47 52 58 47 52 58 40 45 49 40 45 49 40 45 49 40 45 49 40 45 49 40 45 49 40 45 49 40 45 49 20 25 29 18 23 27 16 21 25 13 18 22 9 14 18 6 11 15 4 9 13 2 7 11 2 7 10 2 8 8 2 8 8 2 8 8 2 8 8 2 8 8 2 8 8 2 8 8 6 12 12 8 14 14 10 16 16 13 19 19 17 23 23 20 26 26 22 28 28 24 30 30 26 32 32 28 34 34 30 36 36 33 39 39 37 43 43 40 46 46 42 48 48 44 50 50 53 59 59 53 59 59 53 59 59 53 59 59 53 59 59 53 59 59 53 59 59 54 58 57 52 50 51 52 48 47 50 46 45 47 43 42 43 39 38 40 36 35 38 34 33 36 32 31 36 32 31 36 32 31 36 32 31 36 32 31 36 32 31 36 32 31 36 32 31 36 32 31 36 32 29 36 33 28 37 32 28 36 33 28 37 32 28 36 33 28 37 32 28 36 33 28 39 34 30 38 35 30 39 34 30 38 35 30 39 34 30 38 35 30 39 34 30 38 34 31
140 123 139 140 123 139 140 123 139 140 123 139 140 123 139 140 123 139 140 123 139 140 123 139 140 123 139 140 123 139 140 123 139 140 123 139 140 119 136 140 119 136 140 119 136 140 119 136 140 119 136 140 119 136 140 119 136 140 119 136 128 107 124 128 107 124 128 107 124 128 107 124 128 107 124 128 107 124 128 107 124 125 108 124 108 95 112 104 96 111 102 94 109 99 91 106 97 89 104 94 86 101 92 84 99 91 83 98 63 55 70 59 51 66 51 43 58 41 33 48 30 22 37 20 12 27 12 4 19 7 1 15 5 3 14 4 4 14 4 4 14 4 4 14 4 4 14 4 4 14 4 4 14 4 4 14 6 6 16 6 6 16 6 6 16 6 6 16 6 6 16 6 6 16 6 6 16 4 7 14 7 12 16 5 13 15 5 13 15 5 13 15 5 13 15 5 13 15 5 13 15 5 13 15 7 15 17 7 15 17 7 15 17 7 15 17 7 15 17 7 15 17 7 15 17 7 15 17 12 19 25 12 19 25 12 19 25 11 18 24 10 17 23 10 17 23 9 16 22 9 16 22 47 54 60 47 54 60 47 54 60 47 54 60 47 54 60 47 54 60 47 54 60 47 54 60 40 45 49 40 45 49 40 45 49 40 45 49 40 45 49 40 45 49 40 45 49 40 45 49 20 25 29 18 23 27 16 21 25 13 18 22 9 14 18 6 11 15 4 9 13 2 7 10 2 7 10 2 8 8 2 8 8 2 8 8 2 8 8 2 8 8 2 8 8 2 8 8 6 12 12 8 14 14 10 16 16 13 19 19 17 23 23 20 26 26 22 28 28 24 30 30 26 32 32 28 34 34 30 36 36 33 39 39 37 43 43 40 46 46 42 48 48 44 50 50 51 57 57 51 57 57 51 57 57 51 57 57 51 57 57 51 57 57 51 57 57 52 56 55 52 50 51 52 48 47 50 46 45 47 43 42 43 39 38 40 36 35 38 34 33 36 32 31 36 32 31 36 32 31 36 32 31 36 32 31 36 32 31 36 32 31 36 32 31 36 32 29 37 32 29 37 32 28 37 32 28 37 32 28 37 32 28 37 32 28 37 32 28 37 32 28 39 34 30 39 34 30 39 34 30 39 34 30 39 34 30 39 34 30 39 34 30 39 34 30
138 121 137 138 121 137 138 121 137 138 121 137 138 121 137 138 121 137 138 121 137 138 121 137 138 121 137 138 121 137 138 121 137 138 121 137 138 117 134 138 117 134 138 117 134 138 117 134 138 117 134 138 117 134 138 117 134 138 117 134 126 105 122 126 105 122 126 105 122 126 105 122 126 105 122 126 105 122 126 105 122 123 106 122 104 91 108 100 92 107 97 89 104 93 85 100 89 81 96 85 77 92 82 74 89 80 72 87 55 47 62 51 43 58 44 36 51 36 28 43 26 18 33 17 9 24 10 2 17 6 0 14 5 3 14 4 4 14 4 4 14 4 4 14 4 4 14 4 4 14 4 4 14 4 4 14 6 6 16 6 6 16 6 6 16 6 6 16 6 6 16 6 6 16 6 6 16 4 7 14 7 12 16 5 13 15 5 13 15 5 13 15 5 13 15 5 13 15 5 13 15 5 13 15 7 15 17 7 15 17 7 15 17 7 15 17 7 15 17 7 15 17 7 15 17 7 15 17 11 18 24 12 19 25 12 19 25 13 20 26 13 20 26 14 21 27 15 22 28 15 22 28 49 56 62 49 56 62 49 56 62 49 56 62 49 56 62 49 56 62 49 56 62 49 56 62 40 45 49 40 45 49 40 45 49 40 45 49 40 45 49 40 45 49 40 45 49 40 45 49 20 25 29 18 23 27 16 21 25 13 18 22 9 14 18 6 11 15 4 9 13 2 7 10 2 7 10 2 8 8 2 8 8 2 8 8 2 8 8 2 8 8 2 8 8 2 8 8 6 12 12 8 14 14 10 16 16 13 19 19 17 23 23 20 26 26 22 28 28 24 30 30 26 32 32 28 34 34 30 36 36 33 39 39 37 43 43 40 46 46 42 48 48 44 50 50 49 55 55 49 55 55 49 55 55 49 55 55 49 55 55 49 55 55 49 55 55 50 54 53 52 50 51 52 48 47 50 46 45 47 43 42 43 39 38 40 36 35 38 34 33 36 32 31 36 32 31 36 32 31 36 32 31 36 32 31 36 32 31 36 32 31 36 32 31 36 32 29 37 32 29 37 32 28 37 32 28 37 32 28 37 32 28 37 32 28 37 32 28 37 32 28 39 34 30 39 34 30 39 34 30 39 34 30 39 34 30 39 34 30 39 34 30 39 34 30
135 118 134 135 118 134 135 118 134 135 118 134 135 118 134 135 118 134 135 118 134 135 118 134 135 118 134 135 118 134 135 118 134 135 118 134 135 114 131 135 114 131 135 114 131 135 114 131 135 114 131 135 114 131 135 114 131 135 114 131 123 102 119 123 102 119 123 102 119 123 102 119 123 102 119 123 102 119 123 102 119 120 103 119 99 86 103 94 86 101 90 82 97 84 76 91 78 70 85 73 65 80 69 61 76 66 58 73 44 36 51 41 33 48 36 28 43 28 20 35 21 13 28 13 5 20 8 0 15 4 0 12 5 3 14 4 4 14 4 4 14 4 4 14 4 4 14 4 4 14 4 4 14 4 4 14 6 6 16 6 6 16 6 6 16 6 6 16 6 6 16 6 6 16 6 6 16 4 7 14 7 12 16 5 13 15 5 13 15 5 13 15 5 13 15 5 13 15 5 13 15 5 13 15 7 15 17 7 15 17 7 15 17 7 15 17 7 15 17 7 15 17 7 15 17 7 15 17 10 17 23 11 18 24 13 20 26 15 22 28 18 25 31 20 27 33 22 29 35 23 30 36 52 59 65 52 59 65 52 59 65 52 59 65 52 59 65 52 59 65 52 59 65 52 59 65 40 45 49 40 45 49 40 45 49 40 45 49 40 45 49 40 45 49 40 45 49 40 45 49 20 25 29 18 23 27 16 21 25 13 18 22 9 14 18 6 11 15 4 9 13 2 7 10 2 7 10 2 8 8 2 8 8 2 8 8 2 8 8 2 8 8 2 8 8 2 8 8 6 12 12 8 14 14 10 16 16 13 19 19 17 23 23 20 26 26 22 28 28 24 30 30 26 32 32 28 34 34 30 36 36 33 39 39 37 43 43 40 46 46 42 48 48 44 50 50 46 52 52 46 52 52 46 52 52 46 52 52 46 52 52 46 52 52 46 52 52 47 51 50 52 50 51 52 48 47 50 46 45 47 43 42 43 39 38 40 36 35 38 34 33 36 32 31 36 32 31 36 32 31 36 32 31 36 32 31 36 32 31 36 32 31 36 32 31 36 32 29 37 32 29 37 32 28 37 32 28 37 32 28 37 32 28 37 32 28 37 32 28 37 32 28 39 34 30 39 34 30 39 34 30 39 34 30 39 34 30 39 34 30 39 34 30 39 34 30
131 114 130 131 114 130 131 114 130 131 114 130 131 114 130 131 114 130 131 114 130 131 114 130 131 114 130 131 114 130 131 114 130 131 114 130 131 110 127 131 110 127 131 110 127 131 110 127 131 110 127 131 110 127 131 110 127 131 110 127 119 98 115 119 98 115 119 98 115 119 98 115 119 98 115 119 98 115 119 98 115 116 99 115 94 81 98 88 80 95 82 74 89 75 67 82 67 59 74 60 52 67 54 46 61 51 43 58 33 25 40 30 22 37 26 18 33 21 13 28 15 7 22 9 1 16 5 0 12 3 0 11 5 3 14 4 4 14 4 4 14 4 4 14 4 4 14 4 4 14 4 4 14 4 4 14 6 6 16 6 6 16 6 6 16 6 6 16 6 6 16 6 6 16 6 6 16 4 7 14 7 12 16 5 13 15 5 13 15 5 13 15 5 13 15 5 13 15 5 13 15 5 13 15 7 15 17 7 15 17 7 15 17 7 15 17 7 15 17 7 15 17 7 15 17 7 15 17 9 16 22 10 17 23 13 20 26 18 25 31 22 29 35 26 33 39 29 36 42 31 38 44 56 63 69 56 63 69 56 63 69 56 63 69 56 63 69 56 63 69 56 63 69 56 63 69 40 45 49 40 45 49 40 45 49 40 45 49 40 45 49 40 45 49 40 45 49 40 45 49 20 25 29 18 23 27 16 21 25 13 18 22 9 14 18 6 11 15 4 9 13 2 7 10 2 7 10 2 8 8 2 8 8 2 8 8 2 8 8 2 8 8 2 8 8 2 8 8 6 12 12 8 14 14 10 16 16 13 19 19 17 23 23 20 26 26 22 28 28 24 30 30 26 32 32 28 34 34 30 36 36 33 39 39 37 43 43 40 46 46 42 48 48 44 50 50 42 48 48 42 48 48 42 48 48 42 48 48 42 48 48 42 48 48 42 48 48 43 47 46 52 50 51 52 48 47 50 46 45 47 43 42 43 39 38 40 36 35 38 34 33 36 32 31 36 32 31 36 32 31 36 32 31 36 32 31 36 32 31 36 32 31 36 32 31 36 32 29 37 32 29 37 32 28 37 32 28 37 32 28 37 32 28 37 32 28 37 32 28 37 32 28 39 34 30 39 34 30 39 34 30 39 34 30 39 34 30 39 34 30 39 34 30 39 34 30
128 111 127 128 111 127 128 111 127 128 111 127 128 111 127 128 111 127 128 111 127 128 111 127 128 111 127 128 111 127 128 111 127 128 111 127 128 107 124 128 107 124 128 107 124 128 107 124 128 107 124 128 107 124 128 107 124 128 107 124 116 95 112 116 95 112 116 95 112 116 95 112 116 95 112 116 95 112 116 95 112 113 96 112 88 75 92 82 74 89 75 67 82 66 58 73 56 48 63 48 40 55 41 33 48 37 29 44 22 14 29 20 12 27 17 9 24 13 5 20 9 1 16 5 0 12 4 0 11 3 0 11 5 3 14 4 4 14 4 4 14 4 4 14 4 4 14 4 4 14 4 4 14 4 4 14 6 6 16 6 6 16 6 6 16 6 6 16 6 6 16 6 6 16 6 6 16 4 7 14 7 12 16 5 13 15 5 13 15 5 13 15 5 13 15 5 13 15 5 13 15 5 13 15 7 15 17 7 15 17 7 15 17 7 15 17 7 15 17 7 15 17 7 15 17 7 15 17 7 14 20 10 17 23 14 21 27 20 27 33 26 33 39 32 39 45 36 43 49 38 45 51 59 66 72 59 66 72 59 66 72 59 66 72 59 66 72 59 66 72 59 66 72 59 66 72 40 45 49 40 45 49 40 45 49 40 45 49 40 45 49 40 45 49 40 45 49 40 45 49 20 25 29 18 23 27 16 21 25 13 18 22 9 14 18 6 11 15 4 9 13 2 7 10 2 7 10 2 8 8 2 8 8 2 8 8 2 8 8 2 8 8 2 8 8 2 8 8 6 12 12 8 14 14 10 16 16 13 19 19 17 23 23 20 26 26 22 28 28 24 30 30 26 32 32 28 34 34 30 36 36 33 39 39 37 43 43 40 46 46 42 48 48 44 50 50 39 45 45 39 45 45 39 45 45 39 45 45 39 45 45 39 45 45 39 45 45 40 44 43 52 50 51 52 48 47 50 46 45 47 43 42 43 39 38 40 36 35 38 34 33 36 32 31 36 32 31 36 32 31 36 32 31 36 32 31 36 32 31 36 32 31 36 32 31 36 32 29 37 32 29 37 32 28 37 32 28 37 32 28 37 32 28 37 32 28 37 32 28 37 32 28 39 34 30 39 34 30 39 34 30 39 34 30 39 34 30 39 34 30 39 34 30 39 34 30
126 109 125 126 109 125 126 109 125 126 109 125 126 109 125 126 109 125 126 109 125 126 109 125 126 109 125 126 109 125 126 109 125 126 109 125 126 105 122 126 105 122 126 105 122 126 105 122 126 105 122 126 105 122 126 105 122 126 105 122 114 93 110 114 93 110 114 93 110 114 93 110 114 93 110 114 93 110 114 93 110 111 94 110 84 71 88 77 69 84 70 62 77 59 51 66 48 40 55 38 30 45 31 23 38 26 18 33 13 5 20 12 4 19 10 2 17 8 0 15 5 0 12 4 0 11 4 0 11 3 0 11 5 3 14 4 4 14 4 4 14 4 4 14 4 4 14 4 4 14 4 4 14 4 4 14 6 6 16 6 6 16 6 6 16 6 6 16 6 6 16 6 6 16 6 6 16 4 7 14 7 12 16 5 13 15 5 13 15 5 13 15 5 13 15 5 13 15 5 13 15 5 13 15 7 15 17 7 15 17 7 15 17 7 15 17 7 15 17 7 15 17 7 15 17 7 15 17 6 13 19 9 16 22 15 22 28 22 29 35 29 36 42 36 43 49 41 48 54 44 51 57 61 68 74 61 68 74 61 68 74 61 68 74 61 68 74 61 68 74 61 68 74 61 68 74 40 45 49 40 45 49 40 45 49 40 45 49 40 45 49 40 45 49 40 45 49 40 45 49 20 25 29 18 23 27 16 21 25 13 18 22 9 14 18 6 11 15 4 9 13 2 7 10 2 7 10 2 8 8 2 8 8 2 8 8 2 8 8 2 8 8 2 8 8 2 8 8 6 12 12 8 14 14 10 16 16 13 19 19 17 23 23 20 26 26 22 28 28 24 30 30 26 32 32 28 34 34 30 36 36 33 39 39 37 43 43 40 46 46 42 48 48 44 50 50 37 43 43 37 43 43 37 43 43 37 43 43 37 43 43 37 43 43 37 43 43 38 42 41 52 50 51 52 48 47 50 46 45 47 43 42 43 39 38 40 36 35 38 34 33 36 32 31 36 32 31 36 32 31 36 32 31 36 32 31 36 32 31 36 32 31 36 32 31 36 32 29 37 32 29 37 32 28 37 32 28 37 32 28 37 32 28 37 32 28 37 32 28 37 32 28 39 34 30 39 34 30 39 34 30 39 34 30 39 34 30 39 34 30 39 34 30 39 34 30
124 107 123 124 107 123 124 107 123 124 107 123 124 107 123 124 107 123 124 107 123 124 107 123 124 107 123 124 107 123 124 107 123 124 107 123 124 103 120 124 103 120 124 103 120 124 103 120 124 103 120 124 103 120 124 103 120 124 103 120 112 91 108 112 91 108 112 91 108 112 91 108 112 91 108 112 91 108 112 91 108 109 92 108 82 69 86 75 67 82 67 59 74 56 48 63 44 36 51 33 25 40 25 17 32 21 13 28 9 1 16 8 0 15 7 0 14 5 0 12 4 0 11 4 0 11 4 0 11 3 0 11 5 3 14 4 4 14 4 4 14 4 4 14 4 4 14 4 4 14 4 4 14 4 4 14 6 6 16 6 6 16 6 6 16 6 6 16 6 6 16 6 6 16 6 6 16 4 7 14 7 12 16 5 13 15 5 13 15 5 13 15 5 13 15 5 13 15 5 13 15 5 13 15 7 15 17 7 15 17 7 15 17 7 15 17 7 15 17 7 15 17 7 15 17 7 15 17 6 13 19 9 16 22 15 22 28 23 30 36 31 38 44 38 45 51 44 51 57 47 54 60 63 70 76 63 70 76 63 70 76 63 70 76 63 70 76 63 70 76 63 70 76 63 70 76 40 45 49 40 45 49 40 45 49 40 45 49 40 45 49 40 45 49 40 45 49 40 45 49 20 25 29 18 23 27 16 21 25 13 18 22 9 14 18 6 11 15 4 9 13 2 7 10 2 7 10 2 8 8 2 8 8 2 8 8 2 8 8 2 8 8 2 8 8 2 8 8 6 12 12 8 14 14 10 16 16 13 19 19 17 23 23 20 26 26 22 28 28 24 30 30 26 32 32 28 34 34 30 36 36 33 39 39 37 43 43 40 46 46 42 48 48 44 50 50 35 41 41 35 41 41 35 41 41 35 41 41 35 41 41 35 41 41 35 41 41 36 40 39 52 50 51 52 48 47 50 46 45 47 43 42 43 39 38 40 36 35 38 34 33 36 32 31 36 32 31 36 32 31 36 32 31 36 32 31 36 32 31 36 32 31 36 32 31 36 32 29 37 32 29 37 32 28 37 32 28 37 32 28 37 32 28 37 32 28 37 32 28 37 32 28 39 34 30 39 34 30 39 34 30 39 34 30 39 34 30 39 34 30 39 34 30 39 34 30
123 106 122 123 106 122 123 106 122 123 106 122 125 108 124 125 108 124 125 108 124 125 108 124 125 108 124 125 108 124 125 108 124 125 108 124 126 105 122 126 105 122 126 105 122 126 105 122 126 105 122 126 105 122 126 105 122 126 105 122 122 101 118 120 99 116 116 95 112 111 90 107 106 85 102 100 79 96 96 75 92 91 74 90 51 38 55 45 37 52 39 31 46 32 24 39 24 16 31 16 8 23 10 2 17 7 0 14 8 0 15 8 0 15 8 0 15 8 0 15 8 0 15 8 0 15 8 0 15 7 1 15 6 4 15 5 5 15 5 5 15 5 5 15 5 5 15 5 5 15 5 5 15 5 5 15 7 7 17 7 7 17 7 7 17 7 7 17 7 7 17 7 7 17 7 7 17 5 8 15 7 12 16 5 13 15 5 13 15 5 13 15 5 13 15 5 13 15 5 13 15 5 13 15 0 5 7 0 6 8 0 8 10 2 10 12 4 12 14 6 14 16 7 15 17 8 16 18 25 32 38 28 35 41 34 41 47 41 48 54 49 56 62 57 64 70 63 70 76 66 73 79 60 67 73 60 67 73 60 67 73 60 67 73 60 67 73 60 67 73 60 67 73 60 67 73 51 56 60 49 54 58 47 52 56 44 49 53 40 45 49 37 42 46 35 40 44 33 38 42 31 36 40 29 34 38 24 29 33 17 22 26 11 16 20 4 9 13 0 4 8 0 2 5 4 9 12 4 10 10 4 10 10 4 10 10 4 10 10 4 10 10 4 10 10 4 10 10 8 14 14 10 16 16 12 18 18 15 21 21 19 25 25 22 28 28 24 30 30 26 32 32 28 34 34 28 34 34 28 34 34 28 34 34 28 34 34 28 34 34 28 34 34 28 34 34 31 37 37 31 37 37 31 37 37 31 37 37 31 37 37 31 37 37 31 37 37 32 36 35 34 32 33 36 32 31 36 32 31 36 32 31 36 32 31 36 32 31 36 32 31 36 32 31 35 31 30 35 31 30 35 31 30 35 31 30 35 31 30 35 31 30 35 31 30 35 31 28 37 32 29 37 32 28 37 32 28 37 32 28 37 32 28 37 32 28 37 32 28 37 32 28 37 32 28 37 32 28 37 32 28 37 32 28 37 32 28 37 32 28 37 32 28 37 32 28
123 106 122 123 106 122 123 106 122 123 106 122 125 108 124 125 108 124 125 108 124 125 108 124 125 108 124 125 108 124 125 108 124 125 108 124 126 105 122 126 105 122 126 105 122 126 105 122 126 105 122 126 105 122 126 105 122 126 105 122 122 101 118 119 98 115 115 94 111 109 88 105 103 82 99 97 76 93 92 71 88 87 70 86 48 35 52 42 34 49 37 29 44 30 22 37 23 15 30 16 8 23 10 2 17 7 0 14 8 0 15 8 0 15 8 0 15 8 0 15 8 0 15 8 0 15 8 0 15 7 1 15 6 4 15 5 5 15 5 5 15 5 5 15 5 5 15 5 5 15 5 5 15 5 5 15 7 7 17 7 7 17 7 7 17 7 7 17 7 7 17 7 7 17 7 7 17 5 8 15 7 12 16 5 13 15 5 13 15 5 13 15 5 13 15 5 13 15 5 13 15 5 13 15 0 6 8 0 7 9 1 9 11 4 12 14 7 15 17 9 17 19 11 19 21 12 20 22 28 35 41 31 38 44 36 43 49 43 50 56 50 57 63 57 64 70 63 70 76 66 73 79 60 67 73 60 67 73 60 67 73 60 67 73 60 67 73 60 67 73 60 67 73 60 67 73 51 56 60 49 54 58 47 52 56 44 49 53 40 45 49 37 42 46 35 40 44 33 38 42 31 36 40 29 34 38 24 29 33 17 22 26 11 16 20 4 9 13 0 4 8 0 2 5 4 9 12 4 10 10 4 10 10 4 10 10 4 10 10 4 10 10 4 10 10 4 10 10 8 14 14 10 16 16 12 18 18 15 21 21 19 25 25 22 28 28 24 30 30 26 32 32 28 34 34 28 34 34 28 34 34 28 34 34 28 34 34 28 34 34 28 34 34 28 34 34 31 37 37 31 37 37 31 37 37 31 37 37 31 37 37 31 37 37 31 37 37 32 36 35 34 32 33 36 32 31 36 32 31 36 32 31 36 32 31 36 32 31 36 32 31 36 32 31 35 31 30 35 31 30 35 31 30 35 31 30 35 31 30 35 31 30 35 31 30 35 31 28 37 32 29 37 32 28 37 32 28 37 32 28 37 32 28 37 32 28 37 32 28 37 32 28 37 32 28 37 32 28 37 32 28 37 32 28 37 32 28 37 32 28 37 32 28 37 32 28
123 106 122 123 106 122 123 106 122 123 106 122 125 108 124 125 108 124 125 108 124 125 108 124 125 108 124 125 108 124 125 108 124 125 108 124 126 105 122 126 105 122 126 105 122 126 105 122 126 105 122 126 105 122 126 105 122 126 105 122 120 99 116 117 96 113 112 91 108 105 84 101 97 76 93 90 69 86 85 64 81 79 62 78 42 29 46 37 29 44 33 25 40 27 19 34 21 13 28 15 7 22 11 3 18 8 0 15 8 0 15 8 0 15 8 0 15 8 0 15 8 0 15 8 0 15 8 0 15 7 1 15 6 4 15 5 5 15 5 5 15 5 5 15 5 5 15 5 5 15 5 5 15 5 5 15 7 7 17 7 7 17 7 7 17 7 7 17 7 7 17 7 7 17 7 7 17 5 8 15 7 12 16 5 13 15 5 13 15 5 13 15 5 13 15 5 13 15 5 13 15 5 13 15 0 8 10 1 9 11 4 12 14 8 16 18 12 20 22 16 24 26 19 27 29 21 29 31 34 41 47 36 43 49 40 47 53 46 53 59 52 59 65 58 65 71 62 69 75 65 72 78 60 67 73 60 67 73 60 67 73 60 67 73 60 67 73 60 67 73 60 67 73 60 67 73 51 56 60 49 54 58 47 52 56 44 49 53 40 45 49 37 42 46 35 40 44 33 38 42 31 36 40 29 34 38 24 29 33 17 22 26 11 16 20 4 9 13 0 4 8 0 2 5 4 9 12 4 10 10 4 10 10 4 10 10 4 10 10 4 10 10 4 10 10 4 10 10 8 14 14 10 16 16 12 18 18 15 21 21 19 25 25 22 28 28 24 30 30 26 32 32 28 34 34 28 34 34 28 34 34 28 34 34 28 34 34 28 34 34 28 34 34 28 34 34 31 37 37 31 37 37 31 37 37 31 37 37 31 37 37 31 37 37 31 37 37 32 36 35 34 32 33 36 32 31 36 32 31 36 32 31 36 32 31 36 32 31 36 32 31 36 32 31 35 31 30 35 31 30 35 31 30 35 31 30 35 31 30 35 31 30 35 31 30 35 31 28 37 32 29 37 32 28 37 32 28 37 32 28 37 32 28 37 32 28 37 32 28 37 32 28 37 32 28 37 32 28 37 32 28 37 32 28 37 32 28 37 32 28 37 32 28 37 32 28
123 106 122 123 106 122 123 106 122 123 106 122 125 108 124 125 108 124 125 108 124 125 108 124 125 108 124 125 108 124 125 108 124 125 108 124 126 105 122 126 105 122 126 105 122 126 105 122 126 105 122 126 105 122 126 105 122 126 105 122 118 97 114 114 93 110 108 87 104 99 78 95 90 69 86 81 60 77 74 53 70 68 51 67 35 22 39 30 22 37 27 19 34 23 15 30 19 11 26 14 6 21 11 3 18 10 2 17 8 0 15 8 0 15 8 0 15 8 0 15 8 0 15 8 0 15 8 0 15 7 1 15 6 4 15 5 5 15 5 5 15 5 5 15 5 5 15 5 5 15 5 5 15 5 5 15 7 7 17 7 7 17 7 7 17 7 7 17 7 7 17 7 7 17 7 7 17 5 8 15 7 12 16 5 13 15 5 13 15 5 13 15 5 13 15 5 13 15 5 13 15 5 13 15 2 10 12 4 12 14 8 16 18 14 22 24 20 28 30 25 33 35 29 37 39 32 40 42 41 48 54 43 50 56 46 53 59 50 57 63 54 61 67 59 66 72 62 69 75 63 70 76 60 67 73 60 67 73 60 67 73 60 67 73 60 67 73 60 67 73 60 67 73 60 67 73 51 56 60 49 54 58 47 52 56 44 49 53 40 45 49 37 42 46 35 40 44 33 38 42 31 36 40 29 34 38 24 29 33 17 22 26 11 16 20 4 9 13 0 4 8 0 2 5 4 9 12 4 10 10 4 10 10 4 10 10 4 10 10 4 10 10 4 10 10 4 10 10 8 14 14 10 16 16 12 18 18 15 21 21 19 25 25 22 28 28 24 30 30 26 32 32 28 34 34 28 34 34 28 34 34 28 34 34 28 34 34 28 34 34 28 34 34 28 34 34 31 37 37 31 37 37 31 37 37 31 37 37 31 37 37 31 37 37 31 37 37 32 36 35 34 32 33 36 32 31 36 32 31 36 32 31 36 32 31 36 32 31 36 32 31 36 32 31 35 31 30 35 31 30 35 31 30 35 31 30 35 31 30 35 31 30 35 31 30 35 31 28 37 32 29 37 32 28 37 32 28 37 32 28 37 32 28 37 32 28 37 32 28 37 32 28 37 32 28 37 32 28 37 32 28 37 32 28 37 32 28 37 32 28 37 32 28 37 32 28
123 106 122 123 106 122 123 106 122 123 106 122 125 108 124 125 108 124 125 108 124 125 108 124 125 108 124 125 108 124 125 108 124 125 108 124 126 105 122 126 105 122 126 105 122 126 105 122 126 105 122 126 105 122 126 105 122 126 105 122 116 95 112 112 91 108 104 83 100 93 72 89 82 61 78 71 50 67 63 42 59 56 39 55 27 14 31 23 15 30 21 13 28 19 11 26 16 8 23 14 6 21 12 4 19 11 3 18 8 0 15 8 0 15 8 0 15 8 0 15 8 0 15 8 0 15 8 0 15 7 1 15 6 4 15 5 5 15 5 5 15 5 5 15 5 5 15 5 5 15 5 5 15 5 5 15 7 7 17 7 7 17 7 7 17 7 7 17 7 7 17 7 7 17 7 7 17 5 8 15 7 12 16 5 13 15 5 13 15 5 13 15 5 13 15 5 13 15 5 13 15 5 13 15 4 12 14 7 15 17 12 20 22 20 28 30 27 35 37 35 43 45 40 48 50 43 51 53 49 56 62 50 57 63 52 59 65 54 61 67 57 64 70 59 66 72 61 68 74 62 69 75 60 67 73 60 67 73 60 67 73 60 67 73 60 67 73 60 67 73 60 67 73 60 67 73 51 56 60 49 54 58 47 52 56 44 49 53 40 45 49 37 42 46 35 40 44 33 38 42 31 36 40 29 34 38 24 29 33 17 22 26 11 16 20 4 9 13 0 4 8 0 2 5 4 9 12 4 10 10 4 10 10 4 10 10 4 10 10 4 10 10 4 10 10 4 10 10 8 14 14 10 16 16 12 18 18 15 21 21 19 25 25 22 28 28 24 30 30 26 32 32 28 34 34 28 34 34 28 34 34 28 34 34 28 34 34 28 34 34 28 34 34 28 34 34 31 37 37 31 37 37 31 37 37 31 37 37 31 37 37 31 37 37 31 37 37 32 36 35 34 32 33 36 32 31 36 32 31 36 32 31 36 32 31 36 32 31 36 32 31 36 32 31 35 31 30 35 31 30 35 31 30 35 31 30 35 31 30 35 31 30 35 31 30 35 31 28 37 32 29 37 32 28 37 32 28 37 32 28 37 32 28 37 32 28 37 32 28 37 32 28 37 32 28 37 32 28 37 32 28 37 32 28 37 32 28 37 32 28 37 32 28 37 32 28
123 106 122 123 106 122 123 106 122 123 106 122 125 108 124 125 108 124 125 108 124 125 108 124 125 108 124 125 108 124 125 108 124 125 108 124 126 105 122 126 105 122 126 105 122 126 105 122 126 105 122 126 105 122 126 105 122 126 105 122 114 93 110 109 88 105 100 79 96 88 67 84 75 54 71 63 42 59 53 32 49 45 28 44 19 6 23 16 8 23 15 7 22 14 6 21 14 6 21 13 5 20 13 5 20 12 4 19 8 0 15 8 0 15 8 0 15 8 0 15 8 0 15 8 0 15 8 0 15 7 1 15 6 4 15 5 5 15 5 5 15 5 5 15 5 5 15 5 5 15 5 5 15 5 5 15 7 7 17 7 7 17 7 7 17 7 7 17 7 7 17 7 7 17 7 7 17 5 8 15 7 12 16 5 13 15 5 13 15 5 13 15 5 13 15 5 13 15 5 13 15 5 13 15 6 14 16 9 17 19 16 24 26 25 33 35 35 43 45 43 51 53 50 58 60 54 62 64 57 64 70 57 64 70 58 65 71 59 66 72 59 66 72 60 67 73 60 67 73 61 68 74 60 67 73 60 67 73 60 67 73 60 67 73 60 67 73 60 67 73 60 67 73 60 67 73 51 56 60 49 54 58 47 52 56 44 49 53 40 45 49 37 42 46 35 40 44 33 38 42 31 36 40 29 34 38 24 29 33 17 22 26 11 16 20 4 9 13 0 4 8 0 2 5 4 9 12 4 10 10 4 10 10 4 10 10 4 10 10 4 10 10 4 10 10 4 10 10 8 14 14 10 16 16 12 18 18 15 21 21 19 25 25 22 28 28 24 30 30 26 32 32 28 34 34 28 34 34 28 34 34 28 34 34 28 34 34 28 34 34 28 34 34 28 34 34 31 37 37 31 37 37 31 37 37 31 37 37 31 37 37 31 37 37 31 37 37 32 36 35 34 32 33 36 32 31 36 32 31 36 32 31 36 32 31 36 32 31 36 32 31 36 32 31 35 31 30 35 31 30 35 31 30 35 31 30 35 31 30 35 31 30 35 31 30 35 31 28 37 32 29 37 32 28 37 32 28 37 32 28 37 32 28 37 32 28 37 32 28 37 32 28 37 32 28 37 32 28 37 32 28 37 32 28 37 32 28 37 32 28 37 32 28 37 32 28
123 106 122 123 106 122 123 106 122 123 106 122 125 108 124 125 108 124 125 108 124 125 108 124 125 108 124 125 108 124 125 108 124 125 108 124 126 105 122 126 105 122 126 105 122 126 105 122 126 105 122 126 105 122 126 105 122 126 105 122 113 92 109 107 86 103 97 76 93 84 63 80 69 48 65 56 35 52 46 25 42 37 20 36 13 0 17 10 2 17 11 3 18 11 3 18 12 4 19 13 5 20 13 5 20 13 5 20 8 0 15 8 0 15 8 0 15 8 0 15 8 0 15 8 0 15 8 0 15 7 1 15 6 4 15 5 5 15 5 5 15 5 5 15 5 5 15 5 5 15 5 5 15 5 5 15 7 7 17 7 7 17 7 7 17 7 7 17 7 7 17 7 7 17 7 7 17 5 8 15 7 12 16 5 13 15 5 13 15 5 13 15 5 13 15 5 13 15 5 13 15 5 13 15 7 15 17 11 19 21 19 27 29 29 37 39 40 48 50 50 58 60 58 66 68 62 70 72 63 70 76 63 70 76 62 69 75 62 69 75 61 68 74 60 67 73 60 67 73 60 67 73 60 67 73 60 67 73 60 67 73 60 67 73 60 67 73 60 67 73 60 67 73 60 67 73 51 56 60 49 54 58 47 52 56 44 49 53 40 45 49 37 42 46 35 40 44 33 38 42 31 36 40 29 34 38 24 29 33 17 22 26 11 16 20 4 9 13 0 4 8 0 2 5 4 9 12 4 10 10 4 10 10 4 10 10 4 10 10 4 10 10 4 10 10 4 10 10 8 14 14 10 16 16 12 18 18 15 21 21 19 25 25 22 28 28 24 30 30 26 32 32 28 34 34 28 34 34 28 34 34 28 34 34 28 34 34 28 34 34 28 34 34 28 34 34 31 37 37 31 37 37 31 37 37 31 37 37 31 37 37 31 37 37 31 37 37 32 36 35 34 32 33 36 32 31 36 32 31 36 32 31 36 32 31 36 32 31 36 32 31 36 32 31 35 31 30 35 31 30 35 31 30 35 31 30 35 31 30 35 31 30 35 31 30 35 31 28 37 32 29 37 32 28 37 32 28 37 32 28 37 32 28 37 32 28 37 32 28 37 32 28 37 32 28 37 32 28 37 32 28 37 32 28 37 32 28 37 32 28 37 32 28 37 32 28
121 107 122 121 107 122 121 107 122 121 107 122 123 109 124 123 109 124 123 109 124 123 109 124 123 109 124 123 109 124 123 109 124 123 109 124 123 106 122 123 107 120 123 106 122 123 107 120 123 106 122 123 107 120 123 106 122 123 107 120 109 92 108 103 87 100 92 75 91 78 62 75 63 46 62 49 33 46 38 21 37 31 17 32 7 0 12 7 1 13 7 1 13 9 3 15 10 4 16 11 5 17 12 6 18 13 7 19 7 1 13 7 1 13 7 1 13 7 1 13 7 1 13 7 1 13 7 1 13 5 2 13 6 4 15 5 5 15 5 5 15 5 5 15 5 5 15 5 5 15 5 5 15 5 5 15 7 7 17 7 7 17 7 7 17 7 7 17 7 7 17 7 7 17 7 7 17 5 8 15 7 12 16 5 13 15 5 13 16 5 13 15 5 13 16 5 13 15 5 13 16 5 13 15 8 16 19 12 20 22 21 29 32 32 40 42 43 51 54 54 62 64 62 70 73 67 75 78 66 74 77 65 72 78 65 72 78 63 70 76 62 69 75 61 68 74 60 67 73 59 66 72 60 67 73 60 67 73 60 67 73 60 67 73 60 67 73 60 67 73 60 67 73 60 67 73 51 56 60 49 54 58 47 52 56 44 49 53 40 45 49 37 42 46 35 40 44 33 38 42 31 36 40 29 34 38 24 29 33 17 22 26 11 16 20 4 9 13 0 4 8 0 2 6 4 9 12 4 10 10 4 9 12 4 10 10 4 9 12 4 10 10 4 9 12 4 10 10 8 13 16 10 16 16 12 17 20 15 21 21 19 24 27 22 28 28 24 29 32 26 32 32 28 33 36 28 34 34 28 33 36 28 34 34 28 33 36 28 34 34 28 33 36 28 34 34 31 36 39 31 37 37 31 36 39 31 37 37 31 36 39 31 37 37 31 36 39 32 36 37 34 32 33 36 32 31 36 32 31 36 32 31 36 32 31 36 32 31 36 32 31 36 32 31 35 31 30 35 31 30 35 31 30 35 31 30 35 31 30 35 31 30 35 31 30 36 30 30 37 32 29 37 32 28 39 31 28 37 32 28 39 31 28 37 32 28 39 31 28 37 32 28 39 31 28 37 32 28 39 31 28 37 32 28 39 31 28 37 32 28 39 31 28 37 32 28
113 102 116 113 102 116 113 102 116 113 102 116 115 104 118 115 104 118 115 104 118 115 104 118 115 104 118 115 104 118 115 104 118 115 104 118 102 92 103 103 93 102 105 95 106 107 97 106 110 100 111 112 102 111 114 104 115 115 105 114 72 62 73 67 57 66 59 49 60 48 38 47 37 27 38 26 16 25 17 7 18 11 3 14 5 4 12 4 4 12 4 4 12 4 4 12 4 4 12 4 4 12 4 4 12 4 4 12 6 6 14 6 6 14 6 6 14 6 6 14 6 6 14 6 6 14 6 6 14 6 6 14 4 4 12 2 5 12 2 5 12 2 5 12 2 5 12 2 5 12 2 5 12 2 5 12 5 8 15 5 8 15 5 8 15 5 8 15 5 8 15 5 8 15 5 8 15 5 8 15 6 11 17 5 13 16 7 14 20 11 19 22 14 21 27 17 25 28 20 27 33 21 29 32 42 49 55 44 52 55 46 53 59 49 57 60 53 60 66 56 64 67 58 65 71 60 68 71 63 68 72 63 68 72 63 68 72 63 68 72 63 68 72 63 68 72 63 68 72 63 68 72 79 84 88 77 82 86 74 79 83 69 74 78 65 70 74 60 65 69 57 62 66 55 60 64 51 59 62 50 58 61 48 56 59 44 52 55 41 49 52 38 46 49 35 43 46 34 42 45 23 31 34 22 30 33 19 27 30 16 24 27 13 21 24 9 17 20 7 15 18 6 14 17 6 11 15 6 11 14 6 11 15 6 11 14 6 11 15 6 11 14 6 11 15 6 11 14 15 20 24 15 20 23 15 20 24 15 20 23 15 20 24 15 20 23 15 20 24 15 20 23 30 38 41 30 38 40 30 38 41 30 38 40 30 38 41 30 38 40 30 38 41 30 38 40 20 28 31 20 28 30 20 28 31 20 28 30 20 28 31 20 28 30 20 28 31 23 27 30 28 26 27 31 25 27 31 25 27 31 25 27 31 25 27 31 25 27 31 25 27 31 25 27 35 29 31 35 29 31 35 29 31 35 29 31 35 29 31 35 29 31 35 29 31 35 29 29 39 31 29 39 31 29 40 30 29 39 31 29 40 30 29 39 31 29 40 30 29 39 31 29 40 30 29 39 31 29 40 30 29 39 31 29 40 30 29 39 31 29 40 30 29 39 31 29
110 102 115 110 102 115 110 102 115 110 102 115 111 103 116 111 103 116 111 103 116 111 103 116 111 103 116 111 103 116 111 103 116 111 103 114 101 95 105 101 96 103 100 95 102 99 94 101 98 93 100 97 92 99 97 92 99 96 91 98 64 59 66 60 55 62 52 47 54 42 37 44 31 26 33 21 16 23 13 8 15 7 4 11 4 5 10 2 5 10 2 5 10 2 5 10 2 5 10 2 5 10 2 5 10 2 5 10 4 7 12 4 7 12 4 7 12 4 7 12 4 7 12 4 7 12 4 7 12 4 7 12 2 5 12 2 5 12 2 5 12 2 5 12 2 5 12 2 5 12 2 5 12 2 5 12 5 8 15 5 8 15 5 8 15 5 8 15 5 8 15 5 8 15 5 8 15 4 9 15 7 12 18 6 13 19 9 16 22 12 19 25 15 22 28 19 26 32 21 28 34 22 29 35 42 49 55 44 51 57 46 53 59 49 56 62 53 60 66 56 63 69 58 65 71 60 67 73 63 68 72 63 68 72 63 68 72 63 68 72 63 68 72 63 68 72 63 68 72 63 68 72 77 82 86 76 81 85 73 78 82 69 74 78 65 70 74 61 66 70 58 63 67 57 62 66 54 62 65 53 61 64 50 58 61 47 55 58 44 52 55 40 48 51 38 46 49 37 45 48 24 32 35 23 31 34 21 29 32 17 25 28 14 22 25 11 19 22 8 16 19 7 15 18 8 13 17 8 13 17 8 13 17 8 13 17 8 13 17 8 13 17 8 13 17 8 13 17 15 20 24 15 20 24 15 20 24 15 20 24 15 20 24 15 20 24 15 20 24 15 20 24 28 36 39 28 36 39 28 36 39 28 36 39 28 36 39 28 36 39 28 36 39 28 36 39 20 28 31 20 28 31 20 28 31 20 28 31 20 28 31 20 28 31 20 28 31 23 27 30 28 26 29 31 25 27 31 25 27 31 25 27 31 25 27 31 25 27 31 25 27 31 25 27 35 29 31 35 29 31 35 29 31 35 29 31 35 29 31 35 29 31 35 29 31 35 29 29 40 30 31 40 30 29 40 30 29 40 30 29 40 30 29 40 30 29 40 30 29 40 30 29 40 30 29 40 30 29 40 30 29 40 30 29 40 30 29 40 30 29 40 30 29 40 30 29
106 98 111 106 98 111 106 98 111 106 98 111 104 96 109 104 96 109 104 96 109 104 96 109 104 96 109 104 96 109 104 96 109 104 96 107 102 96 106 99 94 101 95 90 97 90 85 92 84 79 86 78 73 80 74 69 76 72 67 74 56 51 58 52 47 54 45 40 47 37 32 39 27 22 29 18 13 20 11 6 13 6 3 10 4 5 10 2 5 10 2 5 10 2 5 10 2 5 10 2 5 10 2 5 10 2 5 10 4 7 12 4 7 12 4 7 12 4 7 12 4 7 12 4 7 12 4 7 12 4 7 12 2 5 12 2 5 12 2 5 12 2 5 12 2 5 12 2 5 12 2 5 12 2 5 12 5 8 15 5 8 15 5 8 15 5 8 15 5 8 15 5 8 15 5 8 15 4 9 15 9 14 20 9 16 22 11 18 24 14 21 27 18 25 31 21 28 34 23 30 36 25 32 38 42 49 55 44 51 57 46 53 59 49 56 62 53 60 66 56 63 69 58 65 71 60 67 73 63 68 72 63 68 72 63 68 72 63 68 72 63 68 72 63 68 72 63 68 72 63 68 72 74 79 83 73 78 82 71 76 80 68 73 77 66 71 75 63 68 72 61 66 70 60 65 69 59 67 70 58 66 69 55 63 66 52 60 63 48 56 59 45 53 56 43 51 54 42 50 53 27 35 38 25 33 36 23 31 34 20 28 31 16 24 27 13 21 24 11 19 22 9 17 20 10 15 19 10 15 19 10 15 19 10 15 19 10 15 19 10 15 19 10 15 19 10 15 19 15 20 24 15 20 24 15 20 24 15 20 24 15 20 24 15 20 24 15 20 24 15 20 24 26 34 37 26 34 37 26 34 37 26 34 37 26 34 37 26 34 37 26 34 37 26 34 37 20 28 31 20 28 31 20 28 31 20 28 31 20 28 31 20 28 31 20 28 31 23 27 30 28 26 29 31 25 27 31 25 27 31 25 27 31 25 27 31 25 27 31 25 27 31 25 27 35 29 31 35 29 31 35 29 31 35 29 31 35 29 31 35 29 31 35 29 31 35 29 29 40 30 31 40 30 29 40 30 29 40 30 29 40 30 29 40 30 29 40 30 29 40 30 29 40 30 29 40 30 29 40 30 29 40 30 29 40 30 29 40 30 29 40 30 29 40 30 29
