P3
172 37
255
0 0 18 0 1 16 0 0 18 0 1 16 8 9 27 9 11 26 11 12 30 14 16 31 16 17 35 19 21 36 21 22 40 21 24 41 18 23 43 15 22 41 13 19 41 10 17 36 6 12 34 3 10 29 1 7 29 0 6 25 10 16 38 9 16 35 7 13 35 3 10 29 0 6 28 0 4 23 0 0 22 0 0 21 4 10 36 4 10 36 4 9 38 4 10 36 4 9 38 4 10 36 4 9 38 4 10 36 0 5 34 2 8 34 4 9 38 7 13 39 11 16 45 14 20 46 16 21 50 21 23 44 61 60 68 68 63 67 74 69 73 83 78 82 93 88 92 102 97 101 109 104 108 113 108 112 126 121 125 126 121 125 126 121 125 126 121 125 126 121 125 126 121 125 126 121 125 127 121 125 125 113 117 126 109 115 124 107 113 121 104 110 117 100 106 114 97 103 112 95 101 110 93 99 89 72 78 89 72 78 89 72 78 89 72 78 89 72 78 89 72 78 89 72 78 89 72 78 87 70 76 87 70 76 87 70 76 87 70 76 87 70 76 87 70 76 87 70 76 87 70 76 84 67 73 86 69 75 88 71 77 91 74 80 95 78 84 98 81 87 100 83 89 102 85 91 100 83 89 100 83 89 100 83 89 100 83 89 100 83 89 100 83 89 100 83 89 100 83 89 96 79 85 96 79 85 96 79 85 96 79 85 96 79 85 96 79 85 96 79 85 96 79 85 91 74 80 91 74 80 91 74 80 91 74 80 91 74 80 91 74 80 91 74 80 91 74 80 86 69 75 86 69 75 86 69 75 86 69 75 86 69 75 86 69 75 86 69 75 86 69 75 72 57 64 72 57 64 72 57 64 72 57 64 72 57 64 72 57 64 72 57 64 72 57 64 56 41 48 55 40 47 52 37 44 49 34 41 46 31 38 42 27 34 40 25 32 37 24 31 52 41 45 51 42 45 51 42 45 51 42 45 51 42 45 51 42 45 51 42 45 51 42 45 46 37 40 46 37 40 46 37 40 46 37 40 46 37 40 46 37 40 46 37 40 40 40 40 29 42 35 23 44 35 23 44 35 23 44 35 23 44 35 23 44 35 23 44 35 23 44 35 27 48 39 27 48 39 27 48 39 27 48 39 27 48 39 27 48 39 27 48 39 30 47 39
0 1 18 0 2 18 0 1 18 0 2 18 9 12 29 7 13 29 11 14 31 11 17 33 15 18 35 15 21 37 19 22 39 17 23 39 14 19 38 12 17 37 10 15 35 7 12 32 3 8 28 0 5 25 0 3 23 0 1 21 10 15 35 9 14 34 6 11 31 3 8 28 0 5 25 0 1 21 0 0 19 0 0 19 7 9 32 7 9 34 7 9 34 7 9 34 7 9 34 7 9 34 7 9 34 7 9 34 3 5 30 5 7 32 7 9 34 10 12 37 14 16 41 17 19 44 19 21 46 22 23 43 64 63 71 68 66 69 77 72 78 83 81 84 94 89 95 100 98 101 109 104 110 110 108 111 126 121 127 124 122 125 126 121 127 124 122 125 126 121 127 124 122 125 126 121 127 127 121 125 124 113 119 123 111 115 121 108 115 118 106 110 114 101 108 111 99 103 109 96 103 107 95 99 86 73 80 86 74 78 86 73 80 86 74 78 86 73 80 86 74 78 86 73 80 88 73 80 87 70 78 87 70 78 89 69 78 87 70 78 89 69 78 87 70 78 89 69 78 87 70 78 86 66 75 86 69 77 90 70 79 91 74 82 97 77 86 98 81 89 102 82 91 102 85 93 97 84 91 97 84 91 97 84 91 97 84 91 97 84 91 97 84 91 97 84 91 97 84 91 93 80 87 93 80 87 93 80 87 93 80 87 93 80 87 93 80 87 93 80 87 92 81 87 87 76 82 86 77 82 87 76 82 86 77 82 87 76 82 86 77 82 87 76 82 86 77 82 82 71 77 81 72 77 82 71 77 81 72 77 82 71 77 81 72 77 82 71 77 81 72 77 66 57 62 64 58 62 64 58 62 64 58 62 64 58 62 64 58 62 64 58 62 64 58 62 47 41 45 46 40 44 44 38 42 40 34 38 37 31 35 34 28 32 31 25 29 30 24 28 48 44 45 46 44 45 46 44 45 46 44 45 46 44 45 46 44 45 46 44 45 46 44 45 41 39 40 41 39 40 41 39 40 41 39 40 41 39 40 41 39 40 41 39 40 37 41 40 27 42 35 23 44 35 24 44 35 23 44 35 24 44 35 23 44 35 24 44 35 23 44 35 28 48 39 27 48 39 28 48 39 27 48 39 28 48 39 27 48 39 28 48 39 30 47 39
4 1 20 3 2 20 4 1 20 3 2 20 14 11 30 13 12 30 14 11 30 13 12 30 14 11 30 13 12 30 14 11 30 14 11 30 8 5 22 8 5 22 8 5 22 8 5 22 8 5 22 8 5 22 8 5 22 8 5 22 6 3 20 6 3 20 6 3 20 6 3 20 6 3 20 6 3 20 6 3 20 6 3 20 7 3 20 7 3 20 7 3 20 7 3 20 7 3 20 7 3 20 7 3 20 7 3 20 1 0 14 1 0 14 5 1 18 14 10 27 25 21 38 34 30 47 42 38 55 48 41 57 89 77 89 93 80 89 100 84 95 104 91 100 113 97 108 117 104 113 124 108 119 125 112 121 137 121 132 135 122 131 137 121 132 135 122 131 137 121 132 135 122 131 137 121 132 137 121 131 134 117 127 134 114 123 132 112 123 129 109 118 125 105 116 122 102 111 120 100 111 118 98 107 107 87 98 105 85 94 103 83 94 100 80 89 96 76 87 93 73 82 91 71 82 89 69 80 86 66 77 86 66 77 87 65 77 86 66 77 87 65 77 86 66 77 87 65 77 86 66 77 95 73 85 94 74 85 95 73 85 94 74 85 95 73 85 94 74 85 95 73 85 94 74 85 103 86 96 102 86 96 102 86 96 102 86 96 102 86 96 102 86 96 102 86 96 102 86 96 101 85 95 100 84 94 98 82 92 94 78 88 91 75 85 88 72 82 85 69 79 82 69 78 78 68 76 76 69 76 78 68 76 76 69 76 78 68 76 76 69 76 78 68 76 76 69 76 79 69 77 76 69 76 75 65 73 70 63 70 69 59 67 63 56 63 63 53 61 60 53 60 51 46 52 49 44 50 45 40 46 41 36 42 36 31 37 32 27 33 28 23 29 27 22 28 29 24 30 29 24 30 29 24 30 29 24 30 29 24 30 29 24 30 29 24 30 29 24 28 38 36 37 44 42 43 52 50 51 58 56 57 58 56 57 52 50 51 44 42 43 38 36 37 40 38 39 40 38 39 40 38 39 40 38 39 40 38 39 40 38 39 40 38 39 39 39 39 35 39 38 34 40 38 35 39 38 34 40 38 35 39 38 34 40 38 35 39 38 34 40 38 33 37 36 32 38 36 33 37 36 32 38 36 33 37 36 32 38 36 33 37 36 33 37 36
7 2 22 7 2 22 7 2 22 7 2 22 15 10 30 15 10 30 15 10 30 15 10 30 15 10 30 15 10 30 15 10 30 15 11 28 11 4 22 11 4 20 11 4 20 11 4 20 11 4 20 11 4 20 11 4 20 11 4 20 9 2 18 9 2 18 9 2 18 9 2 18 9 2 18 9 2 18 9 2 18 9 2 18 10 2 17 10 2 17 10 2 17 10 2 17 10 2 17 10 2 17 10 2 17 10 2 17 4 0 11 4 0 11 11 3 18 20 12 27 30 22 37 40 32 47 47 39 54 53 42 56 94 76 90 99 79 91 104 84 96 110 90 102 117 97 109 123 103 115 128 108 120 131 111 123 140 120 132 140 120 132 140 120 132 140 120 132 140 120 132 140 120 132 140 120 132 140 120 132 137 115 127 135 113 125 133 111 123 130 108 120 126 104 116 123 101 113 121 99 111 119 97 109 108 86 98 106 84 96 104 82 94 101 79 91 97 75 87 94 72 84 92 70 82 90 68 80 87 65 78 87 65 78 87 65 78 87 65 78 87 65 78 87 65 78 87 65 78 87 65 78 95 73 86 95 73 86 95 73 86 95 73 86 95 73 86 95 73 86 95 73 86 94 74 86 103 83 95 101 83 95 101 83 95 101 83 95 101 83 95 101 83 95 101 83 95 101 83 95 101 83 95 100 82 94 97 79 91 94 76 88 91 73 85 87 69 81 85 67 79 83 67 78 76 66 75 74 67 75 74 67 75 74 67 75 74 67 75 74 67 75 74 67 75 74 67 75 74 67 75 73 66 74 71 64 72 67 60 68 64 57 65 61 54 62 58 51 59 56 51 58 48 43 49 44 42 47 41 39 44 37 35 40 33 31 36 30 28 33 27 25 30 25 23 28 27 25 30 27 25 30 27 25 30 27 25 30 27 25 30 27 25 30 27 25 30 27 25 28 38 36 39 44 42 43 52 50 51 58 56 57 58 56 57 52 50 51 44 42 43 38 36 37 40 38 39 40 38 39 40 38 39 40 38 39 40 38 39 40 38 39 40 38 39 40 38 39 39 37 38 39 37 38 39 37 38 39 37 38 39 37 38 39 37 38 39 37 38 39 37 38 37 35 36 37 35 36 37 35 36 37 35 36 37 35 36 37 35 36 37 35 36 37 35 36
9 4 24 9 4 24 9 4 24 9 4 24 15 10 30 15 10 30 15 10 30 15 10 30 15 10 30 15 10 30 15 10 30 15 11 28 11 4 22 11 4 20 11 4 20 11 4 20 11 4 20 11 4 20 11 4 20 11 4 20 9 2 18 9 2 18 9 2 18 9 2 18 9 2 18 9 2 18 9 2 18 9 2 18 10 2 17 10 2 17 10 2 17 10 2 17 10 2 17 10 2 17 10 2 17 10 2 17 4 0 11 8 0 15 15 7 22 25 17 32 35 27 42 45 37 52 52 44 59 58 47 61 97 79 93 101 81 93 106 86 98 113 93 105 120 100 112 126 106 118 131 111 123 133 113 125 140 120 132 140 120 132 140 120 132 140 120 132 140 120 132 140 120 132 140 120 132 140 120 132 137 115 127 135 113 125 133 111 123 130 108 120 126 104 116 123 101 113 121 99 111 119 97 109 108 86 98 106 84 96 104 82 94 101 79 91 97 75 87 94 72 84 92 70 82 90 68 80 87 65 78 87 65 78 87 65 78 87 65 78 87 65 78 87 65 78 87 65 78 87 65 78 95 73 86 95 73 86 95 73 86 95 73 86 95 73 86 95 73 86 95 73 86 94 74 86 101 81 93 99 81 93 99 81 93 99 81 93 99 81 93 99 81 93 99 81 93 99 81 93 99 81 93 97 79 91 95 77 89 92 74 86 88 70 82 85 67 79 83 65 77 80 64 75 74 64 73 72 65 73 72 65 73 72 65 73 72 65 73 72 65 73 72 65 73 72 65 73 69 62 70 68 61 69 66 59 67 63 56 64 59 52 60 56 49 57 53 46 54 51 46 53 42 37 43 39 37 42 37 35 40 34 32 37 32 30 35 29 27 32 27 25 30 26 24 29 27 25 30 27 25 30 27 25 30 27 25 30 27 25 30 27 25 30 27 25 30 27 25 28 38 36 39 44 42 43 52 50 51 58 56 57 58 56 57 52 50 51 44 42 43 38 36 37 40 38 39 40 38 39 40 38 39 40 38 39 40 38 39 40 38 39 40 38 39 40 38 39 39 37 38 39 37 38 39 37 38 39 37 38 39 37 38 39 37 38 39 37 38 39 37 38 37 35 36 37 35 36 37 35 36 37 35 36 37 35 36 37 35 36 37 35 36 37 35 36
12 7 27 12 7 27 12 7 27 12 7 27 15 10 30 15 10 30 15 10 30 15 10 30 15 10 30 15 10 30 15 10 30 15 11 28 11 4 22 11 4 20 11 4 20 11 4 20 11 4 20 11 4 20 11 4 20 11 4 20 9 2 18 9 2 18 9 2 18 9 2 18 9 2 18 9 2 18 9 2 18 9 2 18 10 2 17 10 2 17 10 2 17 10 2 17 10 2 17 10 2 17 10 2 17 10 2 17 11 3 18 15 7 22 22 14 29 31 23 38 42 34 49 51 43 58 59 51 66 65 54 68 100 82 96 105 85 97 109 89 101 116 96 108 123 103 115 129 109 121 134 114 126 137 117 129 140 120 132 140 120 132 140 120 132 140 120 132 140 120 132 140 120 132 140 120 132 140 120 132 137 115 127 135 113 125 133 111 123 130 108 120 126 104 116 123 101 113 121 99 111 119 97 109 108 86 98 106 84 96 104 82 94 101 79 91 97 75 87 94 72 84 92 70 82 90 68 80 87 65 78 87 65 78 87 65 78 87 65 78 87 65 78 87 65 78 87 65 78 87 65 78 95 73 86 95 73 86 95 73 86 95 73 86 95 73 86 95 73 86 95 73 86 94 74 86 98 78 90 96 78 90 96 78 90 96 78 90 96 78 90 96 78 90 96 78 90 96 78 90 95 77 89 94 76 88 92 74 86 88 70 82 85 67 79 82 64 76 79 61 73 77 61 72 71 61 70 69 62 70 69 62 70 69 62 70 69 62 70 69 62 70 69 62 70 69 62 70 63 56 64 62 55 63 59 52 60 56 49 57 53 46 54 50 43 51 47 40 48 45 40 47 34 29 35 32 30 35 31 29 34 30 28 33 29 27 32 28 26 31 28 26 31 27 25 30 27 25 30 27 25 30 27 25 30 27 25 30 27 25 30 27 25 30 27 25 30 27 25 28 38 36 39 44 42 43 52 50 51 58 56 57 58 56 57 52 50 51 44 42 43 38 36 37 40 38 39 40 38 39 40 38 39 40 38 39 40 38 39 40 38 39 40 38 39 40 38 39 39 37 38 39 37 38 39 37 38 39 37 38 39 37 38 39 37 38 39 37 38 39 37 38 37 35 36 37 35 36 37 35 36 37 35 36 37 35 36 37 35 36 37 35 36 37 35 36
16 11 31 16 11 31 16 11 31 16 11 31 15 10 30 15 10 30 15 10 30 15 10 30 15 10 30 15 10 30 15 10 30 15 11 28 11 4 22 11 4 20 11 4 20 11 4 20 11 4 20 11 4 20 11 4 20 11 4 20 9 2 18 9 2 18 9 2 18 9 2 18 9 2 18 9 2 18 9 2 18 9 2 18 10 2 17 10 2 17 10 2 17 10 2 17 10 2 17 10 2 17 10 2 17 10 2 17 17 9 24 21 13 28 29 21 36 38 30 45 49 41 56 58 50 65 65 57 72 71 60 74 103 85 99 108 88 100 113 93 105 119 99 111 126 106 118 133 113 125 137 117 129 140 120 132 140 120 132 140 120 132 140 120 132 140 120 132 140 120 132 140 120 132 140 120 132 140 120 132 137 115 127 135 113 125 133 111 123 130 108 120 126 104 116 123 101 113 121 99 111 119 97 109 108 86 98 106 84 96 104 82 94 101 79 91 97 75 87 94 72 84 92 70 82 90 68 80 87 65 78 87 65 78 87 65 78 87 65 78 87 65 78 87 65 78 87 65 78 87 65 78 95 73 86 95 73 86 95 73 86 95 73 86 95 73 86 95 73 86 95 73 86 94 74 86 94 74 86 92 74 86 92 74 86 92 74 86 92 74 86 92 74 86 92 74 86 92 74 86 92 74 86 91 73 85 88 70 82 85 67 79 82 64 76 78 60 72 76 58 70 74 58 69 67 57 66 65 58 66 65 58 66 65 58 66 65 58 66 65 58 66 65 58 66 65 58 66 56 49 57 55 48 56 52 45 53 49 42 50 46 39 47 43 36 44 40 33 41 38 33 40 26 21 27 24 22 27 25 23 28 26 24 29 27 25 30 28 26 31 28 26 31 29 27 32 27 25 30 27 25 30 27 25 30 27 25 30 27 25 30 27 25 30 27 25 30 27 25 28 38 36 39 44 42 43 52 50 51 58 56 57 58 56 57 52 50 51 44 42 43 38 36 37 40 38 39 40 38 39 40 38 39 40 38 39 40 38 39 40 38 39 40 38 39 40 38 39 39 37 38 39 37 38 39 37 38 39 37 38 39 37 38 39 37 38 39 37 38 39 37 38 37 35 36 37 35 36 37 35 36 37 35 36 37 35 36 37 35 36 37 35 36 37 35 36
19 14 34 19 14 34 19 14 34 19 14 34 15 10 30 15 10 30 15 10 30 15 10 30 15 10 30 15 10 30 15 10 30 15 11 28 11 4 22 11 4 20 11 4 20 11 4 20 11 4 20 11 4 20 11 4 20 11 4 20 9 2 18 9 2 18 9 2 18 9 2 18 9 2 18 9 2 18 9 2 18 9 2 18 10 2 17 10 2 17 10 2 17 10 2 17 10 2 17 10 2 17 10 2 17 10 2 17 24 16 31 28 20 35 35 27 42 45 37 52 55 47 62 65 57 72 72 64 79 78 67 81 107 89 103 111 91 103 116 96 108 122 102 114 129 109 121 136 116 128 141 121 133 143 123 135 140 120 132 140 120 132 140 120 132 140 120 132 140 120 132 140 120 132 140 120 132 140 120 132 137 115 127 135 113 125 133 111 123 130 108 120 126 104 116 123 101 113 121 99 111 119 97 109 108 86 98 106 84 96 104 82 94 101 79 91 97 75 87 94 72 84 92 70 82 90 68 80 87 65 78 87 65 78 87 65 78 87 65 78 87 65 78 87 65 78 87 65 78 87 65 78 95 73 86 95 73 86 95 73 86 95 73 86 95 73 86 95 73 86 95 73 86 94 74 86 91 71 83 89 71 83 89 71 83 89 71 83 89 71 83 89 71 83 89 71 83 89 71 83 89 71 83 87 69 81 85 67 79 82 64 76 78 60 72 75 57 69 73 55 67 70 54 65 64 54 63 62 55 63 62 55 63 62 55 63 62 55 63 62 55 63 62 55 63 62 55 63 50 43 51 49 42 50 46 39 47 43 36 44 39 32 40 36 29 37 34 27 35 32 27 34 18 13 19 17 15 20 19 17 22 22 20 25 24 22 27 27 25 30 29 27 32 30 28 33 27 25 30 27 25 30 27 25 30 27 25 30 27 25 30 27 25 30 27 25 30 27 25 28 38 36 39 44 42 43 52 50 51 58 56 57 58 56 57 52 50 51 44 42 43 38 36 37 40 38 39 40 38 39 40 38 39 40 38 39 40 38 39 40 38 39 40 38 39 40 38 39 39 37 38 39 37 38 39 37 38 39 37 38 39 37 38 39 37 38 39 37 38 39 37 38 37 35 36 37 35 36 37 35 36 37 35 36 37 35 36 37 35 36 37 35 36 37 35 36
21 16 36 21 16 36 21 16 36 21 16 36 15 10 30 15 10 30 15 10 30 15 10 30 15 10 30 15 10 30 15 10 30 15 11 28 11 4 22 11 4 20 11 4 20 11 4 20 11 4 20 11 4 20 11 4 20 11 4 20 9 2 18 9 2 18 9 2 18 9 2 18 9 2 18 9 2 18 9 2 18 9 2 18 10 2 17 10 2 17 10 2 17 10 2 17 10 2 17 10 2 17 10 2 17 10 2 17 29 21 36 33 25 40 40 32 47 50 42 57 60 52 67 69 61 76 77 69 84 83 72 86 109 91 105 114 94 106 119 99 111 125 105 117 132 112 124 138 118 130 143 123 135 146 126 138 140 120 132 140 120 132 140 120 132 140 120 132 140 120 132 140 120 132 140 120 132 140 120 132 137 115 127 135 113 125 133 111 123 130 108 120 126 104 116 123 101 113 121 99 111 119 97 109 108 86 98 106 84 96 104 82 94 101 79 91 97 75 87 94 72 84 92 70 82 90 68 80 87 65 78 87 65 78 87 65 78 87 65 78 87 65 78 87 65 78 87 65 78 87 65 78 95 73 86 95 73 86 95 73 86 95 73 86 95 73 86 95 73 86 95 73 86 94 74 86 89 69 81 87 69 81 87 69 81 87 69 81 87 69 81 87 69 81 87 69 81 87 69 81 86 68 80 85 67 79 83 65 77 79 61 73 76 58 70 73 55 67 70 52 64 68 52 63 62 52 61 60 53 61 60 53 61 60 53 61 60 53 61 60 53 61 60 53 61 60 53 61 45 38 46 44 37 45 41 34 42 38 31 39 35 28 36 31 24 32 29 22 30 27 22 29 12 7 13 12 10 15 15 13 18 19 17 22 23 21 26 26 24 29 29 27 32 31 29 34 27 25 30 27 25 30 27 25 30 27 25 30 27 25 30 27 25 30 27 25 30 27 25 28 38 36 39 44 42 43 52 50 51 58 56 57 58 56 57 52 50 51 44 42 43 38 36 37 40 38 39 40 38 39 40 38 39 40 38 39 40 38 39 40 38 39 40 38 39 40 38 39 39 37 38 39 37 38 39 37 38 39 37 38 39 37 38 39 37 38 39 37 38 39 37 38 37 35 36 37 35 36 37 35 36 37 35 36 37 35 36 37 35 36 37 35 36 37 35 36
23 18 38 23 18 38 23 18 38 23 18 38 15 10 30 15 10 30 15 10 30 15 10 30 15 10 30 15 10 30 15 10 30 15 11 28 11 4 22 11 4 20 11 4 20 11 4 20 11 4 20 11 4 20 11 4 20 11 4 20 9 2 18 9 2 18 9 2 18 9 2 18 9 2 18 9 2 18 9 2 18 9 2 18 10 2 17 10 2 17 10 2 17 10 2 17 10 2 17 10 2 17 10 2 17 10 2 17 31 23 38 35 27 42 43 35 50 52 44 59 63 55 70 72 64 79 79 71 86 85 74 88 110 92 106 115 95 107 120 100 112 126 106 118 133 113 125 139 119 131 144 124 136 147 127 139 140 120 132 140 120 132 140 120 132 140 120 132 140 120 132 140 120 132 140 120 132 140 120 132 137 115 127 135 113 125 133 111 123 130 108 120 126 104 116 123 101 113 121 99 111 119 97 109 108 86 98 106 84 96 104 82 94 101 79 91 97 75 87 94 72 84 92 70 82 90 68 80 87 65 78 87 65 78 87 65 78 87 65 78 87 65 78 87 65 78 87 65 78 87 65 78 95 73 86 95 73 86 95 73 86 95 73 86 95 73 86 95 73 86 95 73 86 94 74 86 87 67 79 85 67 79 85 67 79 85 67 79 85 67 79 85 67 79 85 67 79 85 67 79 85 67 79 84 66 78 81 63 75 78 60 72 75 57 69 71 53 65 69 51 63 67 51 62 60 50 59 58 51 59 58 51 59 58 51 59 58 51 59 58 51 59 58 51 59 58 51 59 42 35 43 41 34 42 39 32 40 35 28 36 32 25 33 29 22 30 26 19 27 24 19 26 9 4 10 9 7 12 13 11 16 17 15 20 22 20 25 26 24 29 30 28 33 31 29 34 27 25 30 27 25 30 27 25 30 27 25 30 27 25 30 27 25 30 27 25 30 27 25 28 38 36 39 44 42 43 52 50 51 58 56 57 58 56 57 52 50 51 44 42 43 38 36 37 40 38 39 40 38 39 40 38 39 40 38 39 40 38 39 40 38 39 40 38 39 40 38 39 39 37 38 39 37 38 39 37 38 39 37 38 39 37 38 39 37 38 39 37 38 39 37 38 37 35 36 37 35 36 37 35 36 37 35 36 37 35 36 37 35 36 37 35 36 37 35 36
15 10 30 19 14 34 26 21 41 31 26 46 25 20 40 23 18 38 21 16 36 18 13 33 14 9 29 11 6 26 9 4 24 7 3 20 3 0 14 3 0 12 3 0 12 3 0 12 3 0 12 3 0 12 3 0 12 4 0 13 3 0 12 3 0 12 3 0 12 3 0 12 3 0 12 3 0 12 3 0 12 3 0 12 7 0 14 4 0 11 4 0 11 4 0 11 5 0 12 16 8 23 28 20 35 35 27 42 53 45 60 57 49 64 65 57 72 76 68 83 88 80 95 99 91 106 107 99 114 113 102 116 139 121 135 141 121 133 141 121 133 141 121 133 141 121 133 141 121 133 141 121 133 141 121 133 136 116 128 136 116 128 136 116 128 136 116 128 136 116 128 136 116 128 136 116 128 136 116 128 127 105 117 127 105 117 127 105 117 127 105 117 127 105 117 127 105 117 127 105 117 127 105 117 113 91 103 111 89 101 106 84 96 99 77 89 93 71 83 86 64 76 81 59 71 79 57 69 86 64 77 86 64 77 86 64 77 86 64 77 86 64 77 86 64 77 86 64 77 86 64 77 100 78 91 100 78 91 100 78 91 100 78 91 100 78 91 100 78 91 100 78 91 99 79 91 94 74 86 91 73 85 89 71 83 85 67 79 82 64 76 79 61 73 76 58 70 75 57 69 78 60 72 77 59 71 74 56 68 71 53 65 68 50 62 64 46 58 62 44 56 60 44 55 51 41 50 48 41 49 45 38 46 42 35 43 39 32 40 35 28 36 33 26 34 32 25 33 11 4 12 11 4 12 11 4 12 11 4 12 11 4 12 11 4 12 11 4 12 10 5 12 10 5 11 10 8 13 12 10 15 15 13 18 19 17 22 22 20 25 24 22 27 26 24 29 22 20 25 24 22 27 26 24 29 29 27 32 33 31 36 36 34 39 38 36 41 40 38 41 41 39 42 47 45 46 55 53 54 61 59 60 61 59 60 55 53 54 47 45 46 41 39 40 35 33 34 35 33 34 35 33 34 35 33 34 35 33 34 35 33 34 35 33 34 35 33 34 34 32 33 34 32 33 34 32 33 34 32 33 34 32 33 34 32 33 34 32 33 34 32 33 38 36 37 38 36 37 38 36 37 38 36 37 38 36 37 38 36 37 38 36 37 38 36 37
15 10 30 20 15 35 28 23 43 33 28 48 24 19 39 23 18 38 21 16 36 17 12 32 14 9 29 11 6 26 8 3 23 7 3 20 8 1 19 8 1 17 9 2 18 9 2 18 10 3 19 10 3 19 11 4 20 11 4 20 3 0 12 3 0 12 3 0 12 3 0 12 3 0 12 3 0 12 3 0 12 3 0 12 8 0 15 5 0 12 4 0 11 4 0 11 8 0 15 19 11 26 32 24 39 40 32 47 58 50 65 63 55 70 70 62 77 80 72 87 91 83 98 102 94 109 109 101 116 115 104 118 139 121 135 141 121 133 141 121 133 141 121 133 141 121 133 141 121 133 141 121 133 141 121 133 136 116 128 136 116 128 136 116 128 136 116 128 136 116 128 136 116 128 136 116 128 136 116 128 127 105 117 127 105 117 127 105 117 127 105 117 127 105 117 127 105 117 127 105 117 127 105 117 113 91 103 111 89 101 106 84 96 99 77 89 93 71 83 86 64 76 81 59 71 79 57 69 86 64 77 86 64 77 86 64 77 86 64 77 86 64 77 86 64 77 86 64 77 86 64 77 98 76 89 98 76 89 98 76 89 98 76 89 98 76 89 98 76 89 98 76 89 97 77 89 93 73 85 90 72 84 87 69 81 84 66 78 81 63 75 77 59 71 75 57 69 74 56 68 75 57 69 74 56 68 72 54 66 68 50 62 65 47 59 62 44 56 59 41 53 57 41 52 48 38 47 45 38 46 43 36 44 39 32 40 36 29 37 33 26 34 30 23 31 29 22 30 11 4 12 11 4 12 11 4 12 11 4 12 11 4 12 11 4 12 11 4 12 10 5 12 10 5 11 10 8 13 12 10 15 15 13 18 19 17 22 22 20 25 24 22 27 26 24 29 22 20 25 24 22 27 26 24 29 29 27 32 33 31 36 36 34 39 38 36 41 40 38 41 41 39 42 47 45 46 55 53 54 61 59 60 61 59 60 55 53 54 47 45 46 41 39 40 35 33 34 35 33 34 35 33 34 35 33 34 35 33 34 35 33 34 35 33 34 35 33 34 34 32 33 34 32 33 34 32 33 34 32 33 34 32 33 34 32 33 34 32 33 34 32 33 38 36 37 38 36 37 38 36 37 38 36 37 38 36 37 38 36 37 38 36 37 38 36 37
16 11 31 22 17 37 31 26 46 36 31 51 26 21 41 25 20 40 22 17 37 19 14 34 16 11 31 12 7 27 10 5 25 9 5 22 18 11 29 18 11 27 17 10 26 16 9 25 16 9 25 15 8 24 14 7 23 14 7 23 3 0 12 3 0 12 3 0 12 3 0 12 3 0 12 3 0 12 3 0 12 3 0 12 10 2 17 7 0 14 4 0 11 6 0 13 13 5 20 26 18 33 39 31 46 48 40 55 69 61 76 73 65 80 80 72 87 88 80 95 98 90 105 107 99 114 114 106 121 119 108 122 139 121 135 141 121 133 141 121 133 141 121 133 141 121 133 141 121 133 141 121 133 141 121 133 136 116 128 136 116 128 136 116 128 136 116 128 136 116 128 136 116 128 136 116 128 136 116 128 127 105 117 127 105 117 127 105 117 127 105 117 127 105 117 127 105 117 127 105 117 127 105 117 113 91 103 111 89 101 106 84 96 99 77 89 93 71 83 86 64 76 81 59 71 79 57 69 86 64 77 86 64 77 86 64 77 86 64 77 86 64 77 86 64 77 86 64 77 86 64 77 96 74 87 96 74 87 96 74 87 96 74 87 96 74 87 96 74 87 96 74 87 95 75 87 91 71 83 87 69 81 85 67 79 82 64 76 78 60 72 75 57 69 73 55 67 71 53 65 70 52 64 69 51 63 67 49 61 64 46 58 60 42 54 57 39 51 54 36 48 52 36 47 43 33 42 40 33 41 38 31 39 35 28 36 31 24 32 28 21 29 25 18 26 24 17 25 11 4 12 11 4 12 11 4 12 11 4 12 11 4 12 11 4 12 11 4 12 10 5 12 10 5 11 10 8 13 12 10 15 15 13 18 19 17 22 22 20 25 24 22 27 26 24 29 22 20 25 24 22 27 26 24 29 29 27 32 33 31 36 36 34 39 38 36 41 40 38 41 41 39 42 47 45 46 55 53 54 61 59 60 61 59 60 55 53 54 47 45 46 41 39 40 35 33 34 35 33 34 35 33 34 35 33 34 35 33 34 35 33 34 35 33 34 35 33 34 34 32 33 34 32 33 34 32 33 34 32 33 34 32 33 34 32 33 34 32 33 34 32 33 38 36 37 38 36 37 38 36 37 38 36 37 38 36 37 38 36 37 38 36 37 38 36 37
17 12 32 25 20 40 34 29 49 41 36 56 33 28 48 32 27 47 29 24 44 26 21 41 23 18 38 20 15 35 17 12 32 16 12 29 18 11 29 17 10 26 15 8 24 13 6 22 10 3 19 8 1 17 6 0 15 5 0 14 5 0 14 5 0 14 5 0 14 5 0 14 5 0 14 5 0 14 5 0 14 5 0 14 12 4 19 10 2 17 8 0 15 11 3 18 21 13 28 35 27 42 50 42 57 59 51 66 83 75 90 86 78 93 92 84 99 99 91 106 107 99 114 114 106 121 120 112 127 125 114 128 139 121 135 141 121 133 141 121 133 141 121 133 141 121 133 141 121 133 141 121 133 141 121 133 136 116 128 136 116 128 136 116 128 136 116 128 136 116 128 136 116 128 136 116 128 136 116 128 127 105 117 127 105 117 127 105 117 127 105 117 127 105 117 127 105 117 127 105 117 127 105 117 113 91 103 111 89 101 106 84 96 99 77 89 93 71 83 86 64 76 81 59 71 79 57 69 86 64 77 86 64 77 86 64 77 86 64 77 86 64 77 86 64 77 86 64 77 86 64 77 93 71 84 93 71 84 93 71 84 93 71 84 93 71 84 93 71 84 93 71 84 92 72 84 87 67 79 84 66 78 82 64 76 78 60 72 75 57 69 72 54 66 69 51 63 68 50 62 64 46 58 63 45 57 60 42 54 57 39 51 54 36 48 51 33 45 48 30 42 46 30 41 37 27 36 34 27 35 31 24 32 28 21 29 25 18 26 22 15 23 19 12 20 18 11 19 11 4 12 11 4 12 11 4 12 11 4 12 11 4 12 11 4 12 11 4 12 10 5 12 10 5 11 10 8 13 12 10 15 15 13 18 19 17 22 22 20 25 24 22 27 26 24 29 22 20 25 24 22 27 26 24 29 29 27 32 33 31 36 36 34 39 38 36 41 40 38 41 41 39 42 47 45 46 55 53 54 61 59 60 61 59 60 55 53 54 47 45 46 41 39 40 35 33 34 35 33 34 35 33 34 35 33 34 35 33 34 35 33 34 35 33 34 35 33 34 34 32 33 34 32 33 34 32 33 34 32 33 34 32 33 34 32 33 34 32 33 34 32 33 38 36 37 38 36 37 38 36 37 38 36 37 38 36 37 38 36 37 38 36 37 38 36 37
18 13 33 27 22 42 38 33 53 46 41 61 47 42 62 46 41 61 43 38 58 40 35 55 37 32 52 33 28 48 31 26 46 30 26 43 16 9 27 14 7 23 11 4 20 7 0 16 3 0 12 3 0 12 3 0 12 3 0 12 9 2 18 9 2 18 9 2 18 9 2 18 9 2 18 9 2 18 9 2 18 9 2 18 14 6 21 12 4 19 12 4 19 17 9 24 28 20 35 45 37 52 60 52 67 70 62 77 98 90 105 101 93 108 105 97 112 110 102 117 116 108 123 122 114 129 126 118 133 130 119 133 139 121 135 141 121 133 141 121 133 141 121 133 141 121 133 141 121 133 141 121 133 141 121 133 136 116 128 136 116 128 136 116 128 136 116 128 136 116 128 136 116 128 136 116 128 136 116 128 127 105 117 127 105 117 127 105 117 127 105 117 127 105 117 127 105 117 127 105 117 127 105 117 113 91 103 111 89 101 106 84 96 99 77 89 93 71 83 86 64 76 81 59 71 79 57 69 86 64 77 86 64 77 86 64 77 86 64 77 86 64 77 86 64 77 86 64 77 86 64 77 89 67 80 89 67 80 89 67 80 89 67 80 89 67 80 89 67 80 89 67 80 88 68 80 84 64 76 81 63 75 78 60 72 75 57 69 72 54 66 68 50 62 66 48 60 65 47 59 57 39 51 56 38 50 53 35 47 50 32 44 47 29 41 44 26 38 41 23 35 39 23 34 30 20 29 27 20 28 24 17 25 21 14 22 18 11 19 15 8 16 12 5 13 11 4 12 11 4 12 11 4 12 11 4 12 11 4 12 11 4 12 11 4 12 11 4 12 10 5 12 10 5 11 10 8 13 12 10 15 15 13 18 19 17 22 22 20 25 24 22 27 26 24 29 22 20 25 24 22 27 26 24 29 29 27 32 33 31 36 36 34 39 38 36 41 40 38 41 41 39 42 47 45 46 55 53 54 61 59 60 61 59 60 55 53 54 47 45 46 41 39 40 35 33 34 35 33 34 35 33 34 35 33 34 35 33 34 35 33 34 35 33 34 35 33 34 34 32 33 34 32 33 34 32 33 34 32 33 34 32 33 34 32 33 34 32 33 34 32 33 38 36 37 38 36 37 38 36 37 38 36 37 38 36 37 38 36 37 38 36 37 38 36 37
18 13 33 30 25 45 42 37 57 50 45 65 65 60 80 64 59 79 62 57 77 58 53 73 55 50 70 52 47 67 49 44 64 48 44 61 28 21 39 25 18 34 21 14 30 15 8 24 9 2 18 3 0 12 3 0 12 3 0 12 12 5 21 12 5 21 12 5 21 12 5 21 12 5 21 12 5 21 12 5 21 12 5 21 16 8 23 15 7 22 16 8 23 23 15 30 36 28 43 53 45 60 71 63 78 81 73 88 112 104 119 114 106 121 117 109 124 121 113 128 125 117 132 129 121 136 132 124 139 135 124 138 139 121 135 141 121 133 141 121 133 141 121 133 141 121 133 141 121 133 141 121 133 141 121 133 136 116 128 136 116 128 136 116 128 136 116 128 136 116 128 136 116 128 136 116 128 136 116 128 127 105 117 127 105 117 127 105 117 127 105 117 127 105 117 127 105 117 127 105 117 127 105 117 113 91 103 111 89 101 106 84 96 99 77 89 93 71 83 86 64 76 81 59 71 79 57 69 86 64 77 86 64 77 86 64 77 86 64 77 86 64 77 86 64 77 86 64 77 86 64 77 86 64 77 86 64 77 86 64 77 86 64 77 86 64 77 86 64 77 86 64 77 85 65 77 81 61 73 77 59 71 75 57 69 72 54 66 68 50 62 65 47 59 63 45 57 61 43 55 51 33 45 50 32 44 47 29 41 44 26 38 40 22 34 37 19 31 35 17 29 33 17 28 24 14 23 21 14 22 18 11 19 15 8 16 11 4 12 8 1 9 6 0 7 5 0 6 11 4 12 11 4 12 11 4 12 11 4 12 11 4 12 11 4 12 11 4 12 10 5 12 10 5 11 10 8 13 12 10 15 15 13 18 19 17 22 22 20 25 24 22 27 26 24 29 22 20 25 24 22 27 26 24 29 29 27 32 33 31 36 36 34 39 38 36 41 40 38 41 41 39 42 47 45 46 55 53 54 61 59 60 61 59 60 55 53 54 47 45 46 41 39 40 35 33 34 35 33 34 35 33 34 35 33 34 35 33 34 35 33 34 35 33 34 35 33 34 34 32 33 34 32 33 34 32 33 34 32 33 34 32 33 34 32 33 34 32 33 34 32 33 38 36 37 38 36 37 38 36 37 38 36 37 38 36 37 38 36 37 38 36 37 38 36 37
19 14 34 32 27 47 45 40 60 53 48 68 83 78 98 82 77 97 79 74 94 76 71 91 73 68 88 69 64 84 67 62 82 66 62 79 53 46 64 50 43 59 45 38 54 38 31 47 31 24 40 24 17 33 18 11 27 15 8 24 14 7 23 14 7 23 14 7 23 14 7 23 14 7 23 14 7 23 14 7 23 14 7 23 17 9 24 17 9 24 19 11 26 27 19 34 41 33 48 60 52 67 78 70 85 90 82 97 123 115 130 124 116 131 126 118 133 129 121 136 131 123 138 134 126 141 136 128 143 139 128 142 139 121 135 141 121 133 141 121 133 141 121 133 141 121 133 141 121 133 141 121 133 141 121 133 136 116 128 136 116 128 136 116 128 136 116 128 136 116 128 136 116 128 136 116 128 136 116 128 127 105 117 127 105 117 127 105 117 127 105 117 127 105 117 127 105 117 127 105 117 127 105 117 113 91 103 111 89 101 106 84 96 99 77 89 93 71 83 86 64 76 81 59 71 79 57 69 86 64 77 86 64 77 86 64 77 86 64 77 86 64 77 86 64 77 86 64 77 86 64 77 84 62 75 84 62 75 84 62 75 84 62 75 84 62 75 84 62 75 84 62 75 83 63 75 78 58 70 75 57 69 73 55 67 69 51 63 66 48 60 63 45 57 60 42 54 59 41 53 46 28 40 45 27 39 42 24 36 39 21 33 36 18 30 32 14 26 30 12 24 28 12 23 19 9 18 16 9 17 13 6 14 10 3 11 7 0 8 4 0 5 4 0 5 4 0 5 11 4 12 11 4 12 11 4 12 11 4 12 11 4 12 11 4 12 11 4 12 10 5 12 10 5 11 10 8 13 12 10 15 15 13 18 19 17 22 22 20 25 24 22 27 26 24 29 22 20 25 24 22 27 26 24 29 29 27 32 33 31 36 36 34 39 38 36 41 40 38 41 41 39 42 47 45 46 55 53 54 61 59 60 61 59 60 55 53 54 47 45 46 41 39 40 35 33 34 35 33 34 35 33 34 35 33 34 35 33 34 35 33 34 35 33 34 35 33 34 34 32 33 34 32 33 34 32 33 34 32 33 34 32 33 34 32 33 34 32 33 34 32 33 38 36 37 38 36 37 38 36 37 38 36 37 38 36 37 38 36 37 38 36 37 38 36 37
24 12 32 36 27 46 52 40 60 58 49 68 99 87 107 96 87 106 95 83 103 90 81 100 89 77 97 83 74 93 83 71 91 82 71 88 79 68 85 75 64 80 70 59 76 62 51 67 54 43 60 46 35 51 40 29 46 37 26 42 19 8 25 19 8 24 19 8 25 19 8 24 19 8 25 19 8 24 19 8 25 19 8 24 21 8 25 21 8 25 24 11 28 32 19 36 47 34 51 67 54 71 86 73 90 97 84 101 132 119 136 132 119 136 134 121 138 136 123 140 138 125 142 140 127 144 142 129 146 143 129 144 139 121 135 141 121 133 141 121 133 141 121 133 141 121 133 141 121 133 141 121 133 141 121 133 136 116 128 136 116 128 136 116 128 136 116 128 136 116 128 136 116 128 136 116 128 136 116 128 127 105 118 127 105 117 127 105 117 127 105 117 127 105 117 127 105 117 127 105 117 127 105 117 113 91 103 111 89 101 106 84 96 99 77 89 93 71 83 86 64 76 81 59 71 78 58 69 83 65 77 83 65 77 83 65 77 83 65 77 83 65 77 83 65 77 83 65 77 83 65 77 79 61 73 79 61 73 79 61 73 79 61 73 79 61 73 79 61 73 79 61 73 78 62 73 72 59 69 70 58 68 68 55 65 64 52 62 62 49 59 57 45 55 56 43 53 54 42 52 40 27 37 38 26 36 37 24 34 32 20 30 30 17 27 26 14 24 24 11 21 22 10 20 14 7 15 12 7 14 10 5 12 6 1 8 3 0 5 3 0 5 3 0 5 3 0 5 10 5 12 10 5 12 10 5 12 10 5 12 10 5 12 10 5 12 10 5 12 10 5 11 8 6 11 9 8 13 12 10 15 14 13 18 19 17 22 21 20 25 24 22 27 25 24 29 22 20 25 23 22 27 26 24 29 28 27 32 33 31 36 35 34 39 38 36 41 40 38 41 41 39 40 47 45 46 55 53 54 61 59 60 61 59 60 55 53 54 47 45 46 41 39 40 35 33 34 35 33 34 35 33 34 35 33 34 35 33 34 35 33 34 35 33 34 35 33 34 34 32 33 34 33 31 36 32 33 34 33 31 36 32 33 34 33 31 36 32 33 34 33 31 40 36 37 38 37 35 40 36 37 38 37 35 40 36 37 38 37 35 40 36 37 38 36 37
50 29 46 66 48 64 85 64 81 94 76 92 103 82 99 103 85 101 107 86 103 108 90 106 114 93 110 115 97 113 119 98 115 119 101 117 97 79 95 97 79 95 97 78 97 97 79 95 97 78 97 97 79 95 97 78 97 97 79 95 87 68 87 87 69 85 87 68 87 87 69 85 87 68 87 87 69 85 87 68 87 87 69 85 81 63 79 85 67 83 90 72 88 98 80 96 106 88 104 114 96 112 120 102 118 123 105 121 139 121 137 139 121 137 139 121 137 139 121 137 139 121 137 139 121 137 139 121 137 141 120 137 131 110 125 132 109 125 132 109 125 132 109 125 132 109 125 132 109 125 132 109 125 132 109 125 128 105 121 128 105 121 128 105 121 128 105 121 128 105 121 128 105 121 128 105 121 128 106 119 127 107 119 125 105 117 123 103 115 120 100 112 116 96 108 113 93 105 111 91 103 109 89 101 101 81 93 100 80 92 98 78 90 94 74 86 91 71 83 88 68 80 85 65 77 82 64 76 79 67 79 78 68 79 78 68 79 78 68 79 78 68 79 78 68 79 78 68 79 78 68 79 75 65 76 73 63 74 71 61 72 68 58 69 64 54 65 61 51 62 59 49 60 55 47 58 49 46 55 46 45 53 43 40 49 38 37 45 34 31 40 29 28 36 26 23 32 24 23 31 21 18 27 19 18 26 17 14 23 13 12 20 11 8 17 6 5 13 5 2 11 3 2 8 2 1 7 2 1 6 2 1 6 2 1 6 2 1 6 2 1 6 2 1 6 2 1 6 5 4 9 5 4 9 5 4 9 5 4 9 5 4 9 5 4 9 5 4 9 5 4 9 20 19 24 19 20 22 20 20 22 19 20 22 20 20 22 19 20 22 20 20 22 19 20 22 25 25 27 26 27 29 29 29 31 31 32 34 36 36 38 38 39 41 41 41 43 43 43 45 49 47 48 49 48 46 49 48 46 49 48 46 49 48 46 49 48 46 49 48 46 49 48 46 34 33 31 34 33 31 34 33 31 34 33 31 34 33 31 34 33 31 34 33 31 34 33 31 36 32 31 36 32 29 37 31 31 36 32 29 37 31 31 36 32 29 37 31 31 36 32 29 38 32 32 37 33 30 38 32 32 37 33 30 38 32 32 37 33 30 38 32 32 37 33 32
57 33 49 73 49 65 89 65 81 99 75 91 105 81 97 107 83 99 109 85 101 112 88 104 116 92 108 119 95 111 121 97 113 123 99 115 108 85 103 108 85 103 108 85 103 108 85 103 108 85 103 108 85 103 108 85 103 108 85 103 100 77 95 100 77 95 100 77 95 100 77 95 100 77 95 100 77 95 100 77 95 100 77 95 94 71 89 97 74 92 103 80 98 110 87 105 117 94 112 124 101 119 129 106 124 132 109 127 142 119 137 142 119 137 142 119 137 142 119 137 142 119 137 142 119 137 142 119 137 142 119 137 132 109 125 132 109 125 132 109 125 132 109 125 132 109 125 132 109 125 132 109 125 132 109 125 128 105 121 128 105 121 128 105 121 128 105 121 128 105 121 128 105 121 128 105 121 128 105 121 127 107 119 125 105 117 123 103 115 120 100 112 116 96 108 113 93 105 111 91 103 109 89 101 100 80 92 99 79 91 96 76 88 93 73 85 90 70 82 86 66 78 84 64 76 80 64 75 76 66 77 73 67 77 73 67 77 73 67 77 73 67 77 73 67 77 73 67 77 73 67 77 68 62 72 66 60 70 64 58 68 61 55 65 57 51 61 54 48 58 52 46 56 48 45 54 39 39 47 36 39 46 33 36 43 29 32 39 25 28 35 21 24 31 18 21 28 17 20 27 18 21 28 17 20 27 15 18 25 11 14 21 8 11 18 5 8 15 2 5 12 1 4 9 1 2 7 1 2 6 1 2 6 1 2 6 1 2 6 1 2 6 1 2 6 1 2 6 4 5 9 4 5 9 4 5 9 4 5 9 4 5 9 4 5 9 4 5 9 4 5 9 19 20 22 19 20 22 19 20 22 19 20 22 19 20 22 19 20 22 19 20 22 19 20 22 24 25 27 26 27 29 28 29 31 31 32 34 35 36 38 38 39 41 40 41 43 42 44 43 49 47 48 49 48 46 49 48 46 49 48 46 49 48 46 49 48 46 49 48 46 49 48 46 34 33 31 34 33 31 34 33 31 34 33 31 34 33 31 34 33 31 34 33 31 34 33 31 37 32 29 37 32 29 37 32 29 37 32 29 37 32 29 37 32 29 37 32 29 37 32 29 38 33 30 38 33 30 38 33 30 38 33 30 38 33 30 38 33 30 38 33 30 38 33 30
65 41 57 79 55 71 93 69 85 102 78 94 105 81 97 107 83 99 109 85 101 112 88 104 116 92 108 119 95 111 121 97 113 123 99 115 121 98 116 121 98 116 121 98 116 121 98 116 121 98 116 121 98 116 121 98 116 121 98 116 115 92 110 115 92 110 115 92 110 115 92 110 115 92 110 115 92 110 115 92 110 115 92 110 111 88 106 113 90 108 117 94 112 123 100 118 129 106 124 135 112 130 139 116 134 142 119 137 142 119 137 142 119 137 142 119 137 142 119 137 142 119 137 142 119 137 142 119 137 142 119 137 132 109 125 132 109 125 132 109 125 132 109 125 132 109 125 132 109 125 132 109 125 132 109 125 128 105 121 128 105 121 128 105 121 128 105 121 128 105 121 128 105 121 128 105 121 128 105 121 127 107 119 125 105 117 123 103 115 120 100 112 116 96 108 113 93 105 111 91 103 109 89 101 98 78 90 96 76 88 94 74 86 91 71 83 87 67 79 84 64 76 82 62 74 77 61 72 71 61 72 68 62 72 68 62 72 68 62 72 68 62 72 68 62 72 68 62 72 68 62 72 60 54 64 59 53 63 57 51 61 53 47 57 50 44 54 47 41 51 44 38 48 41 38 47 28 28 36 25 28 35 23 26 33 20 23 30 18 21 28 15 18 25 13 16 23 12 15 22 21 24 31 19 22 29 17 20 27 14 17 24 10 13 20 7 10 17 5 8 15 3 6 11 1 2 7 1 2 6 1 2 6 1 2 6 1 2 6 1 2 6 1 2 6 1 2 6 4 5 9 4 5 9 4 5 9 4 5 9 4 5 9 4 5 9 4 5 9 4 5 9 19 20 22 19 20 22 19 20 22 19 20 22 19 20 22 19 20 22 19 20 22 19 20 22 24 25 27 26 27 29 28 29 31 31 32 34 35 36 38 38 39 41 40 41 43 42 44 43 49 47 48 49 48 46 49 48 46 49 48 46 49 48 46 49 48 46 49 48 46 49 48 46 34 33 31 34 33 31 34 33 31 34 33 31 34 33 31 34 33 31 34 33 31 34 33 31 37 32 29 37 32 29 37 32 29 37 32 29 37 32 29 37 32 29 37 32 29 37 32 29 38 33 30 38 33 30 38 33 30 38 33 30 38 33 30 38 33 30 38 33 30 38 33 30
76 52 68 87 63 79 98 74 90 106 82 98 105 81 97 107 83 99 109 85 101 112 88 104 116 92 108 119 95 111 121 97 113 123 99 115 133 110 128 133 110 128 133 110 128 133 110 128 133 110 128 133 110 128 133 110 128 133 110 128 130 107 125 130 107 125 130 107 125 130 107 125 130 107 125 130 107 125 130 107 125 130 107 125 127 104 122 129 106 124 132 109 127 136 113 131 140 117 135 144 121 139 148 125 143 149 126 144 142 119 137 142 119 137 142 119 137 142 119 137 142 119 137 142 119 137 142 119 137 142 119 137 132 109 125 132 109 125 132 109 125 132 109 125 132 109 125 132 109 125 132 109 125 132 109 125 128 105 121 128 105 121 128 105 121 128 105 121 128 105 121 128 105 121 128 105 121 128 105 121 127 107 119 125 105 117 123 103 115 120 100 112 116 96 108 113 93 105 111 91 103 109 89 101 94 74 86 93 73 85 91 71 83 87 67 79 84 64 76 81 61 73 78 58 70 74 58 69 64 54 65 61 55 65 61 55 65 61 55 65 61 55 65 61 55 65 61 55 65 61 55 65 51 45 55 50 44 54 47 41 51 44 38 48 40 34 44 37 31 41 35 29 39 32 29 38 18 18 26 15 18 25 15 18 25 14 17 24 13 16 23 12 15 22 11 14 21 11 14 21 24 27 34 23 26 33 20 23 30 17 20 27 14 17 24 10 13 20 8 11 18 7 10 15 1 2 7 1 2 6 1 2 6 1 2 6 1 2 6 1 2 6 1 2 6 1 2 6 4 5 9 4 5 9 4 5 9 4 5 9 4 5 9 4 5 9 4 5 9 4 5 9 19 20 22 19 20 22 19 20 22 19 20 22 19 20 22 19 20 22 19 20 22 19 20 22 24 25 27 26 27 29 28 29 31 31 32 34 35 36 38 38 39 41 40 41 43 42 44 43 49 47 48 49 48 46 49 48 46 49 48 46 49 48 46 49 48 46 49 48 46 49 48 46 34 33 31 34 33 31 34 33 31 34 33 31 34 33 31 34 33 31 34 33 31 34 33 31 37 32 29 37 32 29 37 32 29 37 32 29 37 32 29 37 32 29 37 32 29 37 32 29 38 33 30 38 33 30 38 33 30 38 33 30 38 33 30 38 33 30 38 33 30 38 33 30
88 64 80 95 71 87 104 80 96 110 86 102 105 81 97 107 83 99 109 85 101 112 88 104 116 92 108 119 95 111 121 97 113 123 99 115 140 117 135 140 117 135 140 117 135 140 117 135 140 117 135 140 117 135 140 117 135 140 117 135 141 118 136 141 118 136 141 118 136 141 118 136 141 118 136 141 118 136 141 118 136 141 118 136 139 116 134 140 117 135 142 119 137 144 121 139 146 123 141 149 126 144 150 127 145 151 128 146 142 119 137 142 119 137 142 119 137 142 119 137 142 119 137 142 119 137 142 119 137 142 119 137 132 109 125 132 109 125 132 109 125 132 109 125 132 109 125 132 109 125 132 109 125 132 109 125 128 105 121 128 105 121 128 105 121 128 105 121 128 105 121 128 105 121 128 105 121 128 105 121 127 107 119 125 105 117 123 103 115 120 100 112 116 96 108 113 93 105 111 91 103 109 89 101 91 71 83 90 70 82 87 67 79 84 64 76 81 61 73 77 57 69 75 55 67 71 55 66 58 48 59 55 49 59 55 49 59 55 49 59 55 49 59 55 49 59 55 49 59 55 49 59 40 34 44 39 33 43 37 31 41 34 28 38 30 24 34 27 21 31 24 18 28 21 18 27 13 13 21 11 14 21 12 15 22 13 16 23 14 17 24 15 18 25 15 18 25 16 19 26 27 30 37 26 29 36 24 27 34 20 23 30 17 20 27 14 17 24 11 14 21 10 13 18 1 2 7 1 2 6 1 2 6 1 2 6 1 2 6 1 2 6 1 2 6 1 2 6 4 5 9 4 5 9 4 5 9 4 5 9 4 5 9 4 5 9 4 5 9 4 5 9 19 20 22 19 20 22 19 20 22 19 20 22 19 20 22 19 20 22 19 20 22 19 20 22 24 25 27 26 27 29 28 29 31 31 32 34 35 36 38 38 39 41 40 41 43 42 44 43 49 47 48 49 48 46 49 48 46 49 48 46 49 48 46 49 48 46 49 48 46 49 48 46 34 33 31 34 33 31 34 33 31 34 33 31 34 33 31 34 33 31 34 33 31 34 33 31 37 32 29 37 32 29 37 32 29 37 32 29 37 32 29 37 32 29 37 32 29 37 32 29 38 33 30 38 33 30 38 33 30 38 33 30 38 33 30 38 33 30 38 33 30 38 33 30
99 75 91 103 79 95 109 85 101 114 90 106 105 81 97 107 83 99 109 85 101 112 88 104 116 92 108 119 95 111 121 97 113 123 99 115 141 118 136 141 118 136 141 118 136 141 118 136 141 118 136 141 118 136 141 118 136 141 118 136 145 122 140 145 122 140 145 122 140 145 122 140 145 122 140 145 122 140 145 122 140 145 122 140 144 121 139 144 121 139 145 122 140 145 122 140 146 123 141 147 124 142 147 124 142 148 125 143 142 119 137 142 119 137 142 119 137 142 119 137 142 119 137 142 119 137 142 119 137 142 119 137 132 109 125 132 109 125 132 109 125 132 109 125 132 109 125 132 109 125 132 109 125 132 109 125 128 105 121 128 105 121 128 105 121 128 105 121 128 105 121 128 105 121 128 105 121 128 105 121 127 107 119 125 105 117 123 103 115 120 100 112 116 96 108 113 93 105 111 91 103 109 89 101 88 68 80 86 66 78 84 64 76 81 61 73 77 57 69 74 54 66 72 52 64 67 51 62 51 41 52 48 42 52 48 42 52 48 42 52 48 42 52 48 42 52 48 42 52 48 42 52 31 25 35 30 24 34 27 21 31 24 18 28 21 15 25 17 11 21 15 9 19 12 9 18 14 14 22 13 16 23 15 18 25 18 21 28 20 23 30 23 26 33 25 28 35 26 29 36 31 34 41 29 32 39 27 30 37 24 27 34 20 23 30 17 20 27 15 18 25 13 16 21 1 2 7 1 2 6 1 2 6 1 2 6 1 2 6 1 2 6 1 2 6 1 2 6 4 5 9 4 5 9 4 5 9 4 5 9 4 5 9 4 5 9 4 5 9 4 5 9 19 20 22 19 20 22 19 20 22 19 20 22 19 20 22 19 20 22 19 20 22 19 20 22 24 25 27 26 27 29 28 29 31 31 32 34 35 36 38 38 39 41 40 41 43 42 44 43 49 47 48 49 48 46 49 48 46 49 48 46 49 48 46 49 48 46 49 48 46 49 48 46 34 33 31 34 33 31 34 33 31 34 33 31 34 33 31 34 33 31 34 33 31 34 33 31 37 32 29 37 32 29 37 32 29 37 32 29 37 32 29 37 32 29 37 32 29 37 32 29 38 33 30 38 33 30 38 33 30 38 33 30 38 33 30 38 33 30 38 33 30 38 33 30
107 83 99 109 85 101 113 89 105 117 93 109 105 81 97 107 83 99 109 85 101 112 88 104 116 92 108 119 95 111 121 97 113 123 99 115 138 115 133 138 115 133 138 115 133 138 115 133 138 115 133 138 115 133 138 115 133 138 115 133 144 121 139 144 121 139 144 121 139 144 121 139 144 121 139 144 121 139 144 121 139 144 121 139 144 121 139 144 121 139 144 121 139 143 120 138 142 119 137 142 119 137 141 118 136 141 118 136 142 119 137 142 119 137 142 119 137 142 119 137 142 119 137 142 119 137 142 119 137 142 119 137 132 109 125 132 109 125 132 109 125 132 109 125 132 109 125 132 109 125 132 109 125 132 109 125 128 105 121 128 105 121 128 105 121 128 105 121 128 105 121 128 105 121 128 105 121 128 105 121 127 107 119 125 105 117 123 103 115 120 100 112 116 96 108 113 93 105 111 91 103 109 89 101 85 65 77 84 64 76 82 62 74 78 58 70 75 55 67 72 52 64 69 49 61 65 49 60 46 36 47 43 37 47 43 37 47 43 37 47 43 37 47 43 37 47 43 37 47 43 37 47 24 18 28 22 16 26 20 14 24 17 11 21 13 7 17 10 4 14 8 2 12 4 1 10 19 19 27 18 21 28 21 24 31 25 28 35 29 32 39 33 36 43 36 39 46 37 40 47 33 36 43 32 35 42 29 32 39 26 29 36 23 26 33 19 22 29 17 20 27 16 19 24 1 2 7 1 2 6 1 2 6 1 2 6 1 2 6 1 2 6 1 2 6 1 2 6 4 5 9 4 5 9 4 5 9 4 5 9 4 5 9 4 5 9 4 5 9 4 5 9 19 20 22 19 20 22 19 20 22 19 20 22 19 20 22 19 20 22 19 20 22 19 20 22 24 25 27 26 27 29 28 29 31 31 32 34 35 36 38 38 39 41 40 41 43 42 44 43 49 47 48 49 48 46 49 48 46 49 48 46 49 48 46 49 48 46 49 48 46 49 48 46 34 33 31 34 33 31 34 33 31 34 33 31 34 33 31 34 33 31 34 33 31 34 33 31 37 32 29 37 32 29 37 32 29 37 32 29 37 32 29 37 32 29 37 32 29 37 32 29 38 33 30 38 33 30 38 33 30 38 33 30 38 33 30 38 33 30 38 33 30 38 33 30
112 88 104 112 88 104 116 92 108 119 95 111 105 81 97 107 83 99 109 85 101 112 88 104 116 92 108 119 95 111 121 97 113 123 99 115 135 112 130 135 112 130 135 112 130 135 112 130 135 112 130 135 112 130 135 112 130 135 112 130 142 119 137 142 119 137 142 119 137 142 119 137 142 119 137 142 119 137 142 119 137 142 119 137 143 120 138 143 120 138 142 119 137 140 117 135 139 116 134 138 115 133 137 114 132 136 113 131 142 119 137 142 119 137 142 119 137 142 119 137 142 119 137 142 119 137 142 119 137 142 119 137 132 109 125 132 109 125 132 109 125 132 109 125 132 109 125 132 109 125 132 109 125 132 109 125 128 105 121 128 105 121 128 105 121 128 105 121 128 105 121 128 105 121 128 105 121 128 105 121 127 107 119 125 105 117 123 103 115 120 100 112 116 96 108 113 93 105 111 91 103 109 89 101 84 64 76 83 63 75 80 60 72 77 57 69 74 54 66 70 50 62 68 48 60 64 48 59 44 34 45 41 35 45 41 35 45 41 35 45 41 35 45 41 35 45 41 35 45 41 35 45 20 14 24 18 12 22 16 10 20 13 7 17 9 3 13 6 0 10 4 0 8 1 0 7 23 23 31 22 25 32 26 29 36 30 33 40 35 38 45 39 42 49 43 46 53 45 48 55 34 37 44 33 36 43 31 34 41 27 30 37 24 27 34 21 24 31 18 21 28 17 20 25 1 2 7 1 2 6 1 2 6 1 2 6 1 2 6 1 2 6 1 2 6 1 2 6 4 5 9 4 5 9 4 5 9 4 5 9 4 5 9 4 5 9 4 5 9 4 5 9 19 20 22 19 20 22 19 20 22 19 20 22 19 20 22 19 20 22 19 20 22 19 20 22 24 25 27 26 27 29 28 29 31 31 32 34 35 36 38 38 39 41 40 41 43 42 44 43 49 47 48 49 48 46 49 48 46 49 48 46 49 48 46 49 48 46 49 48 46 49 48 46 34 33 31 34 33 31 34 33 31 34 33 31 34 33 31 34 33 31 34 33 31 34 33 31 37 32 29 37 32 29 37 32 29 37 32 29 37 32 29 37 32 29 37 32 29 37 32 29 38 33 30 38 33 30 38 33 30 38 33 30 38 33 30 38 33 30 38 33 30 38 33 30
136 112 128 136 112 128 136 112 128 136 112 128 123 99 115 123 99 115 123 99 115 123 99 115 123 99 115 123 99 115 123 99 115 123 99 115 136 113 131 136 113 131 136 113 131 136 113 131 136 113 131 136 113 131 136 113 131 136 113 131 144 121 139 144 121 139 144 121 139 144 121 139 144 121 139 144 121 139 144 121 139 144 121 139 142 119 137 142 119 137 142 119 137 142 119 137 142 119 137 142 119 137 142 119 137 142 119 137 134 111 129 134 111 129 134 111 129 134 111 129 134 111 129 134 111 129 134 111 129 134 111 129 131 108 124 131 108 124 131 108 124 131 108 124 131 108 124 131 108 124 131 108 124 131 108 124 136 113 129 136 113 129 136 113 129 136 113 129 136 113 129 136 113 129 136 113 129 136 113 129 135 115 127 131 111 123 123 103 115 114 94 106 103 83 95 94 74 86 87 67 79 83 63 75 86 66 78 84 64 76 79 59 71 72 52 64 66 46 58 59 39 51 54 34 46 49 33 44 24 14 25 21 15 25 21 15 25 21 15 25 21 15 25 21 15 25 21 15 25 21 15 25 14 8 18 13 7 17 12 6 16 11 5 15 10 4 14 8 2 12 8 2 12 5 2 11 28 28 36 26 29 36 26 29 36 26 29 36 26 29 36 26 29 36 26 29 36 26 29 36 39 42 49 37 40 47 32 35 42 25 28 35 19 22 29 12 15 22 7 10 17 5 8 13 1 2 7 1 2 6 1 2 6 1 2 6 1 2 6 1 2 6 1 2 6 1 2 6 12 13 17 12 13 17 12 13 17 12 13 17 12 13 17 12 13 17 12 13 17 12 13 17 23 24 26 23 24 26 23 24 26 23 24 26 23 24 26 23 24 26 23 24 26 23 24 26 35 36 38 35 36 38 35 36 38 35 36 38 35 36 38 35 36 38 35 36 38 35 37 36 41 39 40 41 40 38 41 40 38 41 40 38 41 40 38 41 40 38 41 40 38 41 40 38 32 31 29 32 31 29 32 31 29 32 31 29 32 31 29 32 31 29 32 31 29 32 31 29 36 31 28 36 31 28 36 31 28 36 31 28 36 31 28 36 31 28 36 31 28 36 31 28 37 32 29 37 32 29 37 32 29 37 32 29 37 32 29 37 32 29 37 32 29 37 32 29
136 112 128 136 112 128 136 112 128 136 112 128 125 101 117 125 101 117 125 101 117 125 101 117 125 101 117 125 101 117 125 101 117 125 101 117 136 113 131 136 113 131 136 113 131 136 113 131 136 113 131 136 113 131 136 113 131 136 113 131 144 121 139 144 121 139 144 121 139 144 121 139 144 121 139 144 121 139 144 121 139 144 121 139 142 119 137 142 119 137 142 119 137 142 119 137 142 119 137 142 119 137 142 119 137 142 119 137 134 111 129 134 111 129 134 111 129 134 111 129 134 111 129 134 111 129 134 111 129 134 111 129 131 108 124 131 108 124 131 108 124 131 108 124 131 108 124 131 108 124 131 108 124 131 108 124 136 113 129 136 113 129 136 113 129 136 113 129 136 113 129 136 113 129 136 113 129 136 113 129 133 113 125 129 109 121 122 102 114 113 93 105 102 82 94 93 73 85 85 65 77 81 61 73 82 62 74 80 60 72 75 55 67 69 49 61 62 42 54 55 35 47 50 30 42 45 29 40 22 12 23 19 13 23 19 13 23 19 13 23 19 13 23 19 13 23 19 13 23 19 13 23 13 7 17 13 7 17 13 7 17 12 6 16 11 5 15 11 5 15 10 4 14 8 5 14 30 30 38 28 31 38 28 31 38 28 31 38 28 31 38 28 31 38 28 31 38 28 31 38 39 42 49 37 40 47 32 35 42 25 28 35 19 22 29 12 15 22 7 10 17 5 8 13 1 2 7 1 2 6 1 2 6 1 2 6 1 2 6 1 2 6 1 2 6 1 2 6 12 13 17 12 13 17 12 13 17 12 13 17 12 13 17 12 13 17 12 13 17 12 13 17 23 24 26 23 24 26 23 24 26 23 24 26 23 24 26 23 24 26 23 24 26 23 24 26 35 36 38 35 36 38 35 36 38 35 36 38 35 36 38 35 36 38 35 36 38 35 37 36 41 39 40 41 40 38 41 40 38 41 40 38 41 40 38 41 40 38 41 40 38 41 40 38 32 31 29 32 31 29 32 31 29 32 31 29 32 31 29 32 31 29 32 31 29 32 31 29 36 31 28 36 31 28 36 31 28 36 31 28 36 31 28 36 31 28 36 31 28 36 31 28 37 32 29 37 32 29 37 32 29 37 32 29 37 32 29 37 32 29 37 32 29 37 32 29
136 112 128 136 112 128 136 112 128 136 112 128 127 103 119 127 103 119 127 103 119 127 103 119 127 103 119 127 103 119 127 103 119 127 103 119 136 113 131 136 113 131 136 113 131 136 113 131 136 113 131 136 113 131 136 113 131 136 113 131 144 121 139 144 121 139 144 121 139 144 121 139 144 121 139 144 121 139 144 121 139 144 121 139 142 119 137 142 119 137 142 119 137 142 119 137 142 119 137 142 119 137 142 119 137 142 119 137 134 111 129 134 111 129 134 111 129 134 111 129 134 111 129 134 111 129 134 111 129 134 111 129 131 108 124 131 108 124 131 108 124 131 108 124 131 108 124 131 108 124 131 108 124 131 108 124 136 113 129 136 113 129 136 113 129 136 113 129 136 113 129 136 113 129 136 113 129 136 113 129 131 111 123 127 107 119 120 100 112 110 90 102 100 80 92 90 70 82 83 63 75 79 59 71 75 55 67 72 52 64 68 48 60 61 41 53 54 34 46 48 28 40 43 23 35 37 21 32 20 10 21 17 11 21 17 11 21 17 11 21 17 11 21 17 11 21 17 11 21 17 11 21 12 6 16 13 7 17 13 7 17 14 8 18 14 8 18 15 9 19 16 10 20 14 11 20 32 32 40 30 33 40 30 33 40 30 33 40 30 33 40 30 33 40 30 33 40 30 33 40 39 42 49 37 40 47 32 35 42 25 28 35 19 22 29 12 15 22 7 10 17 5 8 13 1 2 7 1 2 6 1 2 6 1 2 6 1 2 6 1 2 6 1 2 6 1 2 6 12 13 17 12 13 17 12 13 17 12 13 17 12 13 17 12 13 17 12 13 17 12 13 17 23 24 26 23 24 26 23 24 26 23 24 26 23 24 26 23 24 26 23 24 26 23 24 26 35 36 38 35 36 38 35 36 38 35 36 38 35 36 38 35 36 38 35 36 38 35 37 36 41 39 40 41 40 38 41 40 38 41 40 38 41 40 38 41 40 38 41 40 38 41 40 38 32 31 29 32 31 29 32 31 29 32 31 29 32 31 29 32 31 29 32 31 29 32 31 29 36 31 28 36 31 28 36 31 28 36 31 28 36 31 28 36 31 28 36 31 28 36 31 28 37 32 29 37 32 29 37 32 29 37 32 29 37 32 29 37 32 29 37 32 29 37 32 29
136 112 128 136 112 128 136 112 128 136 112 128 130 106 122 130 106 122 130 106 122 130 106 122 130 106 122 130 106 122 130 106 122 130 106 122 136 113 131 136 113 131 136 113 131 136 113 131 136 113 131 136 113 131 136 113 131 136 113 131 144 121 139 144 121 139 144 121 139 144 121 139 144 121 139 144 121 139 144 121 139 144 121 139 142 119 137 142 119 137 142 119 137 142 119 137 142 119 137 142 119 137 142 119 137 142 119 137 134 111 129 134 111 129 134 111 129 134 111 129 134 111 129 134 111 129 134 111 129 134 111 129 131 108 124 131 108 124 131 108 124 131 108 124 131 108 124 131 108 124 131 108 124 131 108 124 136 113 129 136 113 129 136 113 129 136 113 129 136 113 129 136 113 129 136 113 129 136 113 129 128 108 120 124 104 116 116 96 108 107 87 99 97 77 89 87 67 79 80 60 72 76 56 68 66 46 58 63 43 55 58 38 50 52 32 44 45 25 37 38 18 30 33 13 25 28 12 23 17 7 18 14 8 18 14 8 18 14 8 18 14 8 18 14 8 18 14 8 18 14 8 18 11 5 15 12 6 16 14 8 18 16 10 20 19 13 23 21 15 25 23 17 27 22 19 28 35 35 43 33 36 43 33 36 43 33 36 43 33 36 43 33 36 43 33 36 43 33 36 43 39 42 49 37 40 47 32 35 42 25 28 35 19 22 29 12 15 22 7 10 17 5 8 13 1 2 7 1 2 6 1 2 6 1 2 6 1 2 6 1 2 6 1 2 6 1 2 6 12 13 17 12 13 17 12 13 17 12 13 17 12 13 17 12 13 17 12 13 17 12 13 17 23 24 26 23 24 26 23 24 26 23 24 26 23 24 26 23 24 26 23 24 26 23 24 26 35 36 38 35 36 38 35 36 38 35 36 38 35 36 38 35 36 38 35 36 38 35 37 36 41 39 40 41 40 38 41 40 38 41 40 38 41 40 38 41 40 38 41 40 38 41 40 38 32 31 29 32 31 29 32 31 29 32 31 29 32 31 29 32 31 29 32 31 29 32 31 29 36 31 28 36 31 28 36 31 28 36 31 28 36 31 28 36 31 28 36 31 28 36 31 28 37 32 29 37 32 29 37 32 29 37 32 29 37 32 29 37 32 29 37 32 29 37 32 29
136 112 128 136 112 128 136 112 128 136 112 128 134 110 126 134 110 126 134 110 126 134 110 126 134 110 126 134 110 126 134 110 126 134 110 126 136 113 131 136 113 131 136 113 131 136 113 131 136 113 131 136 113 131 136 113 131 136 113 131 144 121 139 144 121 139 144 121 139 144 121 139 144 121 139 144 121 139 144 121 139 144 121 139 142 119 137 142 119 137 142 119 137 142 119 137 142 119 137 142 119 137 142 119 137 142 119 137 134 111 129 134 111 129 134 111 129 134 111 129 134 111 129 134 111 129 134 111 129 134 111 129 131 108 124 131 108 124 131 108 124 131 108 124 131 108 124 131 108 124 131 108 124 131 108 124 136 113 129 136 113 129 136 113 129 136 113 129 136 113 129 136 113 129 136 113 129 136 113 129 124 104 116 120 100 112 113 93 105 103 83 95 93 73 85 84 64 76 76 56 68 72 52 64 55 35 47 53 33 45 48 28 40 41 21 33 34 14 26 28 8 20 23 3 15 17 1 12 13 3 14 10 4 14 10 4 14 10 4 14 10 4 14 10 4 14 10 4 14 10 4 14 10 4 14 11 5 15 14 8 18 19 13 23 23 17 27 27 21 31 30 24 34 30 27 36 39 39 47 37 40 47 37 40 47 37 40 47 37 40 47 37 40 47 37 40 47 37 40 47 39 42 49 37 40 47 32 35 42 25 28 35 19 22 29 12 15 22 7 10 17 5 8 13 1 2 7 1 2 6 1 2 6 1 2 6 1 2 6 1 2 6 1 2 6 1 2 6 12 13 17 12 13 17 12 13 17 12 13 17 12 13 17 12 13 17 12 13 17 12 13 17 23 24 26 23 24 26 23 24 26 23 24 26 23 24 26 23 24 26 23 24 26 23 24 26 35 36 38 35 36 38 35 36 38 35 36 38 35 36 38 35 36 38 35 36 38 35 37 36 41 39 40 41 40 38 41 40 38 41 40 38 41 40 38 41 40 38 41 40 38 41 40 38 32 31 29 32 31 29 32 31 29 32 31 29 32 31 29 32 31 29 32 31 29 32 31 29 36 31 28 36 31 28 36 31 28 36 31 28 36 31 28 36 31 28 36 31 28 36 31 28 37 32 29 37 32 29 37 32 29 37 32 29 37 32 29 37 32 29 37 32 29 37 32 29
136 112 128 136 112 128 136 112 128 136 112 128 137 113 129 137 113 129 137 113 129 137 113 129 137 113 129 137 113 129 137 113 129 137 113 129 136 113 131 136 113 131 136 113 131 136 113 131 136 113 131 136 113 131 136 113 131 136 113 131 144 121 139 144 121 139 144 121 139 144 121 139 144 121 139 144 121 139 144 121 139 144 121 139 142 119 137 142 119 137 142 119 137 142 119 137 142 119 137 142 119 137 142 119 137 142 119 137 134 111 129 134 111 129 134 111 129 134 111 129 134 111 129 134 111 129 134 111 129 134 111 129 131 108 124 131 108 124 131 108 124 131 108 124 131 108 124 131 108 124 131 108 124 131 108 124 136 113 129 136 113 129 136 113 129 136 113 129 136 113 129 136 113 129 136 113 129 136 113 129 121 101 113 117 97 109 110 90 102 100 80 92 90 70 82 80 60 72 73 53 65 69 49 61 46 26 38 43 23 35 38 18 30 32 12 24 25 5 17 18 0 10 14 0 6 10 0 5 10 0 11 7 1 11 7 1 11 7 1 11 7 1 11 7 1 11 7 1 11 7 1 11 8 2 12 11 5 15 15 9 19 21 15 25 27 21 31 33 27 37 37 31 41 37 34 43 42 42 50 40 43 50 40 43 50 40 43 50 40 43 50 40 43 50 40 43 50 40 43 50 39 42 49 37 40 47 32 35 42 25 28 35 19 22 29 12 15 22 7 10 17 5 8 13 1 2 7 1 2 6 1 2 6 1 2 6 1 2 6 1 2 6 1 2 6 1 2 6 12 13 17 12 13 17 12 13 17 12 13 17 12 13 17 12 13 17 12 13 17 12 13 17 23 24 26 23 24 26 23 24 26 23 24 26 23 24 26 23 24 26 23 24 26 23 24 26 35 36 38 35 36 38 35 36 38 35 36 38 35 36 38 35 36 38 35 36 38 35 37 36 41 39 40 41 40 38 41 40 38 41 40 38 41 40 38 41 40 38 41 40 38 41 40 38 32 31 29 32 31 29 32 31 29 32 31 29 32 31 29 32 31 29 32 31 29 32 31 29 36 31 28 36 31 28 36 31 28 36 31 28 36 31 28 36 31 28 36 31 28 36 31 28 37 32 29 37 32 29 37 32 29 37 32 29 37 32 29 37 32 29 37 32 29 37 32 29
136 112 128 136 112 128 136 112 128 136 112 128 139 115 131 139 115 131 139 115 131 139 115 131 139 115 131 139 115 131 139 115 131 139 115 131 136 113 131 136 113 131 136 113 131 136 113 131 136 113 131 136 113 131 136 113 131 136 113 131 144 121 139 144 121 139 144 121 139 144 121 139 144 121 139 144 121 139 144 121 139 144 121 139 142 119 137 142 119 137 142 119 137 142 119 137 142 119 137 142 119 137 142 119 137 142 119 137 134 111 129 134 111 129 134 111 129 134 111 129 134 111 129 134 111 129 134 111 129 134 111 129 131 108 124 131 108 124 131 108 124 131 108 124 131 108 124 131 108 124 131 108 124 131 108 124 136 113 129 136 113 129 136 113 129 136 113 129 136 113 129 136 113 129 136 113 129 136 113 129 119 99 111 115 95 107 107 87 99 98 78 90 87 67 79 78 58 70 71 51 63 67 47 59 38 18 30 36 16 28 31 11 23 24 4 16 17 0 9 13 0 5 13 0 5 10 0 5 8 0 9 5 0 9 5 0 9 5 0 9 5 0 9 5 0 9 5 0 9 5 0 9 7 1 11 10 4 14 16 10 20 23 17 27 30 24 34 37 31 41 42 36 46 43 40 49 44 44 52 42 45 52 42 45 52 42 45 52 42 45 52 42 45 52 42 45 52 42 45 52 39 42 49 37 40 47 32 35 42 25 28 35 19 22 29 12 15 22 7 10 17 5 8 13 1 2 7 1 2 6 1 2 6 1 2 6 1 2 6 1 2 6 1 2 6 1 2 6 12 13 17 12 13 17 12 13 17 12 13 17 12 13 17 12 13 17 12 13 17 12 13 17 23 24 26 23 24 26 23 24 26 23 24 26 23 24 26 23 24 26 23 24 26 23 24 26 35 36 38 35 36 38 35 36 38 35 36 38 35 36 38 35 36 38 35 36 38 35 37 36 41 39 40 41 40 38 41 40 38 41 40 38 41 40 38 41 40 38 41 40 38 41 40 38 32 31 29 32 31 29 32 31 29 32 31 29 32 31 29 32 31 29 32 31 29 32 31 29 36 31 28 36 31 28 36 31 28 36 31 28 36 31 28 36 31 28 36 31 28 36 31 28 37 32 29 37 32 29 37 32 29 37 32 29 37 32 29 37 32 29 37 32 29 37 32 29
135 112 128 135 112 128 135 112 128 135 112 128 140 117 133 140 117 133 140 117 133 140 117 133 140 117 133 140 117 133 140 117 133 140 117 133 136 113 131 135 114 131 136 113 131 135 114 131 136 113 131 135 114 131 136 113 131 135 114 131 144 121 139 143 122 139 144 121 139 143 122 139 144 121 139 143 122 139 144 121 139 144 121 139 142 119 137 142 119 137 142 119 137 142 119 137 142 119 137 142 119 137 142 119 137 142 119 137 134 111 129 134 111 129 134 111 129 134 111 129 134 111 129 134 111 129 134 111 129 134 111 129 130 109 126 130 109 124 130 109 124 130 109 124 130 109 124 130 109 124 130 109 124 130 109 124 135 114 129 135 114 129 135 114 129 135 114 129 135 114 129 135 114 129 135 114 129 135 114 129 114 98 111 110 94 105 103 87 100 94 78 89 83 67 80 74 58 69 66 50 63 62 46 57 31 15 28 29 13 24 24 8 21 17 1 12 11 0 8 10 0 5 10 0 7 7 0 7 3 0 7 0 0 7 1 0 7 0 0 7 1 0 7 0 0 7 1 0 7 0 0 7 5 2 11 7 6 14 14 11 20 21 20 28 30 27 36 36 35 43 43 40 49 45 44 52 44 47 54 43 48 54 44 47 54 43 48 54 44 47 54 43 48 54 44 47 54 43 48 54 39 42 49 36 41 47 32 35 42 24 29 35 19 22 29 11 16 22 7 10 17 5 8 15 0 2 7 0 3 6 1 2 6 0 3 6 1 2 6 0 3 6 1 2 6 0 3 6 12 13 17 10 14 17 12 13 17 10 14 17 12 13 17 10 14 17 12 13 17 10 14 17 23 24 28 21 25 26 23 24 28 21 25 26 23 24 28 21 25 26 23 24 28 21 25 26 35 36 40 33 37 38 35 36 40 33 37 38 35 36 40 33 37 38 35 36 40 35 36 38 40 40 40 41 40 38 41 40 38 41 40 38 41 40 38 41 40 38 41 40 38 41 40 38 32 31 29 32 31 29 32 31 29 32 31 29 32 31 29 32 31 29 32 31 29 34 30 29 36 31 28 36 31 28 36 31 28 36 31 28 36 31 28 36 31 28 36 31 28 36 31 28 37 32 29 37 32 29 37 32 29 37 32 29 37 32 29 37 32 29 37 32 29 37 32 29
120 102 118 123 105 121 125 107 123 127 109 125 128 110 126 128 110 126 128 110 126 128 110 126 128 110 126 128 110 126 128 110 126 128 110 126 126 107 126 126 107 126 128 107 126 126 107 126 128 107 126 126 107 126 128 107 126 126 107 126 127 106 125 125 106 125 127 106 125 125 106 125 127 106 125 125 106 125 127 106 125 127 106 125 129 108 127 129 108 127 129 108 127 129 108 127 129 108 127 129 108 127 129 108 127 129 108 127 128 107 126 128 107 126 128 107 126 128 107 126 128 107 126 128 107 126 128 107 126 128 107 124 125 107 123 125 107 123 125 107 123 125 107 123 125 107 123 125 107 123 125 107 123 125 107 123 128 110 126 127 109 125 125 107 123 123 105 121 121 103 119 119 101 117 118 100 116 114 100 115 100 89 103 91 85 95 81 75 87 67 61 71 51 45 57 37 31 41 27 21 33 21 15 25 8 2 14 8 2 12 8 2 14 8 2 12 8 2 14 8 2 12 8 2 14 6 3 14 2 2 12 0 4 13 2 5 14 3 7 16 6 9 18 7 11 20 10 13 22 10 14 23 18 21 30 20 24 33 27 30 39 33 37 46 42 45 54 49 53 62 56 59 68 58 62 71 49 53 62 47 54 62 49 53 62 47 54 62 49 53 62 47 54 62 49 53 62 47 54 62 39 43 52 35 42 50 32 36 45 23 30 38 19 23 32 10 17 25 7 11 20 5 10 16 3 8 12 3 8 11 4 8 11 3 8 11 4 8 11 3 8 11 4 8 11 3 8 11 3 7 10 4 9 12 7 11 14 9 14 17 14 18 21 16 21 24 19 23 26 20 25 28 23 27 30 22 27 30 23 26 31 22 27 30 23 26 31 22 27 30 23 26 31 22 27 30 28 31 36 27 32 35 28 31 36 27 32 35 28 31 36 27 32 35 28 31 36 28 32 35 29 29 29 30 28 29 30 28 29 30 28 29 30 28 29 30 28 29 30 28 29 30 28 29 32 30 31 32 30 31 32 30 31 32 30 31 32 30 31 32 30 31 32 30 31 34 30 29 36 31 28 38 30 27 38 30 27 38 30 27 38 30 27 38 30 27 38 30 27 38 30 27 37 29 26 37 29 26 37 29 26 37 29 26 37 29 26 37 29 26 37 29 26 37 29 26
119 102 118 122 105 121 124 107 123 126 109 125 127 110 126 127 110 126 127 110 126 127 110 126 127 110 126 127 110 126 127 110 126 127 110 126 126 107 126 126 107 126 126 107 126 126 107 126 126 107 126 126 107 126 126 107 126 126 107 126 125 106 125 125 106 125 125 106 125 125 106 125 125 106 125 125 106 125 125 106 125 125 106 125 129 108 127 129 108 127 129 108 127 129 108 127 129 108 127 129 108 127 129 108 127 129 108 127 128 107 126 128 107 126 128 107 126 128 107 126 128 107 126 128 107 126 128 107 126 126 107 126 125 107 123 124 107 123 124 107 123 124 107 123 124 107 123 124 107 123 124 107 123 124 107 123 126 109 125 125 108 124 123 106 122 120 103 119 117 100 116 115 98 114 113 96 112 109 97 111 91 85 97 83 81 92 73 71 82 59 57 68 45 43 54 32 30 41 21 19 30 16 14 25 5 3 14 5 3 14 5 3 14 5 3 14 5 3 14 5 3 14 5 3 14 4 4 14 0 3 12 0 5 13 0 7 15 2 9 17 5 12 20 8 15 23 10 17 25 11 18 26 18 25 33 21 28 36 26 33 41 33 40 48 40 47 55 47 54 62 53 60 68 56 63 71 47 54 62 47 54 62 47 54 62 47 54 62 47 54 62 47 54 62 47 54 62 47 54 62 37 44 52 35 42 50 30 37 45 23 30 38 17 24 32 10 17 25 5 12 20 3 10 16 3 8 12 3 8 11 3 8 11 3 8 11 3 8 11 3 8 11 3 8 11 3 8 11 2 7 10 4 9 12 6 11 14 9 14 17 13 18 21 16 21 24 18 23 26 20 25 28 22 27 31 22 27 31 22 27 31 22 27 31 22 27 31 22 27 31 22 27 31 22 27 31 27 32 36 27 32 36 27 32 36 27 32 36 27 32 36 27 32 36 27 32 36 28 32 35 29 29 31 30 28 29 30 28 29 30 28 29 30 28 29 30 28 29 30 28 29 30 28 29 32 30 31 32 30 31 32 30 31 32 30 31 32 30 31 32 30 31 32 30 31 34 30 29 36 31 28 38 30 27 38 30 27 38 30 27 38 30 27 38 30 27 38 30 27 38 30 27 37 29 26 37 29 26 37 29 26 37 29 26 37 29 26 37 29 26 37 29 26 37 29 26
119 102 118 122 105 121 124 107 123 126 109 125 127 110 126 127 110 126 127 110 126 127 110 126 127 110 126 127 110 126 127 110 126 127 110 126 126 107 126 126 107 126 126 107 126 126 107 126 126 107 126 126 107 126 126 107 126 126 107 126 125 106 125 125 106 125 125 106 125 125 106 125 125 106 125 125 106 125 125 106 125 125 106 125 129 108 127 129 108 127 129 108 127 129 108 127 129 108 127 129 108 127 129 108 127 129 108 127 128 107 126 128 107 126 128 107 126 128 107 126 128 107 126 128 107 126 128 107 126 126 107 126 125 107 123 124 107 123 124 107 123 124 107 123 124 107 123 124 107 123 124 107 123 124 107 123 124 107 123 123 106 122 120 103 119 116 99 115 112 95 111 108 91 107 105 88 104 100 88 102 81 75 87 73 71 82 63 61 72 51 49 60 38 36 47 26 24 35 17 15 26 12 10 21 5 3 14 5 3 14 5 3 14 5 3 14 5 3 14 5 3 14 5 3 14 4 4 14 0 2 11 0 4 12 0 7 15 4 11 19 8 15 23 12 19 27 15 22 30 17 24 32 24 31 39 26 33 41 30 37 45 36 43 51 42 49 57 48 55 63 52 59 67 55 62 70 47 54 62 47 54 62 47 54 62 47 54 62 47 54 62 47 54 62 47 54 62 47 54 62 37 44 52 35 42 50 30 37 45 23 30 38 17 24 32 10 17 25 5 12 20 3 10 16 3 8 12 3 8 11 3 8 11 3 8 11 3 8 11 3 8 11 3 8 11 3 8 11 2 7 10 4 9 12 6 11 14 9 14 17 13 18 21 16 21 24 18 23 26 20 25 28 22 27 31 22 27 31 22 27 31 22 27 31 22 27 31 22 27 31 22 27 31 22 27 31 27 32 36 27 32 36 27 32 36 27 32 36 27 32 36 27 32 36 27 32 36 28 32 35 29 29 31 30 28 29 30 28 29 30 28 29 30 28 29 30 28 29 30 28 29 30 28 29 32 30 31 32 30 31 32 30 31 32 30 31 32 30 31 32 30 31 32 30 31 34 30 29 36 31 28 38 30 27 38 30 27 38 30 27 38 30 27 38 30 27 38 30 27 38 30 27 37 29 26 37 29 26 37 29 26 37 29 26 37 29 26 37 29 26 37 29 26 37 29 26
