P3
172 37
255
1 1 3 1 1 3 1 1 3 1 1 3 1 1 3 1 1 3 1 1 3 1 1 3 1 1 3 1 1 3 1 1 3 1 1 3 0 0 2 0 0 2 0 0 2 0 0 2 0 0 2 0 0 2 0 0 2 0 0 2 0 0 2 0 0 2 0 0 2 0 0 2 0 0 2 0 0 2 0 0 2 0 0 2 0 0 0 0 0 0 0 0 0 0 0 0 0 0 0 0 0 0 0 0 0 0 0 0 0 0 0 0 0 0 0 0 0 0 0 0 0 0 0 0 0 0 0 0 0 0 0 0 1 1 3 1 1 3 1 1 3 1 1 3 1 1 3 1 1 3 1 1 3 1 1 3 0 0 2 0 0 2 0 0 2 0 0 2 0 0 2 0 0 2 0 0 2 0 0 2 0 0 0 0 0 0 0 0 0 0 0 0 0 0 0 0 0 0 0 0 0 0 0 0 0 0 0 0 0 0 0 0 0 0 0 0 0 0 0 0 0 0 0 0 0 0 0 0 0 0 0 0 0 0 0 0 0 0 0 0 0 0 0 0 0 0 0 0 0 0 0 0 0 0 0 1 1 1 3 3 3 6 6 6 10 10 10 13 13 13 15 15 15 18 16 17 47 42 48 49 42 49 51 44 51 55 48 55 58 51 58 61 54 61 64 57 64 65 58 65 65 58 65 67 60 67 69 62 69 72 65 72 76 69 76 79 72 79 81 74 81 85 75 83 85 69 80 88 70 82 90 72 84 93 75 87 97 79 91 100 82 94 102 84 96 104 86 98 112 94 106 112 94 106 112 94 106 112 94 106 112 94 106 112 94 106 112 94 106 112 94 106 119 101 113 119 101 113 119 101 113 119 101 113 119 101 113 119 101 113 119 101 113 119 101 113 124 106 118 124 106 118 124 106 118 124 106 118 124 106 118 124 106 118 124 106 118 124 106 118 126 108 120 126 108 120 126 108 120 126 108 120 126 108 120 126 108 120 126 108 120 126 108 120 123 105 117 123 105 117 123 105 117 123 105 117 123 105 117 123 105 117 123 105 117 123 105 117 116 98 112 116 98 112 116 98 112 116 98 112 116 98 112 116 98 112 116 98 112 116 98 112 106 88 102 105 87 101 103 85 99 99 81 95 96 78 92 93 75 89 90 72 86 88 72 83
1 1 3 1 1 3 1 1 3 1 1 3 1 1 3 1 1 3 1 1 3 1 1 3 1 1 3 1 1 3 1 1 3 1 1 3 0 0 2 0 0 2 0 0 2 0 0 2 0 0 2 0 0 2 0 0 2 0 0 2 0 0 2 0 0 2 0 0 2 0 0 2 0 0 2 0 0 2 0 0 2 0 0 2 0 0 0 0 0 0 0 0 0 0 0 0 0 0 0 0 0 0 0 0 0 0 0 0 0 0 0 0 0 0 0 0 0 0 0 0 0 0 0 0 0 0 0 0 0 0 0 0 1 1 3 1 1 3 1 1 3 1 1 3 1 1 3 1 1 3 1 1 3 1 1 3 0 0 2 0 0 2 0 0 2 0 0 2 0 0 2 0 0 2 0 0 2 0 0 2 0 0 0 0 0 0 0 0 0 0 0 0 0 0 0 0 0 0 0 0 0 0 0 0 0 0 0 0 0 0 0 0 0 0 0 0 0 0 0 0 0 0 0 0 0 0 0 0 0 0 0 0 0 0 0 0 0 0 0 0 0 0 0 0 0 0 0 0 0 0 0 0 0 0 0 1 1 1 3 3 3 6 6 6 10 10 10 13 13 13 15 15 15 18 16 19 49 42 49 52 42 50 55 45 53 58 48 56 61 51 59 65 55 63 67 57 65 68 58 66 67 57 65 69 59 67 71 61 69 74 64 72 78 68 76 81 71 79 83 73 81 86 75 83 86 68 80 90 70 82 92 72 84 95 75 87 99 79 91 102 82 94 104 84 96 106 86 98 114 94 106 114 94 106 114 94 106 114 94 106 114 94 106 114 94 106 114 94 106 114 94 106 121 101 113 121 101 113 121 101 113 121 101 113 121 101 113 121 101 113 121 101 113 121 101 113 126 106 118 126 106 118 126 106 118 126 106 118 126 106 118 126 106 118 126 106 118 126 106 118 128 108 120 128 108 120 128 108 120 128 108 120 128 108 120 128 108 120 128 108 120 128 108 120 125 105 117 125 105 117 125 105 117 125 105 117 125 105 117 125 105 117 125 105 117 125 105 117 116 98 112 116 98 112 116 98 112 116 98 112 116 98 112 116 98 112 116 98 112 116 98 112 105 87 101 104 86 100 101 83 97 98 80 94 95 77 91 91 73 87 89 71 85 87 71 82
0 0 0 0 0 0 0 0 0 0 0 0 0 0 0 0 0 0 0 0 0 0 0 0 0 0 0 0 0 0 0 0 0 0 0 0 0 0 0 0 0 0 0 0 0 0 0 0 0 0 0 0 0 0 0 0 0 0 0 0 0 0 0 0 0 0 0 0 0 0 0 0 0 0 0 0 0 0 0 0 0 0 0 0 0 0 0 0 0 0 0 0 0 0 0 0 0 0 0 0 0 0 0 0 0 0 0 0 0 0 0 0 0 0 0 0 0 0 0 0 0 0 0 0 0 0 0 0 0 0 0 0 0 0 0 0 0 0 0 0 0 0 0 0 0 0 0 0 0 0 0 0 0 0 0 0 0 0 0 0 0 0 0 0 0 0 0 0 0 0 0 0 0 0 0 0 0 0 0 0 0 0 0 0 0 0 0 0 0 0 0 0 0 0 0 0 0 0 0 0 0 0 0 0 0 0 0 0 0 0 0 0 0 0 0 0 0 0 0 0 0 0 0 0 0 0 0 0 0 0 2 0 0 2 0 0 2 0 0 2 0 0 2 0 0 2 0 0 2 0 0 2 0 0 2 1 1 3 6 6 8 12 12 14 19 19 21 25 25 27 30 30 32 36 31 35 55 44 52 60 44 54 62 46 56 65 49 59 69 53 63 72 56 66 74 58 68 76 60 70 78 62 72 80 64 74 82 66 76 85 69 79 89 73 83 92 76 86 94 78 88 97 80 90 98 78 90 101 79 92 103 81 94 106 84 97 110 88 101 113 91 104 115 93 106 117 95 108 119 97 110 119 97 110 119 97 110 119 97 110 119 97 110 119 97 110 119 97 110 119 97 110 124 102 115 124 102 115 124 102 115 124 102 115 124 102 115 124 102 115 124 102 115 124 102 115 128 106 119 128 106 119 128 106 119 128 106 119 128 106 119 128 106 119 128 106 119 128 106 119 128 105 121 128 105 121 128 105 121 128 105 121 128 105 121 128 105 121 128 105 121 128 105 121 122 99 115 122 99 115 122 99 115 122 99 115 122 99 115 122 99 115 122 99 115 122 99 115 111 91 103 109 91 103 109 91 103 109 91 103 109 91 103 109 91 103 109 91 103 109 91 103 105 87 99 102 84 96 97 79 91 91 73 85 84 66 78 78 60 72 73 55 67 69 53 63
0 0 0 0 0 0 0 0 0 0 0 0 0 0 0 0 0 0 0 0 0 0 0 0 0 0 0 0 0 0 0 0 0 0 0 0 0 0 0 0 0 0 0 0 0 0 0 0 0 0 0 0 0 0 0 0 0 0 0 0 0 0 0 0 0 0 0 0 0 0 0 0 0 0 0 0 0 0 0 0 0 0 0 0 0 0 0 0 0 0 0 0 0 0 0 0 0 0 0 0 0 0 0 0 0 0 0 0 0 0 0 0 0 0 0 0 0 0 0 0 0 0 0 0 0 0 0 0 0 0 0 0 0 0 0 0 0 0 0 0 0 0 0 0 0 0 0 0 0 0 0 0 0 0 0 0 0 0 0 0 0 0 0 0 0 0 0 0 0 0 0 0 0 0 0 0 0 0 0 0 0 0 0 0 0 0 0 0 0 0 0 0 0 0 0 0 0 0 0 0 0 0 0 0 0 0 0 0 0 0 0 0 0 0 0 0 0 0 0 0 0 0 0 0 0 0 0 0 0 0 2 0 0 2 0 0 2 0 0 2 0 0 2 0 0 2 0 0 2 0 0 2 0 0 2 2 2 4 7 7 9 13 13 15 20 20 22 26 26 28 31 31 33 37 32 36 56 43 52 61 44 54 63 46 56 66 49 59 70 53 63 73 56 66 75 58 68 77 60 70 79 62 72 81 64 74 83 66 76 86 69 79 90 73 83 93 76 86 95 78 88 99 79 90 99 77 90 102 78 92 104 80 94 107 83 97 111 87 101 114 90 104 116 92 106 118 94 108 120 96 110 120 96 110 120 96 110 120 96 110 120 96 110 120 96 110 120 96 110 120 96 110 125 101 115 125 101 115 125 101 115 125 101 115 125 101 115 125 101 115 125 101 115 125 101 115 129 105 119 129 105 119 129 105 119 129 105 119 129 105 119 129 105 119 129 105 119 129 105 119 129 105 121 129 105 121 129 105 121 129 105 121 129 105 121 129 105 121 129 105 121 129 105 121 123 99 115 123 99 115 123 99 115 123 99 115 123 99 115 123 99 115 123 99 115 122 99 115 111 91 103 109 91 103 109 91 103 109 91 103 109 91 103 109 91 103 109 91 103 109 91 103 104 86 98 101 83 95 96 78 90 90 72 84 83 65 77 77 59 71 72 54 66 66 53 62
0 0 0 0 0 0 0 0 0 0 0 0 0 0 0 0 0 0 0 0 0 0 0 0 0 0 0 0 0 0 0 0 0 0 0 0 0 0 0 0 0 0 0 0 0 0 0 0 0 0 0 0 0 0 0 0 0 0 0 0 0 0 0 0 0 0 0 0 0 0 0 0 0 0 0 0 0 0 0 0 0 0 0 0 0 0 0 0 0 0 0 0 0 0 0 0 0 0 0 0 0 0 0 0 0 0 0 0 0 0 0 0 0 0 0 0 0 0 0 0 0 0 0 0 0 0 0 0 0 0 0 0 0 0 0 0 0 0 0 0 0 0 0 0 0 0 0 0 0 0 0 0 0 0 0 0 0 0 0 0 0 0 0 0 0 0 0 0 0 0 0 0 0 0 0 0 0 0 0 0 0 0 0 0 0 0 0 0 0 0 0 0 0 0 0 0 0 0 0 0 0 0 0 0 0 0 0 0 0 0 0 0 0 0 0 0 0 0 0 0 0 0 0 0 0 0 0 0 0 0 2 0 0 2 0 0 2 0 0 2 0 0 2 0 0 2 0 0 2 0 0 2 2 2 4 4 4 6 9 9 11 16 16 18 23 23 25 29 29 31 34 34 36 39 34 38 56 43 52 61 44 54 63 46 56 66 49 59 70 53 63 73 56 66 75 58 68 77 60 70 79 62 72 81 64 74 83 66 76 86 69 79 90 73 83 93 76 86 95 78 88 99 79 90 99 77 90 102 78 92 104 80 94 107 83 97 111 87 101 114 90 104 116 92 106 118 94 108 120 96 110 120 96 110 120 96 110 120 96 110 120 96 110 120 96 110 120 96 110 120 96 110 125 101 115 125 101 115 125 101 115 125 101 115 125 101 115 125 101 115 125 101 115 125 101 115 129 105 119 129 105 119 129 105 119 129 105 119 129 105 119 129 105 119 129 105 119 129 105 119 129 105 121 129 105 121 129 105 121 129 105 121 129 105 121 129 105 121 129 105 121 129 105 121 123 99 115 123 99 115 123 99 115 123 99 115 123 99 115 123 99 115 123 99 115 122 99 115 111 91 103 109 91 103 109 91 103 109 91 103 109 91 103 109 91 103 109 91 103 109 91 103 101 83 95 99 81 93 94 76 88 87 69 81 80 62 74 74 56 68 69 51 63 64 51 60
0 0 0 0 0 0 0 0 0 0 0 0 0 0 0 0 0 0 0 0 0 0 0 0 0 0 0 0 0 0 0 0 0 0 0 0 0 0 0 0 0 0 0 0 0 0 0 0 0 0 0 0 0 0 0 0 0 0 0 0 0 0 0 0 0 0 0 0 0 0 0 0 0 0 0 0 0 0 0 0 0 0 0 0 0 0 0 0 0 0 0 0 0 0 0 0 0 0 0 0 0 0 0 0 0 0 0 0 0 0 0 0 0 0 0 0 0 0 0 0 0 0 0 0 0 0 0 0 0 0 0 0 0 0 0 0 0 0 0 0 0 0 0 0 0 0 0 0 0 0 0 0 0 0 0 0 0 0 0 0 0 0 0 0 0 0 0 0 0 0 0 0 0 0 0 0 0 0 0 0 0 0 0 0 0 0 0 0 0 0 0 0 0 0 0 0 0 0 0 0 0 0 0 0 0 0 0 0 0 0 0 0 0 0 0 0 0 0 0 0 0 0 0 0 0 0 0 0 0 0 2 0 0 2 0 0 2 0 0 2 0 0 2 0 0 2 0 0 2 0 0 2 5 5 7 8 8 10 12 12 14 19 19 21 26 26 28 32 32 34 37 37 39 43 38 42 56 43 52 61 44 54 63 46 56 66 49 59 70 53 63 73 56 66 75 58 68 77 60 70 79 62 72 81 64 74 83 66 76 86 69 79 90 73 83 93 76 86 95 78 88 99 79 90 99 77 90 102 78 92 104 80 94 107 83 97 111 87 101 114 90 104 116 92 106 118 94 108 120 96 110 120 96 110 120 96 110 120 96 110 120 96 110 120 96 110 120 96 110 120 96 110 125 101 115 125 101 115 125 101 115 125 101 115 125 101 115 125 101 115 125 101 115 125 101 115 129 105 119 129 105 119 129 105 119 129 105 119 129 105 119 129 105 119 129 105 119 129 105 119 129 105 121 129 105 121 129 105 121 129 105 121 129 105 121 129 105 121 129 105 121 129 105 121 123 99 115 123 99 115 123 99 115 123 99 115 123 99 115 123 99 115 123 99 115 122 99 115 111 91 103 109 91 103 109 91 103 109 91 103 109 91 103 109 91 103 109 91 103 109 91 103 98 80 92 95 77 89 91 73 85 84 66 78 77 59 71 71 53 65 66 48 60 60 47 56
0 0 0 0 0 0 0 0 0 0 0 0 0 0 0 0 0 0 0 0 0 0 0 0 0 0 0 0 0 0 0 0 0 0 0 0 0 0 0 0 0 0 0 0 0 0 0 0 0 0 0 0 0 0 0 0 0 0 0 0 0 0 0 0 0 0 0 0 0 0 0 0 0 0 0 0 0 0 0 0 0 0 0 0 0 0 0 0 0 0 0 0 0 0 0 0 0 0 0 0 0 0 0 0 0 0 0 0 0 0 0 0 0 0 0 0 0 0 0 0 0 0 0 0 0 0 0 0 0 0 0 0 0 0 0 0 0 0 0 0 0 0 0 0 0 0 0 0 0 0 0 0 0 0 0 0 0 0 0 0 0 0 0 0 0 0 0 0 0 0 0 0 0 0 0 0 0 0 0 0 0 0 0 0 0 0 0 0 0 0 0 0 0 0 0 0 0 0 0 0 0 0 0 0 0 0 0 0 0 0 0 0 0 0 0 0 0 0 0 0 0 0 0 0 0 0 0 0 0 0 2 0 0 2 0 0 2 0 0 2 0 0 2 0 0 2 0 0 2 0 0 2 8 8 10 11 11 13 16 16 18 22 22 24 29 29 31 36 36 38 40 40 42 46 41 45 56 43 52 61 44 54 63 46 56 66 49 59 70 53 63 73 56 66 75 58 68 77 60 70 79 62 72 81 64 74 83 66 76 86 69 79 90 73 83 93 76 86 95 78 88 99 79 90 99 77 90 102 78 92 104 80 94 107 83 97 111 87 101 114 90 104 116 92 106 118 94 108 120 96 110 120 96 110 120 96 110 120 96 110 120 96 110 120 96 110 120 96 110 120 96 110 125 101 115 125 101 115 125 101 115 125 101 115 125 101 115 125 101 115 125 101 115 125 101 115 129 105 119 129 105 119 129 105 119 129 105 119 129 105 119 129 105 119 129 105 119 129 105 119 129 105 121 129 105 121 129 105 121 129 105 121 129 105 121 129 105 121 129 105 121 129 105 121 123 99 115 123 99 115 123 99 115 123 99 115 123 99 115 123 99 115 123 99 115 122 99 115 111 91 103 109 91 103 109 91 103 109 91 103 109 91 103 109 91 103 109 91 103 109 91 103 95 77 89 92 74 86 87 69 81 81 63 75 74 56 68 67 49 61 63 45 57 57 44 53
0 0 0 0 0 0 0 0 0 0 0 0 0 0 0 0 0 0 0 0 0 0 0 0 0 0 0 0 0 0 0 0 0 0 0 0 0 0 0 0 0 0 0 0 0 0 0 0 0 0 0 0 0 0 0 0 0 0 0 0 0 0 0 0 0 0 0 0 0 0 0 0 0 0 0 0 0 0 0 0 0 0 0 0 0 0 0 0 0 0 0 0 0 0 0 0 0 0 0 0 0 0 0 0 0 0 0 0 0 0 0 0 0 0 0 0 0 0 0 0 0 0 0 0 0 0 0 0 0 0 0 0 0 0 0 0 0 0 0 0 0 0 0 0 0 0 0 0 0 0 0 0 0 0 0 0 0 0 0 0 0 0 0 0 0 0 0 0 0 0 0 0 0 0 0 0 0 0 0 0 0 0 0 0 0 0 0 0 0 0 0 0 0 0 0 0 0 0 0 0 0 0 0 0 0 0 0 0 0 0 0 0 0 0 0 0 0 0 0 0 0 0 0 0 0 0 0 0 0 0 2 0 0 2 0 0 2 0 0 2 0 0 2 0 0 2 0 0 2 0 0 2 12 12 14 14 14 16 19 19 21 25 25 27 32 32 34 39 39 41 44 44 46 49 44 48 56 43 52 61 44 54 63 46 56 66 49 59 70 53 63 73 56 66 75 58 68 77 60 70 79 62 72 81 64 74 83 66 76 86 69 79 90 73 83 93 76 86 95 78 88 99 79 90 99 77 90 102 78 92 104 80 94 107 83 97 111 87 101 114 90 104 116 92 106 118 94 108 120 96 110 120 96 110 120 96 110 120 96 110 120 96 110 120 96 110 120 96 110 120 96 110 125 101 115 125 101 115 125 101 115 125 101 115 125 101 115 125 101 115 125 101 115 125 101 115 129 105 119 129 105 119 129 105 119 129 105 119 129 105 119 129 105 119 129 105 119 129 105 119 129 105 121 129 105 121 129 105 121 129 105 121 129 105 121 129 105 121 129 105 121 129 105 121 123 99 115 123 99 115 123 99 115 123 99 115 123 99 115 123 99 115 123 99 115 122 99 115 111 91 103 109 91 103 109 91 103 109 91 103 109 91 103 109 91 103 109 91 103 109 91 103 91 73 85 89 71 83 84 66 78 78 60 72 71 53 65 64 46 58 59 41 53 54 41 50
0 0 0 0 0 0 0 0 0 0 0 0 0 0 0 0 0 0 0 0 0 0 0 0 0 0 0 0 0 0 0 0 0 0 0 0 0 0 0 0 0 0 0 0 0 0 0 0 0 0 0 0 0 0 0 0 0 0 0 0 0 0 0 0 0 0 0 0 0 0 0 0 0 0 0 0 0 0 0 0 0 0 0 0 0 0 0 0 0 0 0 0 0 0 0 0 0 0 0 0 0 0 0 0 0 0 0 0 0 0 0 0 0 0 0 0 0 0 0 0 0 0 0 0 0 0 0 0 0 0 0 0 0 0 0 0 0 0 0 0 0 0 0 0 0 0 0 0 0 0 0 0 0 0 0 0 0 0 0 0 0 0 0 0 0 0 0 0 0 0 0 0 0 0 0 0 0 0 0 0 0 0 0 0 0 0 0 0 0 0 0 0 0 0 0 0 0 0 0 0 0 0 0 0 0 0 0 0 0 0 0 0 0 0 0 0 0 0 0 0 0 0 0 0 0 0 0 0 0 0 2 0 0 2 0 0 2 0 0 2 0 0 2 0 0 2 0 0 2 0 0 2 14 14 16 17 17 19 22 22 24 28 28 30 35 35 37 41 41 43 46 46 48 52 47 51 56 43 52 61 44 54 63 46 56 66 49 59 70 53 63 73 56 66 75 58 68 77 60 70 79 62 72 81 64 74 83 66 76 86 69 79 90 73 83 93 76 86 95 78 88 99 79 90 99 77 90 102 78 92 104 80 94 107 83 97 111 87 101 114 90 104 116 92 106 118 94 108 120 96 110 120 96 110 120 96 110 120 96 110 120 96 110 120 96 110 120 96 110 120 96 110 125 101 115 125 101 115 125 101 115 125 101 115 125 101 115 125 101 115 125 101 115 125 101 115 129 105 119 129 105 119 129 105 119 129 105 119 129 105 119 129 105 119 129 105 119 129 105 119 129 105 121 129 105 121 129 105 121 129 105 121 129 105 121 129 105 121 129 105 121 129 105 121 123 99 115 123 99 115 123 99 115 123 99 115 123 99 115 123 99 115 123 99 115 122 99 115 111 91 103 109 91 103 109 91 103 109 91 103 109 91 103 109 91 103 109 91 103 109 91 103 89 71 83 86 68 80 81 63 75 75 57 69 68 50 62 62 44 56 57 39 51 51 38 47
0 0 0 0 0 0 0 0 0 0 0 0 0 0 0 0 0 0 0 0 0 0 0 0 0 0 0 0 0 0 0 0 0 0 0 0 0 0 0 0 0 0 0 0 0 0 0 0 0 0 0 0 0 0 0 0 0 0 0 0 0 0 0 0 0 0 0 0 0 0 0 0 0 0 0 0 0 0 0 0 0 0 0 0 0 0 0 0 0 0 0 0 0 0 0 0 0 0 0 0 0 0 0 0 0 0 0 0 0 0 0 0 0 0 0 0 0 0 0 0 0 0 0 0 0 0 0 0 0 0 0 0 0 0 0 0 0 0 0 0 0 0 0 0 0 0 0 0 0 0 0 0 0 0 0 0 0 0 0 0 0 0 0 0 0 0 0 0 0 0 0 0 0 0 0 0 0 0 0 0 0 0 0 0 0 0 0 0 0 0 0 0 0 0 0 0 0 0 0 0 0 0 0 0 0 0 0 0 0 0 0 0 0 0 0 0 0 0 0 0 0 0 0 0 0 0 0 0 0 0 2 0 0 2 0 0 2 0 0 2 0 0 2 0 0 2 0 0 2 0 0 2 15 15 17 18 18 20 23 23 25 29 29 31 36 36 38 42 42 44 47 47 49 53 48 52 56 43 52 61 44 54 63 46 56 66 49 59 70 53 63 73 56 66 75 58 68 77 60 70 79 62 72 81 64 74 83 66 76 86 69 79 90 73 83 93 76 86 95 78 88 99 79 90 99 77 90 102 78 92 104 80 94 107 83 97 111 87 101 114 90 104 116 92 106 118 94 108 120 96 110 120 96 110 120 96 110 120 96 110 120 96 110 120 96 110 120 96 110 120 96 110 125 101 115 125 101 115 125 101 115 125 101 115 125 101 115 125 101 115 125 101 115 125 101 115 129 105 119 129 105 119 129 105 119 129 105 119 129 105 119 129 105 119 129 105 119 129 105 119 129 105 121 129 105 121 129 105 121 129 105 121 129 105 121 129 105 121 129 105 121 129 105 121 123 99 115 123 99 115 123 99 115 123 99 115 123 99 115 123 99 115 123 99 115 122 99 115 111 91 103 109 91 103 109 91 103 109 91 103 109 91 103 109 91 103 109 91 103 109 91 103 88 70 82 85 67 79 80 62 74 74 56 68 67 49 61 61 43 55 56 38 50 50 37 46
0 0 0 0 0 0 0 0 0 0 0 0 0 0 0 0 0 0 0 0 0 0 0 0 0 0 0 0 0 0 0 0 0 0 0 0 0 0 0 0 0 0 0 0 0 0 0 0 0 0 0 0 0 0 0 0 0 0 0 0 0 0 0 0 0 0 0 0 0 0 0 0 0 0 0 0 0 0 0 0 0 0 0 0 0 0 0 0 0 0 0 0 0 0 0 0 0 0 0 0 0 0 0 0 0 0 0 0 0 0 0 0 0 0 0 0 0 0 0 0 0 0 0 0 0 0 0 0 0 0 0 0 0 0 0 0 0 0 0 0 0 0 0 0 0 0 0 0 0 0 0 0 0 0 0 0 0 0 0 0 0 0 0 0 0 0 0 0 0 0 0 0 0 0 0 0 0 0 0 0 0 0 0 0 0 0 0 0 0 0 0 0 0 0 0 0 0 0 0 0 0 0 0 0 0 0 0 0 0 0 0 0 0 0 0 0 0 0 0 0 0 0 0 0 0 0 0 0 2 2 4 1 1 3 0 0 2 0 0 2 0 0 2 0 0 2 0 0 2 0 0 2 28 28 30 29 29 31 31 31 33 35 35 37 38 38 40 41 41 43 44 44 46 48 43 47 67 54 63 72 55 65 74 57 67 77 60 70 81 64 74 84 67 77 86 69 79 88 71 81 81 64 74 82 65 75 84 67 77 88 71 81 91 74 84 94 77 87 97 80 90 100 80 91 113 91 104 114 90 104 114 90 104 114 90 104 114 90 104 114 90 104 114 90 104 114 90 104 120 96 110 120 96 110 120 96 110 120 96 110 120 96 110 120 96 110 120 96 110 120 96 110 122 98 112 122 98 112 122 98 112 122 98 112 122 98 112 122 98 112 122 98 112 122 98 112 125 101 115 125 101 115 125 101 115 125 101 115 125 101 115 125 101 115 125 101 115 125 101 115 123 99 115 123 99 115 123 99 115 123 99 115 123 99 115 123 99 115 123 99 115 123 99 115 117 93 109 117 93 109 117 93 109 117 93 109 117 93 109 117 93 109 117 93 109 116 93 109 107 87 99 104 86 98 103 85 97 101 83 95 99 81 93 97 79 91 95 77 89 94 76 88 64 46 58 62 44 56 60 42 54 57 39 51 53 35 47 50 32 44 48 30 42 43 30 39
0 0 0 0 0 0 0 0 0 0 0 0 0 0 0 0 0 0 0 0 0 0 0 0 0 0 0 0 0 0 0 0 0 0 0 0 0 0 0 0 0 0 0 0 0 0 0 0 0 0 0 0 0 0 0 0 0 0 0 0 0 0 0 0 0 0 0 0 0 0 0 0 0 0 0 0 0 0 0 0 0 0 0 0 0 0 0 0 0 0 0 0 0 0 0 0 0 0 0 0 0 0 0 0 0 0 0 0 0 0 0 0 0 0 0 0 0 0 0 0 0 0 0 0 0 0 0 0 0 0 0 0 0 0 0 0 0 0 0 0 0 0 0 0 0 0 0 0 0 0 0 0 0 0 0 0 0 0 0 0 0 0 0 0 0 0 0 0 0 0 0 0 0 0 0 0 0 0 0 0 0 0 0 0 0 0 0 0 0 0 0 0 0 0 0 0 0 0 0 0 0 0 0 0 0 0 0 0 0 0 0 0 0 0 0 0 0 0 0 0 0 0 0 0 0 0 0 0 1 1 3 1 1 3 1 1 3 0 0 2 0 0 2 0 0 2 0 0 2 0 0 2 29 29 31 30 30 32 33 33 35 36 36 38 39 39 41 43 43 45 45 45 47 49 44 48 67 54 63 72 55 65 74 57 67 77 60 70 81 64 74 84 67 77 86 69 79 88 71 81 82 65 75 83 66 76 86 69 79 89 72 82 92 75 85 96 79 89 98 81 91 101 81 92 113 91 104 114 90 104 114 90 104 114 90 104 114 90 104 114 90 104 114 90 104 114 90 104 120 96 110 120 96 110 120 96 110 120 96 110 120 96 110 120 96 110 120 96 110 120 96 110 122 98 112 122 98 112 122 98 112 122 98 112 122 98 112 122 98 112 122 98 112 122 98 112 125 101 115 125 101 115 125 101 115 125 101 115 125 101 115 125 101 115 125 101 115 125 101 115 123 99 115 123 99 115 123 99 115 123 99 115 123 99 115 123 99 115 123 99 115 123 99 115 117 93 109 117 93 109 117 93 109 117 93 109 117 93 109 117 93 109 117 93 109 116 93 109 107 87 99 104 86 98 102 84 96 100 82 94 97 79 91 94 76 88 92 74 86 91 73 85 64 46 58 62 44 56 60 42 54 57 39 51 53 35 47 50 32 44 48 30 42 43 30 39
0 0 0 0 0 0 0 0 0 0 0 0 0 0 0 0 0 0 0 0 0 0 0 0 0 0 0 0 0 0 0 0 0 0 0 0 0 0 0 0 0 0 0 0 0 0 0 0 0 0 0 0 0 0 0 0 0 0 0 0 0 0 0 0 0 0 0 0 0 0 0 0 0 0 0 0 0 0 0 0 0 0 0 0 0 0 0 0 0 0 0 0 0 0 0 0 0 0 0 0 0 0 0 0 0 0 0 0 0 0 0 0 0 0 0 0 0 0 0 0 0 0 0 0 0 0 0 0 0 0 0 0 0 0 0 0 0 0 0 0 0 0 0 0 0 0 0 0 0 0 0 0 0 0 0 0 0 0 0 0 0 0 0 0 0 0 0 0 0 0 0 0 0 0 0 0 0 0 0 0 0 0 0 0 0 0 0 0 0 0 0 0 0 0 0 0 0 0 0 0 0 0 0 0 0 0 0 0 0 0 0 0 0 0 0 0 0 0 0 0 0 0 0 0 0 0 0 0 0 0 2 1 1 3 1 1 3 2 2 4 2 2 4 3 3 5 4 4 6 4 4 6 31 31 33 33 33 35 35 35 37 38 38 40 42 42 44 45 45 47 47 47 49 52 47 51 67 54 63 72 55 65 74 57 67 77 60 70 81 64 74 84 67 77 86 69 79 88 71 81 84 67 77 86 69 79 88 71 81 91 74 84 95 78 88 98 81 91 100 83 93 104 84 95 113 91 104 114 90 104 114 90 104 114 90 104 114 90 104 114 90 104 114 90 104 114 90 104 120 96 110 120 96 110 120 96 110 120 96 110 120 96 110 120 96 110 120 96 110 120 96 110 122 98 112 122 98 112 122 98 112 122 98 112 122 98 112 122 98 112 122 98 112 122 98 112 125 101 115 125 101 115 125 101 115 125 101 115 125 101 115 125 101 115 125 101 115 125 101 115 123 99 115 123 99 115 123 99 115 123 99 115 123 99 115 123 99 115 123 99 115 123 99 115 117 93 109 117 93 109 117 93 109 117 93 109 117 93 109 117 93 109 117 93 109 116 93 109 108 88 100 105 87 99 102 84 96 98 80 92 94 76 88 90 72 84 87 69 81 85 67 79 64 46 58 62 44 56 60 42 54 57 39 51 53 35 47 50 32 44 48 30 42 43 30 39
0 0 0 0 0 0 0 0 0 0 0 0 0 0 0 0 0 0 0 0 0 0 0 0 0 0 0 0 0 0 0 0 0 0 0 0 0 0 0 0 0 0 0 0 0 0 0 0 0 0 0 0 0 0 0 0 0 0 0 0 0 0 0 0 0 0 0 0 0 0 0 0 0 0 0 0 0 0 0 0 0 0 0 0 0 0 0 0 0 0 0 0 0 0 0 0 0 0 0 0 0 0 0 0 0 0 0 0 0 0 0 0 0 0 0 0 0 0 0 0 0 0 0 0 0 0 0 0 0 0 0 0 0 0 0 0 0 0 0 0 0 0 0 0 0 0 0 0 0 0 0 0 0 0 0 0 0 0 0 0 0 0 0 0 0 0 0 0 0 0 0 0 0 0 0 0 0 0 0 0 0 0 0 0 0 0 0 0 0 0 0 0 0 0 0 0 0 0 0 0 0 0 0 0 0 0 0 0 0 0 0 0 0 0 0 0 0 0 0 0 0 0 0 0 0 0 0 0 0 0 2 0 0 2 2 2 4 4 4 6 7 7 9 9 9 11 11 11 13 12 12 14 35 35 37 36 36 38 38 38 40 42 42 44 45 45 47 48 48 50 51 51 53 55 50 54 67 54 63 72 55 65 74 57 67 77 60 70 81 64 74 84 67 77 86 69 79 88 71 81 88 71 81 89 72 82 91 74 84 95 78 88 98 81 91 101 84 94 104 87 97 107 87 98 113 91 104 114 90 104 114 90 104 114 90 104 114 90 104 114 90 104 114 90 104 114 90 104 120 96 110 120 96 110 120 96 110 120 96 110 120 96 110 120 96 110 120 96 110 120 96 110 122 98 112 122 98 112 122 98 112 122 98 112 122 98 112 122 98 112 122 98 112 122 98 112 125 101 115 125 101 115 125 101 115 125 101 115 125 101 115 125 101 115 125 101 115 125 101 115 123 99 115 123 99 115 123 99 115 123 99 115 123 99 115 123 99 115 123 99 115 123 99 115 117 93 109 117 93 109 117 93 109 117 93 109 117 93 109 117 93 109 117 93 109 116 93 109 110 90 102 105 87 99 101 83 95 96 78 90 90 72 84 84 66 78 80 62 74 78 60 72 64 46 58 62 44 56 60 42 54 57 39 51 53 35 47 50 32 44 48 30 42 43 30 39
0 0 0 0 0 0 0 0 0 0 0 0 0 0 0 0 0 0 0 0 0 0 0 0 0 0 0 0 0 0 0 0 0 0 0 0 0 0 0 0 0 0 0 0 0 0 0 0 0 0 0 0 0 0 0 0 0 0 0 0 0 0 0 0 0 0 0 0 0 0 0 0 0 0 0 0 0 0 0 0 0 0 0 0 0 0 0 0 0 0 0 0 0 0 0 0 0 0 0 0 0 0 0 0 0 0 0 0 0 0 0 0 0 0 0 0 0 0 0 0 0 0 0 0 0 0 0 0 0 0 0 0 0 0 0 0 0 0 0 0 0 0 0 0 0 0 0 0 0 0 0 0 0 0 0 0 0 0 0 0 0 0 0 0 0 0 0 0 0 0 0 0 0 0 0 0 0 0 0 0 0 0 0 0 0 0 0 0 0 0 0 0 0 0 0 0 0 0 0 0 0 0 0 0 0 0 0 0 0 0 0 0 0 0 0 0 0 0 0 0 0 0 0 0 0 0 0 0 0 0 2 0 0 2 2 2 4 7 7 9 11 11 13 15 15 17 18 18 20 20 20 22 38 38 40 39 39 41 42 42 44 45 45 47 48 48 50 52 52 54 54 54 56 58 53 57 67 54 63 72 55 65 74 57 67 77 60 70 81 64 74 84 67 77 86 69 79 88 71 81 91 74 84 92 75 85 95 78 88 98 81 91 101 84 94 105 88 98 107 90 100 110 90 101 113 91 104 114 90 104 114 90 104 114 90 104 114 90 104 114 90 104 114 90 104 114 90 104 120 96 110 120 96 110 120 96 110 120 96 110 120 96 110 120 96 110 120 96 110 120 96 110 122 98 112 122 98 112 122 98 112 122 98 112 122 98 112 122 98 112 122 98 112 122 98 112 125 101 115 125 101 115 125 101 115 125 101 115 125 101 115 125 101 115 125 101 115 125 101 115 123 99 115 123 99 115 123 99 115 123 99 115 123 99 115 123 99 115 123 99 115 123 99 115 117 93 109 117 93 109 117 93 109 117 93 109 117 93 109 117 93 109 117 93 109 116 93 109 111 91 103 106 88 100 100 82 94 93 75 87 85 67 79 78 60 72 73 55 67 70 52 64 64 46 58 62 44 56 60 42 54 57 39 51 53 35 47 50 32 44 48 30 42 43 30 39
0 0 0 0 0 0 0 0 0 0 0 0 0 0 0 0 0 0 0 0 0 0 0 0 0 0 0 0 0 0 0 0 0 0 0 0 0 0 0 0 0 0 0 0 0 0 0 0 0 0 0 0 0 0 0 0 0 0 0 0 0 0 0 0 0 0 0 0 0 0 0 0 0 0 0 0 0 0 0 0 0 0 0 0 0 0 0 0 0 0 0 0 0 0 0 0 0 0 0 0 0 0 0 0 0 0 0 0 0 0 0 0 0 0 0 0 0 0 0 0 0 0 0 0 0 0 0 0 0 0 0 0 0 0 0 0 0 0 0 0 0 0 0 0 0 0 0 0 0 0 0 0 0 0 0 0 0 0 0 0 0 0 0 0 0 0 0 0 0 0 0 0 0 0 0 0 0 0 0 0 0 0 0 0 0 0 0 0 0 0 0 0 0 0 0 0 0 0 0 0 0 0 0 0 0 0 0 0 0 0 0 0 0 0 0 0 0 0 0 0 0 0 0 0 0 0 0 0 0 0 2 0 0 2 3 3 5 9 9 11 15 15 17 21 21 23 25 25 27 27 27 29 41 41 43 43 43 45 45 45 47 48 48 50 52 52 54 55 55 57 57 57 59 62 57 61 67 54 63 72 55 65 74 57 67 77 60 70 81 64 74 84 67 77 86 69 79 88 71 81 94 77 87 96 79 89 98 81 91 101 84 94 105 88 98 108 91 101 110 93 103 114 94 105 113 91 104 114 90 104 114 90 104 114 90 104 114 90 104 114 90 104 114 90 104 114 90 104 120 96 110 120 96 110 120 96 110 120 96 110 120 96 110 120 96 110 120 96 110 120 96 110 122 98 112 122 98 112 122 98 112 122 98 112 122 98 112 122 98 112 122 98 112 122 98 112 125 101 115 125 101 115 125 101 115 125 101 115 125 101 115 125 101 115 125 101 115 125 101 115 123 99 115 123 99 115 123 99 115 123 99 115 123 99 115 123 99 115 123 99 115 123 99 115 117 93 109 117 93 109 117 93 109 117 93 109 117 93 109 117 93 109 117 93 109 116 93 109 112 92 104 107 89 101 100 82 94 91 73 85 81 63 75 72 54 66 66 48 60 62 44 56 64 46 58 62 44 56 60 42 54 57 39 51 53 35 47 50 32 44 48 30 42 43 30 39
0 0 0 0 0 0 0 0 0 0 0 0 0 0 0 0 0 0 0 0 0 0 0 0 0 0 0 0 0 0 0 0 0 0 0 0 0 0 0 0 0 0 0 0 0 0 0 0 0 0 0 0 0 0 0 0 0 0 0 0 0 0 0 0 0 0 0 0 0 0 0 0 0 0 0 0 0 0 0 0 0 0 0 0 0 0 0 0 0 0 0 0 0 0 0 0 0 0 0 0 0 0 0 0 0 0 0 0 0 0 0 0 0 0 0 0 0 0 0 0 0 0 0 0 0 0 0 0 0 0 0 0 0 0 0 0 0 0 0 0 0 0 0 0 0 0 0 0 0 0 0 0 0 0 0 0 0 0 0 0 0 0 0 0 0 0 0 0 0 0 0 0 0 0 0 0 0 0 0 0 0 0 0 0 0 0 0 0 0 0 0 0 0 0 0 0 0 0 0 0 0 0 0 0 0 0 0 0 0 0 0 0 0 0 0 0 0 0 0 0 0 0 0 0 0 0 0 0 0 0 2 0 0 2 4 4 6 11 11 13 18 18 20 25 25 27 30 30 32 33 33 35 44 44 46 45 45 47 47 47 49 51 51 53 54 54 56 57 57 59 60 60 62 64 59 63 67 54 63 72 55 65 74 57 67 77 60 70 81 64 74 84 67 77 86 69 79 88 71 81 97 80 90 98 81 91 100 83 93 104 87 97 107 90 100 110 93 103 113 96 106 116 96 107 113 91 104 114 90 104 114 90 104 114 90 104 114 90 104 114 90 104 114 90 104 114 90 104 120 96 110 120 96 110 120 96 110 120 96 110 120 96 110 120 96 110 120 96 110 120 96 110 122 98 112 122 98 112 122 98 112 122 98 112 122 98 112 122 98 112 122 98 112 122 98 112 125 101 115 125 101 115 125 101 115 125 101 115 125 101 115 125 101 115 125 101 115 125 101 115 123 99 115 123 99 115 123 99 115 123 99 115 123 99 115 123 99 115 123 99 115 123 99 115 117 93 109 117 93 109 117 93 109 117 93 109 117 93 109 117 93 109 117 93 109 116 93 109 113 93 105 107 89 101 99 81 93 89 71 83 78 60 72 68 50 62 60 42 54 56 38 50 64 46 58 62 44 56 60 42 54 57 39 51 53 35 47 50 32 44 48 30 42 43 30 39
0 0 0 0 0 0 0 0 0 0 0 0 0 0 0 0 0 0 0 0 0 0 0 0 0 0 0 0 0 0 0 0 0 0 0 0 0 0 0 0 0 0 0 0 0 0 0 0 0 0 0 0 0 0 0 0 0 0 0 0 0 0 0 0 0 0 0 0 0 0 0 0 0 0 0 0 0 0 0 0 0 0 0 0 0 0 0 0 0 0 0 0 0 0 0 0 0 0 0 0 0 0 0 0 0 0 0 0 0 0 0 0 0 0 0 0 0 0 0 0 0 0 0 0 0 0 0 0 0 0 0 0 0 0 0 0 0 0 0 0 0 0 0 0 0 0 0 0 0 0 0 0 0 0 0 0 0 0 0 0 0 0 0 0 0 0 0 0 0 0 0 0 0 0 0 0 0 0 0 0 0 0 0 0 0 0 0 0 0 0 0 0 0 0 0 0 0 0 0 0 0 0 0 0 0 0 0 0 0 0 0 0 0 0 0 0 0 0 0 0 0 0 0 0 0 0 0 0 1 0 2 1 0 2 5 3 6 13 11 14 21 19 22 28 26 29 34 32 35 37 35 38 46 44 47 47 45 48 50 48 51 53 51 54 56 54 57 60 58 61 62 60 63 66 60 64 69 53 63 74 54 65 76 56 67 79 59 70 83 63 74 86 66 77 88 68 79 90 70 81 100 80 91 101 81 92 104 84 95 107 87 98 110 90 101 114 94 105 116 96 107 117 97 108 113 91 104 114 90 104 114 90 104 114 90 104 114 90 104 114 90 104 114 90 104 114 90 104 120 96 110 120 96 110 120 96 110 120 96 110 120 96 110 120 96 110 120 96 110 120 96 110 122 98 112 122 98 112 122 98 112 122 98 112 122 98 112 122 98 112 122 98 112 122 98 112 125 101 115 125 101 115 125 101 115 125 101 115 125 101 115 125 101 115 125 101 115 125 101 115 123 99 113 123 99 113 123 99 115 123 99 113 123 99 115 123 99 113 123 99 115 123 99 113 117 93 109 117 93 107 117 93 109 117 93 107 117 93 109 117 93 107 117 93 109 116 94 107 112 95 105 106 90 100 98 82 92 87 71 81 76 60 70 65 49 59 56 40 50 52 36 46 63 47 57 61 45 55 59 43 53 56 40 50 52 36 46 49 33 43 47 31 41 43 30 37
0 0 0 0 0 0 0 0 0 0 0 0 0 0 0 0 0 0 0 0 0 0 0 0 0 0 0 0 0 0 0 0 0 0 0 0 0 0 0 0 0 0 0 0 0 0 0 0 0 0 0 0 0 0 0 0 0 0 0 0 0 0 0 0 0 0 0 0 0 0 0 0 0 0 0 0 0 0 0 0 0 0 0 0 0 0 0 0 0 0 0 0 0 0 0 0 0 0 0 0 0 0 0 0 0 0 0 0 0 0 0 0 0 0 0 0 0 0 0 0 0 0 0 0 0 0 0 0 0 0 0 0 0 0 0 0 0 0 0 0 0 0 0 0 0 0 0 0 0 0 0 0 0 0 0 0 0 0 0 0 0 0 0 0 0 0 0 0 0 0 0 0 0 0 0 0 0 0 0 0 0 0 0 0 0 0 0 0 0 0 0 0 0 0 0 0 0 0 0 0 0 0 0 0 0 0 0 0 0 0 0 0 0 0 0 0 0 0 0 0 0 0 0 0 0 1 0 0 3 0 2 6 0 4 11 5 9 17 11 15 24 18 22 30 24 28 35 29 33 38 32 36 48 42 46 49 43 47 51 45 49 55 49 53 58 52 56 61 55 59 64 58 62 68 57 63 79 62 72 83 61 73 85 63 75 89 67 79 92 70 82 95 73 85 98 76 88 99 77 89 112 90 102 112 90 102 112 90 102 112 90 102 112 90 102 112 90 102 112 90 102 112 90 102 120 98 111 120 98 111 120 98 111 120 98 111 120 98 111 120 98 111 120 98 111 120 98 111 121 99 112 121 99 112 121 99 112 121 99 112 121 99 112 121 99 112 121 99 112 121 99 112 120 98 110 120 98 110 120 98 110 120 98 110 120 98 110 120 98 110 120 98 110 120 98 110 120 98 110 120 98 110 120 98 110 120 98 110 120 98 110 120 98 110 120 98 110 120 98 110 118 94 107 118 94 107 118 94 108 118 94 107 118 94 108 118 94 107 118 94 108 118 94 107 119 95 109 118 94 107 116 92 106 112 88 101 109 85 99 106 82 95 103 79 93 101 79 91 84 69 76 79 67 71 73 61 65 66 54 58 58 46 50 50 38 42 44 32 36 41 29 33 43 31 35 43 31 35 43 31 35 43 31 35 43 31 35 43 31 35 43 31 35 42 31 35
0 0 0 0 0 0 0 0 0 0 0 0 0 0 0 0 0 0 0 0 0 0 0 0 0 0 0 0 0 0 0 0 0 0 0 0 0 0 0 0 0 0 0 0 0 0 0 0 0 0 0 0 0 0 0 0 0 0 0 0 0 0 0 0 0 0 0 0 0 0 0 0 0 0 0 0 0 0 0 0 0 0 0 0 0 0 0 0 0 0 0 0 0 0 0 0 0 0 0 0 0 0 0 0 0 0 0 0 0 0 0 0 0 0 0 0 0 0 0 0 0 0 0 0 0 0 0 0 0 0 0 0 0 0 0 0 0 0 0 0 0 0 0 0 0 0 0 0 0 0 0 0 0 0 0 0 0 0 0 0 0 0 0 0 0 0 0 0 0 0 0 0 0 0 0 0 0 0 0 0 0 0 0 0 0 0 0 0 0 0 0 0 0 0 0 0 0 0 0 0 0 0 0 0 0 0 0 0 0 0 0 0 0 0 0 0 0 0 0 0 0 0 0 0 0 1 0 0 4 0 2 9 0 5 14 5 10 20 11 16 27 18 23 33 24 29 38 29 34 41 32 37 51 42 47 52 43 48 55 46 51 58 49 54 61 52 57 65 56 61 67 58 63 70 57 64 82 62 73 85 61 74 88 64 77 91 67 80 94 70 83 98 74 87 100 76 89 101 77 90 113 89 102 113 89 102 113 89 102 113 89 102 113 89 102 113 89 102 113 89 102 113 89 102 120 98 111 120 98 111 120 98 111 120 98 111 120 98 111 120 98 111 120 98 111 120 98 111 121 99 112 121 99 112 121 99 112 121 99 112 121 99 112 121 99 112 121 99 112 121 99 112 120 98 110 120 98 110 120 98 110 120 98 110 120 98 110 120 98 110 120 98 110 120 98 110 120 98 110 120 98 110 120 98 110 120 98 110 120 98 110 120 98 110 120 98 110 120 98 110 118 94 107 118 94 107 118 94 107 118 94 107 118 94 107 118 94 107 118 94 107 118 94 107 118 94 107 117 93 106 114 90 103 111 87 100 108 84 97 104 80 93 102 78 91 99 79 88 81 66 71 75 65 66 70 60 61 63 53 54 56 46 47 49 39 40 43 33 34 40 30 31 42 32 33 42 32 33 42 32 33 42 32 33 42 32 33 42 32 33 42 32 33 41 32 33
0 0 0 0 0 0 0 0 0 0 0 0 0 0 0 0 0 0 0 0 0 0 0 0 0 0 0 0 0 0 0 0 0 0 0 0 0 0 0 0 0 0 0 0 0 0 0 0 0 0 0 0 0 0 0 0 0 0 0 0 0 0 0 0 0 0 0 0 0 0 0 0 0 0 0 0 0 0 0 0 0 0 0 0 0 0 0 0 0 0 0 0 0 0 0 0 0 0 0 0 0 0 0 0 0 0 0 0 0 0 0 0 0 0 0 0 0 0 0 0 0 0 0 0 0 0 0 0 0 0 0 0 0 0 0 0 0 0 0 0 0 0 0 0 0 0 0 0 0 0 0 0 0 0 0 0 0 0 0 0 0 0 0 0 0 0 0 0 0 0 0 0 0 0 0 0 0 0 0 0 0 0 0 0 0 0 0 0 0 0 0 0 0 0 0 0 0 0 0 0 0 0 0 0 0 0 0 0 0 0 0 0 0 0 0 0 0 0 0 0 0 0 0 0 0 1 0 0 7 1 5 11 2 7 16 7 12 23 14 19 30 21 26 36 27 32 41 32 37 43 34 39 53 44 49 55 46 51 57 48 53 60 51 56 64 55 60 67 58 63 69 60 65 73 60 67 84 64 75 88 64 77 90 66 79 93 69 82 97 73 86 100 76 89 102 78 91 104 80 93 113 89 102 113 89 102 113 89 102 113 89 102 113 89 102 113 89 102 113 89 102 113 89 102 120 98 111 120 98 111 120 98 111 120 98 111 120 98 111 120 98 111 120 98 111 120 98 111 121 99 112 121 99 112 121 99 112 121 99 112 121 99 112 121 99 112 121 99 112 121 99 112 120 98 110 120 98 110 120 98 110 120 98 110 120 98 110 120 98 110 120 98 110 120 98 110 120 98 110 120 98 110 120 98 110 120 98 110 120 98 110 120 98 110 120 98 110 120 98 110 118 94 107 118 94 107 118 94 107 118 94 107 118 94 107 118 94 107 118 94 107 118 94 107 116 92 105 114 90 103 112 88 101 109 85 98 105 81 94 102 78 91 100 76 89 96 76 85 75 60 65 70 60 61 66 56 57 60 50 51 54 44 45 48 38 39 44 34 35 41 31 32 42 32 33 42 32 33 42 32 33 42 32 33 42 32 33 42 32 33 42 32 33 41 32 33
0 0 0 0 0 0 0 0 0 0 0 0 0 0 0 0 0 0 0 0 0 0 0 0 0 0 0 0 0 0 0 0 0 0 0 0 0 0 0 0 0 0 0 0 0 0 0 0 0 0 0 0 0 0 0 0 0 0 0 0 0 0 0 0 0 0 0 0 0 0 0 0 0 0 0 0 0 0 0 0 0 0 0 0 0 0 0 0 0 0 0 0 0 0 0 0 0 0 0 0 0 0 0 0 0 0 0 0 0 0 0 0 0 0 0 0 0 0 0 0 0 0 0 0 0 0 0 0 0 0 0 0 0 0 0 0 0 0 0 0 0 0 0 0 0 0 0 0 0 0 0 0 0 0 0 0 0 0 0 0 0 0 0 0 0 0 0 0 0 0 0 0 0 0 0 0 0 0 0 0 0 0 0 0 0 0 0 0 0 0 0 0 0 0 0 0 0 0 0 0 0 0 0 0 0 0 0 0 0 0 0 0 0 0 0 0 0 0 0 0 0 0 0 0 0 1 0 0 10 4 8 15 6 11 19 10 15 26 17 22 33 24 29 39 30 35 44 35 40 47 38 43 57 48 53 58 49 54 60 51 56 64 55 60 67 58 63 70 61 66 73 64 69 76 63 70 88 68 79 91 67 80 93 69 82 97 73 86 100 76 89 103 79 92 106 82 95 107 83 96 113 89 102 113 89 102 113 89 102 113 89 102 113 89 102 113 89 102 113 89 102 113 89 102 120 98 111 120 98 111 120 98 111 120 98 111 120 98 111 120 98 111 120 98 111 120 98 111 121 99 112 121 99 112 121 99 112 121 99 112 121 99 112 121 99 112 121 99 112 121 99 112 120 98 110 120 98 110 120 98 110 120 98 110 120 98 110 120 98 110 120 98 110 120 98 110 120 98 110 120 98 110 120 98 110 120 98 110 120 98 110 120 98 110 120 98 110 120 98 110 118 94 107 118 94 107 118 94 107 118 94 107 118 94 107 118 94 107 118 94 107 118 94 107 112 88 101 111 87 100 109 85 98 105 81 94 102 78 91 99 75 88 96 72 85 93 73 82 68 53 58 63 53 54 60 50 51 56 46 47 52 42 43 47 37 38 44 34 35 43 33 34 42 32 33 42 32 33 42 32 33 42 32 33 42 32 33 42 32 33 42 32 33 41 32 33
0 0 0 0 0 0 0 0 0 0 0 0 0 0 0 0 0 0 0 0 0 0 0 0 0 0 0 0 0 0 0 0 0 0 0 0 0 0 0 0 0 0 0 0 0 0 0 0 0 0 0 0 0 0 0 0 0 0 0 0 0 0 0 0 0 0 0 0 0 0 0 0 0 0 0 0 0 0 0 0 0 0 0 0 0 0 0 0 0 0 0 0 0 0 0 0 0 0 0 0 0 0 0 0 0 0 0 0 0 0 0 0 0 0 0 0 0 0 0 0 0 0 0 0 0 0 0 0 0 0 0 0 0 0 0 0 0 0 0 0 0 0 0 0 0 0 0 0 0 0 0 0 0 0 0 0 0 0 0 0 0 0 0 0 0 0 0 0 0 0 0 0 0 0 0 0 0 0 0 0 0 0 0 0 0 0 0 0 0 0 0 0 0 0 0 0 0 0 0 0 0 0 0 0 0 0 0 0 0 0 0 0 0 0 0 0 0 0 0 0 0 0 0 0 0 1 0 0 13 7 11 18 9 14 23 14 19 29 20 25 36 27 32 43 34 39 47 38 43 50 41 46 60 51 56 61 52 57 64 55 60 67 58 63 70 61 66 74 65 70 76 67 72 79 66 73 91 71 82 94 70 83 97 73 86 100 76 89 103 79 92 107 83 96 109 85 98 110 86 99 113 89 102 113 89 102 113 89 102 113 89 102 113 89 102 113 89 102 113 89 102 113 89 102 120 98 111 120 98 111 120 98 111 120 98 111 120 98 111 120 98 111 120 98 111 120 98 111 121 99 112 121 99 112 121 99 112 121 99 112 121 99 112 121 99 112 121 99 112 121 99 112 120 98 110 120 98 110 120 98 110 120 98 110 120 98 110 120 98 110 120 98 110 120 98 110 120 98 110 120 98 110 120 98 110 120 98 110 120 98 110 120 98 110 120 98 110 120 98 110 118 94 107 118 94 107 118 94 107 118 94 107 118 94 107 118 94 107 118 94 107 118 94 107 109 85 98 108 84 97 105 81 94 102 78 91 99 75 88 95 71 84 93 69 82 90 70 79 60 45 50 56 46 47 54 44 45 52 42 43 49 39 40 47 37 38 45 35 36 44 34 35 42 32 33 42 32 33 42 32 33 42 32 33 42 32 33 42 32 33 42 32 33 41 32 33
0 0 0 0 0 0 0 0 0 0 0 0 0 0 0 0 0 0 0 0 0 0 0 0 0 0 0 0 0 0 0 0 0 0 0 0 0 0 0 0 0 0 0 0 0 0 0 0 0 0 0 0 0 0 0 0 0 0 0 0 0 0 0 0 0 0 0 0 0 0 0 0 0 0 0 0 0 0 0 0 0 0 0 0 0 0 0 0 0 0 0 0 0 0 0 0 0 0 0 0 0 0 0 0 0 0 0 0 0 0 0 0 0 0 0 0 0 0 0 0 0 0 0 0 0 0 0 0 0 0 0 0 0 0 0 0 0 0 0 0 0 0 0 0 0 0 0 0 0 0 0 0 0 0 0 0 0 0 0 0 0 0 0 0 0 0 0 0 0 0 0 0 0 0 0 0 0 0 0 0 0 0 0 0 0 0 0 0 0 0 0 0 0 0 0 0 0 0 0 0 0 0 0 0 0 0 0 0 0 0 0 0 0 0 0 0 0 0 0 0 0 0 0 0 0 1 0 0 17 11 15 21 12 17 26 17 22 32 23 28 39 30 35 46 37 42 51 42 47 53 44 49 63 54 59 65 56 61 67 58 63 70 61 66 74 65 70 77 68 73 79 70 75 83 70 77 94 74 85 98 74 87 100 76 89 103 79 92 107 83 96 110 86 99 112 88 101 114 90 103 113 89 102 113 89 102 113 89 102 113 89 102 113 89 102 113 89 102 113 89 102 113 89 102 120 98 111 120 98 111 120 98 111 120 98 111 120 98 111 120 98 111 120 98 111 120 98 111 121 99 112 121 99 112 121 99 112 121 99 112 121 99 112 121 99 112 121 99 112 121 99 112 120 98 110 120 98 110 120 98 110 120 98 110 120 98 110 120 98 110 120 98 110 120 98 110 120 98 110 120 98 110 120 98 110 120 98 110 120 98 110 120 98 110 120 98 110 120 98 110 118 94 107 118 94 107 118 94 107 118 94 107 118 94 107 118 94 107 118 94 107 118 94 107 106 82 95 104 80 93 102 78 91 99 75 88 95 71 84 92 68 81 90 66 79 86 66 75 52 37 42 49 39 40 48 38 39 47 37 38 47 37 38 46 36 37 46 36 37 45 35 36 42 32 33 42 32 33 42 32 33 42 32 33 42 32 33 42 32 33 42 32 33 41 32 33
0 0 0 0 0 0 0 0 0 0 0 0 0 0 0 0 0 0 0 0 0 0 0 0 0 0 0 0 0 0 0 0 0 0 0 0 0 0 0 0 0 0 0 0 0 0 0 0 0 0 0 0 0 0 0 0 0 0 0 0 0 0 0 0 0 0 0 0 0 0 0 0 0 0 0 0 0 0 0 0 0 0 0 0 0 0 0 0 0 0 0 0 0 0 0 0 0 0 0 0 0 0 0 0 0 0 0 0 0 0 0 0 0 0 0 0 0 0 0 0 0 0 0 0 0 0 0 0 0 0 0 0 0 0 0 0 0 0 0 0 0 0 0 0 0 0 0 0 0 0 0 0 0 0 0 0 0 0 0 0 0 0 0 0 0 0 0 0 0 0 0 0 0 0 0 0 0 0 0 0 0 0 0 0 0 0 0 0 0 0 0 0 0 0 0 0 0 0 0 0 0 0 0 0 0 0 0 0 0 0 0 0 0 0 0 0 0 0 0 0 0 0 0 0 0 1 0 0 19 13 17 24 15 20 29 20 25 35 26 31 42 33 38 48 39 44 53 44 49 56 47 52 66 57 62 67 58 63 69 60 65 73 64 69 76 67 72 79 70 75 82 73 78 85 72 79 97 77 88 100 76 89 102 78 91 106 82 95 109 85 98 112 88 101 115 91 104 116 92 105 113 89 102 113 89 102 113 89 102 113 89 102 113 89 102 113 89 102 113 89 102 113 89 102 120 98 111 120 98 111 120 98 111 120 98 111 120 98 111 120 98 111 120 98 111 120 98 111 121 99 112 121 99 112 121 99 112 121 99 112 121 99 112 121 99 112 121 99 112 121 99 112 120 98 110 120 98 110 120 98 110 120 98 110 120 98 110 120 98 110 120 98 110 120 98 110 120 98 110 120 98 110 120 98 110 120 98 110 120 98 110 120 98 110 120 98 110 120 98 110 118 94 107 118 94 107 118 94 107 118 94 107 118 94 107 118 94 107 118 94 107 118 94 107 103 79 92 102 78 91 100 76 89 96 72 85 93 69 82 90 66 79 87 63 76 84 64 73 46 31 36 43 33 34 44 34 35 44 34 35 45 35 36 46 36 37 46 36 37 46 36 37 42 32 33 42 32 33 42 32 33 42 32 33 42 32 33 42 32 33 42 32 33 41 32 33
0 0 0 0 0 0 0 0 0 0 0 0 0 0 0 0 0 0 0 0 0 0 0 0 0 0 0 0 0 0 0 0 0 0 0 0 0 0 0 0 0 0 0 0 0 0 0 0 0 0 0 0 0 0 0 0 0 0 0 0 0 0 0 0 0 0 0 0 0 0 0 0 0 0 0 0 0 0 0 0 0 0 0 0 0 0 0 0 0 0 0 0 0 0 0 0 0 0 0 0 0 0 0 0 0 0 0 0 0 0 0 0 0 0 0 0 0 0 0 0 0 0 0 0 0 0 0 0 0 0 0 0 0 0 0 0 0 0 0 0 0 0 0 0 0 0 0 0 0 0 0 0 0 0 0 0 0 0 0 0 0 0 0 0 0 0 0 0 0 0 0 0 0 0 0 0 0 0 0 0 0 0 0 0 0 0 0 0 0 0 0 0 0 0 0 0 0 0 0 0 0 0 0 0 0 0 0 0 0 0 0 0 0 0 0 0 0 0 0 0 0 0 0 0 0 1 0 0 20 14 18 25 16 21 30 21 26 36 27 32 43 34 39 49 40 45 54 45 50 57 48 53 67 58 63 68 59 64 71 62 67 74 65 70 77 68 73 81 72 77 83 74 79 86 73 80 98 78 89 101 77 90 104 80 93 107 83 96 110 86 99 114 90 103 116 92 105 117 93 106 113 89 102 113 89 102 113 89 102 113 89 102 113 89 102 113 89 102 113 89 102 113 89 102 120 98 111 120 98 111 120 98 111 120 98 111 120 98 111 120 98 111 120 98 111 120 98 111 121 99 112 121 99 112 121 99 112 121 99 112 121 99 112 121 99 112 121 99 112 121 99 112 120 98 110 120 98 110 120 98 110 120 98 110 120 98 110 120 98 110 120 98 110 120 98 110 120 98 110 120 98 110 120 98 110 120 98 110 120 98 110 120 98 110 120 98 110 120 98 110 118 94 107 118 94 107 118 94 107 118 94 107 118 94 107 118 94 107 118 94 107 118 94 107 102 78 91 101 77 90 98 74 87 95 71 84 92 68 81 88 64 77 86 62 75 83 63 72 43 28 33 41 31 32 41 31 32 43 33 34 44 34 35 45 35 36 46 36 37 47 37 38 42 32 33 42 32 33 42 32 33 42 32 33 42 32 33 42 32 33 42 32 33 41 32 33
0 0 0 0 0 0 0 0 0 0 0 0 0 0 0 0 0 0 0 0 0 0 0 0 0 0 0 0 0 0 0 0 0 0 0 0 0 0 0 0 0 0 0 0 0 0 0 0 0 0 0 0 0 0 0 0 0 0 0 0 0 0 0 0 0 0 0 0 0 0 0 0 0 0 0 0 0 0 0 0 0 0 0 0 0 0 0 0 0 0 0 0 0 0 0 0 0 0 0 0 0 0 0 0 0 0 0 0 0 0 0 0 0 0 0 0 0 0 0 0 0 0 0 0 0 0 0 0 0 0 0 0 0 0 0 0 0 0 0 0 0 0 0 0 0 0 0 0 0 0 0 0 0 0 0 0 0 0 0 0 0 0 0 0 0 0 0 0 0 0 0 0 0 0 0 0 0 0 0 0 0 0 0 0 0 0 0 0 0 0 0 0 0 0 0 0 0 0 0 0 0 0 0 0 0 0 0 0 0 0 0 0 0 0 0 0 2 2 2 5 5 5 8 8 8 10 8 9 33 27 31 36 27 32 38 29 34 42 33 38 45 36 41 48 39 44 51 42 47 52 43 48 66 57 62 67 58 63 69 60 65 73 64 69 76 67 72 79 70 75 82 73 78 85 72 79 107 87 98 109 85 98 109 85 98 109 85 98 109 85 98 109 85 98 109 85 98 109 85 98 118 94 107 118 94 107 118 94 107 118 94 107 118 94 107 118 94 107 118 94 107 118 94 107 119 97 110 119 97 110 119 97 110 119 97 110 119 97 110 119 97 110 119 97 110 119 97 110 121 99 112 121 99 112 121 99 112 121 99 112 121 99 112 121 99 112 121 99 112 121 99 112 119 97 109 119 97 109 119 97 109 119 97 109 119 97 109 119 97 109 119 97 109 119 97 109 115 93 105 115 93 105 115 93 105 115 93 105 115 93 105 115 93 105 115 93 105 115 93 105 123 99 112 122 98 111 120 96 109 116 92 105 113 89 102 110 86 99 107 83 96 106 82 95 113 89 102 108 84 97 100 76 89 89 65 78 78 54 67 67 43 56 58 34 47 52 32 41 43 28 33 40 30 31 40 30 31 40 30 31 40 30 31 40 30 31 40 30 31 40 30 31 40 30 31 40 30 31 40 30 31 40 30 31 40 30 31 40 30 31 40 30 31 39 30 31
0 0 0 0 0 0 0 0 0 0 0 0 0 0 0 0 0 0 0 0 0 0 0 0 0 0 0 0 0 0 0 0 0 0 0 0 0 0 0 0 0 0 0 0 0 0 0 0 0 0 0 0 0 0 0 0 0 0 0 0 0 0 0 0 0 0 0 0 0 0 0 0 0 0 0 0 0 0 0 0 0 0 0 0 0 0 0 0 0 0 0 0 0 0 0 0 0 0 0 0 0 0 0 0 0 0 0 0 0 0 0 0 0 0 0 0 0 0 0 0 0 0 0 0 0 0 0 0 0 0 0 0 0 0 0 0 0 0 0 0 0 0 0 0 0 0 0 0 0 0 0 0 0 0 0 0 0 0 0 0 0 0 0 0 0 0 0 0 0 0 0 0 0 0 0 0 0 0 0 0 0 0 0 0 0 0 0 0 0 0 0 0 0 0 0 0 0 0 0 0 0 0 0 0 0 0 0 0 0 0 0 0 0 0 0 0 3 3 3 7 7 7 9 9 9 11 9 10 34 28 32 37 28 33 40 31 36 43 34 39 46 37 42 50 41 46 52 43 48 53 44 49 67 58 63 68 59 64 71 62 67 74 65 70 77 68 73 81 72 77 83 74 79 86 73 80 107 87 98 109 85 98 109 85 98 109 85 98 109 85 98 109 85 98 109 85 98 109 85 98 118 94 107 118 94 107 118 94 107 118 94 107 118 94 107 118 94 107 118 94 107 118 94 107 119 97 110 119 97 110 119 97 110 119 97 110 119 97 110 119 97 110 119 97 110 119 97 110 121 99 112 121 99 112 121 99 112 121 99 112 121 99 112 121 99 112 121 99 112 121 99 112 119 97 109 119 97 109 119 97 109 119 97 109 119 97 109 119 97 109 119 97 109 119 97 109 115 93 105 115 93 105 115 93 105 115 93 105 115 93 105 115 93 105 115 93 105 115 93 105 122 98 111 121 97 110 118 94 107 115 91 104 112 88 101 108 84 97 106 82 95 105 81 94 108 84 97 104 80 93 96 72 85 86 62 75 75 51 64 65 41 54 57 33 46 51 31 40 43 28 33 40 30 31 40 30 31 40 30 31 40 30 31 40 30 31 40 30 31 40 30 31 40 30 31 40 30 31 40 30 31 40 30 31 40 30 31 40 30 31 40 30 31 39 30 31
0 0 0 0 0 0 0 0 0 0 0 0 0 0 0 0 0 0 0 0 0 0 0 0 0 0 0 0 0 0 0 0 0 0 0 0 0 0 0 0 0 0 0 0 0 0 0 0 0 0 0 0 0 0 0 0 0 0 0 0 0 0 0 0 0 0 0 0 0 0 0 0 0 0 0 0 0 0 0 0 0 0 0 0 0 0 0 0 0 0 0 0 0 0 0 0 0 0 0 0 0 0 0 0 0 0 0 0 0 0 0 0 0 0 0 0 0 0 0 0 0 0 0 0 0 0 0 0 0 0 0 0 0 0 0 0 0 0 0 0 0 0 0 0 0 0 0 0 0 0 0 0 0 0 0 0 0 0 0 0 0 0 0 0 0 0 0 0 0 0 0 0 0 0 0 0 0 0 0 0 0 0 0 0 0 0 0 0 0 0 0 0 0 0 0 0 0 0 0 0 0 0 0 0 0 0 0 0 0 0 0 0 0 2 2 2 6 6 6 9 9 9 11 11 11 14 12 13 36 30 34 40 31 36 42 33 38 45 36 41 49 40 45 52 43 48 54 45 50 56 47 52 69 60 65 71 62 67 73 64 69 76 67 72 80 71 76 83 74 79 85 76 81 89 76 83 107 87 98 109 85 98 109 85 98 109 85 98 109 85 98 109 85 98 109 85 98 109 85 98 118 94 107 118 94 107 118 94 107 118 94 107 118 94 107 118 94 107 118 94 107 118 94 107 119 97 110 119 97 110 119 97 110 119 97 110 119 97 110 119 97 110 119 97 110 119 97 110 121 99 112 121 99 112 121 99 112 121 99 112 121 99 112 121 99 112 121 99 112 121 99 112 119 97 109 119 97 109 119 97 109 119 97 109 119 97 109 119 97 109 119 97 109 119 97 109 115 93 105 115 93 105 115 93 105 115 93 105 115 93 105 115 93 105 115 93 105 115 93 105 120 96 109 118 94 107 116 92 105 113 89 102 109 85 98 106 82 95 104 80 93 102 78 91 100 76 89 96 72 85 89 65 78 81 57 70 71 47 60 62 38 51 55 31 44 50 30 39 43 28 33 40 30 31 40 30 31 40 30 31 40 30 31 40 30 31 40 30 31 40 30 31 40 30 31 40 30 31 40 30 31 40 30 31 40 30 31 40 30 31 40 30 31 39 30 31
0 0 0 0 0 0 0 0 0 0 0 0 0 0 0 0 0 0 0 0 0 0 0 0 0 0 0 0 0 0 0 0 0 0 0 0 0 0 0 0 0 0 0 0 0 0 0 0 0 0 0 0 0 0 0 0 0 0 0 0 0 0 0 0 0 0 0 0 0 0 0 0 0 0 0 0 0 0 0 0 0 0 0 0 0 0 0 0 0 0 0 0 0 0 0 0 0 0 0 0 0 0 0 0 0 0 0 0 0 0 0 0 0 0 0 0 0 0 0 0 0 0 0 0 0 0 0 0 0 0 0 0 0 0 0 0 0 0 0 0 0 0 0 0 0 0 0 0 0 0 0 0 0 0 0 0 0 0 0 0 0 0 0 0 0 0 0 0 0 0 0 0 0 0 0 0 0 0 0 0 0 0 0 0 0 0 0 0 0 0 0 0 0 0 0 0 0 0 0 0 0 0 0 0 0 0 0 0 0 0 2 2 2 6 6 6 9 9 9 12 12 12 15 15 15 17 15 16 40 34 38 43 34 39 45 36 41 49 40 45 52 43 48 55 46 51 58 49 54 59 50 55 73 64 69 74 65 70 76 67 72 80 71 76 83 74 79 86 77 82 89 80 85 92 79 86 107 87 98 109 85 98 109 85 98 109 85 98 109 85 98 109 85 98 109 85 98 109 85 98 118 94 107 118 94 107 118 94 107 118 94 107 118 94 107 118 94 107 118 94 107 118 94 107 119 97 110 119 97 110 119 97 110 119 97 110 119 97 110 119 97 110 119 97 110 119 97 110 121 99 112 121 99 112 121 99 112 121 99 112 121 99 112 121 99 112 121 99 112 121 99 112 119 97 109 119 97 109 119 97 109 119 97 109 119 97 109 119 97 109 119 97 109 119 97 109 115 93 105 115 93 105 115 93 105 115 93 105 115 93 105 115 93 105 115 93 105 115 93 105 116 92 105 115 91 104 113 89 102 109 85 98 106 82 95 103 79 92 100 76 89 99 75 88 89 65 78 86 62 75 81 57 70 73 49 62 66 42 55 58 34 47 53 29 42 48 28 37 43 28 33 40 30 31 40 30 31 40 30 31 40 30 31 40 30 31 40 30 31 40 30 31 40 30 31 40 30 31 40 30 31 40 30 31 40 30 31 40 30 31 40 30 31 39 30 31
0 0 0 0 0 0 0 0 0 0 0 0 0 0 0 0 0 0 0 0 0 0 0 0 0 0 0 0 0 0 0 0 0 0 0 0 0 0 0 0 0 0 0 0 0 0 0 0 0 0 0 0 0 0 0 0 0 0 0 0 0 0 0 0 0 0 0 0 0 0 0 0 0 0 0 0 0 0 0 0 0 0 0 0 0 0 0 0 0 0 0 0 0 0 0 0 0 0 0 0 0 0 0 0 0 0 0 0 0 0 0 0 0 0 0 0 0 0 0 0 0 0 0 0 0 0 0 0 0 0 0 0 0 0 0 0 0 0 0 0 0 0 0 0 0 0 0 0 0 0 0 0 0 0 0 0 0 0 0 0 0 0 0 0 0 0 0 0 0 0 0 0 0 0 0 0 0 0 0 0 0 0 0 0 0 0 0 0 0 0 0 0 0 0 0 0 0 0 0 0 0 0 0 0 2 2 2 3 3 3 6 6 6 9 9 9 12 12 12 16 16 16 18 18 18 20 18 19 43 37 41 46 37 42 49 40 45 52 43 48 55 46 51 59 50 55 61 52 57 62 53 58 76 67 72 77 68 73 80 71 76 83 74 79 86 77 82 90 81 86 92 83 88 95 82 89 107 87 98 109 85 98 109 85 98 109 85 98 109 85 98 109 85 98 109 85 98 109 85 98 118 94 107 118 94 107 118 94 107 118 94 107 118 94 107 118 94 107 118 94 107 118 94 107 119 97 110 119 97 110 119 97 110 119 97 110 119 97 110 119 97 110 119 97 110 119 97 110 121 99 112 121 99 112 121 99 112 121 99 112 121 99 112 121 99 112 121 99 112 121 99 112 119 97 109 119 97 109 119 97 109 119 97 109 119 97 109 119 97 109 119 97 109 119 97 109 115 93 105 115 93 105 115 93 105 115 93 105 115 93 105 115 93 105 115 93 105 115 93 105 113 89 102 112 88 101 109 85 98 106 82 95 103 79 92 99 75 88 97 73 86 96 72 85 78 54 67 75 51 64 71 47 60 66 42 55 60 36 49 54 30 43 50 26 39 46 26 35 43 28 33 40 30 31 40 30 31 40 30 31 40 30 31 40 30 31 40 30 31 40 30 31 40 30 31 40 30 31 40 30 31 40 30 31 40 30 31 40 30 31 40 30 31 39 30 31
0 0 0 0 0 0 0 0 0 0 0 0 0 0 0 0 0 0 0 0 0 0 0 0 0 0 0 0 0 0 0 0 0 0 0 0 0 0 0 0 0 0 0 0 0 0 0 0 0 0 0 0 0 0 0 0 0 0 0 0 0 0 0 0 0 0 0 0 0 0 0 0 0 0 0 0 0 0 0 0 0 0 0 0 0 0 0 0 0 0 0 0 0 0 0 0 0 0 0 0 0 0 0 0 0 0 0 0 0 0 0 0 0 0 0 0 0 0 0 0 0 0 0 0 0 0 0 0 0 0 0 0 0 0 0 0 0 0 0 0 0 0 0 0 0 0 0 0 0 0 0 0 0 0 0 0 0 0 0 0 0 0 0 0 0 0 0 0 0 0 0 0 0 0 0 0 0 0 0 0 0 0 0 0 0 0 0 0 0 0 0 0 0 0 0 0 0 0 0 0 0 0 0 0 5 5 5 7 7 7 9 9 9 12 12 12 16 16 16 19 19 19 21 21 21 24 22 23 46 40 44 50 41 46 52 43 48 55 46 51 59 50 55 62 53 58 64 55 60 66 57 62 79 70 75 81 72 77 83 74 79 86 77 82 90 81 86 93 84 89 95 86 91 99 86 93 107 87 98 109 85 98 109 85 98 109 85 98 109 85 98 109 85 98 109 85 98 109 85 98 118 94 107 118 94 107 118 94 107 118 94 107 118 94 107 118 94 107 118 94 107 118 94 107 119 97 110 119 97 110 119 97 110 119 97 110 119 97 110 119 97 110 119 97 110 119 97 110 121 99 112 121 99 112 121 99 112 121 99 112 121 99 112 121 99 112 121 99 112 121 99 112 119 97 109 119 97 109 119 97 109 119 97 109 119 97 109 119 97 109 119 97 109 119 97 109 115 93 105 115 93 105 115 93 105 115 93 105 115 93 105 115 93 105 115 93 105 115 93 105 110 86 99 108 84 97 106 82 95 103 79 92 99 75 88 96 72 85 94 70 83 92 68 81 67 43 56 65 41 54 62 38 51 58 34 47 54 30 43 50 26 39 47 23 36 44 24 33 43 28 33 40 30 31 40 30 31 40 30 31 40 30 31 40 30 31 40 30 31 40 30 31 40 30 31 40 30 31 40 30 31 40 30 31 40 30 31 40 30 31 40 30 31 39 30 31
0 0 0 0 0 0 0 0 0 0 0 0 0 0 0 0 0 0 0 0 0 0 0 0 0 0 0 0 0 0 0 0 0 0 0 0 0 0 0 0 0 0 0 0 0 0 0 0 0 0 0 0 0 0 0 0 0 0 0 0 0 0 0 0 0 0 0 0 0 0 0 0 0 0 0 0 0 0 0 0 0 0 0 0 0 0 0 0 0 0 0 0 0 0 0 0 0 0 0 0 0 0 0 0 0 0 0 0 0 0 0 0 0 0 0 0 0 0 0 0 0 0 0 0 0 0 0 0 0 0 0 0 0 0 0 0 0 0 0 0 0 0 0 0 0 0 0 0 0 0 0 0 0 0 0 0 0 0 0 0 0 0 0 0 0 0 0 0 0 0 0 0 0 0 0 0 0 0 0 0 0 0 0 0 0 0 0 0 0 0 0 0 0 0 0 0 0 0 0 0 0 0 0 0 8 8 8 9 9 9 11 11 11 15 15 15 18 18 18 21 21 21 24 24 24 26 24 25 49 43 47 52 43 48 54 45 50 58 49 54 61 52 57 64 55 60 67 58 63 68 59 64 82 73 78 83 74 79 85 76 81 89 80 85 92 83 88 95 86 91 98 89 94 101 88 95 107 87 98 109 85 98 109 85 98 109 85 98 109 85 98 109 85 98 109 85 98 109 85 98 118 94 107 118 94 107 118 94 107 118 94 107 118 94 107 118 94 107 118 94 107 118 94 107 119 97 110 119 97 110 119 97 110 119 97 110 119 97 110 119 97 110 119 97 110 119 97 110 121 99 112 121 99 112 121 99 112 121 99 112 121 99 112 121 99 112 121 99 112 121 99 112 119 97 109 119 97 109 119 97 109 119 97 109 119 97 109 119 97 109 119 97 109 119 97 109 115 93 105 115 93 105 115 93 105 115 93 105 115 93 105 115 93 105 115 93 105 115 93 105 107 83 96 106 82 95 104 80 93 100 76 89 97 73 86 94 70 83 91 67 80 90 66 79 58 34 47 57 33 46 55 31 44 53 29 42 50 26 39 47 23 36 45 21 34 42 22 31 43 28 33 40 30 31 40 30 31 40 30 31 40 30 31 40 30 31 40 30 31 40 30 31 40 30 31 40 30 31 40 30 31 40 30 31 40 30 31 40 30 31 40 30 31 39 30 31
0 0 0 0 0 0 0 0 0 0 0 0 0 0 0 0 0 0 0 0 0 0 0 0 0 0 0 0 0 0 0 0 0 0 0 0 0 0 0 0 0 0 0 0 0 0 0 0 0 0 0 0 0 0 0 0 0 0 0 0 0 0 0 0 0 0 0 0 0 0 0 0 0 0 0 0 0 0 0 0 0 0 0 0 0 0 0 0 0 0 0 0 0 0 0 0 0 0 0 0 0 0 0 0 0 0 0 0 0 0 0 0 0 0 0 0 0 0 0 0 0 0 0 0 0 0 0 0 0 0 0 0 0 0 0 0 0 0 0 0 0 0 0 0 0 0 0 0 0 0 0 0 0 0 0 0 0 0 0 0 0 0 0 0 0 0 0 0 0 0 0 0 0 0 0 0 0 0 0 0 0 0 0 0 0 0 1 0 0 0 0 0 1 0 0 0 0 0 1 0 0 0 0 0 10 8 9 10 10 10 14 12 13 16 16 16 20 18 19 23 23 23 26 24 25 29 25 26 52 43 48 55 42 49 58 45 52 61 48 55 64 51 58 68 55 62 70 57 64 71 58 65 85 72 79 86 73 80 89 76 83 92 79 86 95 82 89 99 86 93 101 88 95 104 89 96 108 86 98 109 85 98 109 85 98 109 85 98 109 85 98 109 85 98 109 85 98 109 85 98 118 94 107 118 94 107 118 94 107 118 94 107 118 94 107 118 94 107 118 94 107 118 94 107 119 97 110 119 97 110 119 97 110 119 97 110 119 97 110 119 97 110 119 97 110 119 97 110 121 99 112 121 99 112 121 99 112 121 99 112 121 99 112 121 99 112 121 99 112 121 99 111 119 97 109 119 97 109 119 97 109 119 97 109 119 97 109 119 97 109 119 97 109 119 97 109 115 93 105 115 93 105 115 93 105 115 93 105 115 93 105 115 93 105 115 93 105 115 93 105 105 83 95 104 83 92 101 79 91 98 77 86 95 73 85 91 70 79 89 67 79 88 67 76 53 31 43 52 31 40 51 29 41 49 28 37 47 25 37 45 24 33 43 21 33 41 21 30 41 29 31 40 30 31 40 30 31 40 30 31 40 30 31 40 30 31 40 30 31 40 30 31 40 30 31 40 30 31 40 30 31 40 30 31 40 30 31 40 30 31 40 30 31 40 30 31
0 0 0 0 0 0 0 0 0 0 0 0 0 0 0 0 0 0 0 0 0 0 0 0 0 0 0 0 0 0 0 0 0 0 0 0 0 0 0 0 0 0 0 0 0 0 0 0 0 0 0 0 0 0 0 0 0 0 0 0 0 0 0 0 0 0 0 0 0 0 0 0 0 0 0 0 0 0 0 0 0 0 0 0 0 0 0 0 0 0 0 0 0 0 0 0 0 0 0 0 0 0 0 0 0 0 0 0 0 0 0 0 0 0 0 0 0 0 0 0 0 0 0 0 0 0 0 0 0 0 0 0 0 0 0 0 0 0 0 0 0 0 0 0 0 0 0 0 0 0 0 0 0 0 0 0 0 0 0 0 0 0 0 0 0 0 0 0 0 0 0 0 0 0 0 0 0 0 0 0 2 1 0 2 1 0 4 0 0 2 1 0 4 0 0 2 1 0 4 0 0 2 1 0 10 6 5 11 10 8 18 14 13 22 21 19 31 27 26 35 34 32 42 38 37 46 40 40 61 46 51 65 46 52 67 48 54 71 52 58 74 55 61 77 58 64 80 61 67 81 62 68 100 81 87 100 81 87 100 81 87 100 81 87 100 81 87 100 81 87 100 81 87 101 80 87 116 93 103 116 93 103 116 93 103 116 93 103 116 93 103 116 93 103 116 93 103 116 93 103 120 97 107 120 97 107 120 97 107 120 97 107 120 97 107 120 97 107 120 97 107 120 97 107 119 95 108 119 95 108 119 95 108 119 95 108 119 95 108 119 95 108 119 95 108 119 95 108 120 96 109 120 96 109 120 96 109 120 96 109 120 96 109 120 96 109 120 96 109 120 96 109 117 93 106 117 94 104 117 94 104 117 94 104 117 94 104 117 94 104 117 94 104 117 94 104 126 103 113 125 102 112 123 100 110 119 96 106 116 93 103 113 90 100 110 87 97 108 87 96 103 86 94 99 84 89 94 79 86 88 73 78 81 66 73 75 60 65 70 55 62 67 52 57 44 29 36 44 29 34 44 29 36 44 29 34 44 29 36 44 29 34 44 29 36 44 29 34 39 27 29 39 27 27 39 27 27 39 27 27 39 27 27 39 27 27 39 27 27 39 27 27 40 28 28 40 28 28 40 28 28 40 28 28 40 28 28 40 28 28 40 28 28 39 29 28
0 0 0 0 0 0 0 0 0 0 0 0 0 0 0 0 0 0 0 0 0 0 0 0 0 0 0 0 0 0 0 0 0 0 0 0 0 0 0 0 0 0 0 0 0 0 0 0 0 0 0 0 0 0 0 0 0 0 0 0 0 0 0 0 0 0 0 0 0 0 0 0 0 0 0 0 0 0 0 0 0 0 0 0 0 0 0 0 0 0 0 0 0 0 0 0 0 0 0 0 0 0 0 0 0 0 0 0 0 0 0 0 0 0 0 0 0 0 0 0 0 0 0 0 0 0 0 0 0 0 0 0 0 0 0 0 0 0 0 0 0 0 0 0 0 0 0 0 0 0 0 0 0 0 0 0 0 0 0 0 0 0 0 0 0 0 0 0 0 0 0 0 0 0 0 0 0 0 0 0 4 0 0 4 0 0 4 0 0 4 0 0 4 0 0 4 0 0 4 0 0 4 0 0 11 7 6 14 10 9 19 15 14 25 21 20 32 28 27 38 34 33 43 39 38 49 40 41 65 46 52 68 45 53 71 48 56 74 51 59 77 54 62 81 58 66 83 60 68 84 61 69 102 79 87 102 79 87 102 79 87 102 79 87 102 79 87 102 79 87 102 79 87 102 79 87 116 93 103 116 93 103 116 93 103 116 93 103 116 93 103 116 93 103 116 93 103 116 93 103 120 97 107 120 97 107 120 97 107 120 97 107 120 97 107 120 97 107 120 97 107 120 97 107 119 95 108 119 95 108 119 95 108 119 95 108 119 95 108 119 95 108 119 95 108 119 95 108 120 96 109 120 96 109 120 96 109 120 96 109 120 96 109 120 96 109 120 96 109 120 96 109 117 94 104 117 94 104 117 94 104 117 94 104 117 94 104 117 94 104 117 94 104 117 94 104 125 102 112 124 101 111 121 98 108 118 95 105 115 92 102 111 88 98 109 86 96 107 86 95 99 84 89 94 82 86 90 78 82 83 71 75 76 64 68 70 58 62 65 53 57 62 50 54 42 30 34 42 30 34 42 30 34 42 30 34 42 30 34 42 30 34 42 30 34 42 30 32 39 27 29 39 27 27 39 27 27 39 27 27 39 27 27 39 27 27 39 27 27 39 27 27 40 28 28 40 28 28 40 28 28 40 28 28 40 28 28 40 28 28 40 28 28 39 29 28
0 0 0 0 0 0 0 0 0 0 0 0 0 0 0 0 0 0 0 0 0 0 0 0 0 0 0 0 0 0 0 0 0 0 0 0 0 0 0 0 0 0 0 0 0 0 0 0 0 0 0 0 0 0 0 0 0 0 0 0 0 0 0 0 0 0 0 0 0 0 0 0 0 0 0 0 0 0 0 0 0 0 0 0 0 0 0 0 0 0 0 0 0 0 0 0 0 0 0 0 0 0 0 0 0 0 0 0 0 0 0 0 0 0 0 0 0 0 0 0 0 0 0 0 0 0 0 0 0 0 0 0 0 0 0 0 0 0 0 0 0 0 0 0 0 0 0 0 0 0 0 0 0 0 0 0 0 0 0 0 0 0 0 0 0 0 0 0 0 0 0 0 0 0 0 0 0 0 0 0 4 0 0 4 0 0 4 0 0 4 0 0 4 0 0 4 0 0 4 0 0 4 0 0 14 10 9 16 12 11 21 17 16 28 24 23 35 31 30 41 37 36 46 42 41 51 42 43 67 48 54 71 48 56 73 50 58 76 53 61 80 57 65 83 60 68 85 62 70 87 64 72 102 79 87 102 79 87 102 79 87 102 79 87 102 79 87 102 79 87 102 79 87 102 79 87 116 93 103 116 93 103 116 93 103 116 93 103 116 93 103 116 93 103 116 93 103 116 93 103 120 97 107 120 97 107 120 97 107 120 97 107 120 97 107 120 97 107 120 97 107 120 97 107 119 95 108 119 95 108 119 95 108 119 95 108 119 95 108 119 95 108 119 95 108 119 95 108 120 96 109 120 96 109 120 96 109 120 96 109 120 96 109 120 96 109 120 96 109 120 96 109 117 94 104 117 94 104 117 94 104 117 94 104 117 94 104 117 94 104 117 94 104 117 94 104 123 100 110 121 98 108 119 96 106 116 93 103 112 89 99 109 86 96 107 84 94 104 83 92 94 79 84 90 78 82 85 73 77 78 66 70 71 59 63 65 53 57 60 48 52 57 45 49 42 30 34 42 30 34 42 30 34 42 30 34 42 30 34 42 30 34 42 30 34 42 30 32 39 27 29 39 27 27 39 27 27 39 27 27 39 27 27 39 27 27 39 27 27 39 27 27 40 28 28 40 28 28 40 28 28 40 28 28 40 28 28 40 28 28 40 28 28 39 29 28
