P3
172 37
255
0 9 0 0 9 0 0 9 0 0 9 0 2 26 13 6 30 17 13 37 24 23 47 34 33 57 44 42 66 53 50 74 61 59 75 65 83 80 75 91 80 78 98 84 83 102 91 89 111 97 96 115 104 102 122 108 107 123 112 110 133 119 118 131 120 118 133 119 118 131 120 118 133 119 118 131 120 118 133 119 118 133 119 116 131 116 113 132 114 110 130 112 108 126 108 104 123 105 101 120 102 98 117 99 95 116 98 94 97 79 75 97 79 75 97 79 75 97 79 75 97 79 75 97 79 75 97 79 75 97 79 75 90 75 70 90 77 71 92 79 73 96 83 77 99 86 80 102 89 83 105 92 86 106 93 87 119 106 100 122 109 103 127 114 108 133 120 114 140 127 121 146 133 127 151 138 132 154 141 135 163 152 148 163 152 148 163 152 148 163 152 148 163 152 148 163 152 148 163 152 148 163 152 148 141 130 126 135 124 120 123 112 108 107 96 92 89 78 74 73 62 58 61 50 46 54 44 42 36 27 28 34 28 30 34 28 30 34 28 30 34 28 30 34 28 30 34 28 30 34 28 30 21 15 17 21 15 17 22 16 18 22 16 18 23 17 19 24 18 20 24 18 20 21 20 18 9 15 11 8 19 11 10 21 13 13 24 16 17 28 20 20 31 23 22 33 25 24 35 27 3 14 6 3 14 6 3 14 6 3 14 6 3 14 6 3 14 6 3 14 6 0 16 6 0 22 9 0 23 9 0 23 9 0 23 9 0 23 9 0 23 9 0 23 9 0 23 9 4 32 18 6 34 20 11 39 25 18 46 32 24 52 38 31 59 45 36 64 50 38 66 52 44 71 56 45 72 57 48 75 60 51 78 63 54 81 66 58 85 70 60 87 72 61 88 73 67 94 79 73 100 85 81 108 93 86 113 98 86 113 98 81 108 93 73 100 85 71 91 79 59 69 60 57 60 53 47 50 43 38 41 34 35 38 31 37 40 33 43 46 39 47 50 43 41 44 37 41 44 37 41 44 37 41 44 37 41 44 37 41 44 37 41 44 37 42 43 37 45 37 35 46 36 35 47 35 35 46 36 35 47 35 35 46 36 35 47 35 35 46 36 35 50 38 38 49 39 38 50 38 38 49 39 38 50 38 38 49 39 38 50 38 38 45 41 38
0 7 0 0 7 0 0 7 0 0 7 0 6 26 17 10 30 19 18 38 29 27 47 36 38 58 49 47 67 56 54 74 65 64 75 67 88 78 76 97 79 79 102 84 84 108 90 90 115 97 97 121 103 103 126 108 108 129 111 111 136 118 118 136 118 118 136 118 118 136 118 118 136 118 118 136 118 118 136 118 118 136 118 118 130 115 112 128 114 111 125 111 108 122 108 105 119 105 102 115 101 98 113 99 96 112 98 95 92 78 75 92 78 75 92 78 75 92 78 75 92 78 75 92 78 75 92 78 75 92 78 75 87 72 69 88 73 70 91 76 73 94 79 76 97 82 79 101 86 83 103 88 85 104 89 86 119 104 101 122 107 104 127 112 109 133 118 115 140 125 122 146 131 128 151 136 133 153 139 136 162 152 150 161 153 150 162 152 150 161 153 150 162 152 150 161 153 150 162 152 150 161 153 150 140 130 128 133 125 122 122 112 110 105 97 94 88 78 76 71 63 60 60 50 48 51 46 43 29 27 28 28 28 28 28 28 30 28 28 28 28 28 30 28 28 28 28 28 30 28 28 28 14 14 16 15 15 15 15 15 17 17 17 17 18 18 20 19 19 19 20 20 22 20 22 21 9 15 11 8 19 11 11 20 15 13 24 16 18 27 22 20 31 23 23 32 27 24 35 27 4 13 8 3 14 6 4 13 8 3 14 6 4 13 8 3 14 6 4 13 8 0 16 6 0 22 9 0 23 9 0 23 9 0 23 9 0 23 9 0 23 9 0 23 9 0 23 9 4 32 18 6 34 20 11 39 25 18 46 32 24 52 38 31 59 45 36 64 50 38 66 52 43 69 56 44 71 56 46 73 58 50 77 62 53 80 65 56 83 68 59 86 71 60 87 72 66 93 78 71 98 83 79 106 91 85 112 97 85 112 97 79 106 91 71 98 83 69 91 78 58 70 60 54 61 53 44 51 43 35 42 34 32 39 31 34 41 33 40 47 39 44 51 43 38 45 37 38 45 37 38 45 37 38 45 37 38 45 37 38 45 37 38 45 37 41 44 37 43 38 35 46 36 35 46 36 35 46 36 35 46 36 35 46 36 35 46 36 35 46 36 35 49 39 38 49 39 38 49 39 38 49 39 38 49 39 38 49 39 38 49 39 38 43 42 38
7 7 7 10 10 8 12 12 12 14 14 12 34 34 34 36 36 34 41 41 41 48 48 46 54 54 54 61 61 59 66 66 66 72 66 66 91 72 74 98 73 76 104 79 82 112 87 90 120 95 98 128 103 106 134 109 112 137 112 115 148 123 126 147 122 125 144 119 122 141 116 119 138 113 116 134 109 112 132 107 110 129 107 109 112 92 93 111 91 92 108 88 89 105 85 86 102 82 83 98 78 79 96 76 77 95 75 76 86 66 67 86 66 67 86 66 67 86 66 67 86 66 67 86 66 67 86 66 67 86 66 67 98 79 81 98 79 81 98 79 81 98 79 81 98 79 81 98 79 81 98 79 81 98 79 81 110 91 93 113 94 96 118 99 101 124 105 107 131 112 114 137 118 120 142 123 125 145 126 128 144 128 129 145 131 131 148 132 133 150 136 136 155 139 140 157 143 143 160 144 145 161 147 147 150 134 135 148 134 134 145 129 130 133 119 119 117 101 102 94 80 80 75 59 60 59 49 50 32 30 33 30 31 33 30 31 35 30 31 33 30 31 35 30 31 33 30 31 35 30 31 33 22 23 27 22 23 25 22 23 27 22 23 25 22 23 27 22 23 25 22 23 27 22 23 25 0 5 3 0 8 3 5 11 9 7 16 11 14 20 18 16 25 20 22 28 26 21 30 25 5 11 9 3 12 7 5 11 9 3 12 7 5 11 9 3 12 7 5 11 9 3 12 7 0 13 6 0 13 6 0 13 6 0 13 6 0 13 6 0 13 6 0 13 6 0 13 6 18 31 24 20 33 26 22 35 28 25 38 31 29 42 35 32 45 38 34 47 40 36 49 40 56 67 59 57 68 60 60 71 63 63 74 66 66 77 69 70 81 73 72 83 75 73 84 76 80 91 83 80 91 83 80 91 83 80 91 83 80 91 83 80 91 83 80 91 83 81 91 83 66 69 62 60 61 55 50 51 45 41 42 36 38 39 33 40 41 35 46 47 41 50 51 45 41 42 36 41 42 36 41 42 36 41 42 36 41 42 36 41 42 36 41 42 36 41 42 36 42 39 34 42 39 34 42 39 34 42 39 34 42 39 34 42 39 34 42 39 34 42 39 34 40 37 32 40 37 32 40 37 32 40 37 32 40 37 32 40 37 32 40 37 32 38 37 32
14 3 7 17 6 10 19 8 12 21 10 14 41 30 34 43 32 36 48 37 41 55 44 48 61 50 54 68 57 61 73 62 66 78 63 66 95 73 76 101 75 78 106 80 83 113 87 90 121 95 98 128 102 105 133 107 110 136 110 113 146 120 123 145 119 122 143 117 120 139 113 116 136 110 113 133 107 110 130 104 107 128 103 106 112 87 91 109 87 90 107 85 88 103 81 84 100 78 81 97 75 78 94 72 75 93 71 74 85 63 66 85 63 66 85 63 66 85 63 66 85 63 66 85 63 66 85 63 66 85 63 66 97 76 81 97 76 81 97 76 81 97 76 81 97 76 81 97 76 81 97 76 81 97 76 81 108 87 92 111 90 95 116 95 100 122 101 106 129 108 113 136 115 120 140 119 124 143 122 127 146 127 131 148 129 133 150 131 135 153 134 138 157 138 142 160 141 145 162 143 147 164 145 149 152 133 137 151 132 136 147 128 132 136 117 121 119 100 104 97 78 82 77 58 62 60 48 52 34 29 33 30 31 35 30 31 35 30 31 35 30 31 35 30 31 35 30 31 35 30 31 35 22 23 27 22 23 27 22 23 27 22 23 27 22 23 27 22 23 27 22 23 27 20 24 25 3 7 8 4 10 8 7 13 11 11 17 15 15 21 19 18 24 22 21 27 25 23 29 27 5 11 9 5 11 9 5 11 9 5 11 9 5 11 9 5 11 9 5 11 9 5 11 9 4 10 6 4 10 6 4 10 6 4 10 6 4 10 6 4 10 6 4 10 6 4 10 6 22 28 24 24 30 26 26 32 28 29 35 31 33 39 35 36 42 38 38 44 40 40 46 42 59 64 58 60 65 59 62 67 61 66 71 65 69 74 68 72 77 71 75 80 74 76 81 75 82 87 81 82 87 81 82 87 81 82 87 81 82 87 81 82 87 81 82 87 81 84 86 81 67 68 62 61 60 55 51 50 45 42 41 36 39 38 33 41 40 35 47 46 41 51 50 45 42 41 36 42 41 36 42 41 36 42 41 36 42 41 36 42 41 36 42 41 36 42 41 36 40 39 34 40 39 34 40 39 34 40 39 34 40 39 34 40 39 34 40 39 34 40 39 34 38 37 32 38 37 32 38 37 32 38 37 32 38 37 32 38 37 32 38 37 32 38 37 32
14 3 7 17 6 10 19 8 12 21 10 14 41 30 34 43 32 36 48 37 41 55 44 48 61 50 54 68 57 61 73 62 66 78 63 66 99 77 80 104 78 81 108 82 85 114 88 91 120 94 97 126 100 103 130 104 107 132 106 109 141 115 118 140 114 117 138 112 115 135 109 112 131 105 108 128 102 105 125 99 102 123 98 101 107 82 86 104 82 85 102 80 83 99 77 80 95 73 76 92 70 73 89 67 70 88 66 69 83 61 64 83 61 64 83 61 64 83 61 64 83 61 64 83 61 64 83 61 64 83 61 64 95 74 79 95 74 79 95 74 79 95 74 79 95 74 79 95 74 79 95 74 79 95 74 79 103 82 87 106 85 90 111 90 95 117 96 101 124 103 108 131 110 115 136 115 120 138 117 122 146 127 131 148 129 133 150 131 135 153 134 138 157 138 142 160 141 145 162 143 147 164 145 149 152 133 137 151 132 136 147 128 132 136 117 121 119 100 104 97 78 82 77 58 62 60 48 52 34 29 33 30 31 35 30 31 35 30 31 35 30 31 35 30 31 35 30 31 35 30 31 35 22 23 27 22 23 27 22 23 27 22 23 27 22 23 27 22 23 27 22 23 27 20 24 25 9 13 14 9 15 13 11 17 15 14 20 18 16 22 20 19 25 23 21 27 25 22 28 26 5 11 9 5 11 9 5 11 9 5 11 9 5 11 9 5 11 9 5 11 9 5 11 9 4 10 6 4 10 6 4 10 6 4 10 6 4 10 6 4 10 6 4 10 6 4 10 6 22 28 24 24 30 26 26 32 28 29 35 31 33 39 35 36 42 38 38 44 40 40 46 42 56 61 55 58 63 57 60 65 59 63 68 62 67 72 66 70 75 69 72 77 71 74 79 73 80 85 79 80 85 79 80 85 79 80 85 79 80 85 79 80 85 79 80 85 79 82 84 79 67 68 62 61 60 55 51 50 45 42 41 36 39 38 33 41 40 35 47 46 41 51 50 45 42 41 36 42 41 36 42 41 36 42 41 36 42 41 36 42 41 36 42 41 36 42 41 36 40 39 34 40 39 34 40 39 34 40 39 34 40 39 34 40 39 34 40 39 34 40 39 34 38 37 32 38 37 32 38 37 32 38 37 32 38 37 32 38 37 32 38 37 32 38 37 32
14 3 7 17 6 10 19 8 12 21 10 14 41 30 34 43 32 36 48 37 41 55 44 48 61 50 54 68 57 61 73 62 66 78 63 66 103 81 84 108 82 85 111 85 88 115 89 92 119 93 96 123 97 100 126 100 103 128 102 105 135 109 112 134 108 111 131 105 108 128 102 105 125 99 102 122 96 99 119 93 96 117 92 95 101 76 80 98 76 79 95 73 76 92 70 73 89 67 70 86 64 67 83 61 64 82 60 63 80 58 61 80 58 61 80 58 61 80 58 61 80 58 61 80 58 61 80 58 61 80 58 61 92 71 76 92 71 76 92 71 76 92 71 76 92 71 76 92 71 76 92 71 76 92 71 76 97 76 81 100 79 84 105 84 89 111 90 95 118 97 102 124 103 108 129 108 113 132 111 116 146 127 131 148 129 133 150 131 135 153 134 138 157 138 142 160 141 145 162 143 147 164 145 149 152 133 137 151 132 136 147 128 132 136 117 121 119 100 104 97 78 82 77 58 62 60 48 52 34 29 33 30 31 35 30 31 35 30 31 35 30 31 35 30 31 35 30 31 35 30 31 35 22 23 27 22 23 27 22 23 27 22 23 27 22 23 27 22 23 27 22 23 27 20 24 25 17 21 22 16 22 20 17 23 21 18 24 22 19 25 23 20 26 24 20 26 24 21 27 25 5 11 9 5 11 9 5 11 9 5 11 9 5 11 9 5 11 9 5 11 9 5 11 9 4 10 6 4 10 6 4 10 6 4 10 6 4 10 6 4 10 6 4 10 6 4 10 6 22 28 24 24 30 26 26 32 28 29 35 31 33 39 35 36 42 38 38 44 40 40 46 42 53 58 52 54 59 53 57 62 56 60 65 59 63 68 62 67 72 66 69 74 68 70 75 69 77 82 76 77 82 76 77 82 76 77 82 76 77 82 76 77 82 76 77 82 76 79 81 76 67 68 62 61 60 55 51 50 45 42 41 36 39 38 33 41 40 35 47 46 41 51 50 45 42 41 36 42 41 36 42 41 36 42 41 36 42 41 36 42 41 36 42 41 36 42 41 36 40 39 34 40 39 34 40 39 34 40 39 34 40 39 34 40 39 34 40 39 34 40 39 34 38 37 32 38 37 32 38 37 32 38 37 32 38 37 32 38 37 32 38 37 32 38 37 32
14 3 7 17 6 10 19 8 12 21 10 14 41 30 34 43 32 36 48 37 41 55 44 48 61 50 54 68 57 61 73 62 66 78 63 66 108 86 89 112 86 89 113 87 90 116 90 93 118 92 95 121 95 98 122 96 99 123 97 100 128 102 105 127 101 104 124 98 101 121 95 98 118 92 95 115 89 92 112 86 89 110 85 88 94 69 73 91 69 72 88 66 69 85 63 66 82 60 63 79 57 60 76 54 57 75 53 56 76 54 57 76 54 57 76 54 57 76 54 57 76 54 57 76 54 57 76 54 57 76 54 57 88 67 72 88 67 72 88 67 72 88 67 72 88 67 72 88 67 72 88 67 72 88 67 72 90 69 74 93 72 77 98 77 82 104 83 88 111 90 95 117 96 101 122 101 106 125 104 109 146 127 131 148 129 133 150 131 135 153 134 138 157 138 142 160 141 145 162 143 147 164 145 149 152 133 137 151 132 136 147 128 132 136 117 121 119 100 104 97 78 82 77 58 62 60 48 52 34 29 33 30 31 35 30 31 35 30 31 35 30 31 35 30 31 35 30 31 35 30 31 35 22 23 27 22 23 27 22 23 27 22 23 27 22 23 27 22 23 27 22 23 27 20 24 25 25 29 30 24 30 28 23 29 27 22 28 26 21 27 25 20 26 24 20 26 24 19 25 23 5 11 9 5 11 9 5 11 9 5 11 9 5 11 9 5 11 9 5 11 9 5 11 9 4 10 6 4 10 6 4 10 6 4 10 6 4 10 6 4 10 6 4 10 6 4 10 6 22 28 24 24 30 26 26 32 28 29 35 31 33 39 35 36 42 38 38 44 40 40 46 42 50 55 49 51 56 50 53 58 52 57 62 56 60 65 59 63 68 62 66 71 65 67 72 66 73 78 72 73 78 72 73 78 72 73 78 72 73 78 72 73 78 72 73 78 72 75 77 72 67 68 62 61 60 55 51 50 45 42 41 36 39 38 33 41 40 35 47 46 41 51 50 45 42 41 36 42 41 36 42 41 36 42 41 36 42 41 36 42 41 36 42 41 36 42 41 36 40 39 34 40 39 34 40 39 34 40 39 34 40 39 34 40 39 34 40 39 34 40 39 34 38 37 32 38 37 32 38 37 32 38 37 32 38 37 32 38 37 32 38 37 32 38 37 32
14 3 7 17 6 10 19 8 12 21 10 14 41 30 34 43 32 36 48 37 41 55 44 48 61 50 54 68 57 61 73 62 66 78 63 66 112 90 93 115 89 92 116 90 93 117 91 94 117 91 94 118 92 95 119 93 96 119 93 96 122 96 99 121 95 98 118 92 95 115 89 92 111 85 88 108 82 85 106 80 83 104 79 82 88 63 67 85 63 66 82 60 63 79 57 60 75 53 56 72 50 53 70 48 51 69 47 50 73 51 54 73 51 54 73 51 54 73 51 54 73 51 54 73 51 54 73 51 54 73 51 54 85 64 69 85 64 69 85 64 69 85 64 69 85 64 69 85 64 69 85 64 69 85 64 69 84 63 68 86 65 70 91 70 75 98 77 82 105 84 89 111 90 95 116 95 100 119 98 103 146 127 131 148 129 133 150 131 135 153 134 138 157 138 142 160 141 145 162 143 147 164 145 149 152 133 137 151 132 136 147 128 132 136 117 121 119 100 104 97 78 82 77 58 62 60 48 52 34 29 33 30 31 35 30 31 35 30 31 35 30 31 35 30 31 35 30 31 35 30 31 35 22 23 27 22 23 27 22 23 27 22 23 27 22 23 27 22 23 27 22 23 27 20 24 25 33 37 38 31 37 35 29 35 33 26 32 30 24 30 28 21 27 25 19 25 23 18 24 22 5 11 9 5 11 9 5 11 9 5 11 9 5 11 9 5 11 9 5 11 9 5 11 9 4 10 6 4 10 6 4 10 6 4 10 6 4 10 6 4 10 6 4 10 6 4 10 6 22 28 24 24 30 26 26 32 28 29 35 31 33 39 35 36 42 38 38 44 40 40 46 42 46 51 45 48 53 47 50 55 49 53 58 52 57 62 56 60 65 59 62 67 61 64 69 63 70 75 69 70 75 69 70 75 69 70 75 69 70 75 69 70 75 69 70 75 69 72 74 69 67 68 62 61 60 55 51 50 45 42 41 36 39 38 33 41 40 35 47 46 41 51 50 45 42 41 36 42 41 36 42 41 36 42 41 36 42 41 36 42 41 36 42 41 36 42 41 36 40 39 34 40 39 34 40 39 34 40 39 34 40 39 34 40 39 34 40 39 34 40 39 34 38 37 32 38 37 32 38 37 32 38 37 32 38 37 32 38 37 32 38 37 32 38 37 32
14 3 7 17 6 10 19 8 12 21 10 14 41 30 34 43 32 36 48 37 41 55 44 48 61 50 54 68 57 61 73 62 66 78 63 66 116 94 97 118 92 95 118 92 95 117 91 94 117 91 94 116 90 93 116 90 93 115 89 92 117 91 94 116 90 93 113 87 90 110 84 87 107 81 84 103 77 80 101 75 78 99 74 77 83 58 62 80 58 61 77 55 58 74 52 55 71 49 52 67 45 48 65 43 46 64 42 45 71 49 52 71 49 52 71 49 52 71 49 52 71 49 52 71 49 52 71 49 52 71 49 52 83 62 67 83 62 67 83 62 67 83 62 67 83 62 67 83 62 67 83 62 67 83 62 67 79 58 63 82 61 66 86 65 70 93 72 77 100 79 84 106 85 90 111 90 95 114 93 98 146 127 131 148 129 133 150 131 135 153 134 138 157 138 142 160 141 145 162 143 147 164 145 149 152 133 137 151 132 136 147 128 132 136 117 121 119 100 104 97 78 82 77 58 62 60 48 52 34 29 33 30 31 35 30 31 35 30 31 35 30 31 35 30 31 35 30 31 35 30 31 35 22 23 27 22 23 27 22 23 27 22 23 27 22 23 27 22 23 27 22 23 27 20 24 25 39 43 44 36 42 40 33 39 37 29 35 33 25 31 29 22 28 26 19 25 23 17 23 21 5 11 9 5 11 9 5 11 9 5 11 9 5 11 9 5 11 9 5 11 9 5 11 9 4 10 6 4 10 6 4 10 6 4 10 6 4 10 6 4 10 6 4 10 6 4 10 6 22 28 24 24 30 26 26 32 28 29 35 31 33 39 35 36 42 38 38 44 40 40 46 42 44 49 43 45 50 44 48 53 47 51 56 50 54 59 53 58 63 57 60 65 59 61 66 60 68 73 67 68 73 67 68 73 67 68 73 67 68 73 67 68 73 67 68 73 67 70 72 67 67 68 62 61 60 55 51 50 45 42 41 36 39 38 33 41 40 35 47 46 41 51 50 45 42 41 36 42 41 36 42 41 36 42 41 36 42 41 36 42 41 36 42 41 36 42 41 36 40 39 34 40 39 34 40 39 34 40 39 34 40 39 34 40 39 34 40 39 34 40 39 34 38 37 32 38 37 32 38 37 32 38 37 32 38 37 32 38 37 32 38 37 32 38 37 32
14 3 7 17 6 10 19 8 12 21 10 14 41 30 34 43 32 36 48 37 41 55 44 48 61 50 54 68 57 61 73 62 66 78 63 66 117 95 98 120 94 97 119 93 96 118 92 95 116 90 93 115 89 92 114 88 91 114 88 91 114 88 91 113 87 90 111 85 88 107 81 84 104 78 81 101 75 78 98 72 75 96 71 74 80 55 59 77 55 58 75 53 56 71 49 52 68 46 49 65 43 46 62 40 43 61 39 42 69 47 50 69 47 50 69 47 50 69 47 50 69 47 50 69 47 50 69 47 50 69 47 50 81 60 65 81 60 65 81 60 65 81 60 65 81 60 65 81 60 65 81 60 65 81 60 65 76 55 60 79 58 63 84 63 68 90 69 74 97 76 81 103 82 87 108 87 92 111 90 95 146 127 131 148 129 133 150 131 135 153 134 138 157 138 142 160 141 145 162 143 147 164 145 149 152 133 137 151 132 136 147 128 132 136 117 121 119 100 104 97 78 82 77 58 62 60 48 52 34 29 33 30 31 35 30 31 35 30 31 35 30 31 35 30 31 35 30 31 35 30 31 35 22 23 27 22 23 27 22 23 27 22 23 27 22 23 27 22 23 27 22 23 27 20 24 25 42 46 47 39 45 43 35 41 39 31 37 35 26 32 30 22 28 26 18 24 22 17 23 21 5 11 9 5 11 9 5 11 9 5 11 9 5 11 9 5 11 9 5 11 9 5 11 9 4 10 6 4 10 6 4 10 6 4 10 6 4 10 6 4 10 6 4 10 6 4 10 6 22 28 24 24 30 26 26 32 28 29 35 31 33 39 35 36 42 38 38 44 40 40 46 42 43 48 42 44 49 43 46 51 45 50 55 49 53 58 52 56 61 55 59 64 58 60 65 59 66 71 65 66 71 65 66 71 65 66 71 65 66 71 65 66 71 65 66 71 65 68 70 65 67 68 62 61 60 55 51 50 45 42 41 36 39 38 33 41 40 35 47 46 41 51 50 45 42 41 36 42 41 36 42 41 36 42 41 36 42 41 36 42 41 36 42 41 36 42 41 36 40 39 34 40 39 34 40 39 34 40 39 34 40 39 34 40 39 34 40 39 34 40 39 34 38 37 32 38 37 32 38 37 32 38 37 32 38 37 32 38 37 32 38 37 32 38 37 32
22 11 15 28 17 21 33 22 26 36 25 29 47 36 40 49 38 42 54 43 47 61 50 54 67 56 60 74 63 67 79 68 72 84 69 72 106 84 87 109 83 86 109 83 86 109 83 86 109 83 86 109 83 86 109 83 86 109 83 86 110 84 87 109 83 86 107 81 84 103 77 80 100 74 77 97 71 74 94 68 71 92 67 70 88 63 67 83 61 64 77 55 58 69 47 50 61 39 42 53 31 34 47 25 28 44 22 25 49 27 30 49 27 30 49 27 30 49 27 30 49 27 30 49 27 30 49 27 30 49 27 30 58 37 42 58 37 42 58 37 42 58 37 42 58 37 42 58 37 42 58 37 42 58 37 42 50 29 34 54 33 38 61 40 45 70 49 54 81 60 65 90 69 74 98 77 82 102 81 86 143 124 128 145 126 130 147 128 132 150 131 135 154 135 139 157 138 142 159 140 144 161 142 146 160 141 145 160 141 145 158 139 143 149 130 134 134 115 119 114 95 99 96 77 81 79 67 71 49 44 48 38 39 43 28 29 33 19 20 24 16 17 21 18 19 23 24 25 29 28 29 33 19 20 24 20 21 25 22 23 27 26 27 31 29 30 34 32 33 37 35 36 40 34 38 39 40 44 45 37 43 41 35 41 39 32 38 36 28 34 32 25 31 29 23 29 27 21 27 25 7 13 11 7 13 11 7 13 11 7 13 11 7 13 11 7 13 11 7 13 11 7 13 11 5 11 7 5 11 7 5 11 7 5 11 7 5 11 7 5 11 7 5 11 7 5 11 7 16 22 18 18 24 20 20 26 22 23 29 25 27 33 29 30 36 32 32 38 34 34 40 36 55 60 54 55 60 54 55 60 54 55 60 54 55 60 54 55 60 54 55 60 54 55 60 54 63 68 62 63 68 62 63 68 62 63 68 62 63 68 62 63 68 62 63 68 62 65 67 62 49 50 44 48 47 42 46 45 40 43 42 37 39 38 33 36 35 30 34 33 28 32 31 26 35 34 29 35 34 29 35 34 29 35 34 29 35 34 29 35 34 29 35 34 29 35 34 29 35 34 29 35 34 29 35 34 29 35 34 29 35 34 29 35 34 29 35 34 29 35 34 29 38 37 32 38 37 32 38 37 32 38 37 32 38 37 32 38 37 32 38 37 32 38 37 32
23 12 16 29 18 22 34 23 27 37 26 30 47 36 40 49 38 42 54 43 47 61 50 54 67 56 60 74 63 67 79 68 72 84 69 72 104 82 85 107 81 84 107 81 84 107 81 84 107 81 84 107 81 84 107 81 84 107 81 84 109 83 86 108 82 85 105 79 82 102 76 79 99 73 76 95 69 72 93 67 70 91 66 69 86 61 65 81 59 62 76 54 57 69 47 50 61 39 42 54 32 35 49 27 30 46 24 27 51 29 32 51 29 32 51 29 32 51 29 32 51 29 32 51 29 32 51 29 32 51 29 32 55 34 39 55 34 39 55 34 39 55 34 39 55 34 39 55 34 39 55 34 39 55 34 39 52 31 36 56 35 40 64 43 48 73 52 57 83 62 67 93 72 77 100 79 84 104 83 88 143 124 128 145 126 130 147 128 132 150 131 135 154 135 139 157 138 142 159 140 144 161 142 146 159 140 144 159 140 144 156 137 141 149 130 134 134 115 119 115 96 100 97 78 82 81 69 73 49 44 48 38 39 43 28 29 33 19 20 24 16 17 21 18 19 23 24 25 29 28 29 33 20 21 25 21 22 26 24 25 29 27 28 32 30 31 35 34 35 39 36 37 41 35 39 40 40 44 45 37 43 41 35 41 39 32 38 36 28 34 32 25 31 29 23 29 27 21 27 25 7 13 11 7 13 11 7 13 11 7 13 11 7 13 11 7 13 11 7 13 11 7 13 11 5 11 7 5 11 7 5 11 7 5 11 7 5 11 7 5 11 7 5 11 7 5 11 7 16 22 18 18 24 20 20 26 22 23 29 25 27 33 29 30 36 32 32 38 34 34 40 36 53 58 52 53 58 52 53 58 52 53 58 52 53 58 52 53 58 52 53 58 52 53 58 52 61 66 60 61 66 60 61 66 60 61 66 60 61 66 60 61 66 60 61 66 60 63 65 60 49 50 44 48 47 42 46 45 40 43 42 37 39 38 33 36 35 30 34 33 28 32 31 26 35 34 29 35 34 29 35 34 29 35 34 29 35 34 29 35 34 29 35 34 29 35 34 29 35 34 29 35 34 29 35 34 29 35 34 29 35 34 29 35 34 29 35 34 29 35 34 29 38 37 32 38 37 32 38 37 32 38 37 32 38 37 32 38 37 32 38 37 32 38 37 32
26 15 19 32 21 25 37 26 30 39 28 32 47 36 40 49 38 42 54 43 47 61 50 54 67 56 60 74 63 67 79 68 72 84 69 72 102 80 83 105 79 82 105 79 82 105 79 82 105 79 82 105 79 82 105 79 82 105 79 82 107 81 84 105 79 82 103 77 80 100 74 77 96 70 73 93 67 70 91 65 68 88 63 66 82 57 61 78 56 59 74 52 55 68 46 49 62 40 43 56 34 37 52 30 33 50 28 31 53 31 34 53 31 34 53 31 34 53 31 34 53 31 34 53 31 34 53 31 34 53 31 34 52 31 36 52 31 36 52 31 36 52 31 36 52 31 36 52 31 36 52 31 36 52 31 36 57 36 41 61 40 45 68 47 52 78 57 62 88 67 72 98 77 82 105 84 89 109 88 93 143 124 128 145 126 130 147 128 132 150 131 135 154 135 139 157 138 142 159 140 144 161 142 146 155 136 140 156 137 141 155 136 140 148 129 133 135 116 120 117 98 102 100 81 85 85 73 77 49 44 48 38 39 43 28 29 33 19 20 24 16 17 21 18 19 23 24 25 29 28 29 33 22 23 27 24 25 29 26 27 31 29 30 34 33 34 38 36 37 41 38 39 43 38 42 43 40 44 45 37 43 41 35 41 39 32 38 36 28 34 32 25 31 29 23 29 27 21 27 25 7 13 11 7 13 11 7 13 11 7 13 11 7 13 11 7 13 11 7 13 11 7 13 11 5 11 7 5 11 7 5 11 7 5 11 7 5 11 7 5 11 7 5 11 7 5 11 7 16 22 18 18 24 20 20 26 22 23 29 25 27 33 29 30 36 32 32 38 34 34 40 36 51 56 50 51 56 50 51 56 50 51 56 50 51 56 50 51 56 50 51 56 50 51 56 50 59 64 58 59 64 58 59 64 58 59 64 58 59 64 58 59 64 58 59 64 58 61 63 58 49 50 44 48 47 42 46 45 40 43 42 37 39 38 33 36 35 30 34 33 28 32 31 26 35 34 29 35 34 29 35 34 29 35 34 29 35 34 29 35 34 29 35 34 29 35 34 29 35 34 29 35 34 29 35 34 29 35 34 29 35 34 29 35 34 29 35 34 29 35 34 29 38 37 32 38 37 32 38 37 32 38 37 32 38 37 32 38 37 32 38 37 32 38 37 32
29 18 22 35 24 28 40 29 33 43 32 36 47 36 40 49 38 42 54 43 47 61 50 54 67 56 60 74 63 67 79 68 72 84 69 72 99 77 80 102 76 79 102 76 79 102 76 79 102 76 79 102 76 79 102 76 79 102 76 79 103 77 80 102 76 79 100 74 77 96 70 73 93 67 70 90 64 67 87 61 64 85 60 63 78 53 57 74 52 55 71 49 52 67 45 48 63 41 44 59 37 40 56 34 37 54 32 35 56 34 37 56 34 37 56 34 37 56 34 37 56 34 37 56 34 37 56 34 37 56 34 37 53 32 37 53 32 37 53 32 37 53 32 37 53 32 37 53 32 37 53 32 37 53 32 37 64 43 48 68 47 52 75 54 59 84 63 68 95 74 79 104 83 88 112 91 96 116 95 100 143 124 128 145 126 130 147 128 132 150 131 135 154 135 139 157 138 142 159 140 144 161 142 146 151 132 136 152 133 137 152 133 137 147 128 132 136 117 121 120 101 105 104 85 89 89 77 81 49 44 48 38 39 43 28 29 33 19 20 24 16 17 21 18 19 23 24 25 29 28 29 33 26 27 31 27 28 32 29 30 34 33 34 38 36 37 41 39 40 44 42 43 47 41 45 46 40 44 45 37 43 41 35 41 39 32 38 36 28 34 32 25 31 29 23 29 27 21 27 25 7 13 11 7 13 11 7 13 11 7 13 11 7 13 11 7 13 11 7 13 11 7 13 11 5 11 7 5 11 7 5 11 7 5 11 7 5 11 7 5 11 7 5 11 7 5 11 7 16 22 18 18 24 20 20 26 22 23 29 25 27 33 29 30 36 32 32 38 34 34 40 36 48 53 47 48 53 47 48 53 47 48 53 47 48 53 47 48 53 47 48 53 47 48 53 47 56 61 55 56 61 55 56 61 55 56 61 55 56 61 55 56 61 55 56 61 55 58 60 55 49 50 44 48 47 42 46 45 40 43 42 37 39 38 33 36 35 30 34 33 28 32 31 26 35 34 29 35 34 29 35 34 29 35 34 29 35 34 29 35 34 29 35 34 29 35 34 29 35 34 29 35 34 29 35 34 29 35 34 29 35 34 29 35 34 29 35 34 29 35 34 29 38 37 32 38 37 32 38 37 32 38 37 32 38 37 32 38 37 32 38 37 32 38 37 32
32 21 25 39 28 32 43 32 36 46 35 39 47 36 40 49 38 42 54 43 47 61 50 54 67 56 60 74 63 67 79 68 72 84 69 72 95 73 76 98 72 75 98 72 75 98 72 75 98 72 75 98 72 75 98 72 75 98 72 75 100 74 77 99 73 76 96 70 73 93 67 70 90 64 67 86 60 63 84 58 61 82 57 60 73 48 52 70 48 51 69 47 50 66 44 47 64 42 45 61 39 42 60 38 41 59 37 40 60 38 41 60 38 41 60 38 41 60 38 41 60 38 41 60 38 41 60 38 41 60 38 41 60 39 44 60 39 44 60 39 44 60 39 44 60 39 44 60 39 44 60 39 44 60 39 44 70 49 54 74 53 58 82 61 66 91 70 75 102 81 86 111 90 95 118 97 102 122 101 106 143 124 128 145 126 130 147 128 132 150 131 135 154 135 139 157 138 142 159 140 144 161 142 146 146 127 131 148 129 133 149 130 134 146 127 131 137 118 122 123 104 108 108 89 93 94 82 86 49 44 48 38 39 43 28 29 33 19 20 24 16 17 21 18 19 23 24 25 29 28 29 33 29 30 34 30 31 35 33 34 38 36 37 41 39 40 44 43 44 48 45 46 50 44 48 49 40 44 45 37 43 41 35 41 39 32 38 36 28 34 32 25 31 29 23 29 27 21 27 25 7 13 11 7 13 11 7 13 11 7 13 11 7 13 11 7 13 11 7 13 11 7 13 11 5 11 7 5 11 7 5 11 7 5 11 7 5 11 7 5 11 7 5 11 7 5 11 7 16 22 18 18 24 20 20 26 22 23 29 25 27 33 29 30 36 32 32 38 34 34 40 36 44 49 43 44 49 43 44 49 43 44 49 43 44 49 43 44 49 43 44 49 43 44 49 43 52 57 51 52 57 51 52 57 51 52 57 51 52 57 51 52 57 51 52 57 51 54 56 51 49 50 44 48 47 42 46 45 40 43 42 37 39 38 33 36 35 30 34 33 28 32 31 26 35 34 29 35 34 29 35 34 29 35 34 29 35 34 29 35 34 29 35 34 29 35 34 29 35 34 29 35 34 29 35 34 29 35 34 29 35 34 29 35 34 29 35 34 29 35 34 29 38 37 32 38 37 32 38 37 32 38 37 32 38 37 32 38 37 32 38 37 32 38 37 32
35 24 28 42 31 35 47 36 40 49 38 42 47 36 40 49 38 42 54 43 47 61 50 54 67 56 60 74 63 67 79 68 72 84 69 72 92 70 73 95 69 72 95 69 72 95 69 72 95 69 72 95 69 72 95 69 72 95 69 72 97 71 74 95 69 72 93 67 70 90 64 67 86 60 63 83 57 60 81 55 58 78 53 56 69 44 48 67 45 48 66 44 47 65 43 46 65 43 46 64 42 45 63 41 44 63 41 44 63 41 44 63 41 44 63 41 44 63 41 44 63 41 44 63 41 44 63 41 44 63 41 44 72 51 56 72 51 56 72 51 56 72 51 56 72 51 56 72 51 56 72 51 56 72 51 56 77 56 61 81 60 65 88 67 72 98 77 82 108 87 92 118 97 102 125 104 109 129 108 113 143 124 128 145 126 130 147 128 132 150 131 135 154 135 139 157 138 142 159 140 144 161 142 146 142 123 127 144 125 129 147 128 132 145 126 130 138 119 123 125 106 110 112 93 97 98 86 90 49 44 48 38 39 43 28 29 33 19 20 24 16 17 21 18 19 23 24 25 29 28 29 33 32 33 37 34 35 39 36 37 41 39 40 44 43 44 48 46 47 51 48 49 53 48 52 53 40 44 45 37 43 41 35 41 39 32 38 36 28 34 32 25 31 29 23 29 27 21 27 25 7 13 11 7 13 11 7 13 11 7 13 11 7 13 11 7 13 11 7 13 11 7 13 11 5 11 7 5 11 7 5 11 7 5 11 7 5 11 7 5 11 7 5 11 7 5 11 7 16 22 18 18 24 20 20 26 22 23 29 25 27 33 29 30 36 32 32 38 34 34 40 36 41 46 40 41 46 40 41 46 40 41 46 40 41 46 40 41 46 40 41 46 40 41 46 40 49 54 48 49 54 48 49 54 48 49 54 48 49 54 48 49 54 48 49 54 48 51 53 48 49 50 44 48 47 42 46 45 40 43 42 37 39 38 33 36 35 30 34 33 28 32 31 26 35 34 29 35 34 29 35 34 29 35 34 29 35 34 29 35 34 29 35 34 29 35 34 29 35 34 29 35 34 29 35 34 29 35 34 29 35 34 29 35 34 29 35 34 29 35 34 29 38 37 32 38 37 32 38 37 32 38 37 32 38 37 32 38 37 32 38 37 32 38 37 32
38 27 31 44 33 37 49 38 42 52 41 45 47 36 40 49 38 42 54 43 47 61 50 54 67 56 60 74 63 67 79 68 72 84 69 72 90 68 71 93 67 70 93 67 70 93 67 70 93 67 70 93 67 70 93 67 70 93 67 70 94 68 71 93 67 70 91 65 68 87 61 64 84 58 61 81 55 58 78 52 55 76 51 54 65 40 44 64 42 45 64 42 45 65 43 46 65 43 46 66 44 47 66 44 47 67 45 48 65 43 46 65 43 46 65 43 46 65 43 46 65 43 46 65 43 46 65 43 46 65 43 46 85 64 69 85 64 69 85 64 69 85 64 69 85 64 69 85 64 69 85 64 69 85 64 69 82 61 66 86 65 70 93 72 77 103 82 87 113 92 97 122 101 106 130 109 114 134 113 118 143 124 128 145 126 130 147 128 132 150 131 135 154 135 139 157 138 142 159 140 144 161 142 146 138 119 123 141 122 126 145 126 130 145 126 130 138 119 123 127 108 112 115 96 100 102 90 94 49 44 48 38 39 43 28 29 33 19 20 24 16 17 21 18 19 23 24 25 29 28 29 33 35 36 40 36 37 41 38 39 43 42 43 47 45 46 50 48 49 53 51 52 56 50 54 55 40 44 45 37 43 41 35 41 39 32 38 36 28 34 32 25 31 29 23 29 27 21 27 25 7 13 11 7 13 11 7 13 11 7 13 11 7 13 11 7 13 11 7 13 11 7 13 11 5 11 7 5 11 7 5 11 7 5 11 7 5 11 7 5 11 7 5 11 7 5 11 7 16 22 18 18 24 20 20 26 22 23 29 25 27 33 29 30 36 32 32 38 34 34 40 36 39 44 38 39 44 38 39 44 38 39 44 38 39 44 38 39 44 38 39 44 38 39 44 38 47 52 46 47 52 46 47 52 46 47 52 46 47 52 46 47 52 46 47 52 46 49 51 46 49 50 44 48 47 42 46 45 40 43 42 37 39 38 33 36 35 30 34 33 28 32 31 26 35 34 29 35 34 29 35 34 29 35 34 29 35 34 29 35 34 29 35 34 29 35 34 29 35 34 29 35 34 29 35 34 29 35 34 29 35 34 29 35 34 29 35 34 29 35 34 29 38 37 32 38 37 32 38 37 32 38 37 32 38 37 32 38 37 32 38 37 32 38 37 32
40 27 34 46 33 40 51 38 45 54 41 48 48 35 42 50 37 44 55 42 49 62 49 56 68 55 62 75 62 69 80 67 74 85 68 74 88 65 71 91 64 69 91 64 71 91 64 69 91 64 71 91 64 69 91 64 71 91 64 69 93 66 73 92 65 70 89 62 69 86 59 64 83 56 63 79 52 57 77 50 57 75 50 56 62 39 45 61 40 45 62 41 48 63 42 47 65 44 51 66 45 50 67 46 53 67 46 51 66 45 52 66 45 50 66 45 52 66 45 50 66 45 52 66 45 50 66 45 52 66 45 52 93 72 79 93 72 79 93 72 79 93 72 79 93 72 79 93 72 79 93 72 79 93 72 79 84 63 70 88 67 74 96 75 82 105 84 91 116 95 102 125 104 111 132 111 118 135 116 122 143 124 130 145 126 130 147 128 134 150 131 135 154 135 141 157 138 142 159 140 146 161 142 146 136 117 123 140 121 125 144 125 131 144 125 129 139 120 126 128 109 113 116 97 103 103 91 95 47 45 48 38 39 43 28 29 33 19 20 24 16 17 21 18 19 23 24 25 29 28 29 33 36 37 41 37 38 42 40 41 45 43 44 48 46 47 51 50 51 55 52 53 57 51 55 58 39 45 45 37 43 41 35 41 39 32 38 36 28 34 32 25 31 29 23 29 27 21 27 25 7 13 11 7 13 11 7 13 11 7 13 11 7 13 11 7 13 11 7 13 11 7 13 11 5 11 9 5 11 7 5 11 7 5 11 7 5 11 7 5 11 7 5 11 7 5 11 7 16 22 18 18 24 20 20 26 22 23 29 25 27 33 29 30 36 32 32 38 34 34 40 36 37 42 38 37 42 38 37 42 38 37 42 38 37 42 38 37 42 38 37 42 38 37 42 38 45 50 46 45 50 46 45 50 46 45 50 46 45 50 46 45 50 46 45 50 46 47 49 44 49 50 45 48 47 42 46 45 40 43 42 37 39 38 33 36 35 30 34 33 28 32 31 26 35 34 29 35 34 29 35 34 29 35 34 29 35 34 29 35 34 29 35 34 29 35 34 29 35 34 29 35 34 29 37 34 29 35 34 29 37 34 29 35 34 29 37 34 29 35 34 29 40 37 32 38 37 32 40 37 32 38 37 32 40 37 32 38 37 32 40 37 32 38 37 32
40 23 33 44 27 37 46 29 39 47 30 40 70 53 63 71 54 64 73 56 66 77 60 70 80 63 73 83 66 76 86 69 79 89 69 80 99 75 88 101 75 86 101 75 88 101 75 86 101 75 88 101 75 86 101 75 88 101 75 86 93 67 80 93 67 78 93 67 80 93 67 78 93 67 80 93 67 78 93 67 80 91 67 80 82 62 73 80 63 73 80 62 74 80 63 73 80 62 74 80 63 73 80 62 74 80 63 73 81 63 75 81 64 74 81 63 75 81 64 74 81 63 75 81 64 74 81 63 75 81 64 74 94 74 85 94 74 85 94 74 85 94 74 85 94 74 85 94 74 85 94 74 85 94 74 85 111 91 102 113 93 104 115 95 106 118 98 109 122 102 113 125 105 116 127 107 118 129 109 120 137 117 126 136 119 125 139 122 130 142 125 131 145 128 136 149 132 138 151 134 142 152 135 141 148 131 139 145 128 134 140 123 131 134 117 123 127 110 118 121 104 110 116 99 107 110 97 104 60 58 63 49 53 56 39 43 46 30 34 37 26 30 33 29 33 36 34 38 41 39 43 46 50 54 57 50 54 57 50 54 57 50 54 57 50 54 57 50 54 57 50 54 57 50 54 57 42 48 48 38 47 46 36 45 44 33 42 41 29 38 37 26 35 34 24 33 32 22 31 30 8 17 16 8 17 16 8 17 16 8 17 16 8 17 16 8 17 16 8 17 16 8 17 14 6 15 12 6 15 12 6 15 12 6 15 12 6 15 12 6 15 12 6 15 12 6 15 12 10 19 16 12 21 18 14 23 20 17 26 23 21 30 27 24 33 30 26 35 32 28 37 34 32 38 36 32 38 36 32 38 36 32 38 36 32 38 36 32 38 36 32 38 36 32 38 36 35 41 39 35 41 39 35 41 39 35 41 39 35 41 39 35 41 39 35 41 39 36 40 39 34 33 29 36 32 29 36 32 29 36 32 29 36 32 29 36 32 29 36 32 29 36 32 29 36 32 29 36 32 29 36 32 29 36 32 29 36 32 29 36 32 29 36 32 29 36 33 28 37 34 29 37 34 27 38 33 27 37 34 27 38 33 27 37 34 27 38 33 27 37 34 27 39 34 28 38 35 28 39 34 28 38 35 28 39 34 28 38 35 28 39 34 28 38 35 28
45 25 37 48 28 40 51 31 43 52 32 44 73 53 65 74 54 66 77 57 69 80 60 72 83 63 75 87 67 79 89 69 81 91 69 82 101 77 91 103 76 91 103 76 91 103 76 91 103 76 91 103 76 91 103 76 91 103 76 91 95 68 83 95 68 83 95 68 83 95 68 83 95 68 83 95 68 83 95 68 83 93 69 83 84 66 80 83 67 80 83 67 80 83 67 80 83 67 80 83 67 80 83 67 80 83 67 80 84 68 81 84 68 81 84 68 81 84 68 81 84 68 81 84 68 81 84 68 81 84 68 81 96 76 88 96 76 88 96 76 88 96 76 88 96 76 88 96 76 88 96 76 88 96 76 88 111 91 103 113 93 105 115 95 107 118 98 110 122 102 114 125 105 117 127 107 119 129 109 120 134 117 127 135 118 126 137 120 128 141 124 132 144 127 135 147 130 138 150 133 141 151 134 142 147 130 138 144 127 135 139 122 130 133 116 124 126 109 117 120 103 111 115 98 106 108 97 103 63 61 66 52 56 59 41 45 48 32 36 39 29 33 36 31 35 38 37 41 44 41 45 48 50 54 57 50 54 57 50 54 57 50 54 57 50 54 57 50 54 57 50 54 57 49 54 57 42 48 48 38 47 46 36 45 44 33 42 41 29 38 37 26 35 34 24 33 32 22 31 30 8 17 16 8 17 16 8 17 16 8 17 16 8 17 16 8 17 16 8 17 16 8 17 16 6 15 12 6 15 12 6 15 12 6 15 12 6 15 12 6 15 12 6 15 12 6 15 12 10 19 16 12 21 18 14 23 20 17 26 23 21 30 27 24 33 30 26 35 32 28 37 34 32 38 38 32 38 38 32 38 38 32 38 38 32 38 38 32 38 38 32 38 38 32 38 38 35 41 41 35 41 41 35 41 41 35 41 41 35 41 41 35 41 41 35 41 41 36 40 39 34 33 31 36 32 29 36 32 29 36 32 29 36 32 29 36 32 29 36 32 29 36 32 29 36 32 29 36 32 29 36 32 29 36 32 29 36 32 29 36 32 29 36 32 29 36 33 28 38 33 29 38 33 27 38 33 27 38 33 27 38 33 27 38 33 27 38 33 27 38 33 27 39 34 28 39 34 28 39 34 28 39 34 28 39 34 28 39 34 28 39 34 28 39 34 28
50 30 42 53 33 45 56 36 48 57 37 49 75 55 67 77 57 69 79 59 71 82 62 74 86 66 78 89 69 81 91 71 83 94 72 85 103 79 93 105 78 93 105 78 93 105 78 93 105 78 93 105 78 93 105 78 93 105 78 93 100 73 88 100 73 88 100 73 88 100 73 88 100 73 88 100 73 88 100 73 88 98 74 88 91 73 87 90 74 87 90 74 87 90 74 87 90 74 87 90 74 87 90 74 87 90 74 87 91 75 88 91 75 88 91 75 88 91 75 88 91 75 88 91 75 88 91 75 88 91 75 88 101 81 93 101 81 93 101 81 93 101 81 93 101 81 93 101 81 93 101 81 93 101 81 93 111 91 103 113 93 105 115 95 107 118 98 110 122 102 114 125 105 117 127 107 119 129 109 120 131 114 124 133 116 124 135 118 126 138 121 129 142 125 133 145 128 136 147 130 138 149 132 140 144 127 135 142 125 133 137 120 128 130 113 121 123 106 114 117 100 108 112 95 103 106 95 101 67 65 70 57 61 64 46 50 53 37 41 44 34 38 41 36 40 43 42 46 49 46 50 53 50 54 57 50 54 57 50 54 57 50 54 57 50 54 57 50 54 57 50 54 57 49 54 57 42 48 48 38 47 46 36 45 44 33 42 41 29 38 37 26 35 34 24 33 32 22 31 30 8 17 16 8 17 16 8 17 16 8 17 16 8 17 16 8 17 16 8 17 16 8 17 16 6 15 12 6 15 12 6 15 12 6 15 12 6 15 12 6 15 12 6 15 12 6 15 12 10 19 16 12 21 18 14 23 20 17 26 23 21 30 27 24 33 30 26 35 32 28 37 34 32 38 38 32 38 38 32 38 38 32 38 38 32 38 38 32 38 38 32 38 38 32 38 38 35 41 41 35 41 41 35 41 41 35 41 41 35 41 41 35 41 41 35 41 41 36 40 39 34 33 31 36 32 29 36 32 29 36 32 29 36 32 29 36 32 29 36 32 29 36 32 29 36 32 29 36 32 29 36 32 29 36 32 29 36 32 29 36 32 29 36 32 29 36 33 28 38 33 29 38 33 27 38 33 27 38 33 27 38 33 27 38 33 27 38 33 27 38 33 27 39 34 28 39 34 28 39 34 28 39 34 28 39 34 28 39 34 28 39 34 28 39 34 28
56 36 48 59 39 51 62 42 54 63 43 55 79 59 71 80 60 72 82 62 74 86 66 78 89 69 81 92 72 84 95 75 87 97 75 88 106 82 96 108 81 96 108 81 96 108 81 96 108 81 96 108 81 96 108 81 96 108 81 96 107 80 95 107 80 95 107 80 95 107 80 95 107 80 95 107 80 95 107 80 95 105 81 95 101 83 97 100 84 97 100 84 97 100 84 97 100 84 97 100 84 97 100 84 97 100 84 97 101 85 98 101 85 98 101 85 98 101 85 98 101 85 98 101 85 98 101 85 98 101 85 98 108 88 100 108 88 100 108 88 100 108 88 100 108 88 100 108 88 100 108 88 100 108 88 100 111 91 103 113 93 105 115 95 107 118 98 110 122 102 114 125 105 117 127 107 119 129 109 120 128 111 121 129 112 120 132 115 123 135 118 126 138 121 129 142 125 133 144 127 135 145 128 136 141 124 132 138 121 129 134 117 125 127 110 118 120 103 111 114 97 105 109 92 100 102 91 97 74 72 77 63 67 70 52 56 59 44 48 51 40 44 47 43 47 50 48 52 55 53 57 60 50 54 57 50 54 57 50 54 57 50 54 57 50 54 57 50 54 57 50 54 57 49 54 57 42 48 48 38 47 46 36 45 44 33 42 41 29 38 37 26 35 34 24 33 32 22 31 30 8 17 16 8 17 16 8 17 16 8 17 16 8 17 16 8 17 16 8 17 16 8 17 16 6 15 12 6 15 12 6 15 12 6 15 12 6 15 12 6 15 12 6 15 12 6 15 12 10 19 16 12 21 18 14 23 20 17 26 23 21 30 27 24 33 30 26 35 32 28 37 34 32 38 38 32 38 38 32 38 38 32 38 38 32 38 38 32 38 38 32 38 38 32 38 38 35 41 41 35 41 41 35 41 41 35 41 41 35 41 41 35 41 41 35 41 41 36 40 39 34 33 31 36 32 29 36 32 29 36 32 29 36 32 29 36 32 29 36 32 29 36 32 29 36 32 29 36 32 29 36 32 29 36 32 29 36 32 29 36 32 29 36 32 29 36 33 28 38 33 29 38 33 27 38 33 27 38 33 27 38 33 27 38 33 27 38 33 27 38 33 27 39 34 28 39 34 28 39 34 28 39 34 28 39 34 28 39 34 28 39 34 28 39 34 28
63 43 55 66 46 58 69 49 61 70 50 62 82 62 74 83 63 75 86 66 78 89 69 81 92 72 84 96 76 88 98 78 90 100 78 91 110 86 100 112 85 100 112 85 100 112 85 100 112 85 100 112 85 100 112 85 100 112 85 100 113 86 101 113 86 101 113 86 101 113 86 101 113 86 101 113 86 101 113 86 101 111 87 101 111 93 107 110 94 107 110 94 107 110 94 107 110 94 107 110 94 107 110 94 107 110 94 107 111 95 108 111 95 108 111 95 108 111 95 108 111 95 108 111 95 108 111 95 108 111 95 108 114 94 106 114 94 106 114 94 106 114 94 106 114 94 106 114 94 106 114 94 106 114 94 106 111 91 103 113 93 105 115 95 107 118 98 110 122 102 114 125 105 117 127 107 119 129 109 120 125 108 118 126 109 117 128 111 119 132 115 123 135 118 126 138 121 129 141 124 132 142 125 133 138 121 129 135 118 126 130 113 121 124 107 115 117 100 108 110 93 101 106 89 97 99 88 94 81 79 84 70 74 77 59 63 66 51 55 58 47 51 54 50 54 57 55 59 62 59 63 66 50 54 57 50 54 57 50 54 57 50 54 57 50 54 57 50 54 57 50 54 57 49 54 57 42 48 48 38 47 46 36 45 44 33 42 41 29 38 37 26 35 34 24 33 32 22 31 30 8 17 16 8 17 16 8 17 16 8 17 16 8 17 16 8 17 16 8 17 16 8 17 16 6 15 12 6 15 12 6 15 12 6 15 12 6 15 12 6 15 12 6 15 12 6 15 12 10 19 16 12 21 18 14 23 20 17 26 23 21 30 27 24 33 30 26 35 32 28 37 34 32 38 38 32 38 38 32 38 38 32 38 38 32 38 38 32 38 38 32 38 38 32 38 38 35 41 41 35 41 41 35 41 41 35 41 41 35 41 41 35 41 41 35 41 41 36 40 39 34 33 31 36 32 29 36 32 29 36 32 29 36 32 29 36 32 29 36 32 29 36 32 29 36 32 29 36 32 29 36 32 29 36 32 29 36 32 29 36 32 29 36 32 29 36 33 28 38 33 29 38 33 27 38 33 27 38 33 27 38 33 27 38 33 27 38 33 27 38 33 27 39 34 28 39 34 28 39 34 28 39 34 28 39 34 28 39 34 28 39 34 28 39 34 28
70 50 62 73 53 65 75 55 67 76 56 68 85 65 77 87 67 79 89 69 81 92 72 84 96 76 88 99 79 91 101 81 93 104 82 95 113 89 103 115 88 103 115 88 103 115 88 103 115 88 103 115 88 103 115 88 103 115 88 103 120 93 108 120 93 108 120 93 108 120 93 108 120 93 108 120 93 108 120 93 108 118 94 108 121 103 117 120 104 117 120 104 117 120 104 117 120 104 117 120 104 117 120 104 117 120 104 117 121 105 118 121 105 118 121 105 118 121 105 118 121 105 118 121 105 118 121 105 118 121 105 118 121 101 113 121 101 113 121 101 113 121 101 113 121 101 113 121 101 113 121 101 113 121 101 113 111 91 103 113 93 105 115 95 107 118 98 110 122 102 114 125 105 117 127 107 119 129 109 120 121 104 114 123 106 114 125 108 116 128 111 119 132 115 123 135 118 126 137 120 128 139 122 130 134 117 125 132 115 123 127 110 118 121 104 112 114 97 105 107 90 98 102 85 93 96 85 91 87 85 90 76 80 83 66 70 73 57 61 64 53 57 60 56 60 63 61 65 68 66 70 73 50 54 57 50 54 57 50 54 57 50 54 57 50 54 57 50 54 57 50 54 57 49 54 57 42 48 48 38 47 46 36 45 44 33 42 41 29 38 37 26 35 34 24 33 32 22 31 30 8 17 16 8 17 16 8 17 16 8 17 16 8 17 16 8 17 16 8 17 16 8 17 16 6 15 12 6 15 12 6 15 12 6 15 12 6 15 12 6 15 12 6 15 12 6 15 12 10 19 16 12 21 18 14 23 20 17 26 23 21 30 27 24 33 30 26 35 32 28 37 34 32 38 38 32 38 38 32 38 38 32 38 38 32 38 38 32 38 38 32 38 38 32 38 38 35 41 41 35 41 41 35 41 41 35 41 41 35 41 41 35 41 41 35 41 41 36 40 39 34 33 31 36 32 29 36 32 29 36 32 29 36 32 29 36 32 29 36 32 29 36 32 29 36 32 29 36 32 29 36 32 29 36 32 29 36 32 29 36 32 29 36 32 29 36 33 28 38 33 29 38 33 27 38 33 27 38 33 27 38 33 27 38 33 27 38 33 27 38 33 27 39 34 28 39 34 28 39 34 28 39 34 28 39 34 28 39 34 28 39 34 28 39 34 28
74 54 66 78 58 70 80 60 72 81 61 73 88 68 80 89 69 81 91 71 83 95 75 87 98 78 90 101 81 93 104 84 96 106 84 97 115 91 105 117 90 105 117 90 105 117 90 105 117 90 105 117 90 105 117 90 105 117 90 105 125 98 113 125 98 113 125 98 113 125 98 113 125 98 113 125 98 113 125 98 113 123 99 113 128 110 124 127 111 124 127 111 124 127 111 124 127 111 124 127 111 124 127 111 124 127 111 124 128 112 125 128 112 125 128 112 125 128 112 125 128 112 125 128 112 125 128 112 125 128 112 125 126 106 118 126 106 118 126 106 118 126 106 118 126 106 118 126 106 118 126 106 118 126 106 118 111 91 103 113 93 105 115 95 107 118 98 110 122 102 114 125 105 117 127 107 119 129 109 120 119 102 112 120 103 111 123 106 114 126 109 117 129 112 120 133 116 124 135 118 126 136 119 127 132 115 123 129 112 120 124 107 115 118 101 109 111 94 102 105 88 96 100 83 91 93 82 88 92 90 95 81 85 88 71 75 78 62 66 69 58 62 65 61 65 68 66 70 73 71 75 78 50 54 57 50 54 57 50 54 57 50 54 57 50 54 57 50 54 57 50 54 57 49 54 57 42 48 48 38 47 46 36 45 44 33 42 41 29 38 37 26 35 34 24 33 32 22 31 30 8 17 16 8 17 16 8 17 16 8 17 16 8 17 16 8 17 16 8 17 16 8 17 16 6 15 12 6 15 12 6 15 12 6 15 12 6 15 12 6 15 12 6 15 12 6 15 12 10 19 16 12 21 18 14 23 20 17 26 23 21 30 27 24 33 30 26 35 32 28 37 34 32 38 38 32 38 38 32 38 38 32 38 38 32 38 38 32 38 38 32 38 38 32 38 38 35 41 41 35 41 41 35 41 41 35 41 41 35 41 41 35 41 41 35 41 41 36 40 39 34 33 31 36 32 29 36 32 29 36 32 29 36 32 29 36 32 29 36 32 29 36 32 29 36 32 29 36 32 29 36 32 29 36 32 29 36 32 29 36 32 29 36 32 29 36 33 28 38 33 29 38 33 27 38 33 27 38 33 27 38 33 27 38 33 27 38 33 27 38 33 27 39 34 28 39 34 28 39 34 28 39 34 28 39 34 28 39 34 28 39 34 28 39 34 28
77 57 69 80 60 72 83 63 75 84 64 76 89 69 81 90 70 82 93 73 85 96 76 88 99 79 91 103 83 95 105 85 97 107 85 98 117 93 107 119 92 107 119 92 107 119 92 107 119 92 107 119 92 107 119 92 107 119 92 107 127 100 115 127 100 115 127 100 115 127 100 115 127 100 115 127 100 115 127 100 115 125 101 115 132 114 128 131 115 128 131 115 128 131 115 128 131 115 128 131 115 128 131 115 128 131 115 128 132 116 129 132 116 129 132 116 129 132 116 129 132 116 129 132 116 129 132 116 129 132 116 129 128 108 120 128 108 120 128 108 120 128 108 120 128 108 120 128 108 120 128 108 120 128 108 120 111 91 103 113 93 105 115 95 107 118 98 110 122 102 114 125 105 117 127 107 119 129 109 120 118 101 111 119 102 110 121 104 112 125 108 116 128 111 119 131 114 122 134 117 125 135 118 126 131 114 122 128 111 119 123 106 114 117 100 108 110 93 101 104 87 95 99 82 90 92 81 87 95 93 98 84 88 91 73 77 80 64 68 71 61 65 68 63 67 70 69 73 76 73 77 80 50 54 57 50 54 57 50 54 57 50 54 57 50 54 57 50 54 57 50 54 57 49 54 57 42 48 48 38 47 46 36 45 44 33 42 41 29 38 37 26 35 34 24 33 32 22 31 30 8 17 16 8 17 16 8 17 16 8 17 16 8 17 16 8 17 16 8 17 16 8 17 16 6 15 12 6 15 12 6 15 12 6 15 12 6 15 12 6 15 12 6 15 12 6 15 12 10 19 16 12 21 18 14 23 20 17 26 23 21 30 27 24 33 30 26 35 32 28 37 34 32 38 38 32 38 38 32 38 38 32 38 38 32 38 38 32 38 38 32 38 38 32 38 38 35 41 41 35 41 41 35 41 41 35 41 41 35 41 41 35 41 41 35 41 41 36 40 39 34 33 31 36 32 29 36 32 29 36 32 29 36 32 29 36 32 29 36 32 29 36 32 29 36 32 29 36 32 29 36 32 29 36 32 29 36 32 29 36 32 29 36 32 29 36 33 28 38 33 29 38 33 27 38 33 27 38 33 27 38 33 27 38 33 27 38 33 27 38 33 27 39 34 28 39 34 28 39 34 28 39 34 28 39 34 28 39 34 28 39 34 28 39 34 28
104 84 96 104 84 96 104 84 96 104 84 96 100 80 92 100 80 92 100 80 92 100 80 92 100 80 92 100 80 92 100 80 92 101 79 92 119 95 109 121 94 109 121 94 109 121 94 109 121 94 109 121 94 109 121 94 109 121 94 109 128 101 116 128 101 116 128 101 116 128 101 116 128 101 116 128 101 116 128 101 116 126 102 116 126 108 122 125 109 122 125 109 122 125 109 122 125 109 122 125 109 122 125 109 122 125 109 122 124 108 121 124 108 121 124 108 121 124 108 121 124 108 121 124 108 121 124 108 121 124 108 121 121 101 113 121 101 113 121 101 113 121 101 113 121 101 113 121 101 113 121 101 113 121 101 113 118 98 110 118 98 110 118 98 110 118 98 110 118 98 110 118 98 110 118 98 110 118 98 109 109 92 102 110 93 101 114 97 105 118 101 109 123 106 114 127 110 118 131 114 122 133 116 124 110 93 101 109 92 100 107 90 98 103 86 94 100 83 91 97 80 88 94 77 85 89 78 84 68 66 71 64 68 71 64 68 71 64 68 71 64 68 71 64 68 71 64 68 71 64 68 71 57 61 64 57 61 64 57 61 64 57 61 64 57 61 64 57 61 64 57 61 64 56 61 64 48 54 54 45 54 53 42 51 50 39 48 47 36 45 44 32 41 40 30 39 38 29 38 37 32 41 40 30 39 38 27 36 35 22 31 30 18 27 26 13 22 21 10 19 18 8 17 16 11 20 17 11 20 17 11 20 17 11 20 17 11 20 17 11 20 17 11 20 17 11 20 17 8 17 14 10 19 16 12 21 18 15 24 21 19 28 25 22 31 28 24 33 30 26 35 32 27 33 33 27 33 33 27 33 33 27 33 33 27 33 33 27 33 33 27 33 33 27 33 33 24 30 30 24 30 30 24 30 30 24 30 30 24 30 30 24 30 30 24 30 30 25 29 28 31 30 28 33 29 26 33 29 26 33 29 26 33 29 26 33 29 26 33 29 26 33 29 26 35 31 28 35 31 28 35 31 28 35 31 28 35 31 28 35 31 28 35 31 28 35 32 27 38 33 29 38 33 27 38 33 27 38 33 27 38 33 27 38 33 27 38 33 27 38 33 27 38 33 27 38 33 27 38 33 27 38 33 27 38 33 27 38 33 27 38 33 27 38 33 27
104 84 96 104 84 96 104 84 96 104 84 96 102 82 94 102 82 94 102 82 94 102 82 94 102 82 94 102 82 94 102 82 94 103 81 94 119 95 109 121 94 109 121 94 109 121 94 109 121 94 109 121 94 109 121 94 109 121 94 109 128 101 116 128 101 116 128 101 116 128 101 116 128 101 116 128 101 116 128 101 116 126 102 116 126 108 122 125 109 122 125 109 122 125 109 122 125 109 122 125 109 122 125 109 122 125 109 122 124 108 121 124 108 121 124 108 121 124 108 121 124 108 121 124 108 121 124 108 121 124 108 121 121 101 113 121 101 113 121 101 113 121 101 113 121 101 113 121 101 113 121 101 113 121 101 113 118 98 110 118 98 110 118 98 110 118 98 110 118 98 110 118 98 110 118 98 110 118 98 109 109 92 102 111 94 102 114 97 105 117 100 108 121 104 112 125 108 116 128 111 119 130 113 121 109 92 100 108 91 99 105 88 96 102 85 93 99 82 90 95 78 86 93 76 84 88 77 83 68 66 71 64 68 71 64 68 71 64 68 71 64 68 71 64 68 71 64 68 71 64 68 71 59 63 66 59 63 66 59 63 66 59 63 66 59 63 66 59 63 66 59 63 66 58 63 66 49 55 55 46 55 54 44 53 52 40 49 48 37 46 45 34 43 42 31 40 39 30 39 38 30 39 38 29 38 37 26 35 34 22 31 30 18 27 26 14 23 22 11 20 19 10 19 18 11 20 17 11 20 17 11 20 17 11 20 17 11 20 17 11 20 17 11 20 17 11 20 17 8 17 14 10 19 16 12 21 18 15 24 21 19 28 25 22 31 28 24 33 30 26 35 32 27 33 33 27 33 33 27 33 33 27 33 33 27 33 33 27 33 33 27 33 33 27 33 33 24 30 30 24 30 30 24 30 30 24 30 30 24 30 30 24 30 30 24 30 30 25 29 28 31 30 28 33 29 26 33 29 26 33 29 26 33 29 26 33 29 26 33 29 26 33 29 26 35 31 28 35 31 28 35 31 28 35 31 28 35 31 28 35 31 28 35 31 28 35 32 27 38 33 29 38 33 27 38 33 27 38 33 27 38 33 27 38 33 27 38 33 27 38 33 27 38 33 27 38 33 27 38 33 27 38 33 27 38 33 27 38 33 27 38 33 27 38 33 27
104 84 96 104 84 96 104 84 96 104 84 96 104 84 96 104 84 96 104 84 96 104 84 96 104 84 96 104 84 96 104 84 96 105 83 96 119 95 109 121 94 109 121 94 109 121 94 109 121 94 109 121 94 109 121 94 109 121 94 109 128 101 116 128 101 116 128 101 116 128 101 116 128 101 116 128 101 116 128 101 116 126 102 116 126 108 122 125 109 122 125 109 122 125 109 122 125 109 122 125 109 122 125 109 122 125 109 122 124 108 121 124 108 121 124 108 121 124 108 121 124 108 121 124 108 121 124 108 121 124 108 121 121 101 113 121 101 113 121 101 113 121 101 113 121 101 113 121 101 113 121 101 113 121 101 113 118 98 110 118 98 110 118 98 110 118 98 110 118 98 110 118 98 110 118 98 110 118 98 109 110 93 103 111 94 102 113 96 104 116 99 107 118 101 109 121 104 112 123 106 114 124 107 115 107 90 98 105 88 96 103 86 94 100 83 91 96 79 87 93 76 84 91 74 82 85 74 80 68 66 71 64 68 71 64 68 71 64 68 71 64 68 71 64 68 71 64 68 71 64 68 71 61 65 68 61 65 68 61 65 68 61 65 68 61 65 68 61 65 68 61 65 68 60 65 68 52 58 58 48 57 56 46 55 54 43 52 51 39 48 47 36 45 44 34 43 42 32 41 40 27 36 35 26 35 34 24 33 32 21 30 29 19 28 27 16 25 24 14 23 22 13 22 21 11 20 17 11 20 17 11 20 17 11 20 17 11 20 17 11 20 17 11 20 17 11 20 17 8 17 14 10 19 16 12 21 18 15 24 21 19 28 25 22 31 28 24 33 30 26 35 32 27 33 33 27 33 33 27 33 33 27 33 33 27 33 33 27 33 33 27 33 33 27 33 33 24 30 30 24 30 30 24 30 30 24 30 30 24 30 30 24 30 30 24 30 30 25 29 28 31 30 28 33 29 26 33 29 26 33 29 26 33 29 26 33 29 26 33 29 26 33 29 26 35 31 28 35 31 28 35 31 28 35 31 28 35 31 28 35 31 28 35 31 28 35 32 27 38 33 29 38 33 27 38 33 27 38 33 27 38 33 27 38 33 27 38 33 27 38 33 27 38 33 27 38 33 27 38 33 27 38 33 27 38 33 27 38 33 27 38 33 27 38 33 27
104 84 96 104 84 96 104 84 96 104 84 96 107 87 99 107 87 99 107 87 99 107 87 99 107 87 99 107 87 99 107 87 99 108 86 99 119 95 109 121 94 109 121 94 109 121 94 109 121 94 109 121 94 109 121 94 109 121 94 109 128 101 116 128 101 116 128 101 116 128 101 116 128 101 116 128 101 116 128 101 116 126 102 116 126 108 122 125 109 122 125 109 122 125 109 122 125 109 122 125 109 122 125 109 122 125 109 122 124 108 121 124 108 121 124 108 121 124 108 121 124 108 121 124 108 121 124 108 121 124 108 121 121 101 113 121 101 113 121 101 113 121 101 113 121 101 113 121 101 113 121 101 113 121 101 113 118 98 110 118 98 110 118 98 110 118 98 110 118 98 110 118 98 110 118 98 110 118 98 109 111 94 104 112 95 103 112 95 103 113 96 104 114 97 105 115 98 106 116 99 107 116 99 107 103 86 94 102 85 93 100 83 91 96 79 87 93 76 84 90 73 81 87 70 78 82 71 77 68 66 71 64 68 71 64 68 71 64 68 71 64 68 71 64 68 71 64 68 71 64 68 71 64 68 71 64 68 71 64 68 71 64 68 71 64 68 71 64 68 71 64 68 71 63 68 71 55 61 61 52 61 60 49 58 57 46 55 54 43 52 51 39 48 47 37 46 45 36 45 44 22 31 30 22 31 30 21 30 29 20 29 28 20 29 28 19 28 27 18 27 26 18 27 26 11 20 17 11 20 17 11 20 17 11 20 17 11 20 17 11 20 17 11 20 17 11 20 17 8 17 14 10 19 16 12 21 18 15 24 21 19 28 25 22 31 28 24 33 30 26 35 32 27 33 33 27 33 33 27 33 33 27 33 33 27 33 33 27 33 33 27 33 33 27 33 33 24 30 30 24 30 30 24 30 30 24 30 30 24 30 30 24 30 30 24 30 30 25 29 28 31 30 28 33 29 26 33 29 26 33 29 26 33 29 26 33 29 26 33 29 26 33 29 26 35 31 28 35 31 28 35 31 28 35 31 28 35 31 28 35 31 28 35 31 28 35 32 27 38 33 29 38 33 27 38 33 27 38 33 27 38 33 27 38 33 27 38 33 27 38 33 27 38 33 27 38 33 27 38 33 27 38 33 27 38 33 27 38 33 27 38 33 27 38 33 27
104 84 96 104 84 96 104 84 96 104 84 96 111 91 103 111 91 103 111 91 103 111 91 103 111 91 103 111 91 103 111 91 103 112 90 103 119 95 109 121 94 109 121 94 109 121 94 109 121 94 109 121 94 109 121 94 109 121 94 109 128 101 116 128 101 116 128 101 116 128 101 116 128 101 116 128 101 116 128 101 116 126 102 116 126 108 122 125 109 122 125 109 122 125 109 122 125 109 122 125 109 122 125 109 122 125 109 122 124 108 121 124 108 121 124 108 121 124 108 121 124 108 121 124 108 121 124 108 121 124 108 121 121 101 113 121 101 113 121 101 113 121 101 113 121 101 113 121 101 113 121 101 113 121 101 113 118 98 110 118 98 110 118 98 110 118 98 110 118 98 110 118 98 110 118 98 110 118 98 109 113 96 106 112 95 103 112 95 103 111 94 102 110 93 101 109 92 100 108 91 99 108 91 99 100 83 91 99 82 90 96 79 87 93 76 84 90 73 81 86 69 77 84 67 75 79 68 74 68 66 71 64 68 71 64 68 71 64 68 71 64 68 71 64 68 71 64 68 71 64 68 71 68 72 75 68 72 75 68 72 75 68 72 75 68 72 75 68 72 75 68 72 75 67 72 75 58 64 64 55 64 63 53 62 61 49 58 57 46 55 54 43 52 51 40 49 48 39 48 47 18 27 26 18 27 26 19 28 27 20 29 28 20 29 28 21 30 29 22 31 30 22 31 30 11 20 17 11 20 17 11 20 17 11 20 17 11 20 17 11 20 17 11 20 17 11 20 17 8 17 14 10 19 16 12 21 18 15 24 21 19 28 25 22 31 28 24 33 30 26 35 32 27 33 33 27 33 33 27 33 33 27 33 33 27 33 33 27 33 33 27 33 33 27 33 33 24 30 30 24 30 30 24 30 30 24 30 30 24 30 30 24 30 30 24 30 30 25 29 28 31 30 28 33 29 26 33 29 26 33 29 26 33 29 26 33 29 26 33 29 26 33 29 26 35 31 28 35 31 28 35 31 28 35 31 28 35 31 28 35 31 28 35 31 28 35 32 27 38 33 29 38 33 27 38 33 27 38 33 27 38 33 27 38 33 27 38 33 27 38 33 27 38 33 27 38 33 27 38 33 27 38 33 27 38 33 27 38 33 27 38 33 27 38 33 27
104 84 96 104 84 96 104 84 96 104 84 96 114 94 106 114 94 106 114 94 106 114 94 106 114 94 106 114 94 106 114 94 106 115 93 106 119 95 109 121 94 109 121 94 109 121 94 109 121 94 109 121 94 109 121 94 109 121 94 109 128 101 116 128 101 116 128 101 116 128 101 116 128 101 116 128 101 116 128 101 116 126 102 116 126 108 122 125 109 122 125 109 122 125 109 122 125 109 122 125 109 122 125 109 122 125 109 122 124 108 121 124 108 121 124 108 121 124 108 121 124 108 121 124 108 121 124 108 121 124 108 121 121 101 113 121 101 113 121 101 113 121 101 113 121 101 113 121 101 113 121 101 113 121 101 113 118 98 110 118 98 110 118 98 110 118 98 110 118 98 110 118 98 110 118 98 110 118 98 109 114 97 107 113 96 104 111 94 102 108 91 99 106 89 97 103 86 94 101 84 92 100 83 91 97 80 88 95 78 86 93 76 84 90 73 81 86 69 77 83 66 74 81 64 72 75 64 70 68 66 71 64 68 71 64 68 71 64 68 71 64 68 71 64 68 71 64 68 71 64 68 71 71 75 78 71 75 78 71 75 78 71 75 78 71 75 78 71 75 78 71 75 78 70 75 78 62 68 68 58 67 66 56 65 64 53 62 61 49 58 57 46 55 54 44 53 52 42 51 50 13 22 21 14 23 22 16 25 24 19 28 27 21 30 29 24 33 32 26 35 34 27 36 35 11 20 17 11 20 17 11 20 17 11 20 17 11 20 17 11 20 17 11 20 17 11 20 17 8 17 14 10 19 16 12 21 18 15 24 21 19 28 25 22 31 28 24 33 30 26 35 32 27 33 33 27 33 33 27 33 33 27 33 33 27 33 33 27 33 33 27 33 33 27 33 33 24 30 30 24 30 30 24 30 30 24 30 30 24 30 30 24 30 30 24 30 30 25 29 28 31 30 28 33 29 26 33 29 26 33 29 26 33 29 26 33 29 26 33 29 26 33 29 26 35 31 28 35 31 28 35 31 28 35 31 28 35 31 28 35 31 28 35 31 28 35 32 27 38 33 29 38 33 27 38 33 27 38 33 27 38 33 27 38 33 27 38 33 27 38 33 27 38 33 27 38 33 27 38 33 27 38 33 27 38 33 27 38 33 27 38 33 27 38 33 27
104 84 96 104 84 96 104 84 96 104 84 96 116 96 108 116 96 108 116 96 108 116 96 108 116 96 108 116 96 108 116 96 108 117 95 108 119 95 109 121 94 109 121 94 109 121 94 109 121 94 109 121 94 109 121 94 109 121 94 109 128 101 116 128 101 116 128 101 116 128 101 116 128 101 116 128 101 116 128 101 116 126 102 116 126 108 122 125 109 122 125 109 122 125 109 122 125 109 122 125 109 122 125 109 122 125 109 122 124 108 121 124 108 121 124 108 121 124 108 121 124 108 121 124 108 121 124 108 121 124 108 121 121 101 113 121 101 113 121 101 113 121 101 113 121 101 113 121 101 113 121 101 113 121 101 113 118 98 110 118 98 110 118 98 110 118 98 110 118 98 110 118 98 110 118 98 110 118 98 109 115 98 108 113 96 104 110 93 101 107 90 98 103 86 94 99 82 90 96 79 87 94 77 85 94 77 85 93 76 84 91 74 82 87 70 78 84 67 75 81 64 72 78 61 69 73 62 68 68 66 71 64 68 71 64 68 71 64 68 71 64 68 71 64 68 71 64 68 71 64 68 71 73 77 80 73 77 80 73 77 80 73 77 80 73 77 80 73 77 80 73 77 80 72 77 80 64 70 70 61 70 69 58 67 66 55 64 63 52 61 60 48 57 56 46 55 54 45 54 53 10 19 18 11 20 19 14 23 22 18 27 26 22 31 30 26 35 34 29 38 37 30 39 38 11 20 17 11 20 17 11 20 17 11 20 17 11 20 17 11 20 17 11 20 17 11 20 17 8 17 14 10 19 16 12 21 18 15 24 21 19 28 25 22 31 28 24 33 30 26 35 32 27 33 33 27 33 33 27 33 33 27 33 33 27 33 33 27 33 33 27 33 33 27 33 33 24 30 30 24 30 30 24 30 30 24 30 30 24 30 30 24 30 30 24 30 30 25 29 28 31 30 28 33 29 26 33 29 26 33 29 26 33 29 26 33 29 26 33 29 26 33 29 26 35 31 28 35 31 28 35 31 28 35 31 28 35 31 28 35 31 28 35 31 28 35 32 27 38 33 29 38 33 27 38 33 27 38 33 27 38 33 27 38 33 27 38 33 27 38 33 27 38 33 27 38 33 27 38 33 27 38 33 27 38 33 27 38 33 27 38 33 27 38 33 27
105 83 96 105 83 96 105 83 96 105 83 96 119 97 110 119 97 110 119 97 110 119 97 110 119 97 110 119 97 110 119 97 110 119 97 110 118 96 109 118 96 109 119 95 111 118 96 109 119 95 111 118 96 109 119 95 111 118 96 109 126 102 118 125 103 116 126 102 118 125 103 116 126 102 118 125 103 116 126 102 118 125 102 118 126 108 122 125 109 122 125 109 122 125 109 122 125 109 122 125 109 122 125 109 122 125 109 122 124 108 121 124 108 121 124 108 121 124 108 121 124 108 121 124 108 121 124 108 121 125 107 121 122 99 115 122 100 113 123 99 113 122 100 113 123 99 113 122 100 113 123 99 113 122 100 113 120 96 110 119 97 110 120 96 110 119 97 110 120 96 110 119 97 110 120 96 110 118 98 110 115 98 108 111 98 105 109 93 103 103 90 97 100 84 94 94 81 88 92 76 86 88 75 82 92 76 86 89 76 83 88 72 82 83 70 77 82 66 76 76 63 70 76 60 70 71 61 69 67 66 71 64 68 71 64 68 71 64 68 71 64 68 71 64 68 71 64 68 71 64 68 71 75 79 82 75 79 82 75 79 82 75 79 82 75 79 82 75 79 82 75 79 82 74 79 82 65 70 73 62 71 70 60 68 70 56 65 64 53 61 63 50 59 58 47 55 57 46 55 54 8 16 18 10 19 18 13 21 23 18 27 26 22 30 32 27 36 35 30 38 40 32 41 40 11 20 19 11 20 17 11 20 19 11 20 17 11 20 19 11 20 17 11 20 19 11 20 17 8 17 16 10 19 16 12 21 20 15 24 21 19 28 27 22 31 28 24 33 32 26 35 34 27 33 33 27 33 33 27 33 33 27 33 33 27 33 33 27 33 33 27 33 33 27 33 33 24 30 30 24 30 30 24 30 30 24 30 30 24 30 30 24 30 30 24 30 30 25 29 28 31 30 28 33 29 26 34 29 26 33 29 26 34 29 26 33 29 26 34 29 26 33 29 26 36 31 28 35 31 28 36 31 28 35 31 28 36 31 28 35 31 28 36 31 28 36 31 27 38 33 27 38 33 27 38 33 27 38 33 27 38 33 27 38 33 27 38 33 27 38 33 27 38 33 27 38 33 27 38 33 27 38 33 27 38 33 27 38 33 27 38 33 27 38 33 27
101 72 90 103 74 92 105 76 94 106 77 95 115 86 104 116 87 105 119 90 108 122 93 111 125 96 114 129 100 118 131 102 120 129 105 121 118 97 112 115 99 112 116 98 114 115 99 112 116 98 114 115 99 112 116 98 114 115 99 112 117 99 115 116 100 113 117 99 115 116 100 113 117 99 115 116 100 113 117 99 115 116 99 115 114 97 113 114 97 113 114 97 113 114 97 113 114 97 113 114 97 113 114 97 113 114 97 113 111 94 110 111 94 110 111 94 110 111 94 110 111 94 110 111 94 110 111 94 110 114 93 108 126 99 116 127 98 116 129 98 116 127 98 116 129 98 116 127 98 116 129 98 116 127 98 116 130 99 117 128 99 117 130 99 117 128 99 117 130 99 117 128 99 117 130 99 117 125 101 115 105 92 102 99 92 99 99 89 98 94 87 94 92 82 91 87 80 87 87 77 86 83 76 83 73 63 72 71 64 71 73 63 72 71 64 71 73 63 72 71 64 71 73 63 72 70 65 71 67 68 72 66 72 72 68 74 74 71 77 77 75 81 81 78 84 84 80 86 86 82 88 88 72 78 78 73 79 79 75 81 81 79 85 85 82 88 88 85 91 91 88 94 94 89 94 97 70 75 78 69 74 77 66 71 75 63 68 71 60 65 69 56 61 64 54 59 63 53 58 61 32 37 41 32 37 40 33 38 42 34 39 42 36 41 45 37 42 45 38 43 47 36 44 46 20 28 30 19 29 28 19 29 30 19 29 28 19 29 30 19 29 28 19 29 30 19 29 28 14 24 25 14 24 23 14 24 25 14 24 23 14 24 25 14 24 23 14 24 25 14 24 23 13 22 21 13 22 19 13 22 19 13 22 19 13 22 19 13 22 19 13 22 19 13 22 19 16 25 22 16 25 22 16 25 22 16 25 22 16 25 22 16 25 22 16 25 22 19 24 20 33 29 26 34 29 25 36 28 25 34 29 25 36 28 25 34 29 25 36 28 25 34 29 25 37 29 26 35 30 26 37 29 26 35 30 26 37 29 26 35 30 26 37 29 26 37 29 26 40 33 27 40 33 27 40 33 27 40 33 27 40 33 27 40 33 27 40 33 27 40 33 27 39 32 26 39 32 26 39 32 26 39 32 26 39 32 26 39 32 26 39 32 26 37 32 26
105 74 92 106 77 95 110 79 97 109 80 98 116 85 103 115 86 104 119 88 106 121 92 110 126 95 113 127 98 116 132 101 119 130 103 120 116 98 114 113 99 114 113 99 114 113 99 114 113 99 114 113 99 114 113 99 114 113 99 114 114 100 115 114 100 115 114 100 115 114 100 115 114 100 115 114 100 115 114 100 115 114 100 115 114 97 113 114 97 113 114 97 113 114 97 113 114 97 113 114 97 113 114 97 113 114 97 113 111 94 110 111 94 110 111 94 110 111 94 110 111 94 110 111 94 110 111 94 110 114 93 110 125 96 114 127 96 114 128 95 114 127 96 114 128 95 114 127 96 114 128 95 114 127 96 114 129 96 115 128 97 115 129 96 115 128 97 115 129 96 115 128 97 115 129 96 115 123 99 115 108 96 106 103 98 105 100 95 102 97 92 99 94 89 96 90 85 92 88 83 90 87 82 89 70 65 72 70 65 72 70 65 72 70 65 72 70 65 72 70 65 72 70 65 72 68 66 71 65 69 72 66 72 72 68 74 74 71 77 77 75 81 81 78 84 84 80 86 86 82 88 88 73 79 79 74 80 80 77 83 83 80 86 86 83 89 89 87 93 93 89 95 95 90 96 96 71 76 80 70 75 79 68 73 77 64 69 73 61 66 70 58 63 67 55 60 64 54 59 63 33 38 42 34 39 43 34 39 43 35 40 44 35 40 44 36 41 45 36 41 45 35 43 46 20 28 30 19 29 30 19 29 30 19 29 30 19 29 30 19 29 30 19 29 30 19 29 30 14 24 25 14 24 25 14 24 25 14 24 25 14 24 25 14 24 25 14 24 25 14 24 23 13 22 21 13 22 19 13 22 19 13 22 19 13 22 19 13 22 19 13 22 19 13 22 19 16 25 22 16 25 22 16 25 22 16 25 22 16 25 22 16 25 22 16 25 22 19 24 20 33 29 26 36 28 25 36 28 25 36 28 25 36 28 25 36 28 25 36 28 25 36 28 25 37 29 26 37 29 26 37 29 26 37 29 26 37 29 26 37 29 26 37 29 26 37 29 26 40 33 27 40 33 27 40 33 27 40 33 27 40 33 27 40 33 27 40 33 27 40 33 27 39 32 26 39 32 26 39 32 26 39 32 26 39 32 26 39 32 26 39 32 26 39 32 26
105 76 94 108 81 98 112 83 101 112 85 102 111 82 100 112 85 102 115 86 104 117 90 107 122 93 111 124 97 114 127 98 116 126 102 118 116 98 114 113 99 114 113 99 114 113 99 114 113 99 114 113 99 114 113 99 114 113 99 114 114 100 115 114 100 115 114 100 115 114 100 115 114 100 115 114 100 115 114 100 115 114 100 115 114 97 113 114 97 113 114 97 113 114 97 113 114 97 113 114 97 113 114 97 113 114 97 113 111 94 110 111 94 110 111 94 110 111 94 110 111 94 110 111 94 110 111 94 110 114 93 110 122 95 112 123 94 112 125 94 112 123 94 112 125 94 112 123 94 112 125 94 112 123 94 112 126 95 113 124 95 113 126 95 113 124 95 113 126 95 113 124 95 113 126 95 113 121 97 113 114 102 112 108 103 110 106 101 108 103 98 105 99 94 101 96 91 98 94 89 96 92 87 94 70 65 72 70 65 72 70 65 72 70 65 72 70 65 72 70 65 72 70 65 72 68 66 71 65 69 72 66 72 72 68 74 74 71 77 77 75 81 81 78 84 84 80 86 86 82 88 88 75 81 81 77 83 83 79 85 85 82 88 88 86 92 92 89 95 95 91 97 97 93 99 99 74 79 83 72 77 81 70 75 79 67 72 76 63 68 72 60 65 69 58 63 67 56 61 65 37 42 46 37 42 46 36 41 45 35 40 44 35 40 44 34 39 43 33 38 42 31 39 42 20 28 30 19 29 30 19 29 30 19 29 30 19 29 30 19 29 30 19 29 30 19 29 30 14 24 25 14 24 25 14 24 25 14 24 25 14 24 25 14 24 25 14 24 25 14 24 23 13 22 21 13 22 19 13 22 19 13 22 19 13 22 19 13 22 19 13 22 19 13 22 19 16 25 22 16 25 22 16 25 22 16 25 22 16 25 22 16 25 22 16 25 22 19 24 20 33 29 26 36 28 25 36 28 25 36 28 25 36 28 25 36 28 25 36 28 25 36 28 25 37 29 26 37 29 26 37 29 26 37 29 26 37 29 26 37 29 26 37 29 26 37 29 26 40 33 27 40 33 27 40 33 27 40 33 27 40 33 27 40 33 27 40 33 27 40 33 27 39 32 26 39 32 26 39 32 26 39 32 26 39 32 26 39 32 26 39 32 26 39 32 26
