P3
172 37
255
122 103 133 122 103 131 122 103 133 122 103 131 114 95 125 114 95 123 114 95 125 114 95 123 114 95 125 114 95 123 114 95 125 114 95 123 105 89 118 104 90 116 104 89 118 104 90 116 104 89 118 104 90 116 104 89 118 104 90 116 75 60 89 74 60 86 71 56 85 68 54 80 65 50 79 61 47 73 59 44 73 58 44 70 35 22 50 31 21 46 30 17 45 24 14 39 21 8 36 15 5 30 14 1 29 11 1 26 14 1 29 12 2 27 15 2 30 13 3 28 16 3 31 15 5 30 17 4 32 11 7 30 0 6 26 0 9 24 0 9 26 0 9 24 0 9 26 0 9 24 0 9 26 0 9 24 0 10 27 0 10 25 0 10 27 0 10 25 0 10 27 0 10 25 0 10 27 0 10 25 0 13 27 0 13 26 0 13 27 0 13 26 0 13 27 0 13 26 0 13 27 0 13 26 0 12 26 0 12 25 0 12 26 0 12 25 0 12 26 0 12 25 0 12 26 0 13 21 0 18 15 0 19 10 0 19 10 0 19 10 0 19 10 0 19 10 0 19 10 0 19 10 0 20 11 0 20 11 0 20 11 0 20 11 0 20 11 0 20 11 0 20 11 0 20 11 0 22 13 0 22 13 0 22 13 0 22 13 0 22 13 0 22 13 0 22 13 0 22 13 0 26 17 0 24 15 0 22 13 0 19 10 0 15 6 0 12 3 0 10 1 0 9 0 0 16 5 0 16 5 0 16 5 0 16 5 0 16 5 0 16 5 0 16 5 0 16 5 4 30 19 6 32 21 11 37 26 18 44 33 24 50 39 31 57 46 36 62 51 38 64 51 37 63 50 40 67 52 45 72 57 51 78 63 58 85 70 64 91 76 69 96 81 72 99 84 80 107 92 81 108 93 84 111 96 87 114 99 90 117 102 94 121 106 96 123 108 97 124 109 83 105 93 73 95 83 58 80 68 43 65 53 32 54 42 28 50 38 29 51 39 31 53 41 27 49 37 27 49 37 27 49 37 27 49 37 27 49 37 27 49 37 27 49 37 27 49 37 25 46 37 25 46 37 25 46 37 25 46 37 25 46 37 25 46 37 25 46 37 25 46 37 27 48 39 27 48 39 27 48 39 27 48 39 27 48 39 27 48 39 27 48 39 27 48 39
120 104 131 120 104 131 120 104 131 120 104 131 112 96 123 112 96 123 112 96 123 112 96 123 112 96 123 112 96 123 112 96 123 111 97 123 101 91 116 100 92 116 100 92 116 100 92 116 100 92 116 100 92 116 100 92 116 100 92 116 63 55 79 61 53 77 59 51 75 56 48 72 52 44 68 49 41 65 47 39 63 45 37 61 18 8 33 20 7 33 19 6 32 19 6 32 18 5 31 17 4 30 17 4 30 16 3 29 17 4 30 17 4 30 18 5 31 19 6 32 21 8 34 22 9 35 23 10 36 17 13 36 0 6 24 0 9 24 0 8 24 0 9 24 0 8 24 0 9 24 0 8 24 0 9 24 0 9 25 0 10 25 0 9 25 0 10 25 0 9 25 0 10 25 0 9 25 0 10 24 0 13 24 0 13 24 0 13 24 0 13 24 0 13 24 0 13 24 0 13 24 0 13 24 0 12 23 0 12 23 0 12 23 0 12 23 0 12 23 0 12 23 0 12 23 0 13 19 0 18 15 0 19 12 0 19 12 0 19 12 0 19 12 0 19 12 0 19 12 0 19 12 0 20 13 0 20 13 0 20 13 0 20 13 0 20 13 0 20 13 0 20 13 0 20 13 0 21 15 0 22 13 0 21 15 0 22 13 0 21 15 0 22 13 0 21 15 0 22 13 0 25 19 0 24 15 0 21 15 0 19 10 0 14 8 0 12 3 0 9 3 0 9 0 0 16 7 0 16 5 0 16 5 0 16 5 0 16 5 0 16 5 0 16 5 0 16 5 4 30 19 6 32 21 11 37 26 18 44 33 24 50 39 31 57 46 36 62 51 38 64 53 36 62 49 39 66 51 44 70 57 50 77 62 57 83 70 63 90 75 68 94 81 71 98 83 79 105 92 80 107 92 82 108 95 86 113 98 89 115 102 92 119 104 95 121 108 98 122 109 83 105 93 73 95 83 59 79 68 43 65 53 33 53 42 28 50 38 30 50 39 31 53 41 28 48 37 27 49 37 28 48 37 27 49 37 28 48 37 27 49 37 28 48 37 27 49 37 26 46 37 25 46 37 26 46 37 25 46 37 26 46 37 25 46 37 26 46 37 25 46 37 28 48 39 27 48 39 28 48 39 27 48 39 28 48 39 27 48 39 28 48 39 27 48 39
109 97 119 107 95 117 105 93 115 104 92 114 104 92 114 104 92 114 104 92 114 104 92 114 104 92 114 104 92 114 104 92 114 102 93 114 95 86 105 91 84 102 85 78 96 77 70 88 69 62 80 62 55 73 56 49 67 53 46 64 21 14 32 21 14 32 21 14 32 21 14 32 21 14 32 21 14 32 21 14 32 21 14 32 7 3 20 7 3 20 7 3 20 7 3 20 7 3 20 7 3 20 7 3 20 7 3 20 6 2 19 6 2 19 6 2 19 6 2 19 6 2 19 6 2 19 6 2 19 5 2 19 2 4 19 0 5 19 1 4 19 0 5 19 1 4 19 0 5 19 1 4 19 0 5 19 2 5 20 0 6 20 2 5 20 0 6 20 2 5 20 0 6 20 2 5 20 0 6 18 0 9 18 0 10 16 0 10 16 0 10 16 0 10 16 0 10 16 0 10 16 0 10 16 2 13 19 2 13 19 2 13 19 2 13 19 2 13 19 2 13 19 2 13 19 2 13 17 2 16 17 2 16 16 2 16 16 2 16 16 2 16 16 2 16 16 2 16 16 2 16 16 6 20 20 6 20 20 6 20 20 6 20 20 6 20 20 6 20 20 6 20 20 6 20 20 1 13 13 1 13 11 1 13 13 1 13 11 1 13 13 1 13 11 1 13 13 1 13 11 15 27 27 13 25 23 11 23 23 8 20 18 4 16 16 1 13 11 0 11 11 0 9 7 0 11 7 0 11 7 0 11 7 0 11 7 0 11 7 0 11 7 0 11 7 0 11 7 9 21 17 11 23 19 16 28 24 23 35 31 29 41 37 36 48 44 41 53 49 43 56 49 49 60 54 51 62 54 53 64 58 56 67 59 60 71 65 63 74 66 65 76 70 67 78 70 82 93 87 83 94 86 86 97 91 89 100 92 92 103 97 96 107 99 98 109 103 99 110 102 91 98 91 81 88 81 67 72 66 51 58 51 41 46 40 36 43 36 38 43 37 39 46 39 37 42 36 36 43 36 37 42 36 36 43 36 37 42 36 36 43 36 37 42 36 36 43 36 35 40 34 34 41 34 35 40 34 34 41 34 35 40 34 34 41 34 35 40 34 34 41 34 33 38 32 32 39 32 33 38 32 32 39 32 33 38 32 32 39 32 33 38 32 32 38 34
105 96 115 103 94 113 101 92 111 100 91 110 94 85 104 94 85 104 94 85 104 94 85 104 94 85 104 94 85 104 94 85 104 94 85 104 81 74 90 78 71 87 73 66 82 66 59 75 59 52 68 52 45 61 46 39 55 44 37 53 19 12 28 19 12 28 19 12 28 19 12 28 19 12 28 19 12 28 19 12 28 17 13 28 7 3 18 6 4 18 6 4 18 6 4 18 6 4 18 6 4 18 6 4 18 6 4 18 5 3 17 5 3 17 5 3 17 5 3 17 5 3 17 5 3 17 5 3 17 5 3 17 5 3 17 5 3 17 5 3 17 5 3 17 5 3 17 5 3 17 5 3 17 5 3 17 6 4 18 6 4 18 6 4 18 6 4 18 6 4 18 6 4 18 6 4 18 5 5 17 4 7 14 3 8 12 3 8 12 3 8 12 3 8 12 3 8 12 3 8 12 3 8 12 6 11 15 6 11 15 6 11 15 6 11 15 6 11 15 6 11 15 6 11 15 6 11 15 6 14 17 6 14 17 6 14 17 6 14 17 6 14 17 6 14 17 6 14 17 6 14 17 10 18 21 10 18 21 10 18 21 10 18 21 10 18 21 10 18 21 10 18 21 10 18 21 7 12 15 7 12 15 7 12 15 7 12 15 7 12 15 7 12 15 7 12 15 7 12 15 19 24 27 17 22 25 15 20 23 12 17 20 8 13 16 5 10 13 3 8 11 1 7 7 3 9 9 3 9 7 3 9 7 3 9 7 3 9 7 3 9 7 3 9 7 3 9 7 13 19 17 15 21 19 20 26 24 27 33 31 33 39 37 40 46 44 45 51 49 47 53 51 53 58 54 55 60 56 57 62 58 60 65 61 64 69 65 67 72 68 69 74 70 71 76 72 85 90 86 86 91 87 88 93 89 92 97 93 95 100 96 98 103 99 101 106 102 104 106 103 95 96 91 86 85 81 71 70 66 56 55 51 45 44 40 41 40 36 42 41 37 44 43 39 41 40 36 41 40 36 41 40 36 41 40 36 41 40 36 41 40 36 41 40 36 41 40 36 39 38 34 39 38 34 39 38 34 39 38 34 39 38 34 39 38 34 39 38 34 39 38 34 37 36 32 37 36 32 37 36 32 37 36 32 37 36 32 37 36 32 37 36 32 37 36 32
100 91 110 97 88 107 94 85 104 92 83 102 79 70 89 79 70 89 79 70 89 79 70 89 79 70 89 79 70 89 79 70 89 79 70 89 60 53 69 58 51 67 53 46 62 48 41 57 42 35 51 36 29 45 32 25 41 29 22 38 17 10 26 17 10 26 17 10 26 17 10 26 17 10 26 17 10 26 17 10 26 15 11 26 7 3 18 6 4 18 6 4 18 6 4 18 6 4 18 6 4 18 6 4 18 6 4 18 5 3 17 5 3 17 5 3 17 5 3 17 5 3 17 5 3 17 5 3 17 5 3 17 5 3 17 5 3 17 5 3 17 5 3 17 5 3 17 5 3 17 5 3 17 5 3 17 6 4 18 6 4 18 6 4 18 6 4 18 6 4 18 6 4 18 6 4 18 5 5 17 4 7 14 3 8 12 3 8 12 3 8 12 3 8 12 3 8 12 3 8 12 3 8 12 6 11 15 6 11 15 6 11 15 6 11 15 6 11 15 6 11 15 6 11 15 6 11 15 6 14 17 6 14 17 6 14 17 6 14 17 6 14 17 6 14 17 6 14 17 6 14 17 10 18 21 10 18 21 10 18 21 10 18 21 10 18 21 10 18 21 10 18 21 10 18 21 9 14 17 9 14 17 9 14 17 9 14 17 9 14 17 9 14 17 9 14 17 9 14 17 19 24 27 17 22 25 15 20 23 12 17 20 8 13 16 5 10 13 3 8 11 1 7 7 3 9 9 3 9 7 3 9 7 3 9 7 3 9 7 3 9 7 3 9 7 3 9 7 13 19 17 15 21 19 20 26 24 27 33 31 33 39 37 40 46 44 45 51 49 47 53 51 53 58 54 55 60 56 57 62 58 60 65 61 64 69 65 67 72 68 69 74 70 71 76 72 82 87 83 84 89 85 86 91 87 89 94 90 93 98 94 96 101 97 98 103 99 102 104 101 95 96 91 86 85 81 71 70 66 56 55 51 45 44 40 41 40 36 42 41 37 44 43 39 41 40 36 41 40 36 41 40 36 41 40 36 41 40 36 41 40 36 41 40 36 41 40 36 39 38 34 39 38 34 39 38 34 39 38 34 39 38 34 39 38 34 39 38 34 39 38 34 37 36 32 37 36 32 37 36 32 37 36 32 37 36 32 37 36 32 37 36 32 37 36 32
89 80 99 84 75 94 80 71 90 77 68 87 60 51 70 60 51 70 60 51 70 60 51 70 60 51 70 60 51 70 60 51 70 60 51 70 37 30 46 36 29 45 33 26 42 28 21 37 24 17 33 20 13 29 17 10 26 15 8 24 14 7 23 14 7 23 14 7 23 14 7 23 14 7 23 14 7 23 14 7 23 12 8 23 7 3 18 6 4 18 6 4 18 6 4 18 6 4 18 6 4 18 6 4 18 6 4 18 5 3 17 5 3 17 5 3 17 5 3 17 5 3 17 5 3 17 5 3 17 5 3 17 5 3 17 5 3 17 5 3 17 5 3 17 5 3 17 5 3 17 5 3 17 5 3 17 6 4 18 6 4 18 6 4 18 6 4 18 6 4 18 6 4 18 6 4 18 5 5 17 4 7 14 3 8 12 3 8 12 3 8 12 3 8 12 3 8 12 3 8 12 3 8 12 6 11 15 6 11 15 6 11 15 6 11 15 6 11 15 6 11 15 6 11 15 6 11 15 6 14 17 6 14 17 6 14 17 6 14 17 6 14 17 6 14 17 6 14 17 6 14 17 10 18 21 10 18 21 10 18 21 10 18 21 10 18 21 10 18 21 10 18 21 10 18 21 12 17 20 12 17 20 12 17 20 12 17 20 12 17 20 12 17 20 12 17 20 12 17 20 19 24 27 17 22 25 15 20 23 12 17 20 8 13 16 5 10 13 3 8 11 1 7 7 3 9 9 3 9 7 3 9 7 3 9 7 3 9 7 3 9 7 3 9 7 3 9 7 13 19 17 15 21 19 20 26 24 27 33 31 33 39 37 40 46 44 45 51 49 47 53 51 53 58 54 55 60 56 57 62 58 60 65 61 64 69 65 67 72 68 69 74 70 71 76 72 79 84 80 80 85 81 83 88 84 86 91 87 89 94 90 93 98 94 95 100 96 98 100 97 95 96 91 86 85 81 71 70 66 56 55 51 45 44 40 41 40 36 42 41 37 44 43 39 41 40 36 41 40 36 41 40 36 41 40 36 41 40 36 41 40 36 41 40 36 41 40 36 39 38 34 39 38 34 39 38 34 39 38 34 39 38 34 39 38 34 39 38 34 39 38 34 37 36 32 37 36 32 37 36 32 37 36 32 37 36 32 37 36 32 37 36 32 37 36 32
71 62 81 64 55 74 58 49 68 55 46 65 40 31 50 40 31 50 40 31 50 40 31 50 40 31 50 40 31 50 40 31 50 40 31 50 19 12 28 18 11 27 16 9 25 14 7 23 11 4 20 9 2 18 7 0 16 6 0 15 10 3 19 10 3 19 10 3 19 10 3 19 10 3 19 10 3 19 10 3 19 8 4 19 7 3 18 6 4 18 6 4 18 6 4 18 6 4 18 6 4 18 6 4 18 6 4 18 5 3 17 5 3 17 5 3 17 5 3 17 5 3 17 5 3 17 5 3 17 5 3 17 5 3 17 5 3 17 5 3 17 5 3 17 5 3 17 5 3 17 5 3 17 5 3 17 6 4 18 6 4 18 6 4 18 6 4 18 6 4 18 6 4 18 6 4 18 5 5 17 4 7 14 3 8 12 3 8 12 3 8 12 3 8 12 3 8 12 3 8 12 3 8 12 6 11 15 6 11 15 6 11 15 6 11 15 6 11 15 6 11 15 6 11 15 6 11 15 6 14 17 6 14 17 6 14 17 6 14 17 6 14 17 6 14 17 6 14 17 6 14 17 10 18 21 10 18 21 10 18 21 10 18 21 10 18 21 10 18 21 10 18 21 10 18 21 16 21 24 16 21 24 16 21 24 16 21 24 16 21 24 16 21 24 16 21 24 16 21 24 19 24 27 17 22 25 15 20 23 12 17 20 8 13 16 5 10 13 3 8 11 1 7 7 3 9 9 3 9 7 3 9 7 3 9 7 3 9 7 3 9 7 3 9 7 3 9 7 13 19 17 15 21 19 20 26 24 27 33 31 33 39 37 40 46 44 45 51 49 47 53 51 53 58 54 55 60 56 57 62 58 60 65 61 64 69 65 67 72 68 69 74 70 71 76 72 76 81 77 77 82 78 79 84 80 83 88 84 86 91 87 89 94 90 92 97 93 95 97 94 95 96 91 86 85 81 71 70 66 56 55 51 45 44 40 41 40 36 42 41 37 44 43 39 41 40 36 41 40 36 41 40 36 41 40 36 41 40 36 41 40 36 41 40 36 41 40 36 39 38 34 39 38 34 39 38 34 39 38 34 39 38 34 39 38 34 39 38 34 39 38 34 37 36 32 37 36 32 37 36 32 37 36 32 37 36 32 37 36 32 37 36 32 37 36 32
49 40 59 40 31 50 33 24 43 29 20 39 21 12 31 21 12 31 21 12 31 21 12 31 21 12 31 21 12 31 21 12 31 21 12 31 7 0 16 7 0 16 6 0 15 6 0 15 5 0 14 4 0 13 4 0 13 4 0 13 7 0 16 7 0 16 7 0 16 7 0 16 7 0 16 7 0 16 7 0 16 5 1 16 7 3 18 6 4 18 6 4 18 6 4 18 6 4 18 6 4 18 6 4 18 6 4 18 5 3 17 5 3 17 5 3 17 5 3 17 5 3 17 5 3 17 5 3 17 5 3 17 5 3 17 5 3 17 5 3 17 5 3 17 5 3 17 5 3 17 5 3 17 5 3 17 6 4 18 6 4 18 6 4 18 6 4 18 6 4 18 6 4 18 6 4 18 5 5 17 4 7 14 3 8 12 3 8 12 3 8 12 3 8 12 3 8 12 3 8 12 3 8 12 6 11 15 6 11 15 6 11 15 6 11 15 6 11 15 6 11 15 6 11 15 6 11 15 6 14 17 6 14 17 6 14 17 6 14 17 6 14 17 6 14 17 6 14 17 6 14 17 10 18 21 10 18 21 10 18 21 10 18 21 10 18 21 10 18 21 10 18 21 10 18 21 19 24 27 19 24 27 19 24 27 19 24 27 19 24 27 19 24 27 19 24 27 19 24 27 19 24 27 17 22 25 15 20 23 12 17 20 8 13 16 5 10 13 3 8 11 1 7 7 3 9 9 3 9 7 3 9 7 3 9 7 3 9 7 3 9 7 3 9 7 3 9 7 13 19 17 15 21 19 20 26 24 27 33 31 33 39 37 40 46 44 45 51 49 47 53 51 53 58 54 55 60 56 57 62 58 60 65 61 64 69 65 67 72 68 69 74 70 71 76 72 72 77 73 74 79 75 76 81 77 79 84 80 83 88 84 86 91 87 88 93 89 92 94 91 95 96 91 86 85 81 71 70 66 56 55 51 45 44 40 41 40 36 42 41 37 44 43 39 41 40 36 41 40 36 41 40 36 41 40 36 41 40 36 41 40 36 41 40 36 41 40 36 39 38 34 39 38 34 39 38 34 39 38 34 39 38 34 39 38 34 39 38 34 39 38 34 37 36 32 37 36 32 37 36 32 37 36 32 37 36 32 37 36 32 37 36 32 37 36 32
28 19 38 18 9 28 10 1 20 6 0 16 6 0 16 6 0 16 6 0 16 6 0 16 6 0 16 6 0 16 6 0 16 6 0 16 3 0 12 3 0 12 3 0 12 3 0 12 4 0 13 4 0 13 5 0 14 5 0 14 5 0 14 5 0 14 5 0 14 5 0 14 5 0 14 5 0 14 5 0 14 3 0 14 7 3 18 6 4 18 6 4 18 6 4 18 6 4 18 6 4 18 6 4 18 6 4 18 5 3 17 5 3 17 5 3 17 5 3 17 5 3 17 5 3 17 5 3 17 5 3 17 5 3 17 5 3 17 5 3 17 5 3 17 5 3 17 5 3 17 5 3 17 5 3 17 6 4 18 6 4 18 6 4 18 6 4 18 6 4 18 6 4 18 6 4 18 5 5 17 4 7 14 3 8 12 3 8 12 3 8 12 3 8 12 3 8 12 3 8 12 3 8 12 6 11 15 6 11 15 6 11 15 6 11 15 6 11 15 6 11 15 6 11 15 6 11 15 6 14 17 6 14 17 6 14 17 6 14 17 6 14 17 6 14 17 6 14 17 6 14 17 10 18 21 10 18 21 10 18 21 10 18 21 10 18 21 10 18 21 10 18 21 10 18 21 21 26 29 21 26 29 21 26 29 21 26 29 21 26 29 21 26 29 21 26 29 21 26 29 19 24 27 17 22 25 15 20 23 12 17 20 8 13 16 5 10 13 3 8 11 1 7 7 3 9 9 3 9 7 3 9 7 3 9 7 3 9 7 3 9 7 3 9 7 3 9 7 13 19 17 15 21 19 20 26 24 27 33 31 33 39 37 40 46 44 45 51 49 47 53 51 53 58 54 55 60 56 57 62 58 60 65 61 64 69 65 67 72 68 69 74 70 71 76 72 70 75 71 71 76 72 74 79 75 77 82 78 80 85 81 84 89 85 86 91 87 89 91 88 95 96 91 86 85 81 71 70 66 56 55 51 45 44 40 41 40 36 42 41 37 44 43 39 41 40 36 41 40 36 41 40 36 41 40 36 41 40 36 41 40 36 41 40 36 41 40 36 39 38 34 39 38 34 39 38 34 39 38 34 39 38 34 39 38 34 39 38 34 39 38 34 37 36 32 37 36 32 37 36 32 37 36 32 37 36 32 37 36 32 37 36 32 37 36 32
15 6 25 4 0 14 4 0 14 4 0 14 4 0 14 4 0 14 4 0 14 4 0 14 4 0 14 4 0 14 4 0 14 4 0 14 3 0 12 3 0 12 3 0 12 3 0 12 5 0 14 6 0 15 7 0 16 7 0 16 3 0 12 3 0 12 3 0 12 3 0 12 3 0 12 3 0 12 3 0 12 1 0 12 7 3 18 6 4 18 6 4 18 6 4 18 6 4 18 6 4 18 6 4 18 6 4 18 5 3 17 5 3 17 5 3 17 5 3 17 5 3 17 5 3 17 5 3 17 5 3 17 5 3 17 5 3 17 5 3 17 5 3 17 5 3 17 5 3 17 5 3 17 5 3 17 6 4 18 6 4 18 6 4 18 6 4 18 6 4 18 6 4 18 6 4 18 5 5 17 4 7 14 3 8 12 3 8 12 3 8 12 3 8 12 3 8 12 3 8 12 3 8 12 6 11 15 6 11 15 6 11 15 6 11 15 6 11 15 6 11 15 6 11 15 6 11 15 6 14 17 6 14 17 6 14 17 6 14 17 6 14 17 6 14 17 6 14 17 6 14 17 10 18 21 10 18 21 10 18 21 10 18 21 10 18 21 10 18 21 10 18 21 10 18 21 23 28 31 23 28 31 23 28 31 23 28 31 23 28 31 23 28 31 23 28 31 23 28 31 19 24 27 17 22 25 15 20 23 12 17 20 8 13 16 5 10 13 3 8 11 1 7 7 3 9 9 3 9 7 3 9 7 3 9 7 3 9 7 3 9 7 3 9 7 3 9 7 13 19 17 15 21 19 20 26 24 27 33 31 33 39 37 40 46 44 45 51 49 47 53 51 53 58 54 55 60 56 57 62 58 60 65 61 64 69 65 67 72 68 69 74 70 71 76 72 69 74 70 70 75 71 72 77 73 76 81 77 79 84 80 82 87 83 85 90 86 88 90 87 95 96 91 86 85 81 71 70 66 56 55 51 45 44 40 41 40 36 42 41 37 44 43 39 41 40 36 41 40 36 41 40 36 41 40 36 41 40 36 41 40 36 41 40 36 41 40 36 39 38 34 39 38 34 39 38 34 39 38 34 39 38 34 39 38 34 39 38 34 39 38 34 37 36 32 37 36 32 37 36 32 37 36 32 37 36 32 37 36 32 37 36 32 37 36 32
10 1 20 10 1 20 10 1 20 10 1 20 7 0 17 7 0 17 7 0 17 7 0 17 7 0 17 7 0 17 7 0 17 7 0 17 7 0 16 7 0 16 7 0 16 7 0 16 7 0 16 7 0 16 7 0 16 7 0 16 7 0 16 7 0 16 7 0 16 7 0 16 7 0 16 7 0 16 7 0 16 5 1 16 5 1 16 4 2 16 4 2 16 4 2 16 4 2 16 4 2 16 4 2 16 4 2 16 3 1 15 3 1 15 3 1 15 3 1 15 3 1 15 3 1 15 3 1 15 3 1 15 4 2 16 4 2 16 4 2 16 4 2 16 4 2 16 4 2 16 4 2 16 4 2 16 5 3 17 5 3 17 5 3 17 5 3 17 5 3 17 5 3 17 5 3 17 4 4 16 4 7 14 3 8 12 3 8 12 3 8 12 3 8 12 3 8 12 3 8 12 3 8 12 7 12 16 7 12 16 7 12 16 7 12 16 7 12 16 7 12 16 7 12 16 7 12 16 11 19 22 10 18 21 9 17 20 8 16 19 7 15 18 5 13 16 5 13 16 4 12 15 18 26 29 20 28 31 24 32 35 28 36 39 33 41 44 37 45 48 41 49 52 42 50 53 42 47 50 40 45 48 38 43 46 35 40 43 31 36 39 28 33 36 26 31 34 24 29 32 15 20 23 13 18 21 11 16 19 8 13 16 4 9 12 1 6 9 0 4 7 0 3 3 2 8 8 2 8 6 2 8 6 2 8 6 2 8 6 2 8 6 2 8 6 2 8 6 15 21 19 17 23 21 19 25 23 22 28 26 26 32 30 29 35 33 31 37 35 33 39 37 41 46 42 43 48 44 45 50 46 48 53 49 52 57 53 55 60 56 57 62 58 59 64 60 73 78 74 73 78 74 73 78 74 73 78 74 73 78 74 73 78 74 73 78 74 75 77 74 68 69 64 67 66 62 62 61 57 55 54 50 49 48 44 42 41 37 37 36 32 35 34 30 34 33 29 34 33 29 34 33 29 34 33 29 34 33 29 34 33 29 34 33 29 34 33 29 34 33 29 34 33 29 34 33 29 34 33 29 34 33 29 34 33 29 34 33 29 34 33 29 36 35 31 36 35 31 36 35 31 36 35 31 36 35 31 36 35 31 36 35 31 36 35 31
10 1 20 10 1 20 10 1 20 10 1 20 7 0 17 7 0 17 7 0 17 7 0 17 7 0 17 7 0 17 7 0 17 7 0 17 7 0 16 7 0 16 7 0 16 7 0 16 7 0 16 7 0 16 7 0 16 7 0 16 7 0 16 7 0 16 7 0 16 7 0 16 7 0 16 7 0 16 7 0 16 5 1 16 5 1 16 4 2 16 4 2 16 4 2 16 4 2 16 4 2 16 4 2 16 4 2 16 3 1 15 3 1 15 3 1 15 3 1 15 3 1 15 3 1 15 3 1 15 3 1 15 4 2 16 4 2 16 4 2 16 4 2 16 4 2 16 4 2 16 4 2 16 4 2 16 5 3 17 5 3 17 5 3 17 5 3 17 5 3 17 5 3 17 5 3 17 4 4 16 4 7 14 3 8 12 3 8 12 3 8 12 3 8 12 3 8 12 3 8 12 3 8 12 7 12 16 7 12 16 7 12 16 7 12 16 7 12 16 7 12 16 7 12 16 7 12 16 10 18 21 10 18 21 10 18 21 9 17 20 8 16 19 8 16 19 7 15 18 7 15 18 21 29 32 23 31 34 26 34 37 30 38 41 34 42 45 37 45 48 40 48 51 42 50 53 42 47 50 40 45 48 38 43 46 35 40 43 31 36 39 28 33 36 26 31 34 24 29 32 15 20 23 13 18 21 11 16 19 8 13 16 4 9 12 1 6 9 0 4 7 0 3 3 2 8 8 2 8 6 2 8 6 2 8 6 2 8 6 2 8 6 2 8 6 2 8 6 15 21 19 17 23 21 19 25 23 22 28 26 26 32 30 29 35 33 31 37 35 33 39 37 41 46 42 43 48 44 45 50 46 48 53 49 52 57 53 55 60 56 57 62 58 59 64 60 71 76 72 71 76 72 71 76 72 71 76 72 71 76 72 71 76 72 71 76 72 73 75 72 68 69 64 67 66 62 62 61 57 55 54 50 49 48 44 42 41 37 37 36 32 35 34 30 34 33 29 34 33 29 34 33 29 34 33 29 34 33 29 34 33 29 34 33 29 34 33 29 34 33 29 34 33 29 34 33 29 34 33 29 34 33 29 34 33 29 34 33 29 34 33 29 36 35 31 36 35 31 36 35 31 36 35 31 36 35 31 36 35 31 36 35 31 36 35 31
10 1 20 10 1 20 10 1 20 10 1 20 7 0 17 7 0 17 7 0 17 7 0 17 7 0 17 7 0 17 7 0 17 7 0 17 7 0 16 7 0 16 7 0 16 7 0 16 7 0 16 7 0 16 7 0 16 7 0 16 7 0 16 7 0 16 7 0 16 7 0 16 7 0 16 7 0 16 7 0 16 5 1 16 5 1 16 4 2 16 4 2 16 4 2 16 4 2 16 4 2 16 4 2 16 4 2 16 3 1 15 3 1 15 3 1 15 3 1 15 3 1 15 3 1 15 3 1 15 3 1 15 4 2 16 4 2 16 4 2 16 4 2 16 4 2 16 4 2 16 4 2 16 4 2 16 5 3 17 5 3 17 5 3 17 5 3 17 5 3 17 5 3 17 5 3 17 4 4 16 4 7 14 3 8 12 3 8 12 3 8 12 3 8 12 3 8 12 3 8 12 3 8 12 7 12 16 7 12 16 7 12 16 7 12 16 7 12 16 7 12 16 7 12 16 7 12 16 9 17 20 10 18 21 10 18 21 11 19 22 11 19 22 12 20 23 13 21 24 13 21 24 27 35 38 28 36 39 30 38 41 33 41 44 35 43 46 38 46 49 40 48 51 41 49 52 42 47 50 40 45 48 38 43 46 35 40 43 31 36 39 28 33 36 26 31 34 24 29 32 15 20 23 13 18 21 11 16 19 8 13 16 4 9 12 1 6 9 0 4 7 0 3 3 2 8 8 2 8 6 2 8 6 2 8 6 2 8 6 2 8 6 2 8 6 2 8 6 15 21 19 17 23 21 19 25 23 22 28 26 26 32 30 29 35 33 31 37 35 33 39 37 41 46 42 43 48 44 45 50 46 48 53 49 52 57 53 55 60 56 57 62 58 59 64 60 69 74 70 69 74 70 69 74 70 69 74 70 69 74 70 69 74 70 69 74 70 71 73 70 68 69 64 67 66 62 62 61 57 55 54 50 49 48 44 42 41 37 37 36 32 35 34 30 34 33 29 34 33 29 34 33 29 34 33 29 34 33 29 34 33 29 34 33 29 34 33 29 34 33 29 34 33 29 34 33 29 34 33 29 34 33 29 34 33 29 34 33 29 34 33 29 36 35 31 36 35 31 36 35 31 36 35 31 36 35 31 36 35 31 36 35 31 36 35 31
10 1 20 10 1 20 10 1 20 10 1 20 7 0 17 7 0 17 7 0 17 7 0 17 7 0 17 7 0 17 7 0 17 7 0 17 7 0 16 7 0 16 7 0 16 7 0 16 7 0 16 7 0 16 7 0 16 7 0 16 7 0 16 7 0 16 7 0 16 7 0 16 7 0 16 7 0 16 7 0 16 5 1 16 5 1 16 4 2 16 4 2 16 4 2 16 4 2 16 4 2 16 4 2 16 4 2 16 3 1 15 3 1 15 3 1 15 3 1 15 3 1 15 3 1 15 3 1 15 3 1 15 4 2 16 4 2 16 4 2 16 4 2 16 4 2 16 4 2 16 4 2 16 4 2 16 5 3 17 5 3 17 5 3 17 5 3 17 5 3 17 5 3 17 5 3 17 4 4 16 4 7 14 3 8 12 3 8 12 3 8 12 3 8 12 3 8 12 3 8 12 3 8 12 7 12 16 7 12 16 7 12 16 7 12 16 7 12 16 7 12 16 7 12 16 7 12 16 8 16 19 9 17 20 11 19 22 13 21 24 16 24 27 18 26 29 20 28 31 21 29 32 35 43 46 35 43 46 36 44 47 37 45 48 38 46 49 39 47 50 39 47 50 40 48 51 42 47 50 40 45 48 38 43 46 35 40 43 31 36 39 28 33 36 26 31 34 24 29 32 15 20 23 13 18 21 11 16 19 8 13 16 4 9 12 1 6 9 0 4 7 0 3 3 2 8 8 2 8 6 2 8 6 2 8 6 2 8 6 2 8 6 2 8 6 2 8 6 15 21 19 17 23 21 19 25 23 22 28 26 26 32 30 29 35 33 31 37 35 33 39 37 41 46 42 43 48 44 45 50 46 48 53 49 52 57 53 55 60 56 57 62 58 59 64 60 66 71 67 66 71 67 66 71 67 66 71 67 66 71 67 66 71 67 66 71 67 68 70 67 68 69 64 67 66 62 62 61 57 55 54 50 49 48 44 42 41 37 37 36 32 35 34 30 34 33 29 34 33 29 34 33 29 34 33 29 34 33 29 34 33 29 34 33 29 34 33 29 34 33 29 34 33 29 34 33 29 34 33 29 34 33 29 34 33 29 34 33 29 34 33 29 36 35 31 36 35 31 36 35 31 36 35 31 36 35 31 36 35 31 36 35 31 36 35 31
10 1 20 10 1 20 10 1 20 10 1 20 7 0 17 7 0 17 7 0 17 7 0 17 7 0 17 7 0 17 7 0 17 7 0 17 7 0 16 7 0 16 7 0 16 7 0 16 7 0 16 7 0 16 7 0 16 7 0 16 7 0 16 7 0 16 7 0 16 7 0 16 7 0 16 7 0 16 7 0 16 5 1 16 5 1 16 4 2 16 4 2 16 4 2 16 4 2 16 4 2 16 4 2 16 4 2 16 3 1 15 3 1 15 3 1 15 3 1 15 3 1 15 3 1 15 3 1 15 3 1 15 4 2 16 4 2 16 4 2 16 4 2 16 4 2 16 4 2 16 4 2 16 4 2 16 5 3 17 5 3 17 5 3 17 5 3 17 5 3 17 5 3 17 5 3 17 4 4 16 4 7 14 3 8 12 3 8 12 3 8 12 3 8 12 3 8 12 3 8 12 3 8 12 7 12 16 7 12 16 7 12 16 7 12 16 7 12 16 7 12 16 7 12 16 7 12 16 7 15 18 8 16 19 11 19 22 16 24 27 20 28 31 24 32 35 27 35 38 29 37 40 43 51 54 43 51 54 42 50 53 41 49 52 40 48 51 39 47 50 39 47 50 38 46 49 42 47 50 40 45 48 38 43 46 35 40 43 31 36 39 28 33 36 26 31 34 24 29 32 15 20 23 13 18 21 11 16 19 8 13 16 4 9 12 1 6 9 0 4 7 0 3 3 2 8 8 2 8 6 2 8 6 2 8 6 2 8 6 2 8 6 2 8 6 2 8 6 15 21 19 17 23 21 19 25 23 22 28 26 26 32 30 29 35 33 31 37 35 33 39 37 41 46 42 43 48 44 45 50 46 48 53 49 52 57 53 55 60 56 57 62 58 59 64 60 62 67 63 62 67 63 62 67 63 62 67 63 62 67 63 62 67 63 62 67 63 64 66 63 68 69 64 67 66 62 62 61 57 55 54 50 49 48 44 42 41 37 37 36 32 35 34 30 34 33 29 34 33 29 34 33 29 34 33 29 34 33 29 34 33 29 34 33 29 34 33 29 34 33 29 34 33 29 34 33 29 34 33 29 34 33 29 34 33 29 34 33 29 34 33 29 36 35 31 36 35 31 36 35 31 36 35 31 36 35 31 36 35 31 36 35 31 36 35 31
10 1 20 10 1 20 10 1 20 10 1 20 7 0 17 7 0 17 7 0 17 7 0 17 7 0 17 7 0 17 7 0 17 7 0 17 7 0 16 7 0 16 7 0 16 7 0 16 7 0 16 7 0 16 7 0 16 7 0 16 7 0 16 7 0 16 7 0 16 7 0 16 7 0 16 7 0 16 7 0 16 5 1 16 5 1 16 4 2 16 4 2 16 4 2 16 4 2 16 4 2 16 4 2 16 4 2 16 3 1 15 3 1 15 3 1 15 3 1 15 3 1 15 3 1 15 3 1 15 3 1 15 4 2 16 4 2 16 4 2 16 4 2 16 4 2 16 4 2 16 4 2 16 4 2 16 5 3 17 5 3 17 5 3 17 5 3 17 5 3 17 5 3 17 5 3 17 4 4 16 4 7 14 3 8 12 3 8 12 3 8 12 3 8 12 3 8 12 3 8 12 3 8 12 7 12 16 7 12 16 7 12 16 7 12 16 7 12 16 7 12 16 7 12 16 7 12 16 5 13 16 8 16 19 12 20 23 18 26 29 24 32 35 30 38 41 34 42 45 36 44 47 51 59 62 50 58 61 48 56 59 45 53 56 43 51 54 40 48 51 38 46 49 37 45 48 42 47 50 40 45 48 38 43 46 35 40 43 31 36 39 28 33 36 26 31 34 24 29 32 15 20 23 13 18 21 11 16 19 8 13 16 4 9 12 1 6 9 0 4 7 0 3 3 2 8 8 2 8 6 2 8 6 2 8 6 2 8 6 2 8 6 2 8 6 2 8 6 15 21 19 17 23 21 19 25 23 22 28 26 26 32 30 29 35 33 31 37 35 33 39 37 41 46 42 43 48 44 45 50 46 48 53 49 52 57 53 55 60 56 57 62 58 59 64 60 59 64 60 59 64 60 59 64 60 59 64 60 59 64 60 59 64 60 59 64 60 61 63 60 68 69 64 67 66 62 62 61 57 55 54 50 49 48 44 42 41 37 37 36 32 35 34 30 34 33 29 34 33 29 34 33 29 34 33 29 34 33 29 34 33 29 34 33 29 34 33 29 34 33 29 34 33 29 34 33 29 34 33 29 34 33 29 34 33 29 34 33 29 34 33 29 36 35 31 36 35 31 36 35 31 36 35 31 36 35 31 36 35 31 36 35 31 36 35 31
10 1 20 10 1 20 10 1 20 10 1 20 7 0 17 7 0 17 7 0 17 7 0 17 7 0 17 7 0 17 7 0 17 7 0 17 7 0 16 7 0 16 7 0 16 7 0 16 7 0 16 7 0 16 7 0 16 7 0 16 7 0 16 7 0 16 7 0 16 7 0 16 7 0 16 7 0 16 7 0 16 5 1 16 5 1 16 4 2 16 4 2 16 4 2 16 4 2 16 4 2 16 4 2 16 4 2 16 3 1 15 3 1 15 3 1 15 3 1 15 3 1 15 3 1 15 3 1 15 3 1 15 4 2 16 4 2 16 4 2 16 4 2 16 4 2 16 4 2 16 4 2 16 4 2 16 5 3 17 5 3 17 5 3 17 5 3 17 5 3 17 5 3 17 5 3 17 4 4 16 4 7 14 3 8 12 3 8 12 3 8 12 3 8 12 3 8 12 3 8 12 3 8 12 7 12 16 7 12 16 7 12 16 7 12 16 7 12 16 7 12 16 7 12 16 7 12 16 4 12 15 7 15 18 13 21 24 20 28 31 27 35 38 34 42 45 39 47 50 42 50 53 57 65 68 55 63 66 52 60 63 48 56 59 44 52 55 41 49 52 38 46 49 36 44 47 42 47 50 40 45 48 38 43 46 35 40 43 31 36 39 28 33 36 26 31 34 24 29 32 15 20 23 13 18 21 11 16 19 8 13 16 4 9 12 1 6 9 0 4 7 0 3 3 2 8 8 2 8 6 2 8 6 2 8 6 2 8 6 2 8 6 2 8 6 2 8 6 15 21 19 17 23 21 19 25 23 22 28 26 26 32 30 29 35 33 31 37 35 33 39 37 41 46 42 43 48 44 45 50 46 48 53 49 52 57 53 55 60 56 57 62 58 59 64 60 57 62 58 57 62 58 57 62 58 57 62 58 57 62 58 57 62 58 57 62 58 59 61 58 68 69 64 67 66 62 62 61 57 55 54 50 49 48 44 42 41 37 37 36 32 35 34 30 34 33 29 34 33 29 34 33 29 34 33 29 34 33 29 34 33 29 34 33 29 34 33 29 34 33 29 34 33 29 34 33 29 34 33 29 34 33 29 34 33 29 34 33 29 34 33 29 36 35 31 36 35 31 36 35 31 36 35 31 36 35 31 36 35 31 36 35 31 36 35 31
9 2 18 9 2 18 9 2 18 9 2 18 6 0 15 6 0 15 6 0 15 6 0 15 6 0 15 6 0 15 6 0 15 6 0 15 7 0 16 7 0 16 7 0 16 7 0 16 7 0 16 7 0 16 7 0 16 7 0 16 7 0 16 7 0 16 7 0 16 7 0 16 7 0 16 7 0 16 7 0 16 5 1 16 4 2 16 4 2 15 4 2 16 4 2 15 4 2 16 4 2 15 4 2 16 4 2 15 3 1 15 3 1 14 3 1 15 3 1 14 3 1 15 3 1 14 3 1 15 3 1 15 4 2 16 4 2 16 4 2 16 4 2 16 4 2 16 4 2 16 4 2 16 4 2 16 5 3 17 5 3 17 5 3 17 5 3 17 5 3 17 5 3 17 5 3 17 4 4 16 4 7 14 3 8 12 3 8 12 3 8 12 3 8 12 3 8 12 3 8 12 3 8 12 7 12 16 7 12 16 7 12 16 7 12 16 7 12 16 7 12 16 7 12 16 7 12 16 4 12 15 7 15 18 13 21 24 21 29 32 29 37 40 36 44 47 42 50 53 45 53 56 60 68 71 58 66 69 54 62 65 50 58 61 45 53 56 41 49 52 37 45 48 36 44 47 42 47 50 40 45 48 38 43 46 35 40 43 31 36 39 28 33 36 26 31 34 24 29 32 15 20 23 13 18 21 11 16 19 8 13 16 4 9 12 1 6 9 0 4 7 0 2 5 2 8 8 2 8 6 2 8 6 2 8 6 2 8 6 2 8 6 2 8 6 2 8 6 15 21 19 17 23 21 19 25 23 22 28 26 26 32 30 29 35 33 31 37 35 33 39 37 41 45 44 43 48 44 45 50 46 48 53 49 52 57 53 55 60 56 57 62 58 59 64 60 55 60 56 55 60 56 55 60 56 55 60 56 55 60 56 55 60 56 55 60 56 57 59 56 68 69 64 67 66 62 62 61 57 55 54 50 49 48 44 42 41 37 37 36 32 35 34 30 34 33 29 34 33 29 34 33 29 34 33 29 34 33 29 34 33 29 34 33 29 34 33 29 36 32 29 36 32 29 36 32 29 36 32 29 36 32 29 36 32 29 36 32 29 36 32 29 38 34 31 38 34 31 38 34 31 38 34 31 38 34 31 38 34 31 38 34 31 38 34 31
4 1 12 4 1 12 4 1 12 4 1 12 4 1 12 4 1 12 4 1 12 4 1 12 4 1 12 4 1 12 4 1 12 4 1 12 4 0 14 4 0 14 4 0 14 4 0 14 4 0 14 4 0 14 4 0 14 4 0 14 4 0 14 4 0 14 4 0 14 4 0 14 4 0 14 4 0 14 4 0 14 4 0 14 3 1 14 3 1 12 3 1 14 3 1 12 3 1 14 3 1 12 3 1 14 3 1 12 3 1 14 3 1 12 3 1 14 3 1 12 3 1 14 3 1 12 3 1 14 3 1 14 3 1 14 3 1 14 3 1 14 3 1 14 3 1 14 3 1 14 3 1 14 3 1 14 7 5 18 7 5 18 7 5 18 7 5 18 7 5 18 7 5 18 7 5 18 6 6 16 6 9 16 5 10 14 5 10 14 5 10 14 5 10 14 5 10 14 5 10 14 5 10 14 8 13 17 7 12 16 6 11 15 5 10 14 4 9 13 2 7 11 2 7 11 1 6 10 4 12 15 9 17 20 17 25 28 28 36 39 39 47 50 50 58 61 59 67 70 63 71 74 84 92 95 82 90 93 77 85 88 70 78 81 64 72 75 57 65 68 52 60 63 50 58 61 49 54 58 47 52 56 45 50 54 42 47 51 38 43 47 35 40 44 33 38 42 31 36 40 18 23 27 16 21 25 14 19 23 11 16 20 7 12 16 4 9 13 2 7 11 0 5 8 1 7 7 1 7 7 1 7 7 1 7 7 1 7 7 1 7 7 1 7 7 1 7 7 11 17 17 13 19 19 15 21 21 18 24 24 22 28 28 25 31 31 27 33 33 29 35 33 28 34 32 30 36 34 32 38 36 35 41 39 39 45 43 42 48 46 44 50 48 46 52 50 55 61 59 55 61 59 55 61 59 55 61 59 55 61 59 55 61 59 55 61 59 56 61 57 51 52 47 50 49 45 48 47 43 45 44 40 41 40 36 38 37 33 36 35 31 34 33 29 32 31 27 32 31 27 32 31 27 32 31 27 32 31 27 32 31 27 32 31 27 34 30 27 36 31 27 36 31 27 36 31 27 36 31 27 36 31 27 36 31 27 36 31 27 36 31 27 38 33 29 38 33 29 38 33 29 38 33 29 38 33 29 38 33 29 38 33 29 38 33 30
3 2 10 3 2 10 3 2 10 3 2 10 3 2 10 3 2 10 3 2 10 3 2 10 3 2 10 3 2 10 3 2 10 3 2 10 4 0 14 4 0 14 4 0 14 4 0 14 4 0 14 4 0 14 4 0 14 4 0 14 4 0 14 4 0 14 4 0 14 4 0 14 4 0 14 4 0 14 4 0 14 4 0 14 3 1 12 3 1 12 3 1 12 3 1 12 3 1 12 3 1 12 3 1 12 3 1 12 3 1 12 3 1 12 3 1 12 3 1 12 3 1 12 3 1 12 3 1 12 3 1 12 3 1 14 3 1 14 3 1 14 3 1 14 3 1 14 3 1 14 3 1 14 3 1 14 7 5 18 7 5 18 7 5 18 7 5 18 7 5 18 7 5 18 7 5 18 6 6 16 6 9 16 5 10 14 5 10 14 5 10 14 5 10 14 5 10 14 5 10 14 5 10 14 7 12 16 7 12 16 7 12 16 6 11 15 5 10 14 5 10 14 4 9 13 4 9 13 9 17 20 13 21 24 21 29 32 31 39 42 42 50 53 52 60 63 60 68 71 64 72 75 84 92 95 82 90 93 77 85 88 70 78 81 64 72 75 57 65 68 52 60 63 50 58 61 49 54 58 47 52 56 45 50 54 42 47 51 38 43 47 35 40 44 33 38 42 31 36 40 18 23 27 16 21 25 14 19 23 11 16 20 7 12 16 4 9 13 2 7 11 0 5 8 1 6 9 1 7 7 1 7 7 1 7 7 1 7 7 1 7 7 1 7 7 1 7 7 11 17 17 13 19 19 15 21 21 18 24 24 22 28 28 25 31 31 27 33 33 29 35 35 28 34 32 30 36 34 32 38 36 35 41 39 39 45 43 42 48 46 44 50 48 46 52 50 53 59 57 53 59 57 53 59 57 53 59 57 53 59 57 53 59 57 53 59 57 54 59 55 51 51 49 50 49 45 48 47 43 45 44 40 41 40 36 38 37 33 36 35 31 34 33 29 32 31 27 32 31 27 32 31 27 32 31 27 32 31 27 32 31 27 32 31 27 34 30 27 36 31 27 38 30 27 38 30 27 38 30 27 38 30 27 38 30 27 38 30 27 38 30 27 40 32 29 40 32 29 40 32 29 40 32 29 40 32 29 40 32 29 40 32 29 40 32 29
3 2 10 3 2 10 3 2 10 3 2 10 3 2 10 3 2 10 3 2 10 3 2 10 3 2 10 3 2 10 3 2 10 3 2 10 4 0 14 4 0 14 4 0 14 4 0 14 4 0 14 4 0 14 4 0 14 4 0 14 4 0 14 4 0 14 4 0 14 4 0 14 4 0 14 4 0 14 4 0 14 4 0 14 3 1 12 3 1 12 3 1 12 3 1 12 3 1 12 3 1 12 3 1 12 3 1 12 3 1 12 3 1 12 3 1 12 3 1 12 3 1 12 3 1 12 3 1 12 3 1 12 3 1 14 3 1 14 3 1 14 3 1 14 3 1 14 3 1 14 3 1 14 3 1 14 7 5 18 7 5 18 7 5 18 7 5 18 7 5 18 7 5 18 7 5 18 6 6 16 6 9 16 5 10 14 5 10 14 5 10 14 5 10 14 5 10 14 5 10 14 5 10 14 6 11 15 7 12 16 7 12 16 8 13 17 8 13 17 9 14 18 10 15 19 10 15 19 17 25 28 21 29 32 28 36 39 36 44 47 46 54 57 55 63 66 62 70 73 65 73 76 84 92 95 82 90 93 77 85 88 70 78 81 64 72 75 57 65 68 52 60 63 50 58 61 49 54 58 47 52 56 45 50 54 42 47 51 38 43 47 35 40 44 33 38 42 31 36 40 18 23 27 16 21 25 14 19 23 11 16 20 7 12 16 4 9 13 2 7 11 0 5 8 1 6 9 1 7 7 1 7 7 1 7 7 1 7 7 1 7 7 1 7 7 1 7 7 11 17 17 13 19 19 15 21 21 18 24 24 22 28 28 25 31 31 27 33 33 29 35 35 28 34 32 30 36 34 32 38 36 35 41 39 39 45 43 42 48 46 44 50 48 46 52 50 51 57 55 51 57 55 51 57 55 51 57 55 51 57 55 51 57 55 51 57 55 52 57 53 51 51 49 50 49 45 48 47 43 45 44 40 41 40 36 38 37 33 36 35 31 34 33 29 32 31 27 32 31 27 32 31 27 32 31 27 32 31 27 32 31 27 32 31 27 34 30 27 36 31 27 38 30 27 38 30 27 38 30 27 38 30 27 38 30 27 38 30 27 38 30 27 40 32 29 40 32 29 40 32 29 40 32 29 40 32 29 40 32 29 40 32 29 40 32 29
3 2 10 3 2 10 3 2 10 3 2 10 3 2 10 3 2 10 3 2 10 3 2 10 3 2 10 3 2 10 3 2 10 3 2 10 4 0 14 4 0 14 4 0 14 4 0 14 4 0 14 4 0 14 4 0 14 4 0 14 4 0 14 4 0 14 4 0 14 4 0 14 4 0 14 4 0 14 4 0 14 4 0 14 3 1 12 3 1 12 3 1 12 3 1 12 3 1 12 3 1 12 3 1 12 3 1 12 3 1 12 3 1 12 3 1 12 3 1 12 3 1 12 3 1 12 3 1 12 3 1 12 3 1 14 3 1 14 3 1 14 3 1 14 3 1 14 3 1 14 3 1 14 3 1 14 7 5 18 7 5 18 7 5 18 7 5 18 7 5 18 7 5 18 7 5 18 6 6 16 6 9 16 5 10 14 5 10 14 5 10 14 5 10 14 5 10 14 5 10 14 5 10 14 5 10 14 6 11 15 8 13 17 10 15 19 13 18 22 15 20 24 17 22 26 18 23 27 28 36 39 31 39 42 36 44 47 44 52 55 51 59 62 59 67 70 64 72 75 67 75 78 84 92 95 82 90 93 77 85 88 70 78 81 64 72 75 57 65 68 52 60 63 50 58 61 49 54 58 47 52 56 45 50 54 42 47 51 38 43 47 35 40 44 33 38 42 31 36 40 18 23 27 16 21 25 14 19 23 11 16 20 7 12 16 4 9 13 2 7 11 0 5 8 1 6 9 1 7 7 1 7 7 1 7 7 1 7 7 1 7 7 1 7 7 1 7 7 11 17 17 13 19 19 15 21 21 18 24 24 22 28 28 25 31 31 27 33 33 29 35 35 28 34 32 30 36 34 32 38 36 35 41 39 39 45 43 42 48 46 44 50 48 46 52 50 48 54 52 48 54 52 48 54 52 48 54 52 48 54 52 48 54 52 48 54 52 49 54 50 51 51 49 50 49 45 48 47 43 45 44 40 41 40 36 38 37 33 36 35 31 34 33 29 32 31 27 32 31 27 32 31 27 32 31 27 32 31 27 32 31 27 32 31 27 34 30 27 36 31 27 38 30 27 38 30 27 38 30 27 38 30 27 38 30 27 38 30 27 38 30 27 40 32 29 40 32 29 40 32 29 40 32 29 40 32 29 40 32 29 40 32 29 40 32 29
3 2 10 3 2 10 3 2 10 3 2 10 3 2 10 3 2 10 3 2 10 3 2 10 3 2 10 3 2 10 3 2 10 3 2 10 4 0 14 4 0 14 4 0 14 4 0 14 4 0 14 4 0 14 4 0 14 4 0 14 4 0 14 4 0 14 4 0 14 4 0 14 4 0 14 4 0 14 4 0 14 4 0 14 3 1 12 3 1 12 3 1 12 3 1 12 3 1 12 3 1 12 3 1 12 3 1 12 3 1 12 3 1 12 3 1 12 3 1 12 3 1 12 3 1 12 3 1 12 3 1 12 3 1 14 3 1 14 3 1 14 3 1 14 3 1 14 3 1 14 3 1 14 3 1 14 7 5 18 7 5 18 7 5 18 7 5 18 7 5 18 7 5 18 7 5 18 6 6 16 6 9 16 5 10 14 5 10 14 5 10 14 5 10 14 5 10 14 5 10 14 5 10 14 4 9 13 5 10 14 8 13 17 13 18 22 17 22 26 21 26 30 24 29 33 26 31 35 39 47 50 42 50 53 46 54 57 51 59 62 57 65 68 63 71 74 67 75 78 69 77 80 84 92 95 82 90 93 77 85 88 70 78 81 64 72 75 57 65 68 52 60 63 50 58 61 49 54 58 47 52 56 45 50 54 42 47 51 38 43 47 35 40 44 33 38 42 31 36 40 18 23 27 16 21 25 14 19 23 11 16 20 7 12 16 4 9 13 2 7 11 0 5 8 1 6 9 1 7 7 1 7 7 1 7 7 1 7 7 1 7 7 1 7 7 1 7 7 11 17 17 13 19 19 15 21 21 18 24 24 22 28 28 25 31 31 27 33 33 29 35 35 28 34 32 30 36 34 32 38 36 35 41 39 39 45 43 42 48 46 44 50 48 46 52 50 44 50 48 44 50 48 44 50 48 44 50 48 44 50 48 44 50 48 44 50 48 45 50 46 51 51 49 50 49 45 48 47 43 45 44 40 41 40 36 38 37 33 36 35 31 34 33 29 32 31 27 32 31 27 32 31 27 32 31 27 32 31 27 32 31 27 32 31 27 34 30 27 36 31 27 38 30 27 38 30 27 38 30 27 38 30 27 38 30 27 38 30 27 38 30 27 40 32 29 40 32 29 40 32 29 40 32 29 40 32 29 40 32 29 40 32 29 40 32 29
3 2 10 3 2 10 3 2 10 3 2 10 3 2 10 3 2 10 3 2 10 3 2 10 3 2 10 3 2 10 3 2 10 3 2 10 4 0 14 4 0 14 4 0 14 4 0 14 4 0 14 4 0 14 4 0 14 4 0 14 4 0 14 4 0 14 4 0 14 4 0 14 4 0 14 4 0 14 4 0 14 4 0 14 3 1 12 3 1 12 3 1 12 3 1 12 3 1 12 3 1 12 3 1 12 3 1 12 3 1 12 3 1 12 3 1 12 3 1 12 3 1 12 3 1 12 3 1 12 3 1 12 3 1 14 3 1 14 3 1 14 3 1 14 3 1 14 3 1 14 3 1 14 3 1 14 7 5 18 7 5 18 7 5 18 7 5 18 7 5 18 7 5 18 7 5 18 6 6 16 6 9 16 5 10 14 5 10 14 5 10 14 5 10 14 5 10 14 5 10 14 5 10 14 2 7 11 5 10 14 9 14 18 15 20 24 21 26 30 27 32 36 31 36 40 33 38 42 50 58 61 52 60 63 55 63 66 59 67 70 63 71 74 67 75 78 70 78 81 71 79 82 84 92 95 82 90 93 77 85 88 70 78 81 64 72 75 57 65 68 52 60 63 50 58 61 49 54 58 47 52 56 45 50 54 42 47 51 38 43 47 35 40 44 33 38 42 31 36 40 18 23 27 16 21 25 14 19 23 11 16 20 7 12 16 4 9 13 2 7 11 0 5 8 1 6 9 1 7 7 1 7 7 1 7 7 1 7 7 1 7 7 1 7 7 1 7 7 11 17 17 13 19 19 15 21 21 18 24 24 22 28 28 25 31 31 27 33 33 29 35 35 28 34 32 30 36 34 32 38 36 35 41 39 39 45 43 42 48 46 44 50 48 46 52 50 41 47 45 41 47 45 41 47 45 41 47 45 41 47 45 41 47 45 41 47 45 42 47 43 51 51 49 50 49 45 48 47 43 45 44 40 41 40 36 38 37 33 36 35 31 34 33 29 32 31 27 32 31 27 32 31 27 32 31 27 32 31 27 32 31 27 32 31 27 34 30 27 36 31 27 38 30 27 38 30 27 38 30 27 38 30 27 38 30 27 38 30 27 38 30 27 40 32 29 40 32 29 40 32 29 40 32 29 40 32 29 40 32 29 40 32 29 40 32 29
3 2 10 3 2 10 3 2 10 3 2 10 3 2 10 3 2 10 3 2 10 3 2 10 3 2 10 3 2 10 3 2 10 3 2 10 4 0 14 4 0 14 4 0 14 4 0 14 4 0 14 4 0 14 4 0 14 4 0 14 4 0 14 4 0 14 4 0 14 4 0 14 4 0 14 4 0 14 4 0 14 4 0 14 3 1 12 3 1 12 3 1 12 3 1 12 3 1 12 3 1 12 3 1 12 3 1 12 3 1 12 3 1 12 3 1 12 3 1 12 3 1 12 3 1 12 3 1 12 3 1 12 3 1 14 3 1 14 3 1 14 3 1 14 3 1 14 3 1 14 3 1 14 3 1 14 7 5 18 7 5 18 7 5 18 7 5 18 7 5 18 7 5 18 7 5 18 6 6 16 6 9 16 5 10 14 5 10 14 5 10 14 5 10 14 5 10 14 5 10 14 5 10 14 1 6 10 4 9 13 10 15 19 17 22 26 24 29 33 31 36 40 36 41 45 39 44 48 59 67 70 60 68 71 62 70 73 64 72 75 67 75 78 70 78 81 72 80 83 73 81 84 84 92 95 82 90 93 77 85 88 70 78 81 64 72 75 57 65 68 52 60 63 50 58 61 49 54 58 47 52 56 45 50 54 42 47 51 38 43 47 35 40 44 33 38 42 31 36 40 18 23 27 16 21 25 14 19 23 11 16 20 7 12 16 4 9 13 2 7 11 0 5 8 1 6 9 1 7 7 1 7 7 1 7 7 1 7 7 1 7 7 1 7 7 1 7 7 11 17 17 13 19 19 15 21 21 18 24 24 22 28 28 25 31 31 27 33 33 29 35 35 28 34 32 30 36 34 32 38 36 35 41 39 39 45 43 42 48 46 44 50 48 46 52 50 39 45 43 39 45 43 39 45 43 39 45 43 39 45 43 39 45 43 39 45 43 40 45 41 51 51 49 50 49 45 48 47 43 45 44 40 41 40 36 38 37 33 36 35 31 34 33 29 32 31 27 32 31 27 32 31 27 32 31 27 32 31 27 32 31 27 32 31 27 34 30 27 36 31 27 38 30 27 38 30 27 38 30 27 38 30 27 38 30 27 38 30 27 38 30 27 40 32 29 40 32 29 40 32 29 40 32 29 40 32 29 40 32 29 40 32 29 40 32 29
3 2 10 3 2 10 3 2 10 3 2 10 3 2 10 3 2 10 3 2 10 3 2 10 3 2 10 3 2 10 3 2 10 3 2 10 4 0 14 4 0 14 4 0 14 4 0 14 4 0 14 4 0 14 4 0 14 4 0 14 4 0 14 4 0 14 4 0 14 4 0 14 4 0 14 4 0 14 4 0 14 4 0 14 3 1 12 3 1 12 3 1 12 3 1 12 3 1 12 3 1 12 3 1 12 3 1 12 3 1 12 3 1 12 3 1 12 3 1 12 3 1 12 3 1 12 3 1 12 3 1 12 3 1 14 3 1 14 3 1 14 3 1 14 3 1 14 3 1 14 3 1 14 3 1 14 7 5 18 7 5 18 7 5 18 7 5 18 7 5 18 7 5 18 7 5 18 6 6 16 6 9 16 5 10 14 5 10 14 5 10 14 5 10 14 5 10 14 5 10 14 5 10 14 1 6 10 4 9 13 10 15 19 18 23 27 26 31 35 33 38 42 39 44 48 42 47 51 63 71 74 64 72 75 65 73 76 67 75 78 69 77 80 71 79 82 73 81 84 74 82 85 84 92 95 82 90 93 77 85 88 70 78 81 64 72 75 57 65 68 52 60 63 50 58 61 49 54 58 47 52 56 45 50 54 42 47 51 38 43 47 35 40 44 33 38 42 31 36 40 18 23 27 16 21 25 14 19 23 11 16 20 7 12 16 4 9 13 2 7 11 0 5 8 1 6 9 1 7 7 1 7 7 1 7 7 1 7 7 1 7 7 1 7 7 1 7 7 11 17 17 13 19 19 15 21 21 18 24 24 22 28 28 25 31 31 27 33 33 29 35 35 28 34 32 30 36 34 32 38 36 35 41 39 39 45 43 42 48 46 44 50 48 46 52 50 37 43 41 37 43 41 37 43 41 37 43 41 37 43 41 37 43 41 37 43 41 38 43 39 51 51 49 50 49 45 48 47 43 45 44 40 41 40 36 38 37 33 36 35 31 34 33 29 32 31 27 32 31 27 32 31 27 32 31 27 32 31 27 32 31 27 32 31 27 34 30 27 36 31 27 38 30 27 38 30 27 38 30 27 38 30 27 38 30 27 38 30 27 38 30 27 40 32 29 40 32 29 40 32 29 40 32 29 40 32 29 40 32 29 40 32 29 40 32 29
1 0 8 1 0 8 1 0 8 1 0 8 3 2 10 3 2 10 3 2 10 3 2 10 3 2 10 3 2 10 3 2 10 3 2 10 4 0 14 4 0 14 4 0 14 4 0 14 4 0 14 4 0 14 4 0 14 4 0 14 4 0 14 4 0 14 4 0 14 4 0 14 4 0 14 4 0 14 4 0 14 4 0 14 3 1 12 3 1 12 3 1 12 3 1 12 3 1 12 3 1 12 3 1 12 3 1 12 3 1 12 3 1 12 3 1 12 3 1 12 3 1 12 3 1 12 3 1 12 3 1 12 3 1 14 3 1 14 3 1 14 3 1 14 3 1 14 3 1 14 3 1 14 3 1 14 6 4 17 6 4 17 6 4 17 6 4 17 6 4 17 6 4 17 6 4 17 5 5 15 9 12 19 7 12 16 6 11 15 5 10 14 4 9 13 2 7 11 2 7 11 1 6 10 15 20 24 18 23 27 24 29 33 32 37 41 40 45 49 47 52 56 53 58 62 56 61 65 62 70 73 64 72 75 66 74 77 69 77 80 73 81 84 76 84 87 78 86 89 80 88 91 94 102 105 92 100 103 87 95 98 80 88 91 74 82 85 67 75 78 62 70 73 60 68 71 50 55 59 48 53 57 46 51 55 43 48 52 39 44 48 36 41 45 34 39 43 32 37 41 21 26 30 19 24 28 17 22 26 14 19 23 10 15 19 7 12 16 5 10 14 3 8 11 5 10 13 5 11 11 5 11 11 5 11 11 5 11 11 5 11 11 5 11 11 5 11 11 11 17 17 13 19 19 15 21 21 18 24 24 22 28 28 25 31 31 27 33 33 29 35 35 29 35 33 29 35 33 29 35 33 29 35 33 29 35 33 29 35 33 29 35 33 29 35 33 32 38 36 32 38 36 32 38 36 32 38 36 32 38 36 32 38 36 32 38 36 33 38 34 31 31 29 32 31 27 32 31 27 32 31 27 32 31 27 32 31 27 32 31 27 32 31 27 32 31 27 32 31 27 32 31 27 32 31 27 32 31 27 32 31 27 32 31 27 34 30 27 36 31 27 38 30 27 38 30 27 38 30 27 38 30 27 38 30 27 38 30 27 38 30 27 38 30 27 38 30 27 38 30 27 38 30 27 38 30 27 38 30 27 38 30 27 38 30 27
1 0 8 1 0 8 1 0 8 1 0 8 3 2 10 3 2 10 3 2 10 3 2 10 3 2 10 3 2 10 3 2 10 3 2 10 4 0 14 4 0 14 4 0 14 4 0 14 4 0 14 4 0 14 4 0 14 4 0 14 4 0 14 4 0 14 4 0 14 4 0 14 4 0 14 4 0 14 4 0 14 4 0 14 3 1 12 3 1 12 3 1 12 3 1 12 3 1 12 3 1 12 3 1 12 3 1 12 3 1 12 3 1 12 3 1 12 3 1 12 3 1 12 3 1 12 3 1 12 3 1 12 3 1 14 3 1 14 3 1 14 3 1 14 3 1 14 3 1 14 3 1 14 3 1 14 6 4 17 6 4 17 6 4 17 6 4 17 6 4 17 6 4 17 6 4 17 5 5 15 8 11 18 7 12 16 7 12 16 6 11 15 5 10 14 5 10 14 4 9 13 4 9 13 19 24 28 22 27 31 28 33 37 35 40 44 42 47 51 49 54 58 54 59 63 57 62 66 62 70 73 64 72 75 66 74 77 69 77 80 73 81 84 76 84 87 78 86 89 80 88 91 94 102 105 92 100 103 87 95 98 80 88 91 74 82 85 67 75 78 62 70 73 60 68 71 50 55 59 48 53 57 46 51 55 43 48 52 39 44 48 36 41 45 34 39 43 32 37 41 21 26 30 19 24 28 17 22 26 14 19 23 10 15 19 7 12 16 5 10 14 3 8 11 5 10 13 5 11 11 5 11 11 5 11 11 5 11 11 5 11 11 5 11 11 5 11 11 11 17 17 13 19 19 15 21 21 18 24 24 22 28 28 25 31 31 27 33 33 29 35 35 29 35 33 29 35 33 29 35 33 29 35 33 29 35 33 29 35 33 29 35 33 29 35 33 32 38 36 32 38 36 32 38 36 32 38 36 32 38 36 32 38 36 32 38 36 33 38 34 31 31 29 32 31 27 32 31 27 32 31 27 32 31 27 32 31 27 32 31 27 32 31 27 32 31 27 32 31 27 32 31 27 32 31 27 32 31 27 32 31 27 32 31 27 34 30 27 36 31 27 38 30 27 38 30 27 38 30 27 38 30 27 38 30 27 38 30 27 38 30 27 38 30 27 38 30 27 38 30 27 38 30 27 38 30 27 38 30 27 38 30 27 38 30 27
1 0 8 1 0 8 1 0 8 1 0 8 3 2 10 3 2 10 3 2 10 3 2 10 3 2 10 3 2 10 3 2 10 3 2 10 4 0 14 4 0 14 4 0 14 4 0 14 4 0 14 4 0 14 4 0 14 4 0 14 4 0 14 4 0 14 4 0 14 4 0 14 4 0 14 4 0 14 4 0 14 4 0 14 3 1 12 3 1 12 3 1 12 3 1 12 3 1 12 3 1 12 3 1 12 3 1 12 3 1 12 3 1 12 3 1 12 3 1 12 3 1 12 3 1 12 3 1 12 3 1 12 3 1 14 3 1 14 3 1 14 3 1 14 3 1 14 3 1 14 3 1 14 3 1 14 6 4 17 6 4 17 6 4 17 6 4 17 6 4 17 6 4 17 6 4 17 5 5 15 7 10 17 7 12 16 7 12 16 8 13 17 8 13 17 9 14 18 10 15 19 10 15 19 28 33 37 30 35 39 34 39 43 40 45 49 46 51 55 52 57 61 56 61 65 59 64 68 62 70 73 64 72 75 66 74 77 69 77 80 73 81 84 76 84 87 78 86 89 80 88 91 94 102 105 92 100 103 87 95 98 80 88 91 74 82 85 67 75 78 62 70 73 60 68 71 50 55 59 48 53 57 46 51 55 43 48 52 39 44 48 36 41 45 34 39 43 32 37 41 21 26 30 19 24 28 17 22 26 14 19 23 10 15 19 7 12 16 5 10 14 3 8 11 5 10 13 5 11 11 5 11 11 5 11 11 5 11 11 5 11 11 5 11 11 5 11 11 11 17 17 13 19 19 15 21 21 18 24 24 22 28 28 25 31 31 27 33 33 29 35 35 29 35 33 29 35 33 29 35 33 29 35 33 29 35 33 29 35 33 29 35 33 29 35 33 32 38 36 32 38 36 32 38 36 32 38 36 32 38 36 32 38 36 32 38 36 33 38 34 31 31 29 32 31 27 32 31 27 32 31 27 32 31 27 32 31 27 32 31 27 32 31 27 32 31 27 32 31 27 32 31 27 32 31 27 32 31 27 32 31 27 32 31 27 34 30 27 36 31 27 38 30 27 38 30 27 38 30 27 38 30 27 38 30 27 38 30 27 38 30 27 38 30 27 38 30 27 38 30 27 38 30 27 38 30 27 38 30 27 38 30 27 38 30 27
1 0 8 1 0 8 1 0 8 1 0 8 3 2 10 3 2 10 3 2 10 3 2 10 3 2 10 3 2 10 3 2 10 3 2 10 4 0 14 4 0 14 4 0 14 4 0 14 4 0 14 4 0 14 4 0 14 4 0 14 4 0 14 4 0 14 4 0 14 4 0 14 4 0 14 4 0 14 4 0 14 4 0 14 3 1 12 3 1 12 3 1 12 3 1 12 3 1 12 3 1 12 3 1 12 3 1 12 3 1 12 3 1 12 3 1 12 3 1 12 3 1 12 3 1 12 3 1 12 3 1 12 3 1 14 3 1 14 3 1 14 3 1 14 3 1 14 3 1 14 3 1 14 3 1 14 6 4 17 6 4 17 6 4 17 6 4 17 6 4 17 6 4 17 6 4 17 5 5 15 6 9 16 6 11 15 8 13 17 10 15 19 13 18 22 15 20 24 17 22 26 18 23 27 39 44 48 40 45 49 43 48 52 47 52 56 52 57 61 56 61 65 59 64 68 61 66 70 62 70 73 64 72 75 66 74 77 69 77 80 73 81 84 76 84 87 78 86 89 80 88 91 94 102 105 92 100 103 87 95 98 80 88 91 74 82 85 67 75 78 62 70 73 60 68 71 50 55 59 48 53 57 46 51 55 43 48 52 39 44 48 36 41 45 34 39 43 32 37 41 21 26 30 19 24 28 17 22 26 14 19 23 10 15 19 7 12 16 5 10 14 3 8 11 5 10 13 5 11 11 5 11 11 5 11 11 5 11 11 5 11 11 5 11 11 5 11 11 11 17 17 13 19 19 15 21 21 18 24 24 22 28 28 25 31 31 27 33 33 29 35 35 29 35 33 29 35 33 29 35 33 29 35 33 29 35 33 29 35 33 29 35 33 29 35 33 32 38 36 32 38 36 32 38 36 32 38 36 32 38 36 32 38 36 32 38 36 33 38 34 31 31 29 32 31 27 32 31 27 32 31 27 32 31 27 32 31 27 32 31 27 32 31 27 32 31 27 32 31 27 32 31 27 32 31 27 32 31 27 32 31 27 32 31 27 34 30 27 36 31 27 38 30 27 38 30 27 38 30 27 38 30 27 38 30 27 38 30 27 38 30 27 38 30 27 38 30 27 38 30 27 38 30 27 38 30 27 38 30 27 38 30 27 38 30 27
1 0 8 1 0 8 1 0 8 1 0 8 3 2 10 3 2 10 3 2 10 3 2 10 3 2 10 3 2 10 3 2 10 3 2 10 4 0 14 4 0 14 4 0 14 4 0 14 4 0 14 4 0 14 4 0 14 4 0 14 4 0 14 4 0 14 4 0 14 4 0 14 4 0 14 4 0 14 4 0 14 4 0 14 3 1 12 3 1 12 3 1 12 3 1 12 3 1 12 3 1 12 3 1 12 3 1 12 3 1 12 3 1 12 3 1 12 3 1 12 3 1 12 3 1 12 3 1 12 3 1 12 3 1 14 3 1 14 3 1 14 3 1 14 3 1 14 3 1 14 3 1 14 3 1 14 6 4 17 6 4 17 6 4 17 6 4 17 6 4 17 6 4 17 6 4 17 5 5 15 5 8 15 5 10 14 8 13 17 13 18 22 17 22 26 21 26 30 24 29 33 26 31 35 50 55 59 51 56 60 53 58 62 55 60 64 58 63 67 60 65 69 62 67 71 63 68 72 62 70 73 64 72 75 66 74 77 69 77 80 73 81 84 76 84 87 78 86 89 80 88 91 94 102 105 92 100 103 87 95 98 80 88 91 74 82 85 67 75 78 62 70 73 60 68 71 50 55 59 48 53 57 46 51 55 43 48 52 39 44 48 36 41 45 34 39 43 32 37 41 21 26 30 19 24 28 17 22 26 14 19 23 10 15 19 7 12 16 5 10 14 3 8 11 5 10 13 5 11 11 5 11 11 5 11 11 5 11 11 5 11 11 5 11 11 5 11 11 11 17 17 13 19 19 15 21 21 18 24 24 22 28 28 25 31 31 27 33 33 29 35 35 29 35 33 29 35 33 29 35 33 29 35 33 29 35 33 29 35 33 29 35 33 29 35 33 32 38 36 32 38 36 32 38 36 32 38 36 32 38 36 32 38 36 32 38 36 33 38 34 31 31 29 32 31 27 32 31 27 32 31 27 32 31 27 32 31 27 32 31 27 32 31 27 32 31 27 32 31 27 32 31 27 32 31 27 32 31 27 32 31 27 32 31 27 34 30 27 36 31 27 38 30 27 38 30 27 38 30 27 38 30 27 38 30 27 38 30 27 38 30 27 38 30 27 38 30 27 38 30 27 38 30 27 38 30 27 38 30 27 38 30 27 38 30 27
1 0 8 1 0 8 1 0 8 1 0 8 3 2 10 3 2 10 3 2 10 3 2 10 3 2 10 3 2 10 3 2 10 3 2 10 4 0 14 4 0 14 4 0 14 4 0 14 4 0 14 4 0 14 4 0 14 4 0 14 4 0 14 4 0 14 4 0 14 4 0 14 4 0 14 4 0 14 4 0 14 4 0 14 3 1 12 3 1 12 3 1 12 3 1 12 3 1 12 3 1 12 3 1 12 3 1 12 3 1 12 3 1 12 3 1 12 3 1 12 3 1 12 3 1 12 3 1 12 3 1 12 3 1 14 3 1 14 3 1 14 3 1 14 3 1 14 3 1 14 3 1 14 3 1 14 6 4 17 6 4 17 6 4 17 6 4 17 6 4 17 6 4 17 6 4 17 5 5 15 3 6 13 5 10 14 9 14 18 15 20 24 21 26 30 27 32 36 31 36 40 33 38 42 61 66 70 61 66 70 62 67 71 62 67 71 63 68 72 64 69 73 64 69 73 65 70 74 62 70 73 64 72 75 66 74 77 69 77 80 73 81 84 76 84 87 78 86 89 80 88 91 94 102 105 92 100 103 87 95 98 80 88 91 74 82 85 67 75 78 62 70 73 60 68 71 50 55 59 48 53 57 46 51 55 43 48 52 39 44 48 36 41 45 34 39 43 32 37 41 21 26 30 19 24 28 17 22 26 14 19 23 10 15 19 7 12 16 5 10 14 3 8 11 5 10 13 5 11 11 5 11 11 5 11 11 5 11 11 5 11 11 5 11 11 5 11 11 11 17 17 13 19 19 15 21 21 18 24 24 22 28 28 25 31 31 27 33 33 29 35 35 29 35 33 29 35 33 29 35 33 29 35 33 29 35 33 29 35 33 29 35 33 29 35 33 32 38 36 32 38 36 32 38 36 32 38 36 32 38 36 32 38 36 32 38 36 33 38 34 31 31 29 32 31 27 32 31 27 32 31 27 32 31 27 32 31 27 32 31 27 32 31 27 32 31 27 32 31 27 32 31 27 32 31 27 32 31 27 32 31 27 32 31 27 34 30 27 36 31 27 38 30 27 38 30 27 38 30 27 38 30 27 38 30 27 38 30 27 38 30 27 38 30 27 38 30 27 38 30 27 38 30 27 38 30 27 38 30 27 38 30 27 38 30 27
1 0 8 1 0 8 1 0 8 1 0 8 3 2 10 3 2 10 3 2 10 3 2 10 3 2 10 3 2 10 3 2 10 3 2 10 4 0 14 4 0 14 4 0 14 4 0 14 4 0 14 4 0 14 4 0 14 4 0 14 4 0 14 4 0 14 4 0 14 4 0 14 4 0 14 4 0 14 4 0 14 4 0 14 3 1 12 3 1 12 3 1 12 3 1 12 3 1 12 3 1 12 3 1 12 3 1 12 3 1 12 3 1 12 3 1 12 3 1 12 3 1 12 3 1 12 3 1 12 3 1 12 3 1 14 3 1 14 3 1 14 3 1 14 3 1 14 3 1 14 3 1 14 3 1 14 6 4 17 6 4 17 6 4 17 6 4 17 6 4 17 6 4 17 6 4 17 5 5 15 2 5 12 4 9 13 10 15 19 17 22 26 24 29 33 31 36 40 36 41 45 39 44 48 69 74 78 69 74 78 69 74 78 68 73 77 67 72 76 67 72 76 66 71 75 66 71 75 62 70 73 64 72 75 66 74 77 69 77 80 73 81 84 76 84 87 78 86 89 80 88 91 94 102 105 92 100 103 87 95 98 80 88 91 74 82 85 67 75 78 62 70 73 60 68 71 50 55 59 48 53 57 46 51 55 43 48 52 39 44 48 36 41 45 34 39 43 32 37 41 21 26 30 19 24 28 17 22 26 14 19 23 10 15 19 7 12 16 5 10 14 3 8 11 5 10 13 5 11 11 5 11 11 5 11 11 5 11 11 5 11 11 5 11 11 5 11 11 11 17 17 13 19 19 15 21 21 18 24 24 22 28 28 25 31 31 27 33 33 29 35 35 29 35 33 29 35 33 29 35 33 29 35 33 29 35 33 29 35 33 29 35 33 29 35 33 32 38 36 32 38 36 32 38 36 32 38 36 32 38 36 32 38 36 32 38 36 33 38 34 31 31 29 32 31 27 32 31 27 32 31 27 32 31 27 32 31 27 32 31 27 32 31 27 32 31 27 32 31 27 32 31 27 32 31 27 32 31 27 32 31 27 32 31 27 34 30 27 36 31 27 38 30 27 38 30 27 38 30 27 38 30 27 38 30 27 38 30 27 38 30 27 38 30 27 38 30 27 38 30 27 38 30 27 38 30 27 38 30 27 38 30 27 38 30 27
1 0 8 1 0 8 1 0 8 1 0 8 3 2 10 3 2 10 3 2 10 3 2 10 3 2 10 3 2 10 3 2 10 3 2 10 3 1 12 3 1 12 4 1 12 3 1 12 4 1 12 3 1 12 4 1 12 3 1 12 4 1 12 3 1 12 4 1 12 3 1 12 4 1 12 3 1 12 4 1 12 3 1 12 3 2 10 3 2 10 3 2 10 3 2 10 3 2 10 3 2 10 3 2 10 3 2 10 3 2 10 3 2 10 3 2 10 3 2 10 3 2 10 3 2 10 3 2 10 3 1 12 2 2 12 2 2 12 2 2 14 2 2 12 2 2 14 2 2 12 2 2 14 2 2 12 5 5 17 5 5 15 5 5 17 5 5 15 5 5 17 5 5 15 5 5 17 5 5 15 1 6 12 4 9 13 10 15 19 18 23 27 26 31 35 33 38 42 39 44 48 42 47 51 74 79 83 73 78 82 72 77 81 71 76 80 70 75 79 68 73 77 68 73 77 67 72 76 62 70 73 64 72 74 66 74 77 69 77 79 73 81 84 76 84 86 78 86 89 80 88 90 94 102 105 92 100 102 87 95 98 80 88 90 74 82 85 67 75 77 62 70 73 60 68 71 50 55 59 48 53 57 46 51 55 43 48 52 39 44 48 36 41 45 34 39 43 32 37 41 21 26 30 19 24 28 17 22 26 14 19 23 10 15 19 7 12 16 5 10 14 3 8 11 5 10 13 5 11 11 5 10 13 5 11 11 5 10 13 5 11 11 5 10 13 5 11 11 11 16 19 13 19 19 15 20 23 18 24 24 22 27 30 25 31 31 27 32 35 29 35 35 29 35 35 29 35 33 29 35 33 29 35 33 29 35 33 29 35 33 29 35 33 29 35 33 32 38 36 32 38 36 32 38 36 32 38 36 32 38 36 32 38 36 32 38 36 33 37 36 31 31 29 32 31 27 34 30 27 32 31 27 34 30 27 32 31 27 34 30 27 32 31 27 34 30 27 32 31 27 34 30 27 32 31 27 34 30 27 32 31 27 34 30 27 34 30 27 36 31 27 38 30 27 38 30 27 38 30 27 38 30 27 38 30 27 38 30 27 38 30 27 38 30 27 38 30 27 38 30 27 38 30 27 38 30 27 38 30 27 38 30 27 38 30 27
2 1 9 2 1 9 2 1 9 2 1 9 2 1 9 2 1 9 2 1 9 2 1 9 2 1 9 2 1 9 2 1 9 2 1 9 2 1 7 1 2 6 2 1 6 1 2 6 2 1 6 1 2 6 2 1 6 1 2 6 1 0 5 0 1 5 1 0 5 0 1 5 1 0 5 0 1 5 1 0 5 1 0 5 1 0 6 1 0 6 1 0 6 1 0 6 1 0 6 1 0 6 1 0 6 1 0 6 1 0 6 1 0 6 1 0 6 1 0 6 1 0 6 1 0 6 1 0 6 0 1 6 1 4 11 1 4 11 1 4 13 1 4 11 1 4 13 1 4 11 1 4 13 1 4 11 0 0 9 0 0 7 0 1 10 1 4 11 4 7 16 8 11 18 10 13 22 10 15 21 42 47 51 42 50 53 44 52 55 47 55 58 51 59 62 54 62 65 56 64 67 58 66 69 64 72 75 64 72 75 64 72 75 64 72 75 64 72 75 64 72 75 64 72 75 64 72 75 75 83 85 75 84 83 75 83 85 75 84 83 75 83 85 75 84 83 75 83 85 75 84 83 92 100 102 94 103 102 96 104 106 99 108 107 103 111 113 106 115 114 108 116 118 110 118 120 91 99 101 87 95 97 79 87 89 70 78 80 59 67 69 50 58 60 43 51 53 39 47 49 10 18 20 19 27 29 31 39 41 40 48 50 40 48 50 31 39 41 19 27 29 10 18 20 5 13 15 5 13 15 5 13 16 5 13 15 5 13 16 5 13 15 5 13 16 5 13 15 23 31 34 23 31 33 23 31 34 23 31 33 23 31 34 23 31 33 23 31 34 23 31 33 21 30 29 21 30 29 21 30 29 21 30 29 21 30 29 21 30 29 21 30 29 21 30 29 20 29 28 20 29 28 20 29 28 20 29 28 20 29 28 20 29 28 20 29 28 23 27 26 29 28 26 31 27 26 32 26 26 31 27 26 32 26 26 31 27 26 32 26 26 31 27 26 35 29 29 34 30 29 35 29 29 34 30 29 35 29 29 34 30 29 35 29 29 35 30 27 39 31 28 39 31 28 39 31 28 39 31 28 39 31 28 39 31 28 39 31 28 39 31 28 39 31 28 39 31 28 39 31 28 39 31 28 39 31 28 39 31 28 39 31 28 39 31 28
2 1 9 2 1 9 2 1 9 2 1 9 2 1 9 2 1 9 2 1 9 2 1 9 2 1 9 2 1 9 2 1 9 2 1 7 1 2 6 1 2 4 1 2 4 1 2 4 1 2 4 1 2 4 1 2 4 1 2 4 0 1 3 0 1 3 0 1 3 0 1 3 0 1 3 0 1 3 0 1 3 0 1 3 1 0 5 1 0 5 1 0 5 1 0 5 1 0 5 1 0 5 1 0 5 1 0 5 1 0 5 1 0 5 1 0 5 1 0 5 1 0 5 1 0 5 1 0 5 0 1 5 1 4 11 0 5 11 0 5 11 0 5 11 0 5 11 0 5 11 0 5 11 0 5 11 0 1 7 0 2 8 0 4 10 3 8 14 6 11 17 9 14 20 12 17 23 13 18 24 40 48 51 42 50 53 44 52 55 47 55 58 51 59 62 54 62 65 56 64 67 58 66 69 64 72 75 64 72 75 64 72 75 64 72 75 64 72 75 64 72 75 64 72 75 64 72 74 75 83 85 75 84 83 75 84 83 75 84 83 75 84 83 75 84 83 75 84 83 75 84 83 92 101 100 94 103 102 96 105 104 99 108 107 103 112 111 106 115 114 108 117 116 110 119 118 93 101 103 89 97 99 82 90 92 72 80 82 62 70 72 53 61 63 45 53 55 41 49 51 12 20 22 20 28 30 30 38 40 38 46 48 38 46 48 30 38 40 20 28 30 12 20 22 7 15 18 7 15 18 7 15 18 7 15 18 7 15 18 7 15 18 7 15 18 7 15 18 21 29 32 21 29 32 21 29 32 21 29 32 21 29 32 21 29 32 21 29 32 21 29 31 21 29 31 21 30 29 21 30 29 21 30 29 21 30 29 21 30 29 21 30 29 21 30 29 20 29 28 20 29 28 20 29 28 20 29 28 20 29 28 20 29 28 20 29 28 23 27 26 29 27 28 32 26 26 32 26 26 32 26 26 32 26 26 32 26 26 32 26 26 32 26 26 35 29 29 35 29 29 35 29 29 35 29 29 35 29 29 35 29 29 35 29 29 35 30 27 39 31 29 39 31 28 39 31 28 39 31 28 39 31 28 39 31 28 39 31 28 39 31 28 39 31 28 39 31 28 39 31 28 39 31 28 39 31 28 39 31 28 39 31 28 39 31 28
2 1 9 2 1 9 2 1 9 2 1 9 2 1 9 2 1 9 2 1 9 2 1 9 2 1 9 2 1 9 2 1 9 2 1 7 1 2 6 1 2 4 1 2 4 1 2 4 1 2 4 1 2 4 1 2 4 1 2 4 0 1 3 0 1 3 0 1 3 0 1 3 0 1 3 0 1 3 0 1 3 0 1 3 1 0 5 1 0 5 1 0 5 1 0 5 1 0 5 1 0 5 1 0 5 1 0 5 1 0 5 1 0 5 1 0 5 1 0 5 1 0 5 1 0 5 1 0 5 0 1 5 1 4 11 0 5 11 0 5 11 0 5 11 0 5 11 0 5 11 0 5 11 0 5 11 1 6 12 2 7 13 4 9 15 7 12 18 11 16 22 14 19 25 17 22 28 18 23 29 40 48 51 42 50 53 44 52 55 47 55 58 51 59 62 54 62 65 56 64 67 58 66 69 64 72 75 64 72 75 64 72 75 64 72 75 64 72 75 64 72 75 64 72 75 64 72 74 75 83 85 75 84 83 75 84 83 75 84 83 75 84 83 75 84 83 75 84 83 75 84 83 92 101 100 94 103 102 96 105 104 99 108 107 103 112 111 106 115 114 108 117 116 110 119 118 98 106 108 94 102 104 87 95 97 77 85 87 67 75 77 57 65 67 50 58 60 46 54 56 16 24 26 21 29 31 29 37 39 34 42 44 34 42 44 29 37 39 21 29 31 16 24 26 9 17 20 9 17 20 9 17 20 9 17 20 9 17 20 9 17 20 9 17 20 9 17 20 19 27 30 19 27 30 19 27 30 19 27 30 19 27 30 19 27 30 19 27 30 19 27 29 21 29 31 21 30 29 21 30 29 21 30 29 21 30 29 21 30 29 21 30 29 21 30 29 20 29 28 20 29 28 20 29 28 20 29 28 20 29 28 20 29 28 20 29 28 23 27 26 29 27 28 32 26 26 32 26 26 32 26 26 32 26 26 32 26 26 32 26 26 32 26 26 35 29 29 35 29 29 35 29 29 35 29 29 35 29 29 35 29 29 35 29 29 35 30 27 39 31 29 39 31 28 39 31 28 39 31 28 39 31 28 39 31 28 39 31 28 39 31 28 39 31 28 39 31 28 39 31 28 39 31 28 39 31 28 39 31 28 39 31 28 39 31 28
