P3
172 37
255
0 9 0 0 9 0 0 9 0 0 9 0 0 9 0 0 9 0 0 9 0 0 9 0 0 9 0 0 9 0 0 9 0 0 9 0 0 9 0 0 9 0 0 9 0 0 9 0 0 9 0 0 9 0 0 9 0 0 9 0 0 9 0 0 9 0 0 9 0 0 9 0 0 9 0 0 9 0 0 9 0 0 9 0 0 9 0 0 9 0 0 9 0 0 9 0 0 9 0 0 9 0 0 9 0 0 9 0 0 9 0 0 9 0 0 9 0 0 9 0 0 9 0 0 9 0 0 9 0 0 9 0 0 9 0 0 9 0 0 9 0 0 9 0 0 9 0 0 9 0 0 9 0 0 9 0 0 9 0 0 9 0 0 9 0 0 9 0 0 9 0 0 9 0 0 9 0 0 9 0 0 9 0 0 9 0 0 9 0 0 9 0 0 9 0 0 9 0 0 9 0 0 9 0 0 10 0 0 10 0 0 10 0 0 10 0 0 10 0 0 10 0 0 10 0 0 9 0 0 11 4 0 11 4 0 11 4 0 11 4 0 11 4 0 11 4 0 11 4 0 11 4 6 19 12 6 19 12 6 19 12 6 19 12 6 19 12 6 19 12 6 19 12 3 20 12 3 27 14 0 28 14 0 28 14 0 28 14 0 28 14 0 28 14 0 28 14 0 28 14 0 27 13 0 25 11 0 23 9 0 20 6 0 16 2 0 13 0 0 11 0 0 10 0 0 9 0 0 9 0 0 9 0 0 9 0 0 9 0 0 9 0 0 9 0 0 9 0 0 18 5 0 20 7 0 25 12 6 32 19 12 38 25 19 45 32 24 50 37 26 52 39 38 65 50 39 66 51 42 69 54 45 72 57 48 75 60 52 79 64 54 81 66 55 82 67 69 96 81 70 97 82 73 100 85 76 103 88 79 106 91 83 110 95 85 112 97 88 112 98 101 122 113 96 116 107 87 107 98 74 94 85 60 80 71 47 67 58 38 58 49 32 52 43 22 42 33 25 45 36 30 50 41 36 56 47 43 63 54 49 69 60 54 74 65 62 74 74 81 74 92 87 73 98 89 75 101 92 78 103 96 82 108 99 85 110 101 87 113 103 89 114 103 89 115 103 89 114 103 89 115 103 89 114 103 89 115 103 89 114 103 89 115 103 89 114
0 7 0 0 9 0 0 7 0 0 9 0 0 7 0 0 9 0 0 7 0 0 9 0 0 7 0 0 9 0 0 7 0 0 9 0 0 7 0 0 9 0 0 7 0 0 9 0 0 7 0 0 9 0 0 7 0 0 9 0 0 7 0 0 9 0 0 7 0 0 9 0 0 7 0 0 9 0 0 7 0 0 9 0 0 7 0 0 9 0 0 7 0 0 9 0 0 7 0 0 9 0 0 7 0 0 9 0 0 7 0 0 9 0 0 7 0 0 9 0 0 7 0 0 9 0 0 7 0 0 9 0 0 7 0 0 9 0 0 7 0 0 9 0 0 7 0 0 9 0 0 7 0 0 9 0 0 7 0 0 9 0 0 7 0 0 9 0 0 7 0 0 9 0 0 7 0 0 8 0 0 7 0 0 8 0 0 7 0 0 8 0 0 7 0 0 8 0 0 7 0 0 8 0 0 8 0 0 9 0 0 8 0 0 9 0 0 8 0 0 9 0 0 8 0 0 8 0 0 11 6 0 10 6 0 10 6 0 10 6 0 10 6 0 10 6 0 10 6 0 10 6 7 18 14 7 18 14 7 18 14 7 18 14 7 18 14 7 18 14 7 18 14 4 19 12 3 26 16 0 28 16 0 28 16 0 28 16 0 28 16 0 28 16 0 28 16 0 28 16 0 27 15 0 25 13 0 23 11 0 20 8 0 16 4 0 13 1 0 11 0 0 10 0 0 9 0 0 9 0 0 8 0 0 9 0 0 8 0 0 9 0 0 8 0 0 9 0 0 17 7 0 20 7 1 24 14 6 32 19 14 37 27 19 45 32 26 49 39 26 52 39 37 63 50 38 64 51 40 66 53 44 70 57 47 73 60 50 76 63 53 79 66 54 80 67 68 94 81 69 95 82 71 97 84 75 101 88 78 104 91 81 107 94 84 110 97 87 111 98 101 122 113 96 116 107 87 107 98 74 94 85 60 80 71 47 67 58 38 58 49 32 52 43 21 41 32 24 44 35 29 49 40 35 55 46 42 62 53 48 68 59 53 73 64 61 73 71 78 76 89 84 75 96 86 77 98 89 80 101 93 84 105 96 87 108 98 89 110 100 91 112 100 91 112 100 91 112 100 91 112 100 91 112 100 91 112 100 91 112 100 91 112 100 91 112
0 2 0 0 3 0 0 2 0 0 3 0 0 2 0 0 3 0 0 2 0 0 3 0 0 2 0 0 3 0 0 2 0 0 3 0 0 2 0 0 3 0 0 2 0 0 3 0 0 2 0 0 3 0 0 2 0 0 3 0 0 2 0 0 3 0 0 2 0 0 3 0 0 2 0 0 3 0 0 2 0 0 3 0 0 2 0 0 3 0 0 2 0 0 3 0 0 2 0 0 3 0 0 2 0 0 3 0 0 2 0 0 3 0 0 2 0 0 3 0 0 2 0 0 3 0 0 2 0 0 3 0 0 2 0 0 3 0 0 2 0 0 3 0 0 2 0 0 3 0 0 2 0 0 3 0 0 2 0 0 3 0 0 2 0 0 3 0 0 2 0 0 3 0 0 2 0 0 3 0 0 2 0 0 3 0 0 2 0 0 3 0 0 2 0 0 3 0 0 2 0 0 3 0 0 4 2 0 5 2 0 4 2 0 5 2 0 4 2 0 5 2 0 4 2 0 5 2 0 8 7 0 8 7 0 8 7 0 8 7 0 8 7 0 8 7 0 8 7 0 8 7 5 14 13 5 14 13 5 14 13 5 14 13 5 14 13 5 14 13 5 14 13 4 14 13 9 21 19 7 22 17 7 22 17 7 22 17 7 22 17 7 22 17 7 22 17 7 22 17 0 15 10 0 14 9 0 11 6 0 8 3 0 5 0 0 5 0 0 5 0 0 4 0 0 4 0 0 4 0 0 3 0 0 4 0 0 3 0 0 4 0 0 3 0 0 4 0 0 3 0 0 6 0 1 10 7 7 18 12 14 23 20 20 31 25 26 35 32 27 38 32 38 51 44 38 53 46 40 55 48 43 58 51 47 62 55 50 65 58 52 67 60 54 69 62 68 83 76 69 84 77 72 87 80 75 90 83 78 93 86 82 97 90 84 99 92 87 100 93 101 107 103 98 103 97 90 95 89 81 86 80 70 75 69 61 66 60 54 59 53 50 55 49 31 36 30 33 38 32 35 40 34 38 43 37 42 47 41 45 50 44 47 52 46 51 53 52 76 69 77 79 68 82 82 71 85 85 74 88 88 77 91 92 81 95 94 83 97 95 84 98 94 83 97 94 83 97 94 83 97 94 83 97 94 83 97 94 83 97 94 83 97 95 83 97
0 0 0 0 0 0 0 0 0 0 0 0 0 0 0 0 0 0 0 0 0 0 0 0 0 0 0 0 0 0 0 0 0 0 0 0 0 0 0 0 0 0 0 0 0 0 0 0 0 0 0 0 0 0 0 0 0 0 0 0 0 0 0 0 0 0 0 0 0 0 0 0 0 0 0 0 0 0 0 0 0 0 0 0 0 0 0 0 0 0 0 0 0 0 0 0 0 0 0 0 0 0 0 0 0 0 0 0 0 0 0 0 0 0 0 0 0 0 0 0 0 0 0 0 0 0 0 0 0 0 0 0 0 0 0 0 0 0 0 0 0 0 0 0 0 0 0 0 0 0 0 0 0 0 0 0 0 0 0 0 0 0 0 0 0 0 0 0 0 0 0 0 0 0 0 0 0 0 0 0 0 0 2 0 0 2 0 0 2 0 0 2 0 0 2 0 0 2 0 0 2 0 0 2 2 2 4 2 2 4 2 2 4 2 2 4 2 2 4 2 2 4 2 2 4 1 2 4 2 6 9 1 6 9 1 6 9 1 6 9 1 6 9 1 6 9 1 6 9 1 6 9 7 12 15 7 12 15 7 12 15 7 12 15 7 12 15 7 12 15 7 12 15 7 12 15 11 20 19 11 20 19 11 20 19 11 20 19 11 20 19 11 20 19 11 20 19 11 20 19 5 14 13 4 13 12 2 11 10 0 7 6 0 4 3 0 3 2 0 3 2 0 2 2 0 1 0 0 1 0 0 1 0 0 1 0 0 1 0 0 1 0 0 1 0 0 1 0 0 1 0 1 3 2 6 8 7 13 15 14 19 21 20 26 28 27 31 33 32 31 35 34 42 48 46 42 51 48 44 53 50 47 56 53 51 60 57 54 63 60 56 65 62 58 67 64 71 80 77 72 81 78 74 83 80 78 87 84 81 90 87 84 93 90 87 96 93 90 96 92 103 103 101 100 99 95 93 92 88 84 83 79 73 72 68 64 63 59 56 55 51 52 51 47 35 34 30 37 36 32 39 38 34 42 41 37 46 45 41 49 48 44 51 50 46 55 51 50 77 67 75 79 67 77 81 69 79 85 73 83 88 76 86 91 79 89 94 82 92 95 83 93 95 83 93 95 83 93 95 83 93 95 83 93 95 83 93 95 83 93 95 83 93 96 83 93
0 0 0 0 0 0 0 0 0 0 0 0 0 0 0 0 0 0 0 0 0 0 0 0 0 0 0 0 0 0 0 0 0 0 0 0 0 0 0 0 0 0 0 0 0 0 0 0 0 0 0 0 0 0 0 0 0 0 0 0 0 0 0 0 0 0 0 0 0 0 0 0 0 0 0 0 0 0 0 0 0 0 0 0 0 0 0 0 0 0 0 0 0 0 0 0 0 0 0 0 0 0 0 0 0 0 0 0 0 0 0 0 0 0 0 0 0 0 0 0 0 0 0 0 0 0 0 0 0 0 0 0 0 0 0 0 0 0 0 0 0 0 0 0 0 0 0 0 0 0 0 0 0 0 0 0 0 0 0 0 0 0 0 0 0 0 0 0 0 0 0 0 0 0 0 0 0 0 0 0 0 0 2 0 0 2 0 0 2 0 0 2 0 0 2 0 0 2 0 0 2 0 0 2 2 2 4 2 2 4 2 2 4 2 2 4 2 2 4 2 2 4 2 2 4 1 2 4 2 6 9 1 6 9 1 6 9 1 6 9 1 6 9 1 6 9 1 6 9 1 6 9 7 12 15 7 12 15 7 12 15 7 12 15 7 12 15 7 12 15 7 12 15 7 12 15 11 20 19 11 20 19 11 20 19 11 20 19 11 20 19 11 20 19 11 20 19 11 20 19 8 17 16 6 15 14 4 13 12 1 10 9 0 6 5 0 3 2 0 3 2 0 2 2 0 1 0 0 1 0 0 1 0 0 1 0 0 1 0 0 1 0 0 1 0 0 1 0 0 1 0 1 3 2 6 8 7 13 15 14 19 21 20 26 28 27 31 33 32 31 35 34 42 48 46 42 51 48 44 53 50 47 56 53 51 60 57 54 63 60 56 65 62 58 67 64 68 77 74 70 79 76 72 81 78 75 84 81 79 88 85 82 91 88 84 93 90 88 94 90 101 101 99 98 97 93 91 90 86 81 80 76 71 70 66 61 60 56 54 53 49 50 49 45 35 34 30 37 36 32 39 38 34 42 41 37 46 45 41 49 48 44 51 50 46 55 51 50 74 64 72 77 65 75 79 67 77 82 70 80 86 74 84 89 77 87 91 79 89 93 81 91 95 83 93 95 83 93 95 83 93 95 83 93 95 83 93 95 83 93 95 83 93 96 83 93
0 0 0 0 0 0 0 0 0 0 0 0 0 0 0 0 0 0 0 0 0 0 0 0 0 0 0 0 0 0 0 0 0 0 0 0 0 0 0 0 0 0 0 0 0 0 0 0 0 0 0 0 0 0 0 0 0 0 0 0 0 0 0 0 0 0 0 0 0 0 0 0 0 0 0 0 0 0 0 0 0 0 0 0 0 0 0 0 0 0 0 0 0 0 0 0 0 0 0 0 0 0 0 0 0 0 0 0 0 0 0 0 0 0 0 0 0 0 0 0 0 0 0 0 0 0 0 0 0 0 0 0 0 0 0 0 0 0 0 0 0 0 0 0 0 0 0 0 0 0 0 0 0 0 0 0 0 0 0 0 0 0 0 0 0 0 0 0 0 0 0 0 0 0 0 0 0 0 0 0 0 0 2 0 0 2 0 0 2 0 0 2 0 0 2 0 0 2 0 0 2 0 0 2 2 2 4 2 2 4 2 2 4 2 2 4 2 2 4 2 2 4 2 2 4 1 2 4 2 6 9 1 6 9 1 6 9 1 6 9 1 6 9 1 6 9 1 6 9 1 6 9 7 12 15 7 12 15 7 12 15 7 12 15 7 12 15 7 12 15 7 12 15 7 12 15 11 20 19 11 20 19 11 20 19 11 20 19 11 20 19 11 20 19 11 20 19 11 20 19 11 20 19 10 19 18 7 16 15 4 13 12 1 10 9 0 6 5 0 4 3 0 2 2 0 1 0 0 1 0 0 1 0 0 1 0 0 1 0 0 1 0 0 1 0 0 1 0 0 1 0 1 3 2 6 8 7 13 15 14 19 21 20 26 28 27 31 33 32 31 35 34 42 48 46 42 51 48 44 53 50 47 56 53 51 60 57 54 63 60 56 65 62 58 67 64 65 74 71 66 75 72 69 78 75 72 81 78 75 84 81 79 88 85 81 90 87 84 90 86 98 98 96 95 94 90 87 86 82 78 77 73 68 67 63 58 57 53 51 50 46 47 46 42 35 34 30 37 36 32 39 38 34 42 41 37 46 45 41 49 48 44 51 50 46 55 51 50 71 61 69 73 61 71 76 64 74 79 67 77 82 70 80 86 74 84 88 76 86 89 77 87 95 83 93 95 83 93 95 83 93 95 83 93 95 83 93 95 83 93 95 83 93 96 83 93
0 0 0 0 0 0 0 0 0 0 0 0 0 0 0 0 0 0 0 0 0 0 0 0 0 0 0 0 0 0 0 0 0 0 0 0 0 0 0 0 0 0 0 0 0 0 0 0 0 0 0 0 0 0 0 0 0 0 0 0 0 0 0 0 0 0 0 0 0 0 0 0 0 0 0 0 0 0 0 0 0 0 0 0 0 0 0 0 0 0 0 0 0 0 0 0 0 0 0 0 0 0 0 0 0 0 0 0 0 0 0 0 0 0 0 0 0 0 0 0 0 0 0 0 0 0 0 0 0 0 0 0 0 0 0 0 0 0 0 0 0 0 0 0 0 0 0 0 0 0 0 0 0 0 0 0 0 0 0 0 0 0 0 0 0 0 0 0 0 0 0 0 0 0 0 0 0 0 0 0 0 0 2 0 0 2 0 0 2 0 0 2 0 0 2 0 0 2 0 0 2 0 0 2 2 2 4 2 2 4 2 2 4 2 2 4 2 2 4 2 2 4 2 2 4 1 2 4 2 6 9 1 6 9 1 6 9 1 6 9 1 6 9 1 6 9 1 6 9 1 6 9 7 12 15 7 12 15 7 12 15 7 12 15 7 12 15 7 12 15 7 12 15 7 12 15 11 20 19 11 20 19 11 20 19 11 20 19 11 20 19 11 20 19 11 20 19 11 20 19 14 23 22 13 22 21 11 20 19 7 16 15 4 13 12 1 10 9 0 7 6 0 5 5 0 1 0 0 1 0 0 1 0 0 1 0 0 1 0 0 1 0 0 1 0 0 1 0 0 1 0 1 3 2 6 8 7 13 15 14 19 21 20 26 28 27 31 33 32 31 35 34 42 48 46 42 51 48 44 53 50 47 56 53 51 60 57 54 63 60 56 65 62 58 67 64 62 71 68 63 72 69 65 74 71 69 78 75 72 81 78 75 84 81 78 87 84 81 87 83 94 94 92 91 90 86 84 83 79 74 73 69 64 63 59 55 54 50 47 46 42 43 42 38 35 34 30 37 36 32 39 38 34 42 41 37 46 45 41 49 48 44 51 50 46 55 51 50 68 58 66 70 58 68 72 60 70 76 64 74 79 67 77 82 70 80 85 73 83 86 74 84 95 83 93 95 83 93 95 83 93 95 83 93 95 83 93 95 83 93 95 83 93 96 83 93
0 0 0 0 0 0 0 0 0 0 0 0 0 0 0 0 0 0 0 0 0 0 0 0 0 0 0 0 0 0 0 0 0 0 0 0 0 0 0 0 0 0 0 0 0 0 0 0 0 0 0 0 0 0 0 0 0 0 0 0 0 0 0 0 0 0 0 0 0 0 0 0 0 0 0 0 0 0 0 0 0 0 0 0 0 0 0 0 0 0 0 0 0 0 0 0 0 0 0 0 0 0 0 0 0 0 0 0 0 0 0 0 0 0 0 0 0 0 0 0 0 0 0 0 0 0 0 0 0 0 0 0 0 0 0 0 0 0 0 0 0 0 0 0 0 0 0 0 0 0 0 0 0 0 0 0 0 0 0 0 0 0 0 0 0 0 0 0 0 0 0 0 0 0 0 0 0 0 0 0 0 0 2 0 0 2 0 0 2 0 0 2 0 0 2 0 0 2 0 0 2 0 0 2 2 2 4 2 2 4 2 2 4 2 2 4 2 2 4 2 2 4 2 2 4 1 2 4 2 6 9 1 6 9 1 6 9 1 6 9 1 6 9 1 6 9 1 6 9 1 6 9 7 12 15 7 12 15 7 12 15 7 12 15 7 12 15 7 12 15 7 12 15 7 12 15 11 20 19 11 20 19 11 20 19 11 20 19 11 20 19 11 20 19 11 20 19 11 20 19 18 27 26 16 25 24 14 23 22 11 20 19 7 16 15 4 13 12 2 11 10 2 8 8 0 1 0 0 1 0 0 1 0 0 1 0 0 1 0 0 1 0 0 1 0 0 1 0 0 1 0 1 3 2 6 8 7 13 15 14 19 21 20 26 28 27 31 33 32 31 35 34 42 48 46 42 51 48 44 53 50 47 56 53 51 60 57 54 63 60 56 65 62 58 67 64 58 67 64 60 69 66 62 71 68 65 74 71 69 78 75 72 81 78 74 83 80 78 84 80 91 91 89 88 87 83 81 80 76 71 70 66 61 60 56 51 50 46 44 43 39 40 39 35 35 34 30 37 36 32 39 38 34 42 41 37 46 45 41 49 48 44 51 50 46 55 51 50 64 54 62 67 55 65 69 57 67 72 60 70 76 64 74 79 67 77 81 69 79 83 71 81 95 83 93 95 83 93 95 83 93 95 83 93 95 83 93 95 83 93 95 83 93 96 83 93
0 0 0 0 0 0 0 0 0 0 0 0 0 0 0 0 0 0 0 0 0 0 0 0 0 0 0 0 0 0 0 0 0 0 0 0 0 0 0 0 0 0 0 0 0 0 0 0 0 0 0 0 0 0 0 0 0 0 0 0 0 0 0 0 0 0 0 0 0 0 0 0 0 0 0 0 0 0 0 0 0 0 0 0 0 0 0 0 0 0 0 0 0 0 0 0 0 0 0 0 0 0 0 0 0 0 0 0 0 0 0 0 0 0 0 0 0 0 0 0 0 0 0 0 0 0 0 0 0 0 0 0 0 0 0 0 0 0 0 0 0 0 0 0 0 0 0 0 0 0 0 0 0 0 0 0 0 0 0 0 0 0 0 0 0 0 0 0 0 0 0 0 0 0 0 0 0 0 0 0 0 0 2 0 0 2 0 0 2 0 0 2 0 0 2 0 0 2 0 0 2 0 0 2 2 2 4 2 2 4 2 2 4 2 2 4 2 2 4 2 2 4 2 2 4 1 2 4 2 6 9 1 6 9 1 6 9 1 6 9 1 6 9 1 6 9 1 6 9 1 6 9 7 12 15 7 12 15 7 12 15 7 12 15 7 12 15 7 12 15 7 12 15 7 12 15 11 20 19 11 20 19 11 20 19 11 20 19 11 20 19 11 20 19 11 20 19 11 20 19 20 29 28 19 28 27 16 25 24 13 22 21 10 19 18 6 15 14 4 13 12 5 11 11 0 1 0 0 1 0 0 1 0 0 1 0 0 1 0 0 1 0 0 1 0 0 1 0 0 1 0 1 3 2 6 8 7 13 15 14 19 21 20 26 28 27 31 33 32 31 35 34 42 48 46 42 51 48 44 53 50 47 56 53 51 60 57 54 63 60 56 65 62 58 67 64 56 65 62 57 66 63 60 69 66 63 72 69 66 75 72 70 79 76 72 81 78 75 81 77 89 89 87 86 85 81 78 77 73 69 68 64 58 57 53 49 48 44 42 41 37 38 37 33 35 34 30 37 36 32 39 38 34 42 41 37 46 45 41 49 48 44 51 50 46 55 51 50 62 52 60 64 52 62 67 55 65 70 58 68 73 61 71 77 65 75 79 67 77 80 68 78 95 83 93 95 83 93 95 83 93 95 83 93 95 83 93 95 83 93 95 83 93 96 83 93
0 0 0 0 0 0 0 0 0 0 0 0 0 0 0 0 0 0 0 0 0 0 0 0 0 0 0 0 0 0 0 0 0 0 0 0 0 0 0 0 0 0 0 0 0 0 0 0 0 0 0 0 0 0 0 0 0 0 0 0 0 0 0 0 0 0 0 0 0 0 0 0 0 0 0 0 0 0 0 0 0 0 0 0 0 0 0 0 0 0 0 0 0 0 0 0 0 0 0 0 0 0 0 0 0 0 0 0 0 0 0 0 0 0 0 0 0 0 0 0 0 0 0 0 0 0 0 0 0 0 0 0 0 0 0 0 0 0 0 0 0 0 0 0 0 0 0 0 0 0 0 0 0 0 0 0 0 0 0 0 0 0 0 0 0 0 0 0 0 0 0 0 0 0 0 0 0 0 0 0 0 0 2 0 0 2 0 0 2 0 0 2 0 0 2 0 0 2 0 0 2 0 0 2 2 2 4 2 2 4 2 2 4 2 2 4 2 2 4 2 2 4 2 2 4 1 2 4 2 6 9 1 6 9 1 6 9 1 6 9 1 6 9 1 6 9 1 6 9 1 6 9 7 12 15 7 12 15 7 12 15 7 12 15 7 12 15 7 12 15 7 12 15 7 12 15 11 20 19 11 20 19 11 20 19 11 20 19 11 20 19 11 20 19 11 20 19 11 20 19 21 30 29 20 29 28 18 27 26 14 23 22 11 20 19 8 17 16 5 14 13 6 12 12 0 1 0 0 1 0 0 1 0 0 1 0 0 1 0 0 1 0 0 1 0 0 1 0 0 1 0 1 3 2 6 8 7 13 15 14 19 21 20 26 28 27 31 33 32 31 35 34 42 48 46 42 51 48 44 53 50 47 56 53 51 60 57 54 63 60 56 65 62 58 67 64 55 64 61 56 65 62 58 67 64 62 71 68 65 74 71 68 77 74 71 80 77 74 80 76 87 87 85 84 83 79 77 76 72 68 67 63 57 56 52 48 47 43 40 39 35 36 35 31 35 34 30 37 36 32 39 38 34 42 41 37 46 45 41 49 48 44 51 50 46 55 51 50 61 51 59 63 51 61 65 53 63 69 57 67 72 60 70 75 63 73 78 66 76 79 67 77 95 83 93 95 83 93 95 83 93 95 83 93 95 83 93 95 83 93 95 83 93 96 83 93
0 0 0 0 0 0 0 0 0 0 0 0 0 0 0 0 0 0 0 0 0 0 0 0 0 0 0 0 0 0 0 0 0 0 0 0 0 0 0 0 0 0 0 0 0 0 0 0 0 0 0 0 0 0 0 0 0 0 0 0 0 0 0 0 0 0 0 0 0 0 0 0 0 0 0 0 0 0 0 0 0 0 0 0 0 0 0 0 0 0 0 0 0 0 0 0 0 0 0 0 0 0 0 0 0 0 0 0 0 0 0 0 0 0 0 0 0 0 0 0 0 0 0 0 0 0 0 0 0 0 0 0 0 0 0 0 0 0 0 0 0 0 0 0 0 0 0 0 0 0 0 0 0 0 0 0 0 0 0 0 0 0 0 0 0 0 0 0 0 0 0 0 0 0 0 0 0 0 0 0 0 0 2 0 0 2 0 0 2 0 0 2 0 0 2 0 0 2 0 0 2 0 0 2 2 2 4 2 2 4 2 2 4 2 2 4 2 2 4 2 2 4 2 2 4 1 2 4 2 6 9 1 6 9 1 6 9 1 6 9 1 6 9 1 6 9 1 6 9 1 6 9 6 11 14 6 11 14 6 11 14 6 11 14 6 11 14 6 11 14 6 11 14 6 11 14 14 23 22 14 23 22 14 23 22 14 23 22 14 23 22 14 23 22 14 23 22 14 23 22 11 20 19 9 18 17 7 16 15 4 13 12 0 9 8 0 6 5 0 4 3 0 2 2 0 1 0 0 1 0 0 1 0 0 1 0 0 1 0 0 1 0 0 1 0 0 1 0 0 2 1 2 4 3 4 6 5 7 9 8 11 13 12 14 16 15 16 18 17 16 20 19 30 36 34 30 39 36 32 41 38 35 44 41 39 48 45 42 51 48 44 53 50 46 55 52 62 71 68 62 71 68 62 71 68 62 71 68 62 71 68 62 71 68 62 71 68 64 70 66 73 73 71 73 72 68 71 70 66 67 66 62 64 63 59 61 60 56 58 57 53 57 56 52 32 31 27 32 31 27 32 31 27 32 31 27 32 31 27 32 31 27 32 31 27 34 30 29 48 38 46 52 40 50 57 45 55 63 51 61 70 58 68 76 64 74 81 69 79 84 72 82 78 66 76 80 68 78 82 70 80 85 73 83 89 77 87 92 80 90 94 82 92 97 84 94
0 0 0 0 0 0 0 0 0 0 0 0 0 0 0 0 0 0 0 0 0 0 0 0 0 0 0 0 0 0 0 0 0 0 0 0 0 0 0 0 0 0 0 0 0 0 0 0 0 0 0 0 0 0 0 0 0 0 0 0 0 0 0 0 0 0 0 0 0 0 0 0 0 0 0 0 0 0 0 0 0 0 0 0 0 0 0 0 0 0 0 0 0 0 0 0 0 0 0 0 0 0 0 0 0 0 0 0 0 0 0 0 0 0 0 0 0 0 0 0 0 0 0 0 0 0 0 0 0 0 0 0 0 0 0 0 0 0 0 0 0 0 0 0 0 0 0 0 0 0 0 0 0 0 0 0 0 0 0 0 0 0 0 0 0 0 0 0 0 0 0 0 0 0 0 0 0 0 0 0 0 0 2 0 0 2 0 0 2 0 0 2 0 0 2 0 0 2 0 0 2 0 0 2 2 2 4 2 2 4 2 2 4 2 2 4 2 2 4 2 2 4 2 2 4 1 2 4 2 6 9 1 6 9 1 6 9 1 6 9 1 6 9 1 6 9 1 6 9 1 6 9 6 11 14 6 11 14 6 11 14 6 11 14 6 11 14 6 11 14 6 11 14 6 11 14 14 23 22 14 23 22 14 23 22 14 23 22 14 23 22 14 23 22 14 23 22 14 23 22 11 20 19 9 18 17 7 16 15 4 13 12 0 9 8 0 6 5 0 4 3 0 2 2 0 1 0 0 1 0 0 1 0 0 1 0 0 1 0 0 1 0 0 1 0 0 1 0 0 2 1 2 4 3 4 6 5 7 9 8 11 13 12 14 16 15 16 18 17 16 20 19 30 36 34 30 39 36 32 41 38 35 44 41 39 48 45 42 51 48 44 53 50 46 55 52 60 69 66 60 69 66 60 69 66 60 69 66 60 69 66 60 69 66 60 69 66 62 68 64 72 72 70 72 71 67 69 68 64 66 65 61 63 62 58 59 58 54 57 56 52 56 55 51 32 31 27 32 31 27 32 31 27 32 31 27 32 31 27 32 31 27 32 31 27 34 30 29 47 37 45 51 39 49 56 44 54 62 50 60 69 57 67 75 63 73 80 68 78 83 71 81 78 66 76 80 68 78 82 70 80 85 73 83 89 77 87 92 80 90 94 82 92 97 84 94
0 0 0 0 0 0 0 0 0 0 0 0 0 0 0 0 0 0 0 0 0 0 0 0 0 0 0 0 0 0 0 0 0 0 0 0 0 0 0 0 0 0 0 0 0 0 0 0 0 0 0 0 0 0 0 0 0 0 0 0 0 0 0 0 0 0 0 0 0 0 0 0 0 0 0 0 0 0 0 0 0 0 0 0 0 0 0 0 0 0 0 0 0 0 0 0 0 0 0 0 0 0 0 0 0 0 0 0 0 0 0 0 0 0 0 0 0 0 0 0 0 0 0 0 0 0 0 0 0 0 0 0 0 0 0 0 0 0 0 0 0 0 0 0 0 0 0 0 0 0 0 0 0 0 0 0 0 0 0 0 0 0 0 0 0 0 0 0 0 0 0 0 0 0 0 0 0 0 0 0 0 0 2 0 0 2 0 0 2 0 0 2 0 0 2 0 0 2 0 0 2 0 0 2 2 2 4 2 2 4 2 2 4 2 2 4 2 2 4 2 2 4 2 2 4 1 2 4 2 6 9 1 6 9 1 6 9 1 6 9 1 6 9 1 6 9 1 6 9 1 6 9 6 11 14 6 11 14 6 11 14 6 11 14 6 11 14 6 11 14 6 11 14 6 11 14 14 23 22 14 23 22 14 23 22 14 23 22 14 23 22 14 23 22 14 23 22 14 23 22 11 20 19 9 18 17 7 16 15 4 13 12 0 9 8 0 6 5 0 4 3 0 2 2 0 1 0 0 1 0 0 1 0 0 1 0 0 1 0 0 1 0 0 1 0 0 1 0 0 2 1 2 4 3 4 6 5 7 9 8 11 13 12 14 16 15 16 18 17 16 20 19 30 36 34 30 39 36 32 41 38 35 44 41 39 48 45 42 51 48 44 53 50 46 55 52 58 67 64 58 67 64 58 67 64 58 67 64 58 67 64 58 67 64 58 67 64 60 66 62 70 70 68 69 68 64 67 66 62 64 63 59 60 59 55 57 56 52 55 54 50 53 52 48 32 31 27 32 31 27 32 31 27 32 31 27 32 31 27 32 31 27 32 31 27 34 30 29 45 35 43 48 36 46 53 41 51 59 47 57 66 54 64 73 61 71 78 66 76 80 68 78 78 66 76 80 68 78 82 70 80 85 73 83 89 77 87 92 80 90 94 82 92 97 84 94
0 0 0 0 0 0 0 0 0 0 0 0 0 0 0 0 0 0 0 0 0 0 0 0 0 0 0 0 0 0 0 0 0 0 0 0 0 0 0 0 0 0 0 0 0 0 0 0 0 0 0 0 0 0 0 0 0 0 0 0 0 0 0 0 0 0 0 0 0 0 0 0 0 0 0 0 0 0 0 0 0 0 0 0 0 0 0 0 0 0 0 0 0 0 0 0 0 0 0 0 0 0 0 0 0 0 0 0 0 0 0 0 0 0 0 0 0 0 0 0 0 0 0 0 0 0 0 0 0 0 0 0 0 0 0 0 0 0 0 0 0 0 0 0 0 0 0 0 0 0 0 0 0 0 0 0 0 0 0 0 0 0 0 0 0 0 0 0 0 0 0 0 0 0 0 0 0 0 0 0 0 0 2 0 0 2 0 0 2 0 0 2 0 0 2 0 0 2 0 0 2 0 0 2 2 2 4 2 2 4 2 2 4 2 2 4 2 2 4 2 2 4 2 2 4 1 2 4 2 6 9 1 6 9 1 6 9 1 6 9 1 6 9 1 6 9 1 6 9 1 6 9 6 11 14 6 11 14 6 11 14 6 11 14 6 11 14 6 11 14 6 11 14 6 11 14 14 23 22 14 23 22 14 23 22 14 23 22 14 23 22 14 23 22 14 23 22 14 23 22 11 20 19 9 18 17 7 16 15 4 13 12 0 9 8 0 6 5 0 4 3 0 2 2 0 1 0 0 1 0 0 1 0 0 1 0 0 1 0 0 1 0 0 1 0 0 1 0 0 2 1 2 4 3 4 6 5 7 9 8 11 13 12 14 16 15 16 18 17 16 20 19 30 36 34 30 39 36 32 41 38 35 44 41 39 48 45 42 51 48 44 53 50 46 55 52 55 64 61 55 64 61 55 64 61 55 64 61 55 64 61 55 64 61 55 64 61 57 63 59 66 66 64 66 65 61 64 63 59 60 59 55 57 56 52 54 53 49 51 50 46 50 49 45 32 31 27 32 31 27 32 31 27 32 31 27 32 31 27 32 31 27 32 31 27 34 30 29 41 31 39 45 33 43 50 38 48 56 44 54 63 51 61 70 58 68 74 62 72 77 65 75 78 66 76 80 68 78 82 70 80 85 73 83 89 77 87 92 80 90 94 82 92 97 84 94
0 0 0 0 0 0 0 0 0 0 0 0 0 0 0 0 0 0 0 0 0 0 0 0 0 0 0 0 0 0 0 0 0 0 0 0 0 0 0 0 0 0 0 0 0 0 0 0 0 0 0 0 0 0 0 0 0 0 0 0 0 0 0 0 0 0 0 0 0 0 0 0 0 0 0 0 0 0 0 0 0 0 0 0 0 0 0 0 0 0 0 0 0 0 0 0 0 0 0 0 0 0 0 0 0 0 0 0 0 0 0 0 0 0 0 0 0 0 0 0 0 0 0 0 0 0 0 0 0 0 0 0 0 0 0 0 0 0 0 0 0 0 0 0 0 0 0 0 0 0 0 0 0 0 0 0 0 0 0 0 0 0 0 0 0 0 0 0 0 0 0 0 0 0 0 0 0 0 0 0 0 0 2 0 0 2 0 0 2 0 0 2 0 0 2 0 0 2 0 0 2 0 0 2 2 2 4 2 2 4 2 2 4 2 2 4 2 2 4 2 2 4 2 2 4 1 2 4 2 6 9 1 6 9 1 6 9 1 6 9 1 6 9 1 6 9 1 6 9 1 6 9 6 11 14 6 11 14 6 11 14 6 11 14 6 11 14 6 11 14 6 11 14 6 11 14 14 23 22 14 23 22 14 23 22 14 23 22 14 23 22 14 23 22 14 23 22 14 23 22 11 20 19 9 18 17 7 16 15 4 13 12 0 9 8 0 6 5 0 4 3 0 2 2 0 1 0 0 1 0 0 1 0 0 1 0 0 1 0 0 1 0 0 1 0 0 1 0 0 2 1 2 4 3 4 6 5 7 9 8 11 13 12 14 16 15 16 18 17 16 20 19 30 36 34 30 39 36 32 41 38 35 44 41 39 48 45 42 51 48 44 53 50 46 55 52 51 60 57 51 60 57 51 60 57 51 60 57 51 60 57 51 60 57 51 60 57 53 59 55 63 63 61 63 62 58 60 59 55 57 56 52 54 53 49 50 49 45 48 47 43 47 46 42 32 31 27 32 31 27 32 31 27 32 31 27 32 31 27 32 31 27 32 31 27 34 30 29 38 28 36 42 30 40 46 34 44 53 41 51 60 48 58 66 54 64 71 59 69 74 62 72 78 66 76 80 68 78 82 70 80 85 73 83 89 77 87 92 80 90 94 82 92 97 84 94
0 0 0 0 0 0 0 0 0 0 0 0 0 0 0 0 0 0 0 0 0 0 0 0 0 0 0 0 0 0 0 0 0 0 0 0 0 0 0 0 0 0 0 0 0 0 0 0 0 0 0 0 0 0 0 0 0 0 0 0 0 0 0 0 0 0 0 0 0 0 0 0 0 0 0 0 0 0 0 0 0 0 0 0 0 0 0 0 0 0 0 0 0 0 0 0 0 0 0 0 0 0 0 0 0 0 0 0 0 0 0 0 0 0 0 0 0 0 0 0 0 0 0 0 0 0 0 0 0 0 0 0 0 0 0 0 0 0 0 0 0 0 0 0 0 0 0 0 0 0 0 0 0 0 0 0 0 0 0 0 0 0 0 0 0 0 0 0 0 0 0 0 0 0 0 0 0 0 0 0 0 0 2 0 0 2 0 0 2 0 0 2 0 0 2 0 0 2 0 0 2 0 0 2 2 2 4 2 2 4 2 2 4 2 2 4 2 2 4 2 2 4 2 2 4 1 2 4 2 6 9 1 6 9 1 6 9 1 6 9 1 6 9 1 6 9 1 6 9 1 6 9 6 11 14 6 11 14 6 11 14 6 11 14 6 11 14 6 11 14 6 11 14 6 11 14 14 23 22 14 23 22 14 23 22 14 23 22 14 23 22 14 23 22 14 23 22 14 23 22 11 20 19 9 18 17 7 16 15 4 13 12 0 9 8 0 6 5 0 4 3 0 2 2 0 1 0 0 1 0 0 1 0 0 1 0 0 1 0 0 1 0 0 1 0 0 1 0 0 2 1 2 4 3 4 6 5 7 9 8 11 13 12 14 16 15 16 18 17 16 20 19 30 36 34 30 39 36 32 41 38 35 44 41 39 48 45 42 51 48 44 53 50 46 55 52 48 57 54 48 57 54 48 57 54 48 57 54 48 57 54 48 57 54 48 57 54 50 56 52 60 60 58 59 58 54 57 56 52 54 53 49 50 49 45 47 46 42 45 44 40 43 42 38 32 31 27 32 31 27 32 31 27 32 31 27 32 31 27 32 31 27 32 31 27 34 30 29 35 25 33 38 26 36 43 31 41 50 38 48 57 45 55 63 51 61 68 56 66 70 58 68 78 66 76 80 68 78 82 70 80 85 73 83 89 77 87 92 80 90 94 82 92 97 84 94
0 0 0 0 0 0 0 0 0 0 0 0 0 0 0 0 0 0 0 0 0 0 0 0 0 0 0 0 0 0 0 0 0 0 0 0 0 0 0 0 0 0 0 0 0 0 0 0 0 0 0 0 0 0 0 0 0 0 0 0 0 0 0 0 0 0 0 0 0 0 0 0 0 0 0 0 0 0 0 0 0 0 0 0 0 0 0 0 0 0 0 0 0 0 0 0 0 0 0 0 0 0 0 0 0 0 0 0 0 0 0 0 0 0 0 0 0 0 0 0 0 0 0 0 0 0 0 0 0 0 0 0 0 0 0 0 0 0 0 0 0 0 0 0 0 0 0 0 0 0 0 0 0 0 0 0 0 0 0 0 0 0 0 0 0 0 0 0 0 0 0 0 0 0 0 0 0 0 0 0 0 0 2 0 0 2 0 0 2 0 0 2 0 0 2 0 0 2 0 0 2 0 0 2 2 2 4 2 2 4 2 2 4 2 2 4 2 2 4 2 2 4 2 2 4 1 2 4 2 6 9 1 6 9 1 6 9 1 6 9 1 6 9 1 6 9 1 6 9 1 6 9 6 11 14 6 11 14 6 11 14 6 11 14 6 11 14 6 11 14 6 11 14 6 11 14 14 23 22 14 23 22 14 23 22 14 23 22 14 23 22 14 23 22 14 23 22 14 23 22 11 20 19 9 18 17 7 16 15 4 13 12 0 9 8 0 6 5 0 4 3 0 2 2 0 1 0 0 1 0 0 1 0 0 1 0 0 1 0 0 1 0 0 1 0 0 1 0 0 2 1 2 4 3 4 6 5 7 9 8 11 13 12 14 16 15 16 18 17 16 20 19 30 36 34 30 39 36 32 41 38 35 44 41 39 48 45 42 51 48 44 53 50 46 55 52 46 55 52 46 55 52 46 55 52 46 55 52 46 55 52 46 55 52 46 55 52 48 54 50 57 57 55 57 56 52 55 54 50 51 50 46 48 47 43 45 44 40 42 41 37 41 40 36 32 31 27 32 31 27 32 31 27 32 31 27 32 31 27 32 31 27 32 31 27 34 30 29 32 22 30 36 24 34 41 29 39 47 35 45 54 42 52 60 48 58 65 53 63 68 56 66 78 66 76 80 68 78 82 70 80 85 73 83 89 77 87 92 80 90 94 82 92 97 84 94
0 0 0 0 0 0 0 0 0 0 0 0 0 0 0 0 0 0 0 0 0 0 0 0 0 0 0 0 0 0 0 0 0 0 0 0 0 0 0 0 0 0 0 0 0 0 0 0 0 0 0 0 0 0 0 0 0 0 0 0 0 0 0 0 0 0 0 0 0 0 0 0 0 0 0 0 0 0 0 0 0 0 0 0 0 0 0 0 0 0 0 0 0 0 0 0 0 0 0 0 0 0 0 0 0 0 0 0 0 0 0 0 0 0 0 0 0 0 0 0 0 0 0 0 0 0 0 0 0 0 0 0 0 0 0 0 0 0 0 0 0 0 0 0 0 0 0 0 0 0 0 0 0 0 0 0 0 0 0 0 0 0 0 0 0 0 0 0 0 0 0 0 0 0 0 0 0 0 0 0 0 0 2 0 0 2 0 0 2 0 0 2 0 0 2 0 0 2 0 0 2 0 0 2 2 2 4 2 2 4 2 2 4 2 2 4 2 2 4 2 2 4 2 2 4 1 2 4 2 6 9 1 6 9 1 6 9 1 6 9 1 6 9 1 6 9 1 6 9 1 6 9 6 11 14 6 11 14 6 11 14 6 11 14 6 11 14 6 11 14 6 11 14 6 11 14 14 23 22 14 23 22 14 23 22 14 23 22 14 23 22 14 23 22 14 23 22 14 23 22 11 20 19 9 18 17 7 16 15 4 13 12 0 9 8 0 6 5 0 4 3 0 2 2 0 1 0 0 1 0 0 1 0 0 1 0 0 1 0 0 1 0 0 1 0 0 1 0 0 2 1 2 4 3 4 6 5 7 9 8 11 13 12 14 16 15 16 18 17 16 20 19 30 36 34 30 39 36 32 41 38 35 44 41 39 48 45 42 51 48 44 53 50 46 55 52 44 53 50 44 53 50 44 53 50 44 53 50 44 53 50 44 53 50 44 53 50 46 52 50 56 56 54 56 55 51 53 52 48 50 49 45 47 46 42 43 42 38 41 40 36 40 39 35 32 31 27 32 31 27 32 31 27 32 31 27 32 31 27 32 31 27 32 31 27 34 30 29 31 22 27 35 24 32 40 29 37 46 35 43 53 42 50 59 48 56 64 53 61 67 56 64 78 67 75 80 69 77 82 71 79 85 74 82 89 78 86 92 81 89 94 83 91 97 84 93
0 0 0 0 0 0 0 0 0 0 0 0 0 0 0 0 0 0 0 0 0 0 0 0 0 0 0 0 0 0 0 0 0 0 0 0 0 0 0 0 0 0 0 0 0 0 0 0 0 0 0 0 0 0 0 0 0 0 0 0 0 0 0 0 0 0 0 0 0 0 0 0 0 0 0 0 0 0 0 0 0 0 0 0 0 0 0 0 0 0 0 0 0 0 0 0 0 0 0 0 0 0 0 0 0 0 0 0 0 0 0 0 0 0 0 0 0 0 0 0 0 0 0 0 0 0 0 0 0 0 0 0 0 0 0 0 0 0 0 0 0 0 0 0 0 0 0 0 0 0 0 0 0 0 0 0 0 0 0 0 0 0 0 0 0 0 0 0 0 0 0 0 0 0 0 0 0 0 0 0 0 0 0 0 0 0 0 0 0 0 0 0 0 0 0 0 0 0 0 0 0 0 0 0 0 0 0 0 0 0 0 0 0 0 0 0 0 0 0 0 0 0 0 0 0 0 0 2 0 4 7 0 4 7 0 4 7 0 4 7 0 4 7 0 4 7 0 4 7 0 4 7 8 13 16 7 12 15 6 11 14 5 10 13 4 9 12 2 7 10 2 7 10 1 6 9 9 14 17 11 16 19 15 20 23 19 24 27 24 29 32 28 33 36 32 37 40 33 38 41 25 30 33 23 28 31 18 23 26 11 16 19 5 10 13 0 3 6 0 1 4 0 2 2 0 1 0 0 1 0 0 1 0 0 1 0 0 1 0 0 1 0 0 1 0 0 1 0 0 1 0 0 2 1 2 4 3 5 7 6 9 11 10 12 14 13 14 16 15 14 18 17 18 24 22 20 26 24 22 28 26 25 31 29 29 35 33 32 38 36 34 40 38 36 42 40 42 48 46 42 48 46 42 48 46 42 48 46 42 48 46 42 48 46 42 48 46 43 47 46 61 61 59 61 60 58 59 58 56 55 54 52 52 51 49 49 48 46 46 45 43 45 44 42 31 30 28 31 30 28 31 30 28 31 30 28 31 30 28 31 30 28 31 30 28 33 29 28 39 30 33 40 29 35 40 29 35 40 29 35 40 29 35 40 29 35 40 29 35 40 29 35 73 62 68 74 63 69 77 66 72 80 69 75 83 72 78 87 76 82 89 78 84 91 78 85
0 0 0 0 0 0 0 0 0 0 0 0 0 0 0 0 0 0 0 0 0 0 0 0 0 0 0 0 0 0 0 0 0 0 0 0 0 0 0 0 0 0 0 0 0 0 0 0 0 0 0 0 0 0 0 0 0 0 0 0 0 0 0 0 0 0 0 0 0 0 0 0 0 0 0 0 0 0 0 0 0 0 0 0 0 0 0 0 0 0 0 0 0 0 0 0 0 0 0 0 0 0 0 0 0 0 0 0 0 0 0 0 0 0 0 0 0 0 0 0 0 0 0 0 0 0 0 0 0 0 0 0 0 0 0 0 0 0 0 0 0 0 0 0 0 0 0 0 0 0 0 0 0 0 0 0 0 0 0 0 0 0 0 0 0 0 0 0 0 0 0 0 0 0 0 0 0 0 0 0 0 0 0 0 0 0 0 0 0 0 0 0 0 0 0 0 0 0 0 0 0 0 0 0 0 0 0 0 0 0 0 0 0 0 0 0 0 0 0 0 0 0 0 0 0 0 1 0 0 4 7 0 4 7 0 4 7 0 4 7 0 4 7 0 4 7 0 4 7 0 4 7 7 12 15 7 12 15 7 12 15 6 11 14 5 10 13 5 10 13 4 9 12 4 9 12 12 17 20 14 19 22 17 22 25 21 26 29 25 30 33 28 33 36 31 36 39 33 38 41 25 30 33 23 28 31 18 23 26 11 16 19 5 10 13 0 3 6 0 1 4 0 2 2 0 0 2 0 1 0 0 1 0 0 1 0 0 1 0 0 1 0 0 1 0 0 1 0 0 1 0 0 2 1 2 4 3 5 7 6 9 11 10 12 14 13 14 16 15 14 18 17 19 23 22 20 26 24 22 28 26 25 31 29 29 35 33 32 38 36 34 40 38 36 42 40 42 48 46 42 48 46 42 48 46 42 48 46 42 48 46 42 48 46 42 48 46 43 47 46 60 60 58 60 59 57 57 56 54 54 53 51 51 50 48 47 46 44 45 44 42 44 43 41 31 30 28 31 30 28 31 30 28 31 30 28 31 30 28 31 30 28 31 30 28 33 29 28 39 30 33 40 29 33 40 29 33 40 29 33 40 29 33 40 29 33 40 29 33 40 29 33 72 61 65 73 62 66 75 64 68 79 68 72 82 71 75 85 74 78 88 77 81 89 78 82
0 0 0 0 0 0 0 0 0 0 0 0 0 0 0 0 0 0 0 0 0 0 0 0 0 0 0 0 0 0 0 0 0 0 0 0 0 0 0 0 0 0 0 0 0 0 0 0 0 0 0 0 0 0 0 0 0 0 0 0 0 0 0 0 0 0 0 0 0 0 0 0 0 0 0 0 0 0 0 0 0 0 0 0 0 0 0 0 0 0 0 0 0 0 0 0 0 0 0 0 0 0 0 0 0 0 0 0 0 0 0 0 0 0 0 0 0 0 0 0 0 0 0 0 0 0 0 0 0 0 0 0 0 0 0 0 0 0 0 0 0 0 0 0 0 0 0 0 0 0 0 0 0 0 0 0 0 0 0 0 0 0 0 0 0 0 0 0 0 0 0 0 0 0 0 0 0 0 0 0 0 0 0 0 0 0 0 0 0 0 0 0 0 0 0 0 0 0 0 0 0 0 0 0 0 0 0 0 0 0 0 0 0 0 0 0 0 0 0 0 0 0 0 0 0 0 1 0 0 4 7 0 4 7 0 4 7 0 4 7 0 4 7 0 4 7 0 4 7 0 4 7 6 11 14 7 12 15 7 12 15 8 13 16 8 13 16 9 14 17 10 15 18 10 15 18 18 23 26 19 24 27 21 26 29 24 29 32 26 31 34 29 34 37 31 36 39 32 37 40 25 30 33 23 28 31 18 23 26 11 16 19 5 10 13 0 3 6 0 1 4 0 2 2 0 0 2 0 1 0 0 1 0 0 1 0 0 1 0 0 1 0 0 1 0 0 1 0 0 1 0 0 2 1 2 4 3 5 7 6 9 11 10 12 14 13 14 16 15 14 18 17 19 23 22 20 26 24 22 28 26 25 31 29 29 35 33 32 38 36 34 40 38 36 42 40 42 48 46 42 48 46 42 48 46 42 48 46 42 48 46 42 48 46 42 48 46 43 47 46 58 58 56 57 56 54 55 54 52 52 51 49 48 47 45 45 44 42 43 42 40 41 40 38 31 30 28 31 30 28 31 30 28 31 30 28 31 30 28 31 30 28 31 30 28 33 29 28 39 30 33 40 29 33 40 29 33 40 29 33 40 29 33 40 29 33 40 29 33 40 29 33 69 58 62 71 60 64 73 62 66 76 65 69 80 69 73 83 72 76 85 74 78 87 76 80
0 0 0 0 0 0 0 0 0 0 0 0 0 0 0 0 0 0 0 0 0 0 0 0 0 0 0 0 0 0 0 0 0 0 0 0 0 0 0 0 0 0 0 0 0 0 0 0 0 0 0 0 0 0 0 0 0 0 0 0 0 0 0 0 0 0 0 0 0 0 0 0 0 0 0 0 0 0 0 0 0 0 0 0 0 0 0 0 0 0 0 0 0 0 0 0 0 0 0 0 0 0 0 0 0 0 0 0 0 0 0 0 0 0 0 0 0 0 0 0 0 0 0 0 0 0 0 0 0 0 0 0 0 0 0 0 0 0 0 0 0 0 0 0 0 0 0 0 0 0 0 0 0 0 0 0 0 0 0 0 0 0 0 0 0 0 0 0 0 0 0 0 0 0 0 0 0 0 0 0 0 0 0 0 0 0 0 0 0 0 0 0 0 0 0 0 0 0 0 0 0 0 0 0 0 0 0 0 0 0 0 0 0 0 0 0 0 0 0 0 0 0 0 0 0 0 1 0 0 4 7 0 4 7 0 4 7 0 4 7 0 4 7 0 4 7 0 4 7 0 4 7 5 10 13 6 11 14 8 13 16 10 15 18 13 18 21 15 20 23 17 22 25 18 23 26 26 31 34 26 31 34 27 32 35 28 33 36 29 34 37 30 35 38 30 35 38 31 36 39 25 30 33 23 28 31 18 23 26 11 16 19 5 10 13 0 3 6 0 1 4 0 2 2 0 0 2 0 1 0 0 1 0 0 1 0 0 1 0 0 1 0 0 1 0 0 1 0 0 1 0 0 2 1 2 4 3 5 7 6 9 11 10 12 14 13 14 16 15 14 18 17 19 23 22 20 26 24 22 28 26 25 31 29 29 35 33 32 38 36 34 40 38 36 42 40 42 48 46 42 48 46 42 48 46 42 48 46 42 48 46 42 48 46 42 48 46 43 47 46 54 54 52 54 53 51 52 51 49 48 47 45 45 44 42 42 41 39 39 38 36 38 37 35 31 30 28 31 30 28 31 30 28 31 30 28 31 30 28 31 30 28 31 30 28 33 29 28 39 30 33 40 29 33 40 29 33 40 29 33 40 29 33 40 29 33 40 29 33 40 29 33 66 55 59 67 56 60 70 59 63 73 62 66 76 65 69 80 69 73 82 71 75 83 72 76
0 0 0 0 0 0 0 0 0 0 0 0 0 0 0 0 0 0 0 0 0 0 0 0 0 0 0 0 0 0 0 0 0 0 0 0 0 0 0 0 0 0 0 0 0 0 0 0 0 0 0 0 0 0 0 0 0 0 0 0 0 0 0 0 0 0 0 0 0 0 0 0 0 0 0 0 0 0 0 0 0 0 0 0 0 0 0 0 0 0 0 0 0 0 0 0 0 0 0 0 0 0 0 0 0 0 0 0 0 0 0 0 0 0 0 0 0 0 0 0 0 0 0 0 0 0 0 0 0 0 0 0 0 0 0 0 0 0 0 0 0 0 0 0 0 0 0 0 0 0 0 0 0 0 0 0 0 0 0 0 0 0 0 0 0 0 0 0 0 0 0 0 0 0 0 0 0 0 0 0 0 0 0 0 0 0 0 0 0 0 0 0 0 0 0 0 0 0 0 0 0 0 0 0 0 0 0 0 0 0 0 0 0 0 0 0 0 0 0 0 0 0 0 0 0 0 1 0 0 4 7 0 4 7 0 4 7 0 4 7 0 4 7 0 4 7 0 4 7 0 4 7 4 9 12 5 10 13 8 13 16 13 18 21 17 22 25 21 26 29 24 29 32 26 31 34 34 39 42 34 39 42 33 38 41 32 37 40 31 36 39 30 35 38 30 35 38 29 34 37 25 30 33 23 28 31 18 23 26 11 16 19 5 10 13 0 3 6 0 1 4 0 2 2 0 0 2 0 1 0 0 1 0 0 1 0 0 1 0 0 1 0 0 1 0 0 1 0 0 1 0 0 2 1 2 4 3 5 7 6 9 11 10 12 14 13 14 16 15 14 18 17 19 23 22 20 26 24 22 28 26 25 31 29 29 35 33 32 38 36 34 40 38 36 42 40 42 48 46 42 48 46 42 48 46 42 48 46 42 48 46 42 48 46 42 48 46 43 47 46 51 51 49 51 50 48 48 47 45 45 44 42 42 41 39 38 37 35 36 35 33 35 34 32 31 30 28 31 30 28 31 30 28 31 30 28 31 30 28 31 30 28 31 30 28 33 29 28 39 30 33 40 29 33 40 29 33 40 29 33 40 29 33 40 29 33 40 29 33 40 29 33 63 52 56 64 53 57 66 55 59 70 59 63 73 62 66 76 65 69 79 68 72 80 69 73
0 0 0 0 0 0 0 0 0 0 0 0 0 0 0 0 0 0 0 0 0 0 0 0 0 0 0 0 0 0 0 0 0 0 0 0 0 0 0 0 0 0 0 0 0 0 0 0 0 0 0 0 0 0 0 0 0 0 0 0 0 0 0 0 0 0 0 0 0 0 0 0 0 0 0 0 0 0 0 0 0 0 0 0 0 0 0 0 0 0 0 0 0 0 0 0 0 0 0 0 0 0 0 0 0 0 0 0 0 0 0 0 0 0 0 0 0 0 0 0 0 0 0 0 0 0 0 0 0 0 0 0 0 0 0 0 0 0 0 0 0 0 0 0 0 0 0 0 0 0 0 0 0 0 0 0 0 0 0 0 0 0 0 0 0 0 0 0 0 0 0 0 0 0 0 0 0 0 0 0 0 0 0 0 0 0 0 0 0 0 0 0 0 0 0 0 0 0 0 0 0 0 0 0 0 0 0 0 0 0 0 0 0 0 0 0 0 0 0 0 0 0 0 0 0 0 1 0 0 4 7 0 4 7 0 4 7 0 4 7 0 4 7 0 4 7 0 4 7 0 4 7 2 7 10 5 10 13 9 14 17 15 20 23 21 26 29 27 32 35 31 36 39 33 38 41 42 47 50 41 46 49 39 44 47 36 41 44 34 39 42 31 36 39 29 34 37 28 33 36 25 30 33 23 28 31 18 23 26 11 16 19 5 10 13 0 3 6 0 1 4 0 2 2 0 0 2 0 1 0 0 1 0 0 1 0 0 1 0 0 1 0 0 1 0 0 1 0 0 1 0 0 2 1 2 4 3 5 7 6 9 11 10 12 14 13 14 16 15 14 18 17 19 23 22 20 26 24 22 28 26 25 31 29 29 35 33 32 38 36 34 40 38 36 42 40 42 48 46 42 48 46 42 48 46 42 48 46 42 48 46 42 48 46 42 48 46 43 47 46 48 48 46 47 46 44 45 44 42 42 41 39 38 37 35 35 34 32 33 32 30 31 30 28 31 30 28 31 30 28 31 30 28 31 30 28 31 30 28 31 30 28 31 30 28 33 29 28 39 30 33 40 29 33 40 29 33 40 29 33 40 29 33 40 29 33 40 29 33 40 29 33 59 48 52 61 50 54 63 52 56 66 55 59 70 59 63 73 62 66 75 64 68 77 66 70
0 0 0 0 0 0 0 0 0 0 0 0 0 0 0 0 0 0 0 0 0 0 0 0 0 0 0 0 0 0 0 0 0 0 0 0 0 0 0 0 0 0 0 0 0 0 0 0 0 0 0 0 0 0 0 0 0 0 0 0 0 0 0 0 0 0 0 0 0 0 0 0 0 0 0 0 0 0 0 0 0 0 0 0 0 0 0 0 0 0 0 0 0 0 0 0 0 0 0 0 0 0 0 0 0 0 0 0 0 0 0 0 0 0 0 0 0 0 0 0 0 0 0 0 0 0 0 0 0 0 0 0 0 0 0 0 0 0 0 0 0 0 0 0 0 0 0 0 0 0 0 0 0 0 0 0 0 0 0 0 0 0 0 0 0 0 0 0 0 0 0 0 0 0 0 0 0 0 0 0 0 0 0 0 0 0 0 0 0 0 0 0 0 0 0 0 0 0 0 0 0 0 0 0 0 0 0 0 0 0 0 0 0 0 0 0 0 0 0 0 0 0 0 0 0 0 1 0 0 4 7 0 4 7 0 4 7 0 4 7 0 4 7 0 4 7 0 4 7 0 4 7 1 6 9 4 9 12 10 15 18 17 22 25 24 29 32 31 36 39 36 41 44 39 44 47 48 53 56 46 51 54 43 48 51 39 44 47 35 40 43 32 37 40 29 34 37 27 32 35 25 30 33 23 28 31 18 23 26 11 16 19 5 10 13 0 3 6 0 1 4 0 2 2 0 0 2 0 1 0 0 1 0 0 1 0 0 1 0 0 1 0 0 1 0 0 1 0 0 1 0 0 2 1 2 4 3 5 7 6 9 11 10 12 14 13 14 16 15 14 18 17 19 23 22 20 26 24 22 28 26 25 31 29 29 35 33 32 38 36 34 40 38 36 42 40 42 48 46 42 48 46 42 48 46 42 48 46 42 48 46 42 48 46 42 48 46 43 47 46 45 45 43 45 44 42 43 42 40 39 38 36 36 35 33 33 32 30 30 29 27 29 28 26 31 30 28 31 30 28 31 30 28 31 30 28 31 30 28 31 30 28 31 30 28 33 29 28 39 30 33 40 29 33 40 29 33 40 29 33 40 29 33 40 29 33 40 29 33 40 29 33 57 46 50 58 47 51 61 50 54 64 53 57 67 56 60 71 60 64 73 62 66 74 63 67
0 0 0 0 0 0 0 0 0 0 0 0 0 0 0 0 0 0 0 0 0 0 0 0 0 0 0 0 0 0 0 0 0 0 0 0 0 0 0 0 0 0 0 0 0 0 0 0 0 0 0 0 0 0 0 0 0 0 0 0 0 0 0 0 0 0 0 0 0 0 0 0 0 0 0 0 0 0 0 0 0 0 0 0 0 0 0 0 0 0 0 0 0 0 0 0 0 0 0 0 0 0 0 0 0 0 0 0 0 0 0 0 0 0 0 0 0 0 0 0 0 0 0 0 0 0 0 0 0 0 0 0 0 0 0 0 0 0 0 0 0 0 0 0 0 0 0 0 0 0 0 0 0 0 0 0 0 0 0 0 0 0 0 0 0 0 0 0 0 0 0 0 0 0 0 0 0 0 0 0 0 0 0 0 0 0 0 0 0 0 0 0 0 0 0 0 0 0 0 0 0 0 0 0 0 0 0 0 0 0 0 0 0 0 0 0 0 0 0 0 0 0 0 0 0 0 1 0 0 4 7 0 4 7 0 4 7 0 4 7 0 4 7 0 4 7 0 4 7 0 4 7 1 6 9 4 9 12 10 15 18 18 23 26 26 31 34 33 38 41 39 44 47 42 47 50 51 56 59 49 54 57 45 50 53 41 46 49 36 41 44 32 37 40 28 33 36 27 32 35 25 30 33 23 28 31 18 23 26 11 16 19 5 10 13 0 3 6 0 1 4 0 2 2 0 0 2 0 1 0 0 1 0 0 1 0 0 1 0 0 1 0 0 1 0 0 1 0 0 1 0 0 2 1 2 4 3 5 7 6 9 11 10 12 14 13 14 16 15 14 18 17 19 23 22 20 26 24 22 28 26 25 31 29 29 35 33 32 38 36 34 40 38 36 42 40 42 48 46 42 48 46 42 48 46 42 48 46 42 48 46 42 48 46 42 48 46 43 47 46 44 44 42 44 43 41 41 40 38 38 37 35 35 34 32 31 30 28 29 28 26 28 27 25 31 30 28 31 30 28 31 30 28 31 30 28 31 30 28 31 30 28 31 30 28 33 29 28 39 30 33 40 29 33 40 29 33 40 29 33 40 29 33 40 29 33 40 29 33 40 29 33 56 45 49 57 46 50 59 48 52 63 52 56 66 55 59 69 58 62 72 61 65 73 62 66
0 0 0 0 0 0 0 0 0 0 0 0 0 0 0 0 0 0 0 0 0 0 0 0 0 0 0 0 0 0 0 0 0 0 0 0 0 0 0 0 0 0 0 0 0 0 0 0 0 0 0 0 0 0 0 0 0 0 0 0 0 0 0 0 0 0 0 0 0 0 0 0 0 0 0 0 0 0 0 0 0 0 0 0 0 0 0 0 0 0 0 0 0 0 0 0 0 0 0 0 0 0 0 0 0 0 0 0 0 0 0 0 0 0 0 0 0 0 0 0 0 0 0 0 0 0 0 0 0 0 0 0 0 0 0 0 0 0 0 0 0 0 0 0 0 0 0 0 0 0 0 0 0 0 0 0 0 0 0 0 0 0 0 0 0 0 0 0 0 0 0 0 0 0 0 0 0 0 0 0 0 0 0 0 0 0 0 0 0 0 0 0 0 0 0 0 0 0 0 0 0 0 0 0 0 0 0 0 0 0 0 0 0 0 0 0 0 0 0 0 0 0 0 0 0 0 1 0 0 1 4 0 1 4 0 1 4 0 4 7 2 7 10 5 10 13 8 13 16 9 14 17 14 19 22 9 14 17 6 11 14 15 20 23 38 43 46 73 78 81 109 114 117 131 136 139 63 68 71 60 65 68 55 60 63 49 54 57 42 47 50 36 41 44 31 36 39 28 33 36 28 33 36 26 31 34 21 26 29 14 19 22 8 13 16 1 6 9 0 1 4 0 2 2 0 0 2 0 1 0 0 1 0 0 1 0 0 1 0 0 1 0 0 1 0 0 1 0 0 1 0 1 3 2 3 5 4 6 8 7 10 12 11 13 15 14 15 17 16 15 19 18 10 14 13 11 17 15 13 19 17 16 22 20 20 26 24 23 29 27 25 31 29 27 33 31 28 34 32 28 34 32 28 34 32 28 34 32 28 34 32 28 34 32 28 34 32 29 33 32 31 31 29 32 31 29 32 31 29 32 31 29 32 31 29 32 31 29 32 31 29 32 31 29 30 29 27 30 29 27 30 29 27 30 29 27 30 29 27 30 29 27 30 29 27 32 28 27 36 27 30 37 26 30 37 26 30 37 26 30 37 26 30 37 26 30 37 26 30 37 26 30 45 34 38 48 37 41 53 42 46 59 48 52 66 55 59 72 61 65 77 66 70 80 69 73
0 0 0 0 0 0 0 0 0 0 0 0 0 0 0 0 0 0 0 0 0 0 0 0 0 0 0 0 0 0 0 0 0 0 0 0 0 0 0 0 0 0 0 0 0 0 0 0 0 0 0 0 0 0 0 0 0 0 0 0 0 0 0 0 0 0 0 0 0 0 0 0 0 0 0 0 0 0 0 0 0 0 0 0 0 0 0 0 0 0 0 0 0 0 0 0 0 0 0 0 0 0 0 0 0 0 0 0 0 0 0 0 0 0 0 0 0 0 0 0 0 0 0 0 0 0 0 0 0 0 0 0 0 0 0 0 0 0 0 0 0 0 0 0 0 0 0 0 0 0 0 0 0 0 0 0 0 0 0 0 0 0 0 0 0 0 0 0 0 0 0 0 0 0 0 0 0 0 0 0 0 0 0 0 0 0 0 0 0 0 0 0 0 0 0 0 0 0 0 0 0 0 0 0 0 0 0 0 0 0 0 0 0 0 0 0 0 0 0 0 0 0 0 0 0 0 1 0 0 1 4 0 1 4 0 2 5 0 5 8 3 8 11 7 12 15 9 14 17 10 15 18 10 15 18 12 17 20 19 24 27 33 38 41 55 60 63 81 86 89 106 111 114 120 125 128 61 66 69 59 64 67 54 59 62 47 52 55 40 45 48 34 39 42 29 34 37 27 32 35 28 33 36 26 31 34 21 26 29 14 19 22 8 13 16 1 6 9 0 1 4 0 2 2 0 0 2 0 1 0 0 1 0 0 1 0 0 1 0 0 1 0 0 1 0 0 1 0 0 1 0 1 3 2 3 5 4 6 8 7 10 12 11 13 15 14 15 17 16 15 19 18 10 14 13 11 17 15 13 19 17 16 22 20 20 26 24 23 29 27 25 31 29 27 33 31 28 34 32 28 34 32 28 34 32 28 34 32 28 34 32 28 34 32 28 34 32 29 33 32 31 31 29 32 31 29 32 31 29 32 31 29 32 31 29 32 31 29 32 31 29 32 31 29 30 29 27 30 29 27 30 29 27 30 29 27 30 29 27 30 29 27 30 29 27 32 28 27 36 27 30 37 26 30 37 26 30 37 26 30 37 26 30 37 26 30 37 26 30 37 26 30 44 33 37 47 36 40 52 41 45 58 47 51 65 54 58 71 60 64 76 65 69 79 68 72
0 0 0 0 0 0 0 0 0 0 0 0 0 0 0 0 0 0 0 0 0 0 0 0 0 0 0 0 0 0 0 0 0 0 0 0 0 0 0 0 0 0 0 0 0 0 0 0 0 0 0 0 0 0 0 0 0 0 0 0 0 0 0 0 0 0 0 0 0 0 0 0 0 0 0 0 0 0 0 0 0 0 0 0 0 0 0 0 0 0 0 0 0 0 0 0 0 0 0 0 0 0 0 0 0 0 0 0 0 0 0 0 0 0 0 0 0 0 0 0 0 0 0 0 0 0 0 0 0 0 0 0 0 0 0 0 0 0 0 0 0 0 0 0 0 0 0 0 0 0 0 0 0 0 0 0 0 0 0 0 0 0 0 0 0 0 0 0 0 0 0 0 0 0 0 0 0 0 0 0 0 0 0 0 0 0 0 0 0 0 0 0 0 0 0 0 0 0 0 0 0 0 0 0 0 0 0 0 0 0 0 0 0 0 0 0 0 0 0 0 0 0 0 0 0 0 1 0 0 1 4 0 2 5 0 4 7 2 7 10 6 11 14 9 14 17 11 16 19 13 18 21 8 13 16 20 25 28 40 45 48 63 68 71 82 87 90 95 100 103 102 107 110 105 110 113 61 66 69 58 63 66 53 58 61 47 52 55 40 45 48 33 38 41 29 34 37 26 31 34 28 33 36 26 31 34 21 26 29 14 19 22 8 13 16 1 6 9 0 1 4 0 2 2 0 0 2 0 1 0 0 1 0 0 1 0 0 1 0 0 1 0 0 1 0 0 1 0 0 1 0 1 3 2 3 5 4 6 8 7 10 12 11 13 15 14 15 17 16 15 19 18 10 14 13 11 17 15 13 19 17 16 22 20 20 26 24 23 29 27 25 31 29 27 33 31 28 34 32 28 34 32 28 34 32 28 34 32 28 34 32 28 34 32 28 34 32 29 33 32 31 31 29 32 31 29 32 31 29 32 31 29 32 31 29 32 31 29 32 31 29 32 31 29 30 29 27 30 29 27 30 29 27 30 29 27 30 29 27 30 29 27 30 29 27 32 28 27 36 27 30 37 26 30 37 26 30 37 26 30 37 26 30 37 26 30 37 26 30 37 26 30 42 31 35 44 33 37 49 38 42 55 44 48 62 51 55 69 58 62 74 63 67 76 65 69
0 0 0 0 0 0 0 0 0 0 0 0 0 0 0 0 0 0 0 0 0 0 0 0 0 0 0 0 0 0 0 0 0 0 0 0 0 0 0 0 0 0 0 0 0 0 0 0 0 0 0 0 0 0 0 0 0 0 0 0 0 0 0 0 0 0 0 0 0 0 0 0 0 0 0 0 0 0 0 0 0 0 0 0 0 0 0 0 0 0 0 0 0 0 0 0 0 0 0 0 0 0 0 0 0 0 0 0 0 0 0 0 0 0 0 0 0 0 0 0 0 0 0 0 0 0 0 0 0 0 0 0 0 0 0 0 0 0 0 0 0 0 0 0 0 0 0 0 0 0 0 0 0 0 0 0 0 0 0 0 0 0 0 0 0 0 0 0 0 0 0 0 0 0 0 0 0 0 0 0 0 0 0 0 0 0 0 0 0 0 0 0 0 0 0 0 0 0 0 0 0 0 0 0 0 0 0 0 0 0 0 0 0 0 0 0 0 0 0 0 0 0 0 0 0 0 1 0 0 4 7 0 5 8 2 7 10 6 11 14 9 14 17 12 17 20 15 20 23 16 21 24 14 19 22 34 39 42 65 70 73 93 98 101 109 114 117 109 114 117 101 106 109 93 98 101 65 70 73 62 67 70 57 62 65 51 56 59 44 49 52 37 42 45 32 37 40 30 35 38 28 33 36 26 31 34 21 26 29 14 19 22 8 13 16 1 6 9 0 1 4 0 2 2 0 0 2 0 1 0 0 1 0 0 1 0 0 1 0 0 1 0 0 1 0 0 1 0 0 1 0 1 3 2 3 5 4 6 8 7 10 12 11 13 15 14 15 17 16 15 19 18 10 14 13 11 17 15 13 19 17 16 22 20 20 26 24 23 29 27 25 31 29 27 33 31 28 34 32 28 34 32 28 34 32 28 34 32 28 34 32 28 34 32 28 34 32 29 33 32 31 31 29 32 31 29 32 31 29 32 31 29 32 31 29 32 31 29 32 31 29 32 31 29 30 29 27 30 29 27 30 29 27 30 29 27 30 29 27 30 29 27 30 29 27 32 28 27 36 27 30 37 26 30 37 26 30 37 26 30 37 26 30 37 26 30 37 26 30 37 26 30 38 27 31 41 30 34 46 35 39 52 41 45 59 48 52 66 55 59 70 59 63 73 62 66
0 0 0 0 0 0 0 0 0 0 0 0 0 0 0 0 0 0 0 0 0 0 0 0 0 0 0 0 0 0 0 0 0 0 0 0 0 0 0 0 0 0 0 0 0 0 0 0 0 0 0 0 0 0 0 0 0 0 0 0 0 0 0 0 0 0 0 0 0 0 0 0 0 0 0 0 0 0 0 0 0 0 0 0 0 0 0 0 0 0 0 0 0 0 0 0 0 0 0 0 0 0 0 0 0 0 0 0 0 0 0 0 0 0 0 0 0 0 0 0 0 0 0 0 0 0 0 0 0 0 0 0 0 0 0 0 0 0 0 0 0 0 0 0 0 0 0 0 0 0 0 0 0 0 0 0 0 0 0 0 0 0 0 0 0 0 0 0 0 0 0 0 0 0 0 0 0 0 0 0 0 0 0 0 0 0 0 0 0 0 0 0 0 0 0 0 0 0 0 0 0 0 0 0 0 0 0 0 0 0 0 0 0 0 0 0 0 0 0 0 0 0 0 0 0 0 1 0 3 7 10 3 8 11 6 11 14 9 14 17 12 17 20 16 21 24 18 23 26 19 24 27 31 36 39 53 58 61 86 91 94 115 120 123 127 132 135 120 125 128 104 109 112 91 96 99 75 80 83 72 77 80 67 72 75 61 66 69 54 59 62 48 53 56 43 48 51 40 45 48 28 33 36 26 31 34 21 26 29 14 19 22 8 13 16 1 6 9 0 1 4 0 2 2 0 0 2 0 1 0 0 1 0 0 1 0 0 1 0 0 1 0 0 1 0 0 1 0 0 1 0 1 3 2 3 5 4 6 8 7 10 12 11 13 15 14 15 17 16 15 19 18 10 14 13 11 17 15 13 19 17 16 22 20 20 26 24 23 29 27 25 31 29 27 33 31 28 34 32 28 34 32 28 34 32 28 34 32 28 34 32 28 34 32 28 34 32 29 33 32 31 31 29 32 31 29 32 31 29 32 31 29 32 31 29 32 31 29 32 31 29 32 31 29 30 29 27 30 29 27 30 29 27 30 29 27 30 29 27 30 29 27 30 29 27 32 28 27 36 27 30 37 26 30 37 26 30 37 26 30 37 26 30 37 26 30 37 26 30 37 26 30 35 24 28 38 27 31 42 31 35 49 38 42 56 45 49 62 51 55 67 56 60 70 59 63
0 0 0 0 0 0 0 0 0 0 0 0 0 0 0 0 0 0 0 0 0 0 0 0 0 0 0 0 0 0 0 0 0 0 0 0 0 0 0 0 0 0 0 0 0 0 0 0 0 0 0 0 0 0 0 0 0 0 0 0 0 0 0 0 0 0 0 0 0 0 0 0 0 0 0 0 0 0 0 0 0 0 0 0 0 0 0 0 0 0 0 0 0 0 0 0 0 0 0 0 0 0 0 0 0 0 0 0 0 0 0 0 0 0 0 0 0 0 0 0 0 0 0 0 0 0 0 0 0 0 0 0 0 0 0 0 0 0 0 0 0 0 0 0 0 0 0 0 0 0 0 0 0 0 0 0 0 0 0 0 0 0 0 0 0 0 0 0 0 0 0 0 0 0 0 0 0 0 0 0 0 0 0 0 0 0 0 0 0 0 0 0 0 0 0 0 0 0 0 0 0 0 0 0 0 0 0 0 0 0 0 0 0 0 0 0 0 0 0 0 0 0 0 0 0 0 1 0 6 10 13 7 12 15 9 14 17 12 17 20 16 21 24 19 24 27 21 26 29 23 28 31 57 62 65 75 80 83 102 107 110 125 130 133 133 138 141 126 131 134 111 116 119 99 104 107 90 95 98 87 92 95 83 88 91 76 81 84 69 74 77 63 68 71 58 63 66 55 60 63 28 33 36 26 31 34 21 26 29 14 19 22 8 13 16 1 6 9 0 1 4 0 2 2 0 0 2 0 1 0 0 1 0 0 1 0 0 1 0 0 1 0 0 1 0 0 1 0 0 1 0 1 3 2 3 5 4 6 8 7 10 12 11 13 15 14 15 17 16 15 19 18 10 14 13 11 17 15 13 19 17 16 22 20 20 26 24 23 29 27 25 31 29 27 33 31 28 34 32 28 34 32 28 34 32 28 34 32 28 34 32 28 34 32 28 34 32 29 33 32 31 31 29 32 31 29 32 31 29 32 31 29 32 31 29 32 31 29 32 31 29 32 31 29 30 29 27 30 29 27 30 29 27 30 29 27 30 29 27 30 29 27 30 29 27 32 28 27 36 27 30 37 26 30 37 26 30 37 26 30 37 26 30 37 26 30 37 26 30 37 26 30 32 21 25 34 23 27 39 28 32 46 35 39 53 42 46 59 48 52 64 53 57 66 55 59
0 0 0 0 0 0 0 0 0 0 0 0 0 0 0 0 0 0 0 0 0 0 0 0 0 0 0 0 0 0 0 0 0 0 0 0 0 0 0 0 0 0 0 0 0 0 0 0 0 0 0 0 0 0 0 0 0 0 0 0 0 0 0 0 0 0 0 0 0 0 0 0 0 0 0 0 0 0 0 0 0 0 0 0 0 0 0 0 0 0 0 0 0 0 0 0 0 0 0 0 0 0 0 0 0 0 0 0 0 0 0 0 0 0 0 0 0 0 0 0 0 0 0 0 0 0 0 0 0 0 0 0 0 0 0 0 0 0 0 0 0 0 0 0 0 0 0 0 0 0 0 0 0 0 0 0 0 0 0 0 0 0 0 0 0 0 0 0 0 0 0 0 0 0 0 0 0 0 0 0 0 0 0 0 0 0 0 0 0 0 0 0 0 0 0 0 0 0 0 0 0 0 0 0 0 0 0 0 0 0 0 0 0 0 0 0 0 0 0 0 0 0 0 0 0 0 1 0 9 13 16 9 14 17 11 16 19 15 20 23 18 23 26 21 26 29 24 29 32 25 30 33 84 89 92 95 100 103 112 117 120 126 131 134 132 137 140 128 133 136 119 124 127 112 117 120 105 110 113 103 108 111 98 103 106 91 96 99 85 90 93 78 83 86 73 78 81 71 76 79 28 33 36 26 31 34 21 26 29 14 19 22 8 13 16 1 6 9 0 1 4 0 2 2 0 0 2 0 1 0 0 1 0 0 1 0 0 1 0 0 1 0 0 1 0 0 1 0 0 1 0 1 3 2 3 5 4 6 8 7 10 12 11 13 15 14 15 17 16 15 19 18 10 14 13 11 17 15 13 19 17 16 22 20 20 26 24 23 29 27 25 31 29 27 33 31 28 34 32 28 34 32 28 34 32 28 34 32 28 34 32 28 34 32 28 34 32 29 33 32 31 31 29 32 31 29 32 31 29 32 31 29 32 31 29 32 31 29 32 31 29 32 31 29 30 29 27 30 29 27 30 29 27 30 29 27 30 29 27 30 29 27 30 29 27 32 28 27 36 27 30 37 26 30 37 26 30 37 26 30 37 26 30 37 26 30 37 26 30 37 26 30 29 18 22 32 21 25 37 26 30 43 32 36 50 39 43 56 45 49 61 50 54 64 53 57
0 0 0 0 0 0 0 0 0 0 0 0 0 0 0 0 0 0 0 0 0 0 0 0 0 0 0 0 0 0 0 0 0 0 0 0 0 0 0 0 0 0 0 0 0 0 0 0 0 0 0 0 0 0 0 0 0 0 0 0 0 0 0 0 0 0 0 0 0 0 0 0 0 0 0 0 0 0 0 0 0 0 0 0 0 0 0 0 0 0 0 0 0 0 0 0 0 0 0 0 0 0 0 0 0 0 0 0 0 0 0 0 0 0 0 0 0 0 0 0 0 0 0 0 0 0 0 0 0 0 0 0 0 0 0 0 0 0 0 0 0 0 0 0 0 0 0 0 0 0 0 0 0 0 0 0 0 0 0 0 0 0 0 0 0 0 0 0 0 0 0 0 0 0 0 0 0 0 0 0 0 0 0 0 0 0 0 0 0 0 0 0 0 0 0 0 0 0 0 0 0 0 0 0 0 0 0 0 0 0 0 0 0 0 0 0 0 0 0 0 0 0 0 0 0 0 1 0 10 14 15 10 16 16 14 18 19 16 22 22 20 24 25 23 29 29 26 30 31 26 32 32 101 105 106 106 112 112 117 121 122 124 130 130 130 134 135 128 134 134 125 129 130 122 128 128 115 120 123 112 117 120 107 112 115 101 106 109 94 99 102 88 93 96 83 88 91 80 85 88 28 33 36 26 31 34 21 26 29 14 19 22 8 13 16 1 6 9 0 1 4 0 2 2 0 1 2 0 1 0 0 1 0 0 1 0 0 1 0 0 1 0 0 1 0 0 1 0 0 1 0 0 3 2 1 5 4 4 8 7 8 12 11 11 15 14 13 17 16 15 19 18 9 15 13 11 17 15 13 19 19 16 22 20 20 26 26 23 29 27 25 31 31 27 33 31 28 34 34 28 34 32 28 34 34 28 34 32 28 34 34 28 34 32 28 34 34 29 33 32 31 31 29 32 31 29 32 31 29 32 31 29 32 31 29 32 31 29 32 31 29 32 31 29 30 29 27 30 29 27 30 29 27 30 29 27 30 29 27 30 29 27 30 29 27 32 28 27 36 27 28 37 27 28 37 26 30 37 27 28 37 26 30 37 27 28 37 26 30 37 27 28 28 17 21 31 21 22 36 25 29 42 32 33 49 38 42 55 45 46 60 49 53 63 52 56
0 0 0 0 0 0 0 0 0 0 0 0 0 0 0 0 0 0 0 0 0 0 0 0 0 0 0 0 0 0 0 0 0 0 0 0 0 0 0 0 0 0 0 0 0 0 0 0 0 0 0 0 0 0 0 0 0 0 0 0 0 0 0 0 0 0 0 0 0 0 0 0 0 0 0 0 0 0 0 0 0 0 0 0 0 0 0 0 0 0 0 0 0 0 0 0 0 0 0 0 0 0 0 0 0 0 0 0 0 0 0 0 0 0 0 0 0 0 0 0 0 0 0 0 0 0 0 0 0 0 0 0 0 0 0 0 0 0 0 0 0 0 0 0 0 0 0 0 0 0 0 0 0 0 0 0 0 0 0 0 0 0 0 0 0 0 0 0 0 0 0 0 0 0 0 0 0 0 0 0 0 2 1 0 2 1 0 2 1 0 2 1 0 2 1 0 2 1 0 2 1 0 2 1 0 1 0 0 1 0 0 1 0 0 1 0 0 1 0 2 4 3 5 7 6 6 8 7 10 12 11 6 10 9 7 9 8 12 16 15 32 34 33 54 58 57 81 83 82 95 99 98 135 137 136 135 139 138 139 141 140 140 144 143 146 148 147 147 151 150 151 153 152 151 155 154 163 169 169 148 154 154 125 131 131 102 108 108 86 92 92 81 87 87 83 89 89 87 93 93 49 55 55 41 47 47 29 35 35 18 24 24 13 19 19 13 19 19 17 23 23 21 27 27 0 2 2 0 2 2 0 2 2 0 3 3 2 8 8 6 12 12 10 16 16 11 17 17 0 4 4 0 6 6 2 8 8 5 11 11 9 15 15 12 18 18 14 20 20 16 22 22 16 22 22 16 22 22 16 21 24 16 22 22 16 21 24 16 22 22 16 21 24 16 22 22 17 22 25 17 23 23 17 22 25 17 23 23 17 22 25 17 23 23 17 22 25 18 22 23 23 21 22 25 21 20 25 21 20 25 21 20 25 21 20 25 21 20 25 21 20 25 21 20 31 27 26 31 27 26 31 27 26 31 27 26 31 27 26 31 27 26 31 27 26 32 26 26 36 27 28 37 27 26 37 27 28 37 27 26 37 27 28 37 27 26 37 27 28 37 27 26 32 22 23 34 24 23 36 26 27 39 29 28 43 33 34 46 36 35 48 38 39 50 40 41
0 0 0 0 0 0 0 0 0 0 0 0 0 0 0 0 0 0 0 0 0 0 0 0 0 0 0 0 0 0 0 0 0 0 0 0 0 0 0 0 0 0 0 0 0 0 0 0 0 0 0 0 0 0 0 0 0 0 0 0 0 0 0 0 0 0 0 0 0 0 0 0 0 0 0 0 0 0 0 0 0 0 0 0 0 0 0 0 0 0 0 0 0 0 0 0 0 0 0 0 0 0 0 0 0 0 0 0 0 0 0 0 0 0 0 0 0 0 0 0 0 0 0 0 0 0 0 0 0 0 0 0 0 0 0 0 0 0 0 0 0 0 0 0 0 0 0 0 0 0 0 0 0 0 0 0 0 0 0 0 0 0 0 0 0 0 0 0 0 0 0 0 0 0 0 0 0 0 0 0 0 2 1 0 2 1 0 2 1 0 2 1 0 2 1 0 2 1 0 2 1 0 2 1 0 1 0 0 1 0 0 1 0 0 1 0 0 2 1 4 6 5 6 8 7 7 9 8 13 15 12 12 14 11 14 16 13 22 24 21 39 41 38 63 65 62 86 88 85 100 102 99 135 137 134 137 139 136 139 141 138 142 144 141 146 148 145 149 151 148 151 153 150 151 156 152 161 165 166 147 153 153 126 132 132 105 111 111 90 96 96 85 91 91 85 91 91 88 94 94 52 58 58 44 50 50 32 38 38 20 26 26 14 20 20 14 20 20 17 23 23 20 26 26 0 3 2 0 3 2 0 3 2 0 6 5 1 10 9 4 13 12 7 16 15 9 18 17 0 5 4 0 7 6 0 9 8 3 12 11 7 16 15 10 19 18 12 21 20 14 23 22 16 21 24 16 21 24 16 21 24 16 21 24 16 21 24 16 21 24 16 21 24 16 21 24 17 22 25 17 22 25 17 22 25 17 22 25 17 22 25 17 22 25 17 22 25 18 22 23 23 21 22 25 21 20 25 21 20 25 21 20 25 21 20 25 21 20 25 21 20 25 21 20 31 27 26 31 27 26 31 27 26 31 27 26 31 27 26 31 27 26 31 27 26 32 26 26 36 28 26 37 27 26 37 27 26 37 27 26 37 27 26 37 27 26 37 27 26 37 27 26 32 22 21 34 24 23 36 26 25 39 29 28 43 33 32 46 36 35 48 38 37 50 40 41
0 0 0 0 0 0 0 0 0 0 0 0 0 0 0 0 0 0 0 0 0 0 0 0 0 0 0 0 0 0 0 0 0 0 0 0 0 0 0 0 0 0 0 0 0 0 0 0 0 0 0 0 0 0 0 0 0 0 0 0 0 0 0 0 0 0 0 0 0 0 0 0 0 0 0 0 0 0 0 0 0 0 0 0 0 0 0 0 0 0 0 0 0 0 0 0 0 0 0 0 0 0 0 0 0 0 0 0 0 0 0 0 0 0 0 0 0 0 0 0 0 0 0 0 0 0 0 0 0 0 0 0 0 0 0 0 0 0 0 0 0 0 0 0 0 0 0 0 0 0 0 0 0 0 0 0 0 0 0 0 0 0 0 0 0 0 0 0 0 0 0 0 0 0 0 0 0 0 0 0 0 2 1 0 2 1 0 2 1 0 2 1 0 2 1 0 2 1 0 2 1 0 2 1 0 1 0 0 1 0 0 1 0 0 1 0 3 5 4 6 8 7 8 10 9 10 12 11 19 21 18 20 22 19 25 27 24 36 38 35 53 55 52 74 76 73 94 96 93 105 107 104 135 137 134 137 139 136 139 141 138 142 144 141 146 148 145 149 151 148 151 153 150 151 156 152 156 160 161 145 151 151 128 134 134 111 117 117 98 104 104 91 97 97 89 95 95 89 95 95 58 64 64 49 55 55 36 42 42 23 29 29 16 22 22 14 20 20 17 23 23 20 26 26 0 3 2 0 4 3 0 6 5 0 9 8 2 11 10 5 14 13 7 16 15 8 17 16 0 5 4 0 7 6 0 9 8 3 12 11 7 16 15 10 19 18 12 21 20 14 23 22 16 21 24 16 21 24 16 21 24 16 21 24 16 21 24 16 21 24 16 21 24 16 21 24 17 22 25 17 22 25 17 22 25 17 22 25 17 22 25 17 22 25 17 22 25 18 22 23 23 21 22 25 21 20 25 21 20 25 21 20 25 21 20 25 21 20 25 21 20 25 21 20 31 27 26 31 27 26 31 27 26 31 27 26 31 27 26 31 27 26 31 27 26 32 26 26 36 28 26 37 27 26 37 27 26 37 27 26 37 27 26 37 27 26 37 27 26 37 27 26 32 22 21 34 24 23 36 26 25 39 29 28 43 33 32 46 36 35 48 38 37 50 40 41
