P3
172 37
255
127 110 120 127 110 120 127 110 120 127 110 120 114 97 107 114 97 107 114 97 107 114 97 107 114 97 107 114 97 107 114 97 107 117 95 107 105 74 89 106 74 89 107 73 89 106 74 89 107 73 89 106 74 89 107 73 89 106 74 89 117 83 99 117 85 100 121 87 103 123 91 106 127 93 109 130 98 113 133 99 115 130 102 116 145 125 134 142 127 134 142 127 134 142 127 134 142 127 134 142 127 134 142 127 134 142 127 134 143 128 135 141 126 133 139 124 131 136 121 128 132 117 124 129 114 121 127 112 119 123 110 117 85 73 83 75 65 74 62 52 61 50 40 49 44 34 43 43 33 42 46 36 45 49 39 48 49 39 48 49 39 48 49 39 48 49 39 48 49 39 48 49 39 48 49 39 48 49 39 48 33 25 36 31 23 34 29 21 32 26 18 29 22 14 25 19 11 22 17 9 20 15 7 18 20 12 23 19 11 22 16 8 19 13 5 16 10 2 13 6 0 9 4 0 7 3 0 7 13 12 18 12 13 18 12 13 18 12 13 18 12 13 18 12 13 18 12 13 18 12 13 18 14 15 20 14 15 20 14 15 20 14 15 20 14 15 20 14 15 20 14 15 20 14 15 19 14 18 21 14 18 19 14 18 19 14 18 19 14 18 19 14 18 19 14 18 19 14 18 19 14 18 19 12 16 17 10 14 15 7 11 12 3 7 8 0 4 5 0 2 3 0 1 2 0 4 7 1 6 9 3 8 11 6 11 14 10 15 18 13 18 21 15 20 23 17 22 25 25 30 33 27 32 35 32 37 40 39 44 47 45 50 53 52 57 60 57 62 65 59 65 65 58 60 59 61 63 60 66 68 65 72 74 71 79 81 78 85 87 84 90 92 89 93 95 92 107 109 106 107 109 106 107 109 106 107 109 106 107 109 106 107 109 106 107 109 106 107 109 106 82 81 79 74 73 71 61 60 58 49 48 46 42 41 39 41 40 38 44 43 41 47 46 44 42 41 39 42 41 39 42 41 39 42 41 39 42 41 39 42 41 39 42 41 39 42 41 39 39 37 38 39 37 38 39 37 38 39 37 38 39 37 38 39 37 38 39 37 38 39 37 38 43 41 42 43 41 42 43 41 42 43 41 42 43 41 42 43 41 42 43 41 42 43 41 42
129 109 120 127 110 120 129 109 120 127 110 120 114 94 105 112 95 105 114 94 105 112 95 105 114 94 105 112 95 105 114 94 105 115 93 105 101 73 87 103 72 87 104 72 87 103 72 87 104 72 87 103 72 87 104 72 87 103 72 87 115 83 98 115 84 99 118 86 101 121 90 105 125 93 108 127 96 111 131 99 114 129 101 115 145 125 134 142 127 134 142 127 134 142 127 134 142 127 134 142 127 134 142 127 134 142 127 134 143 128 135 141 126 133 139 124 131 136 121 128 132 117 124 129 114 121 127 112 119 123 110 119 82 72 81 72 65 73 59 51 62 47 40 48 40 32 43 40 33 41 43 35 46 46 39 47 45 37 48 45 38 46 45 37 48 45 38 46 45 37 48 45 38 46 45 37 48 45 37 48 28 22 32 24 21 30 24 18 30 19 16 25 17 11 23 12 9 18 12 6 18 8 5 14 16 10 22 13 10 19 13 7 19 7 4 13 6 0 12 1 0 7 3 0 9 1 0 7 12 12 20 10 13 18 10 13 18 10 13 18 10 13 18 10 13 18 10 13 18 10 13 18 12 15 20 12 15 20 12 15 20 12 15 20 12 15 20 12 15 20 12 15 20 12 15 20 14 18 21 14 18 19 14 18 21 14 18 19 14 18 21 14 18 19 14 18 21 14 18 19 14 18 21 12 16 17 10 14 17 7 11 12 3 7 10 0 4 5 0 2 5 0 1 4 0 4 7 1 6 9 3 8 11 6 11 14 10 15 18 13 18 21 15 20 23 17 22 25 25 30 33 27 32 35 32 37 40 39 44 47 45 50 53 52 57 60 57 62 65 59 65 65 55 59 58 58 63 59 65 67 64 69 74 70 78 80 77 82 87 83 89 91 88 90 95 91 105 107 104 103 108 104 105 107 104 103 108 104 105 107 104 103 108 104 105 107 104 105 107 104 81 81 79 74 73 71 61 60 58 49 48 46 42 41 39 41 40 38 44 43 41 47 46 44 42 41 39 42 41 39 42 41 39 42 41 39 42 41 39 42 41 39 42 41 39 42 41 39 39 37 38 39 37 38 39 37 38 39 37 38 39 37 38 39 37 38 39 37 38 39 37 38 43 41 42 43 41 42 43 41 42 43 41 42 43 41 42 43 41 42 43 41 42 43 41 42
123 102 111 118 98 107 117 96 105 115 95 104 115 94 103 111 91 100 106 85 94 97 77 86 90 69 78 82 62 71 77 56 65 74 53 62 82 58 71 84 60 73 88 62 75 89 65 78 95 69 82 96 72 85 100 74 87 100 76 89 104 78 91 104 80 93 111 85 98 116 92 105 124 98 111 129 105 118 136 110 123 136 112 125 144 124 135 142 125 135 142 125 135 142 125 135 142 125 135 142 125 135 142 125 135 142 125 135 142 125 135 145 128 138 148 131 141 147 130 140 140 123 133 128 111 121 115 98 108 104 91 100 76 68 79 65 62 71 52 49 60 40 37 46 33 30 41 33 30 39 36 33 44 39 36 45 21 18 29 21 18 27 21 18 29 21 18 27 21 18 29 21 18 27 21 18 29 20 18 29 7 7 17 5 8 17 7 7 19 5 8 17 7 7 19 5 8 17 7 7 19 5 8 17 7 7 19 5 8 17 7 7 19 5 8 17 7 7 19 5 8 17 7 7 19 5 8 17 9 14 20 9 14 20 9 14 20 9 14 20 9 14 20 9 14 20 9 14 20 9 14 20 12 17 23 12 17 23 12 17 23 12 17 23 12 17 23 12 17 23 12 17 23 12 17 21 17 22 26 17 22 25 17 22 26 17 22 25 17 22 26 17 22 25 17 22 26 17 22 25 38 43 47 30 35 38 17 22 26 5 10 13 0 3 7 0 2 5 0 5 9 3 8 12 3 8 12 3 8 12 3 8 12 3 8 12 3 8 12 3 8 12 3 8 12 3 8 12 16 21 25 18 23 27 23 28 32 30 35 39 36 41 45 43 48 52 48 53 57 50 55 58 56 62 62 58 64 62 61 65 64 63 69 67 68 72 71 70 76 74 73 77 76 74 80 78 87 91 90 87 93 91 91 95 94 93 99 97 97 101 100 100 106 104 103 107 106 104 108 107 80 80 78 73 72 70 60 59 57 48 47 45 41 40 38 40 39 37 43 42 40 46 45 43 42 41 39 42 41 39 42 41 39 42 41 39 42 41 39 42 41 39 42 41 39 42 41 39 42 38 39 42 38 39 42 38 39 42 38 39 42 38 39 42 38 39 42 38 39 42 38 39 40 36 37 40 36 37 40 36 37 40 36 37 40 36 37 40 36 37 40 36 37 40 36 37
120 99 108 117 96 105 114 93 102 113 92 101 111 90 99 108 87 96 102 81 90 95 74 83 88 67 76 81 60 69 76 55 64 73 52 61 81 59 71 83 61 73 85 63 75 88 66 78 92 70 82 95 73 85 97 75 87 99 77 89 101 79 91 103 81 93 108 86 98 115 93 105 121 99 111 128 106 118 133 111 123 134 114 125 144 124 135 142 125 135 142 125 135 142 125 135 142 125 135 142 125 135 142 125 135 142 125 135 142 125 135 145 128 138 148 131 141 147 130 140 140 123 133 128 111 121 115 98 108 104 91 101 73 67 77 61 59 70 49 47 58 37 35 46 30 28 39 29 27 38 32 30 41 35 33 44 18 16 27 18 16 27 18 16 27 18 16 27 18 16 27 18 16 27 18 16 27 17 17 27 5 7 19 4 8 19 4 8 19 4 8 19 4 8 19 4 8 19 4 8 19 4 8 19 4 8 19 4 8 19 4 8 19 4 8 19 4 8 19 4 8 19 4 8 19 4 8 17 7 14 22 7 14 20 7 14 20 7 14 20 7 14 20 7 14 20 7 14 20 7 14 20 10 17 23 10 17 23 10 17 23 10 17 23 10 17 23 10 17 23 10 17 23 10 17 23 17 22 26 17 22 26 17 22 26 17 22 26 17 22 26 17 22 26 17 22 26 17 22 26 38 43 47 30 35 39 17 22 26 5 10 14 0 3 7 0 2 6 0 5 9 3 8 12 3 8 12 3 8 12 3 8 12 3 8 12 3 8 12 3 8 12 3 8 12 3 8 12 16 21 25 18 23 27 23 28 32 30 35 39 36 41 45 43 48 52 48 53 57 50 55 58 56 62 62 58 64 62 60 66 64 63 69 67 67 73 71 70 76 74 72 78 76 74 80 78 85 91 89 86 92 90 88 94 92 92 98 96 95 101 99 98 104 102 101 107 105 103 107 106 80 80 78 73 72 70 60 59 57 48 47 45 41 40 38 40 39 37 43 42 40 46 45 43 42 41 39 42 41 39 42 41 39 42 41 39 42 41 39 42 41 39 42 41 39 42 41 39 42 38 39 42 38 39 42 38 39 42 38 39 42 38 39 42 38 39 42 38 39 42 38 39 40 36 37 40 36 37 40 36 37 40 36 37 40 36 37 40 36 37 40 36 37 40 36 37
115 94 103 112 91 100 109 88 97 108 87 96 102 81 90 100 79 88 96 75 84 90 69 78 84 63 72 78 57 66 74 53 62 71 50 59 81 59 71 83 61 73 85 63 75 88 66 78 92 70 82 95 73 85 97 75 87 99 77 89 101 79 91 103 81 93 108 86 98 115 93 105 121 99 111 128 106 118 133 111 123 134 114 125 144 124 135 142 125 135 142 125 135 142 125 135 142 125 135 142 125 135 142 125 135 142 125 135 142 125 135 145 128 138 148 131 141 147 130 140 140 123 133 128 111 121 115 98 108 104 91 101 68 62 72 57 55 66 44 42 53 32 30 41 25 23 34 24 22 33 27 25 36 30 28 39 16 14 25 16 14 25 16 14 25 16 14 25 16 14 25 16 14 25 16 14 25 15 15 25 5 7 19 4 8 19 4 8 19 4 8 19 4 8 19 4 8 19 4 8 19 4 8 19 4 8 19 4 8 19 4 8 19 4 8 19 4 8 19 4 8 19 4 8 19 4 8 17 7 14 22 7 14 20 7 14 20 7 14 20 7 14 20 7 14 20 7 14 20 7 14 20 10 17 23 10 17 23 10 17 23 10 17 23 10 17 23 10 17 23 10 17 23 10 17 23 17 22 26 17 22 26 17 22 26 17 22 26 17 22 26 17 22 26 17 22 26 17 22 26 38 43 47 30 35 39 17 22 26 5 10 14 0 3 7 0 2 6 0 5 9 3 8 12 3 8 12 3 8 12 3 8 12 3 8 12 3 8 12 3 8 12 3 8 12 3 8 12 16 21 25 18 23 27 23 28 32 30 35 39 36 41 45 43 48 52 48 53 57 50 55 58 56 62 62 58 64 62 60 66 64 63 69 67 67 73 71 70 76 74 72 78 76 74 80 78 82 88 86 84 90 88 86 92 90 89 95 93 93 99 97 96 102 100 98 104 102 101 105 104 80 80 78 73 72 70 60 59 57 48 47 45 41 40 38 40 39 37 43 42 40 46 45 43 42 41 39 42 41 39 42 41 39 42 41 39 42 41 39 42 41 39 42 41 39 42 41 39 42 38 39 42 38 39 42 38 39 42 38 39 42 38 39 42 38 39 42 38 39 42 38 39 40 36 37 40 36 37 40 36 37 40 36 37 40 36 37 40 36 37 40 36 37 40 36 37
109 88 97 106 85 94 103 82 91 102 81 90 91 70 79 90 69 78 87 66 75 83 62 71 78 57 66 74 53 62 71 50 59 69 48 57 81 59 71 83 61 73 85 63 75 88 66 78 92 70 82 95 73 85 97 75 87 99 77 89 101 79 91 103 81 93 108 86 98 115 93 105 121 99 111 128 106 118 133 111 123 134 114 125 144 124 135 142 125 135 142 125 135 142 125 135 142 125 135 142 125 135 142 125 135 142 125 135 142 125 135 145 128 138 148 131 141 147 130 140 140 123 133 128 111 121 115 98 108 104 91 101 61 55 65 50 48 59 37 35 46 25 23 34 18 16 27 18 16 27 21 19 30 24 22 33 13 11 22 13 11 22 13 11 22 13 11 22 13 11 22 13 11 22 13 11 22 12 12 22 5 7 19 4 8 19 4 8 19 4 8 19 4 8 19 4 8 19 4 8 19 4 8 19 4 8 19 4 8 19 4 8 19 4 8 19 4 8 19 4 8 19 4 8 19 4 8 17 7 14 22 7 14 20 7 14 20 7 14 20 7 14 20 7 14 20 7 14 20 7 14 20 10 17 23 10 17 23 10 17 23 10 17 23 10 17 23 10 17 23 10 17 23 10 17 23 17 22 26 17 22 26 17 22 26 17 22 26 17 22 26 17 22 26 17 22 26 17 22 26 38 43 47 30 35 39 17 22 26 5 10 14 0 3 7 0 2 6 0 5 9 3 8 12 3 8 12 3 8 12 3 8 12 3 8 12 3 8 12 3 8 12 3 8 12 3 8 12 16 21 25 18 23 27 23 28 32 30 35 39 36 41 45 43 48 52 48 53 57 50 55 58 56 62 62 58 64 62 60 66 64 63 69 67 67 73 71 70 76 74 72 78 76 74 80 78 79 85 83 80 86 84 83 89 87 86 92 90 89 95 93 93 99 97 95 101 99 97 101 100 80 80 78 73 72 70 60 59 57 48 47 45 41 40 38 40 39 37 43 42 40 46 45 43 42 41 39 42 41 39 42 41 39 42 41 39 42 41 39 42 41 39 42 41 39 42 41 39 42 38 39 42 38 39 42 38 39 42 38 39 42 38 39 42 38 39 42 38 39 42 38 39 40 36 37 40 36 37 40 36 37 40 36 37 40 36 37 40 36 37 40 36 37 40 36 37
102 81 90 99 78 87 96 75 84 95 74 83 80 59 68 79 58 67 77 56 65 75 54 63 72 51 60 70 49 58 68 47 56 67 46 55 81 59 71 83 61 73 85 63 75 88 66 78 92 70 82 95 73 85 97 75 87 99 77 89 101 79 91 103 81 93 108 86 98 115 93 105 121 99 111 128 106 118 133 111 123 134 114 125 144 124 135 142 125 135 142 125 135 142 125 135 142 125 135 142 125 135 142 125 135 142 125 135 142 125 135 145 128 138 148 131 141 147 130 140 140 123 133 128 111 121 115 98 108 104 91 101 55 49 59 43 41 52 30 28 39 18 16 27 11 9 20 11 9 20 14 12 23 17 15 26 9 7 18 9 7 18 9 7 18 9 7 18 9 7 18 9 7 18 9 7 18 8 8 18 5 7 19 4 8 19 4 8 19 4 8 19 4 8 19 4 8 19 4 8 19 4 8 19 4 8 19 4 8 19 4 8 19 4 8 19 4 8 19 4 8 19 4 8 19 4 8 17 7 14 22 7 14 20 7 14 20 7 14 20 7 14 20 7 14 20 7 14 20 7 14 20 10 17 23 10 17 23 10 17 23 10 17 23 10 17 23 10 17 23 10 17 23 10 17 23 17 22 26 17 22 26 17 22 26 17 22 26 17 22 26 17 22 26 17 22 26 17 22 26 38 43 47 30 35 39 17 22 26 5 10 14 0 3 7 0 2 6 0 5 9 3 8 12 3 8 12 3 8 12 3 8 12 3 8 12 3 8 12 3 8 12 3 8 12 3 8 12 16 21 25 18 23 27 23 28 32 30 35 39 36 41 45 43 48 52 48 53 57 50 55 58 56 62 62 58 64 62 60 66 64 63 69 67 67 73 71 70 76 74 72 78 76 74 80 78 76 82 80 77 83 81 79 85 83 83 89 87 86 92 90 89 95 93 92 98 96 94 98 97 80 80 78 73 72 70 60 59 57 48 47 45 41 40 38 40 39 37 43 42 40 46 45 43 42 41 39 42 41 39 42 41 39 42 41 39 42 41 39 42 41 39 42 41 39 42 41 39 42 38 39 42 38 39 42 38 39 42 38 39 42 38 39 42 38 39 42 38 39 42 38 39 40 36 37 40 36 37 40 36 37 40 36 37 40 36 37 40 36 37 40 36 37 40 36 37
95 74 83 92 71 80 90 69 78 89 68 77 69 48 57 69 48 57 68 47 56 68 47 56 67 46 55 66 45 54 66 45 54 65 44 53 81 59 71 83 61 73 85 63 75 88 66 78 92 70 82 95 73 85 97 75 87 99 77 89 101 79 91 103 81 93 108 86 98 115 93 105 121 99 111 128 106 118 133 111 123 134 114 125 144 124 135 142 125 135 142 125 135 142 125 135 142 125 135 142 125 135 142 125 135 142 125 135 142 125 135 145 128 138 148 131 141 147 130 140 140 123 133 128 111 121 115 98 108 104 91 101 48 42 52 37 35 46 24 22 33 12 10 21 5 3 14 4 2 13 7 5 16 10 8 19 6 4 15 6 4 15 6 4 15 6 4 15 6 4 15 6 4 15 6 4 15 5 5 15 5 7 19 4 8 19 4 8 19 4 8 19 4 8 19 4 8 19 4 8 19 4 8 19 4 8 19 4 8 19 4 8 19 4 8 19 4 8 19 4 8 19 4 8 19 4 8 17 7 14 22 7 14 20 7 14 20 7 14 20 7 14 20 7 14 20 7 14 20 7 14 20 10 17 23 10 17 23 10 17 23 10 17 23 10 17 23 10 17 23 10 17 23 10 17 23 17 22 26 17 22 26 17 22 26 17 22 26 17 22 26 17 22 26 17 22 26 17 22 26 38 43 47 30 35 39 17 22 26 5 10 14 0 3 7 0 2 6 0 5 9 3 8 12 3 8 12 3 8 12 3 8 12 3 8 12 3 8 12 3 8 12 3 8 12 3 8 12 16 21 25 18 23 27 23 28 32 30 35 39 36 41 45 43 48 52 48 53 57 50 55 58 56 62 62 58 64 62 60 66 64 63 69 67 67 73 71 70 76 74 72 78 76 74 80 78 72 78 76 74 80 78 76 82 80 79 85 83 83 89 87 86 92 90 88 94 92 91 95 94 80 80 78 73 72 70 60 59 57 48 47 45 41 40 38 40 39 37 43 42 40 46 45 43 42 41 39 42 41 39 42 41 39 42 41 39 42 41 39 42 41 39 42 41 39 42 41 39 42 38 39 42 38 39 42 38 39 42 38 39 42 38 39 42 38 39 42 38 39 42 38 39 40 36 37 40 36 37 40 36 37 40 36 37 40 36 37 40 36 37 40 36 37 40 36 37
91 70 79 87 66 75 85 64 73 84 63 72 61 40 49 61 40 49 61 40 49 62 41 50 63 42 51 63 42 51 64 43 52 64 43 52 81 59 71 83 61 73 85 63 75 88 66 78 92 70 82 95 73 85 97 75 87 99 77 89 101 79 91 103 81 93 108 86 98 115 93 105 121 99 111 128 106 118 133 111 123 134 114 125 144 124 135 142 125 135 142 125 135 142 125 135 142 125 135 142 125 135 142 125 135 142 125 135 142 125 135 145 128 138 148 131 141 147 130 140 140 123 133 128 111 121 115 98 108 104 91 101 43 37 47 32 30 41 19 17 28 7 5 16 0 0 9 0 0 9 3 1 12 6 4 15 4 2 13 4 2 13 4 2 13 4 2 13 4 2 13 4 2 13 4 2 13 3 3 13 5 7 19 4 8 19 4 8 19 4 8 19 4 8 19 4 8 19 4 8 19 4 8 19 4 8 19 4 8 19 4 8 19 4 8 19 4 8 19 4 8 19 4 8 19 4 8 17 7 14 22 7 14 20 7 14 20 7 14 20 7 14 20 7 14 20 7 14 20 7 14 20 10 17 23 10 17 23 10 17 23 10 17 23 10 17 23 10 17 23 10 17 23 10 17 23 17 22 26 17 22 26 17 22 26 17 22 26 17 22 26 17 22 26 17 22 26 17 22 26 38 43 47 30 35 39 17 22 26 5 10 14 0 3 7 0 2 6 0 5 9 3 8 12 3 8 12 3 8 12 3 8 12 3 8 12 3 8 12 3 8 12 3 8 12 3 8 12 16 21 25 18 23 27 23 28 32 30 35 39 36 41 45 43 48 52 48 53 57 50 55 58 56 62 62 58 64 62 60 66 64 63 69 67 67 73 71 70 76 74 72 78 76 74 80 78 70 76 74 71 77 75 74 80 78 77 83 81 80 86 84 84 90 88 86 92 90 88 92 91 80 80 78 73 72 70 60 59 57 48 47 45 41 40 38 40 39 37 43 42 40 46 45 43 42 41 39 42 41 39 42 41 39 42 41 39 42 41 39 42 41 39 42 41 39 42 41 39 42 38 39 42 38 39 42 38 39 42 38 39 42 38 39 42 38 39 42 38 39 42 38 39 40 36 37 40 36 37 40 36 37 40 36 37 40 36 37 40 36 37 40 36 37 40 36 37
88 67 76 85 64 73 82 61 70 81 60 69 56 35 44 57 36 45 58 37 46 59 38 47 60 39 48 62 41 50 62 41 50 63 42 51 81 59 71 83 61 73 85 63 75 88 66 78 92 70 82 95 73 85 97 75 87 99 77 89 101 79 91 103 81 93 108 86 98 115 93 105 121 99 111 128 106 118 133 111 123 134 114 125 144 124 135 142 125 135 142 125 135 142 125 135 142 125 135 142 125 135 142 125 135 142 125 135 142 125 135 145 128 138 148 131 141 147 130 140 140 123 133 128 111 121 115 98 108 104 91 101 41 35 45 29 27 38 16 14 25 4 2 13 0 0 9 0 0 9 0 0 9 3 1 12 2 0 11 2 0 11 2 0 11 2 0 11 2 0 11 2 0 11 2 0 11 1 1 11 5 7 19 4 8 19 4 8 19 4 8 19 4 8 19 4 8 19 4 8 19 4 8 19 4 8 19 4 8 19 4 8 19 4 8 19 4 8 19 4 8 19 4 8 19 4 8 17 7 14 22 7 14 20 7 14 20 7 14 20 7 14 20 7 14 20 7 14 20 7 14 20 10 17 23 10 17 23 10 17 23 10 17 23 10 17 23 10 17 23 10 17 23 10 17 23 17 22 26 17 22 26 17 22 26 17 22 26 17 22 26 17 22 26 17 22 26 17 22 26 38 43 47 30 35 39 17 22 26 5 10 14 0 3 7 0 2 6 0 5 9 3 8 12 3 8 12 3 8 12 3 8 12 3 8 12 3 8 12 3 8 12 3 8 12 3 8 12 16 21 25 18 23 27 23 28 32 30 35 39 36 41 45 43 48 52 48 53 57 50 55 58 56 62 62 58 64 62 60 66 64 63 69 67 67 73 71 70 76 74 72 78 76 74 80 78 69 75 73 70 76 74 72 78 76 76 82 80 79 85 83 82 88 86 85 91 89 87 91 90 80 80 78 73 72 70 60 59 57 48 47 45 41 40 38 40 39 37 43 42 40 46 45 43 42 41 39 42 41 39 42 41 39 42 41 39 42 41 39 42 41 39 42 41 39 42 41 39 42 38 39 42 38 39 42 38 39 42 38 39 42 38 39 42 38 39 42 38 39 42 38 39 40 36 37 40 36 37 40 36 37 40 36 37 40 36 37 40 36 37 40 36 37 40 36 37
64 43 52 62 41 50 64 43 52 66 45 54 62 41 50 62 41 50 62 41 50 62 41 50 62 41 50 62 41 50 62 41 50 62 41 50 66 44 56 67 45 57 70 48 60 73 51 63 76 54 66 80 58 70 82 60 72 83 61 73 72 50 62 76 54 66 84 62 74 93 71 83 104 82 94 113 91 103 120 98 110 123 103 114 144 124 135 144 127 137 146 129 139 149 132 142 153 136 146 156 139 149 158 141 151 160 143 153 154 137 147 148 131 141 146 129 139 150 133 143 151 134 144 134 117 127 99 82 92 68 55 65 25 19 29 20 18 29 18 16 27 15 13 24 11 9 20 8 6 17 6 4 15 4 2 13 9 7 18 9 7 18 9 7 18 9 7 18 9 7 18 9 7 18 9 7 18 8 8 18 9 11 23 8 12 23 8 12 23 8 12 23 8 12 23 8 12 23 8 12 23 8 12 23 8 12 23 8 12 23 8 12 23 8 12 23 8 12 23 8 12 23 8 12 23 8 12 21 9 16 24 9 16 22 9 16 22 9 16 22 9 16 22 9 16 22 9 16 22 9 16 22 2 9 15 5 12 18 11 18 24 18 25 31 26 33 39 34 41 47 40 47 53 43 50 56 38 43 47 36 41 45 34 39 43 31 36 40 27 32 36 24 29 33 22 27 31 20 25 29 17 22 26 15 20 24 13 18 22 10 15 19 6 11 15 3 8 12 1 6 10 0 4 8 3 8 12 3 8 12 3 8 12 3 8 12 3 8 12 3 8 12 3 8 12 3 8 12 18 23 27 20 25 29 22 27 31 25 30 34 29 34 38 32 37 41 34 39 43 36 41 44 44 50 50 46 52 50 48 54 52 51 57 55 55 61 59 58 64 62 60 66 64 62 68 66 75 81 79 75 81 79 75 81 79 75 81 79 75 81 79 75 81 79 75 81 79 76 80 79 65 65 63 64 63 61 59 58 56 52 51 49 46 45 43 39 38 36 34 33 31 32 31 29 35 34 32 35 34 32 35 34 32 35 34 32 35 34 32 35 34 32 35 34 32 35 34 32 37 33 34 37 33 34 37 33 34 37 33 34 37 33 34 37 33 34 37 33 34 37 33 34 40 36 37 40 36 37 40 36 37 40 36 37 40 36 37 40 36 37 40 36 37 40 36 37
61 40 49 60 39 48 63 42 51 65 44 53 62 41 50 62 41 50 62 41 50 62 41 50 62 41 50 62 41 50 62 41 50 62 41 50 60 38 50 62 40 52 64 42 54 67 45 57 71 49 61 74 52 64 76 54 66 78 56 68 74 52 64 78 56 68 85 63 75 94 72 84 105 83 95 114 92 104 122 100 112 125 105 116 144 124 135 144 127 137 146 129 139 149 132 142 153 136 146 156 139 149 158 141 151 160 143 153 154 137 147 148 131 141 145 128 138 150 133 143 150 133 143 131 114 124 97 80 90 65 52 62 25 19 29 20 18 29 18 16 27 15 13 24 11 9 20 8 6 17 6 4 15 4 2 13 9 7 18 9 7 18 9 7 18 9 7 18 9 7 18 9 7 18 9 7 18 8 8 18 9 11 23 8 12 23 8 12 23 8 12 23 8 12 23 8 12 23 8 12 23 8 12 23 8 12 23 8 12 23 8 12 23 8 12 23 8 12 23 8 12 23 8 12 23 8 12 21 9 16 24 9 16 22 9 16 22 9 16 22 9 16 22 9 16 22 9 16 22 9 16 22 5 12 18 8 15 21 13 20 26 20 27 33 27 34 40 34 41 47 40 47 53 43 50 56 38 43 47 36 41 45 34 39 43 31 36 40 27 32 36 24 29 33 22 27 31 20 25 29 17 22 26 15 20 24 13 18 22 10 15 19 6 11 15 3 8 12 1 6 10 0 4 8 3 8 12 3 8 12 3 8 12 3 8 12 3 8 12 3 8 12 3 8 12 3 8 12 18 23 27 20 25 29 22 27 31 25 30 34 29 34 38 32 37 41 34 39 43 36 41 44 44 50 50 46 52 50 48 54 52 51 57 55 55 61 59 58 64 62 60 66 64 62 68 66 73 79 77 73 79 77 73 79 77 73 79 77 73 79 77 73 79 77 73 79 77 74 78 77 65 65 63 64 63 61 59 58 56 52 51 49 46 45 43 39 38 36 34 33 31 32 31 29 35 34 32 35 34 32 35 34 32 35 34 32 35 34 32 35 34 32 35 34 32 35 34 32 37 33 34 37 33 34 37 33 34 37 33 34 37 33 34 37 33 34 37 33 34 37 33 34 40 36 37 40 36 37 40 36 37 40 36 37 40 36 37 40 36 37 40 36 37 40 36 37
57 36 45 57 36 45 61 40 49 64 43 52 62 41 50 62 41 50 62 41 50 62 41 50 62 41 50 62 41 50 62 41 50 62 41 50 52 30 42 54 32 44 56 34 46 59 37 49 63 41 53 66 44 56 68 46 58 70 48 60 76 54 66 80 58 70 87 65 77 97 75 87 107 85 97 117 95 107 124 102 114 127 107 118 144 124 135 144 127 137 146 129 139 149 132 142 153 136 146 156 139 149 158 141 151 160 143 153 155 138 148 149 132 142 145 128 138 148 131 141 147 130 140 127 110 120 91 74 84 59 46 56 25 19 29 20 18 29 18 16 27 15 13 24 11 9 20 8 6 17 6 4 15 4 2 13 9 7 18 9 7 18 9 7 18 9 7 18 9 7 18 9 7 18 9 7 18 8 8 18 9 11 23 8 12 23 8 12 23 8 12 23 8 12 23 8 12 23 8 12 23 8 12 23 8 12 23 8 12 23 8 12 23 8 12 23 8 12 23 8 12 23 8 12 23 8 12 21 9 16 24 9 16 22 9 16 22 9 16 22 9 16 22 9 16 22 9 16 22 9 16 22 11 18 24 13 20 26 17 24 30 23 30 36 29 36 42 35 42 48 39 46 52 42 49 55 38 43 47 36 41 45 34 39 43 31 36 40 27 32 36 24 29 33 22 27 31 20 25 29 17 22 26 15 20 24 13 18 22 10 15 19 6 11 15 3 8 12 1 6 10 0 4 8 3 8 12 3 8 12 3 8 12 3 8 12 3 8 12 3 8 12 3 8 12 3 8 12 18 23 27 20 25 29 22 27 31 25 30 34 29 34 38 32 37 41 34 39 43 36 41 44 44 50 50 46 52 50 48 54 52 51 57 55 55 61 59 58 64 62 60 66 64 62 68 66 71 77 75 71 77 75 71 77 75 71 77 75 71 77 75 71 77 75 71 77 75 72 76 75 65 65 63 64 63 61 59 58 56 52 51 49 46 45 43 39 38 36 34 33 31 32 31 29 35 34 32 35 34 32 35 34 32 35 34 32 35 34 32 35 34 32 35 34 32 35 34 32 37 33 34 37 33 34 37 33 34 37 33 34 37 33 34 37 33 34 37 33 34 37 33 34 40 36 37 40 36 37 40 36 37 40 36 37 40 36 37 40 36 37 40 36 37 40 36 37
52 31 40 53 32 41 58 37 46 62 41 50 62 41 50 62 41 50 62 41 50 62 41 50 62 41 50 62 41 50 62 41 50 62 41 50 47 25 37 48 26 38 50 28 40 54 32 44 57 35 47 60 38 50 63 41 53 64 42 54 79 57 69 83 61 73 91 69 81 100 78 90 110 88 100 120 98 110 127 105 117 130 110 121 144 124 135 144 127 137 146 129 139 149 132 142 153 136 146 156 139 149 158 141 151 160 143 153 156 139 149 149 132 142 144 127 137 145 128 138 143 126 136 121 104 114 84 67 77 51 38 48 25 19 29 20 18 29 18 16 27 15 13 24 11 9 20 8 6 17 6 4 15 4 2 13 9 7 18 9 7 18 9 7 18 9 7 18 9 7 18 9 7 18 9 7 18 8 8 18 9 11 23 8 12 23 8 12 23 8 12 23 8 12 23 8 12 23 8 12 23 8 12 23 8 12 23 8 12 23 8 12 23 8 12 23 8 12 23 8 12 23 8 12 23 8 12 21 9 16 24 9 16 22 9 16 22 9 16 22 9 16 22 9 16 22 9 16 22 9 16 22 18 25 31 20 27 33 23 30 36 27 34 40 31 38 44 36 43 49 39 46 52 40 47 53 38 43 47 36 41 45 34 39 43 31 36 40 27 32 36 24 29 33 22 27 31 20 25 29 17 22 26 15 20 24 13 18 22 10 15 19 6 11 15 3 8 12 1 6 10 0 4 8 3 8 12 3 8 12 3 8 12 3 8 12 3 8 12 3 8 12 3 8 12 3 8 12 18 23 27 20 25 29 22 27 31 25 30 34 29 34 38 32 37 41 34 39 43 36 41 44 44 50 50 46 52 50 48 54 52 51 57 55 55 61 59 58 64 62 60 66 64 62 68 66 68 74 72 68 74 72 68 74 72 68 74 72 68 74 72 68 74 72 68 74 72 69 73 72 65 65 63 64 63 61 59 58 56 52 51 49 46 45 43 39 38 36 34 33 31 32 31 29 35 34 32 35 34 32 35 34 32 35 34 32 35 34 32 35 34 32 35 34 32 35 34 32 37 33 34 37 33 34 37 33 34 37 33 34 37 33 34 37 33 34 37 33 34 37 33 34 40 36 37 40 36 37 40 36 37 40 36 37 40 36 37 40 36 37 40 36 37 40 36 37
46 25 34 49 28 37 55 34 43 60 39 48 62 41 50 62 41 50 62 41 50 62 41 50 62 41 50 62 41 50 62 41 50 62 41 50 47 25 37 48 26 38 50 28 40 54 32 44 57 35 47 60 38 50 63 41 53 64 42 54 83 61 73 87 65 77 94 72 84 104 82 94 114 92 104 123 101 113 131 109 121 134 114 125 144 124 135 144 127 137 146 129 139 149 132 142 153 136 146 156 139 149 158 141 151 160 143 153 158 141 151 150 133 143 143 126 136 143 126 136 138 121 131 115 98 108 77 60 70 43 30 40 25 19 29 20 18 29 18 16 27 15 13 24 11 9 20 8 6 17 6 4 15 4 2 13 9 7 18 9 7 18 9 7 18 9 7 18 9 7 18 9 7 18 9 7 18 8 8 18 9 11 23 8 12 23 8 12 23 8 12 23 8 12 23 8 12 23 8 12 23 8 12 23 8 12 23 8 12 23 8 12 23 8 12 23 8 12 23 8 12 23 8 12 23 8 12 21 9 16 24 9 16 22 9 16 22 9 16 22 9 16 22 9 16 22 9 16 22 9 16 22 26 33 39 27 34 40 29 36 42 31 38 44 34 41 47 36 43 49 38 45 51 39 46 52 38 43 47 36 41 45 34 39 43 31 36 40 27 32 36 24 29 33 22 27 31 20 25 29 17 22 26 15 20 24 13 18 22 10 15 19 6 11 15 3 8 12 1 6 10 0 4 8 3 8 12 3 8 12 3 8 12 3 8 12 3 8 12 3 8 12 3 8 12 3 8 12 18 23 27 20 25 29 22 27 31 25 30 34 29 34 38 32 37 41 34 39 43 36 41 44 44 50 50 46 52 50 48 54 52 51 57 55 55 61 59 58 64 62 60 66 64 62 68 66 64 70 68 64 70 68 64 70 68 64 70 68 64 70 68 64 70 68 64 70 68 65 69 68 65 65 63 64 63 61 59 58 56 52 51 49 46 45 43 39 38 36 34 33 31 32 31 29 35 34 32 35 34 32 35 34 32 35 34 32 35 34 32 35 34 32 35 34 32 35 34 32 37 33 34 37 33 34 37 33 34 37 33 34 37 33 34 37 33 34 37 33 34 37 33 34 40 36 37 40 36 37 40 36 37 40 36 37 40 36 37 40 36 37 40 36 37 40 36 37
40 19 28 45 24 33 53 32 41 58 37 46 62 41 50 62 41 50 62 41 50 62 41 50 62 41 50 62 41 50 62 41 50 62 41 50 52 30 42 54 32 44 56 34 46 59 37 49 63 41 53 66 44 56 68 46 58 70 48 60 86 64 76 90 68 80 97 75 87 107 85 97 117 95 107 127 105 117 134 112 124 137 117 128 144 124 135 144 127 137 146 129 139 149 132 142 153 136 146 156 139 149 158 141 151 160 143 153 159 142 152 150 133 143 143 126 136 141 124 134 134 117 127 109 92 102 70 53 63 36 23 33 25 19 29 20 18 29 18 16 27 15 13 24 11 9 20 8 6 17 6 4 15 4 2 13 9 7 18 9 7 18 9 7 18 9 7 18 9 7 18 9 7 18 9 7 18 8 8 18 9 11 23 8 12 23 8 12 23 8 12 23 8 12 23 8 12 23 8 12 23 8 12 23 8 12 23 8 12 23 8 12 23 8 12 23 8 12 23 8 12 23 8 12 23 8 12 21 9 16 24 9 16 22 9 16 22 9 16 22 9 16 22 9 16 22 9 16 22 9 16 22 34 41 47 34 41 47 35 42 48 36 43 49 36 43 49 37 44 50 37 44 50 38 45 51 38 43 47 36 41 45 34 39 43 31 36 40 27 32 36 24 29 33 22 27 31 20 25 29 17 22 26 15 20 24 13 18 22 10 15 19 6 11 15 3 8 12 1 6 10 0 4 8 3 8 12 3 8 12 3 8 12 3 8 12 3 8 12 3 8 12 3 8 12 3 8 12 18 23 27 20 25 29 22 27 31 25 30 34 29 34 38 32 37 41 34 39 43 36 41 44 44 50 50 46 52 50 48 54 52 51 57 55 55 61 59 58 64 62 60 66 64 62 68 66 61 67 65 61 67 65 61 67 65 61 67 65 61 67 65 61 67 65 61 67 65 62 66 65 65 65 63 64 63 61 59 58 56 52 51 49 46 45 43 39 38 36 34 33 31 32 31 29 35 34 32 35 34 32 35 34 32 35 34 32 35 34 32 35 34 32 35 34 32 35 34 32 37 33 34 37 33 34 37 33 34 37 33 34 37 33 34 37 33 34 37 33 34 37 33 34 40 36 37 40 36 37 40 36 37 40 36 37 40 36 37 40 36 37 40 36 37 40 36 37
36 15 24 42 21 30 51 30 39 56 35 44 62 41 50 62 41 50 62 41 50 62 41 50 62 41 50 62 41 50 62 41 50 62 41 50 60 38 50 62 40 52 64 42 54 67 45 57 71 49 61 74 52 64 76 54 66 78 56 68 88 66 78 92 70 82 100 78 90 109 87 99 120 98 110 129 107 119 136 114 126 139 119 130 144 124 135 144 127 137 146 129 139 149 132 142 153 136 146 156 139 149 158 141 151 160 143 153 160 143 153 151 134 144 142 125 135 139 122 132 131 114 124 105 88 98 65 48 58 30 17 27 25 19 29 20 18 29 18 16 27 15 13 24 11 9 20 8 6 17 6 4 15 4 2 13 9 7 18 9 7 18 9 7 18 9 7 18 9 7 18 9 7 18 9 7 18 8 8 18 9 11 23 8 12 23 8 12 23 8 12 23 8 12 23 8 12 23 8 12 23 8 12 23 8 12 23 8 12 23 8 12 23 8 12 23 8 12 23 8 12 23 8 12 23 8 12 21 9 16 24 9 16 22 9 16 22 9 16 22 9 16 22 9 16 22 9 16 22 9 16 22 40 47 53 40 47 53 39 46 52 39 46 52 38 45 51 37 44 50 37 44 50 37 44 50 38 43 47 36 41 45 34 39 43 31 36 40 27 32 36 24 29 33 22 27 31 20 25 29 17 22 26 15 20 24 13 18 22 10 15 19 6 11 15 3 8 12 1 6 10 0 4 8 3 8 12 3 8 12 3 8 12 3 8 12 3 8 12 3 8 12 3 8 12 3 8 12 18 23 27 20 25 29 22 27 31 25 30 34 29 34 38 32 37 41 34 39 43 36 41 44 44 50 50 46 52 50 48 54 52 51 57 55 55 61 59 58 64 62 60 66 64 62 68 66 59 65 63 59 65 63 59 65 63 59 65 63 59 65 63 59 65 63 59 65 63 60 64 63 65 65 63 64 63 61 59 58 56 52 51 49 46 45 43 39 38 36 34 33 31 32 31 29 35 34 32 35 34 32 35 34 32 35 34 32 35 34 32 35 34 32 35 34 32 35 34 32 37 33 34 37 33 34 37 33 34 37 33 34 37 33 34 37 33 34 37 33 34 37 33 34 40 36 37 40 36 37 40 36 37 40 36 37 40 36 37 40 36 37 40 36 37 40 36 37
33 13 24 40 20 31 48 28 39 55 35 46 61 41 52 61 41 52 61 41 52 61 41 52 61 41 52 61 41 52 61 41 52 61 41 52 65 45 57 66 46 58 70 48 61 72 52 64 76 54 67 79 59 71 82 60 73 82 62 74 90 68 81 93 73 85 101 79 92 109 89 101 121 99 112 129 109 121 138 116 129 141 121 133 142 124 136 144 127 137 146 128 140 149 132 142 153 135 147 156 139 149 158 140 152 160 143 153 160 142 154 151 134 144 142 124 136 138 121 131 129 111 123 103 86 96 62 44 56 27 14 24 23 20 29 19 19 29 17 17 27 14 14 24 10 10 20 7 7 17 5 5 15 3 3 13 8 8 18 8 8 18 8 8 18 8 8 18 8 8 18 8 8 18 8 8 18 8 8 18 8 12 21 8 12 21 8 12 23 8 12 21 8 12 23 8 12 21 8 12 23 8 12 21 8 12 23 8 12 21 8 12 23 8 12 21 8 12 23 8 12 21 8 12 23 8 12 21 9 16 22 9 16 22 9 16 22 9 16 22 9 16 22 9 16 22 9 16 22 9 16 22 43 50 56 42 49 55 42 49 55 40 47 53 39 46 52 38 45 51 37 44 50 36 44 47 38 43 47 36 41 45 34 39 43 31 36 40 27 32 36 24 29 33 22 27 31 20 25 29 17 22 26 15 20 24 13 18 22 10 15 19 6 11 15 3 8 12 1 6 10 0 4 8 3 8 12 3 8 12 3 8 12 3 8 12 3 8 12 3 8 12 3 8 12 3 8 12 18 23 27 20 25 29 22 27 31 25 30 34 29 34 38 32 37 41 34 39 43 36 41 44 44 50 50 46 52 50 48 54 52 51 57 55 55 61 59 58 64 62 60 66 64 62 68 66 57 63 61 57 63 61 57 63 61 57 63 61 57 63 61 57 63 61 57 63 61 58 62 61 65 65 63 64 63 61 59 58 56 52 51 49 46 45 43 39 38 36 34 33 31 32 31 29 35 34 32 35 34 32 35 34 32 35 34 32 35 34 32 35 34 32 35 34 32 35 34 32 37 33 32 37 33 32 37 33 34 37 33 32 37 33 34 37 33 32 37 33 34 37 33 32 40 36 37 40 36 35 40 36 37 40 36 35 40 36 37 40 36 35 40 36 37 40 36 37
41 25 38 41 25 38 41 25 38 41 25 38 77 61 74 77 61 74 77 61 74 77 61 74 77 61 74 77 61 74 77 61 74 77 61 74 82 64 78 83 65 79 88 67 82 89 71 85 94 73 88 96 78 92 100 79 94 99 81 95 117 96 111 118 100 114 126 105 120 132 114 128 142 121 136 148 130 144 156 135 150 157 139 153 154 136 150 153 137 148 153 137 150 153 137 148 153 137 150 153 137 148 153 137 150 153 137 148 160 144 157 160 144 155 157 141 154 143 127 138 115 99 112 78 62 73 43 27 40 18 6 18 12 10 21 9 12 21 9 12 21 9 12 21 9 12 21 9 12 21 9 12 21 9 12 21 6 9 18 6 9 18 6 9 18 6 9 18 6 9 18 6 9 18 6 9 18 5 9 18 9 13 22 7 14 20 7 14 22 7 14 20 7 14 22 7 14 20 7 14 22 7 14 20 9 16 24 9 16 22 9 16 24 9 16 22 9 16 24 9 16 22 9 16 24 9 16 22 7 14 20 2 10 13 0 5 8 0 5 8 8 16 19 26 34 37 46 54 57 59 67 70 102 110 113 98 106 109 91 99 102 81 89 92 71 79 82 61 69 72 54 62 65 50 58 61 47 52 56 45 50 53 43 48 51 40 45 48 36 41 44 33 38 41 31 36 39 29 34 37 8 13 16 8 13 16 8 13 16 8 13 16 8 13 16 8 13 16 8 13 16 8 13 16 5 13 15 5 13 15 5 13 15 5 13 15 5 13 15 5 13 15 5 13 15 5 13 15 13 21 23 15 23 25 17 25 27 20 28 30 24 32 34 27 35 37 29 37 39 33 38 41 41 47 47 42 46 47 42 46 47 42 46 47 42 46 47 42 46 47 42 46 47 42 46 47 57 61 62 57 61 62 57 61 62 57 61 62 57 61 62 57 61 62 57 61 62 59 61 60 50 49 47 50 46 45 48 44 43 45 41 40 41 37 36 38 34 33 36 32 31 34 30 29 36 32 31 36 32 31 36 32 31 36 32 31 36 32 31 36 32 31 36 32 31 36 32 31 38 32 32 38 33 30 38 32 32 38 33 30 38 32 32 38 33 30 38 32 32 38 33 30 39 33 33 39 34 31 39 33 33 39 34 31 39 33 33 39 34 31 39 33 33 38 34 33
45 31 46 45 31 46 45 31 46 45 31 46 77 63 78 77 63 78 77 63 78 77 63 78 77 63 78 77 63 78 77 63 78 77 63 78 85 67 83 86 68 84 88 70 86 92 74 90 95 77 93 98 80 96 101 83 99 102 84 100 117 99 115 120 102 118 125 107 123 132 114 130 140 122 138 147 129 145 152 134 150 155 137 153 151 135 148 151 135 148 151 135 148 151 135 148 151 135 148 151 135 148 151 135 148 151 135 148 158 142 155 159 143 156 156 140 153 141 125 138 114 98 111 77 61 74 42 26 39 16 6 17 12 10 21 8 12 21 8 12 21 8 12 21 8 12 21 8 12 21 8 12 21 8 12 21 5 9 18 5 9 18 5 9 18 5 9 18 5 9 18 5 9 18 5 9 18 5 9 18 7 14 20 7 14 20 7 14 20 7 14 20 7 14 20 7 14 20 7 14 20 7 14 20 9 16 22 9 16 22 9 16 22 9 16 22 9 16 22 9 16 22 9 16 22 9 16 22 9 17 20 5 13 16 2 10 13 4 12 15 14 22 25 31 39 42 49 57 60 61 69 72 102 110 113 98 106 109 91 99 102 81 89 92 71 79 82 61 69 72 54 62 65 50 58 61 47 52 55 45 50 53 43 48 51 40 45 48 36 41 44 33 38 41 31 36 39 29 34 37 8 13 16 8 13 16 8 13 16 8 13 16 8 13 16 8 13 16 8 13 16 8 13 16 5 13 15 5 13 15 5 13 15 5 13 15 5 13 15 5 13 15 5 13 15 5 13 15 13 21 23 15 23 25 17 25 27 20 28 30 24 32 34 27 35 37 29 37 39 31 39 41 42 46 47 42 46 47 42 46 47 42 46 47 42 46 47 42 46 47 42 46 47 42 46 47 55 59 60 55 59 60 55 59 60 55 59 60 55 59 60 55 59 60 55 59 60 57 59 58 50 48 49 50 46 45 48 44 43 45 41 40 41 37 36 38 34 33 36 32 31 34 30 29 36 32 31 36 32 31 36 32 31 36 32 31 36 32 31 36 32 31 36 32 31 36 32 31 38 33 30 38 33 30 38 33 30 38 33 30 38 33 30 38 33 30 38 33 30 38 33 30 39 34 31 39 34 31 39 34 31 39 34 31 39 34 31 39 34 31 39 34 31 39 34 31
54 40 55 54 40 55 54 40 55 54 40 55 82 68 83 82 68 83 82 68 83 82 68 83 82 68 83 82 68 83 82 68 83 82 68 83 90 72 88 91 73 89 93 75 91 96 78 94 100 82 98 103 85 101 106 88 104 107 89 105 121 103 119 123 105 121 127 109 125 133 115 131 139 121 137 145 127 143 149 131 147 151 133 149 149 133 146 149 133 146 149 133 146 149 133 146 149 133 146 149 133 146 149 133 146 149 133 146 156 140 153 157 141 154 153 137 150 139 123 136 111 95 108 75 59 72 39 23 36 13 3 14 12 10 21 8 12 21 8 12 21 8 12 21 8 12 21 8 12 21 8 12 21 8 12 21 5 9 18 5 9 18 5 9 18 5 9 18 5 9 18 5 9 18 5 9 18 5 9 18 7 14 20 7 14 20 7 14 20 7 14 20 7 14 20 7 14 20 7 14 20 7 14 20 9 16 22 9 16 22 9 16 22 9 16 22 9 16 22 9 16 22 9 16 22 9 16 22 12 20 23 11 19 22 11 19 22 15 23 26 26 34 37 40 48 51 55 63 66 64 72 75 102 110 113 98 106 109 91 99 102 81 89 92 71 79 82 61 69 72 54 62 65 50 58 61 47 52 55 45 50 53 43 48 51 40 45 48 36 41 44 33 38 41 31 36 39 29 34 37 8 13 16 8 13 16 8 13 16 8 13 16 8 13 16 8 13 16 8 13 16 8 13 16 5 13 15 5 13 15 5 13 15 5 13 15 5 13 15 5 13 15 5 13 15 5 13 15 13 21 23 15 23 25 17 25 27 20 28 30 24 32 34 27 35 37 29 37 39 31 39 41 42 46 47 42 46 47 42 46 47 42 46 47 42 46 47 42 46 47 42 46 47 42 46 47 53 57 58 53 57 58 53 57 58 53 57 58 53 57 58 53 57 58 53 57 58 55 57 56 50 48 49 50 46 45 48 44 43 45 41 40 41 37 36 38 34 33 36 32 31 34 30 29 36 32 31 36 32 31 36 32 31 36 32 31 36 32 31 36 32 31 36 32 31 36 32 31 38 33 30 38 33 30 38 33 30 38 33 30 38 33 30 38 33 30 38 33 30 38 33 30 39 34 31 39 34 31 39 34 31 39 34 31 39 34 31 39 34 31 39 34 31 39 34 31
67 53 68 67 53 68 67 53 68 67 53 68 89 75 90 89 75 90 89 75 90 89 75 90 89 75 90 89 75 90 89 75 90 89 75 90 96 78 94 97 79 95 100 82 98 103 85 101 106 88 104 109 91 107 112 94 110 113 95 111 125 107 123 127 109 125 130 112 128 134 116 132 138 120 136 142 124 140 145 127 143 147 129 145 146 130 143 146 130 143 146 130 143 146 130 143 146 130 143 146 130 143 146 130 143 146 130 143 153 137 150 154 138 151 150 134 147 136 120 133 108 92 105 71 55 68 36 20 33 10 0 11 12 10 21 8 12 21 8 12 21 8 12 21 8 12 21 8 12 21 8 12 21 8 12 21 5 9 18 5 9 18 5 9 18 5 9 18 5 9 18 5 9 18 5 9 18 5 9 18 7 14 20 7 14 20 7 14 20 7 14 20 7 14 20 7 14 20 7 14 20 7 14 20 9 16 22 9 16 22 9 16 22 9 16 22 9 16 22 9 16 22 9 16 22 9 16 22 16 24 27 18 26 29 23 31 34 31 39 42 41 49 52 52 60 63 62 70 73 68 76 79 102 110 113 98 106 109 91 99 102 81 89 92 71 79 82 61 69 72 54 62 65 50 58 61 47 52 55 45 50 53 43 48 51 40 45 48 36 41 44 33 38 41 31 36 39 29 34 37 8 13 16 8 13 16 8 13 16 8 13 16 8 13 16 8 13 16 8 13 16 8 13 16 5 13 15 5 13 15 5 13 15 5 13 15 5 13 15 5 13 15 5 13 15 5 13 15 13 21 23 15 23 25 17 25 27 20 28 30 24 32 34 27 35 37 29 37 39 31 39 41 42 46 47 42 46 47 42 46 47 42 46 47 42 46 47 42 46 47 42 46 47 42 46 47 50 54 55 50 54 55 50 54 55 50 54 55 50 54 55 50 54 55 50 54 55 52 54 53 50 48 49 50 46 45 48 44 43 45 41 40 41 37 36 38 34 33 36 32 31 34 30 29 36 32 31 36 32 31 36 32 31 36 32 31 36 32 31 36 32 31 36 32 31 36 32 31 38 33 30 38 33 30 38 33 30 38 33 30 38 33 30 38 33 30 38 33 30 38 33 30 39 34 31 39 34 31 39 34 31 39 34 31 39 34 31 39 34 31 39 34 31 39 34 31
81 67 82 81 67 82 81 67 82 81 67 82 95 81 96 95 81 96 95 81 96 95 81 96 95 81 96 95 81 96 95 81 96 95 81 96 103 85 101 104 86 102 107 89 105 110 92 108 113 95 111 116 98 114 119 101 117 120 102 118 130 112 128 131 113 129 132 114 130 135 117 133 137 119 135 140 122 138 141 123 139 142 124 140 142 126 139 142 126 139 142 126 139 142 126 139 142 126 139 142 126 139 142 126 139 142 126 139 149 133 146 150 134 147 147 131 144 132 116 129 105 89 102 68 52 65 33 17 30 7 0 8 12 10 21 8 12 21 8 12 21 8 12 21 8 12 21 8 12 21 8 12 21 8 12 21 5 9 18 5 9 18 5 9 18 5 9 18 5 9 18 5 9 18 5 9 18 5 9 18 7 14 20 7 14 20 7 14 20 7 14 20 7 14 20 7 14 20 7 14 20 7 14 20 9 16 22 9 16 22 9 16 22 9 16 22 9 16 22 9 16 22 9 16 22 9 16 22 20 28 31 26 34 37 36 44 47 47 55 58 57 65 68 65 73 76 70 78 81 72 80 83 102 110 113 98 106 109 91 99 102 81 89 92 71 79 82 61 69 72 54 62 65 50 58 61 47 52 55 45 50 53 43 48 51 40 45 48 36 41 44 33 38 41 31 36 39 29 34 37 8 13 16 8 13 16 8 13 16 8 13 16 8 13 16 8 13 16 8 13 16 8 13 16 5 13 15 5 13 15 5 13 15 5 13 15 5 13 15 5 13 15 5 13 15 5 13 15 13 21 23 15 23 25 17 25 27 20 28 30 24 32 34 27 35 37 29 37 39 31 39 41 42 46 47 42 46 47 42 46 47 42 46 47 42 46 47 42 46 47 42 46 47 42 46 47 46 50 51 46 50 51 46 50 51 46 50 51 46 50 51 46 50 51 46 50 51 48 50 49 50 48 49 50 46 45 48 44 43 45 41 40 41 37 36 38 34 33 36 32 31 34 30 29 36 32 31 36 32 31 36 32 31 36 32 31 36 32 31 36 32 31 36 32 31 36 32 31 38 33 30 38 33 30 38 33 30 38 33 30 38 33 30 38 33 30 38 33 30 38 33 30 39 34 31 39 34 31 39 34 31 39 34 31 39 34 31 39 34 31 39 34 31 39 34 31
94 80 95 94 80 95 94 80 95 94 80 95 102 88 103 102 88 103 102 88 103 102 88 103 102 88 103 102 88 103 102 88 103 102 88 103 109 91 107 110 92 108 113 95 111 116 98 114 120 102 118 123 105 121 125 107 123 126 108 124 134 116 132 134 116 132 135 117 133 136 118 134 136 118 134 137 119 135 138 120 136 138 120 136 139 123 136 139 123 136 139 123 136 139 123 136 139 123 136 139 123 136 139 123 136 139 123 136 146 130 143 147 131 144 143 127 140 129 113 126 102 86 99 65 49 62 29 13 26 6 0 7 12 10 21 8 12 21 8 12 21 8 12 21 8 12 21 8 12 21 8 12 21 8 12 21 5 9 18 5 9 18 5 9 18 5 9 18 5 9 18 5 9 18 5 9 18 5 9 18 7 14 20 7 14 20 7 14 20 7 14 20 7 14 20 7 14 20 7 14 20 7 14 20 9 16 22 9 16 22 9 16 22 9 16 22 9 16 22 9 16 22 9 16 22 9 16 22 24 32 35 33 41 44 48 56 59 62 70 73 73 81 84 77 85 88 77 85 88 76 84 87 102 110 113 98 106 109 91 99 102 81 89 92 71 79 82 61 69 72 54 62 65 50 58 61 47 52 55 45 50 53 43 48 51 40 45 48 36 41 44 33 38 41 31 36 39 29 34 37 8 13 16 8 13 16 8 13 16 8 13 16 8 13 16 8 13 16 8 13 16 8 13 16 5 13 15 5 13 15 5 13 15 5 13 15 5 13 15 5 13 15 5 13 15 5 13 15 13 21 23 15 23 25 17 25 27 20 28 30 24 32 34 27 35 37 29 37 39 31 39 41 42 46 47 42 46 47 42 46 47 42 46 47 42 46 47 42 46 47 42 46 47 42 46 47 43 47 48 43 47 48 43 47 48 43 47 48 43 47 48 43 47 48 43 47 48 45 47 46 50 48 49 50 46 45 48 44 43 45 41 40 41 37 36 38 34 33 36 32 31 34 30 29 36 32 31 36 32 31 36 32 31 36 32 31 36 32 31 36 32 31 36 32 31 36 32 31 38 33 30 38 33 30 38 33 30 38 33 30 38 33 30 38 33 30 38 33 30 38 33 30 39 34 31 39 34 31 39 34 31 39 34 31 39 34 31 39 34 31 39 34 31 39 34 31
103 89 104 103 89 104 103 89 104 103 89 104 107 93 108 107 93 108 107 93 108 107 93 108 107 93 108 107 93 108 107 93 108 107 93 108 114 96 112 115 97 113 118 100 116 121 103 119 124 106 122 128 110 126 130 112 128 131 113 129 138 120 136 137 119 135 137 119 135 136 118 134 136 118 134 135 117 133 135 117 133 134 116 132 137 121 134 137 121 134 137 121 134 137 121 134 137 121 134 137 121 134 137 121 134 137 121 134 144 128 141 144 128 141 141 125 138 127 111 124 99 83 96 62 46 59 27 11 24 6 0 7 12 10 21 8 12 21 8 12 21 8 12 21 8 12 21 8 12 21 8 12 21 8 12 21 5 9 18 5 9 18 5 9 18 5 9 18 5 9 18 5 9 18 5 9 18 5 9 18 7 14 20 7 14 20 7 14 20 7 14 20 7 14 20 7 14 20 7 14 20 7 14 20 9 16 22 9 16 22 9 16 22 9 16 22 9 16 22 9 16 22 9 16 22 9 16 22 27 35 38 39 47 50 57 65 68 74 82 85 84 92 95 86 94 97 83 91 94 79 87 90 102 110 113 98 106 109 91 99 102 81 89 92 71 79 82 61 69 72 54 62 65 50 58 61 47 52 55 45 50 53 43 48 51 40 45 48 36 41 44 33 38 41 31 36 39 29 34 37 8 13 16 8 13 16 8 13 16 8 13 16 8 13 16 8 13 16 8 13 16 8 13 16 5 13 15 5 13 15 5 13 15 5 13 15 5 13 15 5 13 15 5 13 15 5 13 15 13 21 23 15 23 25 17 25 27 20 28 30 24 32 34 27 35 37 29 37 39 31 39 41 42 46 47 42 46 47 42 46 47 42 46 47 42 46 47 42 46 47 42 46 47 42 46 47 41 45 46 41 45 46 41 45 46 41 45 46 41 45 46 41 45 46 41 45 46 43 45 44 50 48 49 50 46 45 48 44 43 45 41 40 41 37 36 38 34 33 36 32 31 34 30 29 36 32 31 36 32 31 36 32 31 36 32 31 36 32 31 36 32 31 36 32 31 36 32 31 38 33 30 38 33 30 38 33 30 38 33 30 38 33 30 38 33 30 38 33 30 38 33 30 39 34 31 39 34 31 39 34 31 39 34 31 39 34 31 39 34 31 39 34 31 39 34 31
109 95 110 109 95 110 109 95 110 109 95 110 109 95 110 109 95 110 109 95 110 109 95 110 109 95 110 109 95 110 109 95 110 109 95 110 117 99 115 118 100 116 120 102 118 124 106 122 127 109 125 130 112 128 133 115 131 134 116 132 139 121 137 139 121 137 138 120 136 137 119 135 135 117 133 134 116 132 133 115 131 133 115 131 135 119 132 135 119 132 135 119 132 135 119 132 135 119 132 135 119 132 135 119 132 135 119 132 142 126 139 143 127 140 140 124 137 125 109 122 98 82 95 61 45 58 26 10 23 6 0 7 12 10 21 8 12 21 8 12 21 8 12 21 8 12 21 8 12 21 8 12 21 8 12 21 5 9 18 5 9 18 5 9 18 5 9 18 5 9 18 5 9 18 5 9 18 5 9 18 7 14 20 7 14 20 7 14 20 7 14 20 7 14 20 7 14 20 7 14 20 7 14 20 9 16 22 9 16 22 9 16 22 9 16 22 9 16 22 9 16 22 9 16 22 9 16 22 29 37 40 42 50 53 62 70 73 80 88 91 91 99 102 91 99 102 86 94 97 81 89 92 102 110 113 98 106 109 91 99 102 81 89 92 71 79 82 61 69 72 54 62 65 50 58 61 47 52 55 45 50 53 43 48 51 40 45 48 36 41 44 33 38 41 31 36 39 29 34 37 8 13 16 8 13 16 8 13 16 8 13 16 8 13 16 8 13 16 8 13 16 8 13 16 5 13 15 5 13 15 5 13 15 5 13 15 5 13 15 5 13 15 5 13 15 5 13 15 13 21 23 15 23 25 17 25 27 20 28 30 24 32 34 27 35 37 29 37 39 31 39 41 42 46 47 42 46 47 42 46 47 42 46 47 42 46 47 42 46 47 42 46 47 42 46 47 39 43 44 39 43 44 39 43 44 39 43 44 39 43 44 39 43 44 39 43 44 41 43 42 50 48 49 50 46 45 48 44 43 45 41 40 41 37 36 38 34 33 36 32 31 34 30 29 36 32 31 36 32 31 36 32 31 36 32 31 36 32 31 36 32 31 36 32 31 36 32 31 38 33 30 38 33 30 38 33 30 38 33 30 38 33 30 38 33 30 38 33 30 38 33 30 39 34 31 39 34 31 39 34 31 39 34 31 39 34 31 39 34 31 39 34 31 39 34 31
124 110 125 124 110 125 124 110 125 124 110 125 120 106 121 120 106 121 120 106 121 120 106 121 120 106 121 120 106 121 120 106 121 120 106 121 122 104 120 122 104 120 122 104 120 122 104 120 122 104 120 122 104 120 122 104 120 122 104 120 135 117 133 135 117 133 135 117 133 135 117 133 135 117 133 135 117 133 135 117 133 135 117 133 139 123 136 139 123 136 139 123 136 139 123 136 139 123 136 139 123 136 139 123 136 139 123 136 156 140 153 158 142 155 143 127 140 102 86 99 51 35 48 21 5 18 22 6 19 31 21 32 9 7 18 5 9 18 5 9 18 5 9 18 5 9 18 5 9 18 5 9 18 5 9 18 5 9 18 5 9 18 5 9 18 5 9 18 5 9 18 5 9 18 5 9 18 5 9 18 5 12 18 4 11 17 3 10 16 2 9 15 1 8 14 0 6 12 0 6 12 0 5 11 0 1 7 0 5 11 6 13 19 17 24 30 28 35 41 39 46 52 48 55 61 52 59 65 68 76 79 70 78 81 75 83 86 82 90 93 88 96 99 95 103 106 100 108 111 102 110 113 111 119 122 107 115 118 100 108 111 90 98 101 80 88 91 70 78 81 63 71 74 59 67 70 37 42 45 37 42 45 38 43 46 39 44 47 41 46 49 42 47 50 43 48 51 43 48 51 21 26 29 19 24 27 17 22 25 14 19 22 10 15 18 7 12 15 5 10 13 3 8 11 9 17 19 9 17 19 9 17 19 9 17 19 9 17 19 9 17 19 9 17 19 9 17 19 20 28 30 20 28 30 20 28 30 20 28 30 20 28 30 20 28 30 20 28 30 20 28 30 32 36 37 32 36 37 32 36 37 32 36 37 32 36 37 32 36 37 32 36 37 32 36 37 35 39 40 35 39 40 35 39 40 35 39 40 35 39 40 35 39 40 35 39 40 37 39 38 34 32 33 36 32 31 36 32 31 36 32 31 36 32 31 36 32 31 36 32 31 36 32 31 36 32 31 36 32 31 36 32 31 36 32 31 36 32 31 36 32 31 36 32 31 36 32 31 38 33 30 38 33 30 38 33 30 38 33 30 38 33 30 38 33 30 38 33 30 38 33 30 38 33 30 38 33 30 38 33 30 38 33 30 38 33 30 38 33 30 38 33 30 38 33 30
124 110 125 124 110 125 124 110 125 124 110 125 120 106 121 120 106 121 120 106 121 120 106 121 120 106 121 120 106 121 120 106 121 120 106 121 122 104 120 122 104 120 122 104 120 122 104 120 122 104 120 122 104 120 122 104 120 122 104 120 133 115 131 133 115 131 133 115 131 133 115 131 133 115 131 133 115 131 133 115 131 133 115 131 137 121 134 137 121 134 137 121 134 137 121 134 137 121 134 137 121 134 137 121 134 137 121 134 151 135 148 150 134 147 134 118 131 95 79 92 49 33 46 22 6 19 22 6 19 28 18 29 9 7 18 5 9 18 5 9 18 5 9 18 5 9 18 5 9 18 5 9 18 5 9 18 5 9 18 5 9 18 5 9 18 5 9 18 5 9 18 5 9 18 5 9 18 5 9 18 4 11 17 4 11 17 4 11 17 3 10 16 2 9 15 2 9 15 1 8 14 1 8 14 0 5 11 2 9 15 10 17 23 20 27 33 31 38 44 41 48 54 49 56 62 53 60 66 68 76 79 70 78 81 75 83 86 82 90 93 88 96 99 95 103 106 100 108 111 102 110 113 111 119 122 107 115 118 100 108 111 90 98 101 80 88 91 70 78 81 63 71 74 59 67 70 38 43 46 39 44 47 39 44 47 40 45 48 40 45 48 41 46 49 41 46 49 42 47 50 21 26 29 19 24 27 17 22 25 14 19 22 10 15 18 7 12 15 5 10 13 3 8 11 9 17 19 9 17 19 9 17 19 9 17 19 9 17 19 9 17 19 9 17 19 9 17 19 20 28 30 20 28 30 20 28 30 20 28 30 20 28 30 20 28 30 20 28 30 20 28 30 32 36 37 32 36 37 32 36 37 32 36 37 32 36 37 32 36 37 32 36 37 32 36 37 35 39 40 35 39 40 35 39 40 35 39 40 35 39 40 35 39 40 35 39 40 37 39 38 34 32 33 36 32 31 36 32 31 36 32 31 36 32 31 36 32 31 36 32 31 36 32 31 36 32 31 36 32 31 36 32 31 36 32 31 36 32 31 36 32 31 36 32 31 36 32 31 38 33 30 38 33 30 38 33 30 38 33 30 38 33 30 38 33 30 38 33 30 38 33 30 38 33 30 38 33 30 38 33 30 38 33 30 38 33 30 38 33 30 38 33 30 38 33 30
124 110 125 124 110 125 124 110 125 124 110 125 120 106 121 120 106 121 120 106 121 120 106 121 120 106 121 120 106 121 120 106 121 120 106 121 122 104 120 122 104 120 122 104 120 122 104 120 122 104 120 122 104 120 122 104 120 122 104 120 131 113 129 131 113 129 131 113 129 131 113 129 131 113 129 131 113 129 131 113 129 131 113 129 135 119 132 135 119 132 135 119 132 135 119 132 135 119 132 135 119 132 135 119 132 135 119 132 141 125 138 136 120 133 118 102 115 84 68 81 46 30 43 23 7 20 21 5 18 23 13 24 9 7 18 5 9 18 5 9 18 5 9 18 5 9 18 5 9 18 5 9 18 5 9 18 5 9 18 5 9 18 5 9 18 5 9 18 5 9 18 5 9 18 5 9 18 5 9 18 3 10 16 4 11 17 4 11 17 5 12 18 5 12 18 6 13 19 7 14 20 7 14 20 6 13 19 10 17 23 17 24 30 25 32 38 35 42 48 44 51 57 51 58 64 54 61 67 68 76 79 70 78 81 75 83 86 82 90 93 88 96 99 95 103 106 100 108 111 102 110 113 111 119 122 107 115 118 100 108 111 90 98 101 80 88 91 70 78 81 63 71 74 59 67 70 42 47 50 42 47 50 41 46 49 40 45 48 40 45 48 39 44 47 38 43 46 38 43 46 21 26 29 19 24 27 17 22 25 14 19 22 10 15 18 7 12 15 5 10 13 3 8 11 9 17 19 9 17 19 9 17 19 9 17 19 9 17 19 9 17 19 9 17 19 9 17 19 20 28 30 20 28 30 20 28 30 20 28 30 20 28 30 20 28 30 20 28 30 20 28 30 32 36 37 32 36 37 32 36 37 32 36 37 32 36 37 32 36 37 32 36 37 32 36 37 35 39 40 35 39 40 35 39 40 35 39 40 35 39 40 35 39 40 35 39 40 37 39 38 34 32 33 36 32 31 36 32 31 36 32 31 36 32 31 36 32 31 36 32 31 36 32 31 36 32 31 36 32 31 36 32 31 36 32 31 36 32 31 36 32 31 36 32 31 36 32 31 38 33 30 38 33 30 38 33 30 38 33 30 38 33 30 38 33 30 38 33 30 38 33 30 38 33 30 38 33 30 38 33 30 38 33 30 38 33 30 38 33 30 38 33 30 38 33 30
124 110 125 124 110 125 124 110 125 124 110 125 120 106 121 120 106 121 120 106 121 120 106 121 120 106 121 120 106 121 120 106 121 120 106 121 122 104 120 122 104 120 122 104 120 122 104 120 122 104 120 122 104 120 122 104 120 122 104 120 128 110 126 128 110 126 128 110 126 128 110 126 128 110 126 128 110 126 128 110 126 128 110 126 132 116 129 132 116 129 132 116 129 132 116 129 132 116 129 132 116 129 132 116 129 132 116 129 129 113 126 118 102 115 97 81 94 69 53 66 42 26 39 25 9 22 20 4 17 17 7 18 9 7 18 5 9 18 5 9 18 5 9 18 5 9 18 5 9 18 5 9 18 5 9 18 5 9 18 5 9 18 5 9 18 5 9 18 5 9 18 5 9 18 5 9 18 5 9 18 2 9 15 3 10 16 5 12 18 7 14 20 10 17 23 12 19 25 14 21 27 15 22 28 17 24 30 20 27 33 25 32 38 33 40 46 40 47 53 48 55 61 53 60 66 56 63 69 68 76 79 70 78 81 75 83 86 82 90 93 88 96 99 95 103 106 100 108 111 102 110 113 111 119 122 107 115 118 100 108 111 90 98 101 80 88 91 70 78 81 63 71 74 59 67 70 46 51 54 45 50 53 44 49 52 41 46 49 39 44 47 36 41 44 35 40 43 34 39 42 21 26 29 19 24 27 17 22 25 14 19 22 10 15 18 7 12 15 5 10 13 3 8 11 9 17 19 9 17 19 9 17 19 9 17 19 9 17 19 9 17 19 9 17 19 9 17 19 20 28 30 20 28 30 20 28 30 20 28 30 20 28 30 20 28 30 20 28 30 20 28 30 32 36 37 32 36 37 32 36 37 32 36 37 32 36 37 32 36 37 32 36 37 32 36 37 35 39 40 35 39 40 35 39 40 35 39 40 35 39 40 35 39 40 35 39 40 37 39 38 34 32 33 36 32 31 36 32 31 36 32 31 36 32 31 36 32 31 36 32 31 36 32 31 36 32 31 36 32 31 36 32 31 36 32 31 36 32 31 36 32 31 36 32 31 36 32 31 38 33 30 38 33 30 38 33 30 38 33 30 38 33 30 38 33 30 38 33 30 38 33 30 38 33 30 38 33 30 38 33 30 38 33 30 38 33 30 38 33 30 38 33 30 38 33 30
124 110 125 124 110 125 124 110 125 124 110 125 120 106 121 120 106 121 120 106 121 120 106 121 120 106 121 120 106 121 120 106 121 120 106 121 122 104 120 122 104 120 122 104 120 122 104 120 122 104 120 122 104 120 122 104 120 122 104 120 124 106 122 124 106 122 124 106 122 124 106 122 124 106 122 124 106 122 124 106 122 124 106 122 128 112 125 128 112 125 128 112 125 128 112 125 128 112 125 128 112 125 128 112 125 128 112 125 115 99 112 98 82 95 74 58 71 53 37 50 38 22 35 28 12 25 19 3 16 10 0 11 9 7 18 5 9 18 5 9 18 5 9 18 5 9 18 5 9 18 5 9 18 5 9 18 5 9 18 5 9 18 5 9 18 5 9 18 5 9 18 5 9 18 5 9 18 5 9 18 1 8 14 2 9 15 5 12 18 10 17 23 14 21 27 18 25 31 21 28 34 23 30 36 28 35 41 31 38 44 35 42 48 40 47 53 46 53 59 52 59 65 56 63 69 58 65 71 68 76 79 70 78 81 75 83 86 82 90 93 88 96 99 95 103 106 100 108 111 102 110 113 111 119 122 107 115 118 100 108 111 90 98 101 80 88 91 70 78 81 63 71 74 59 67 70 51 56 59 49 54 57 46 51 54 42 47 50 38 43 46 34 39 42 31 36 39 29 34 37 21 26 29 19 24 27 17 22 25 14 19 22 10 15 18 7 12 15 5 10 13 3 8 11 9 17 19 9 17 19 9 17 19 9 17 19 9 17 19 9 17 19 9 17 19 9 17 19 20 28 30 20 28 30 20 28 30 20 28 30 20 28 30 20 28 30 20 28 30 20 28 30 32 36 37 32 36 37 32 36 37 32 36 37 32 36 37 32 36 37 32 36 37 32 36 37 35 39 40 35 39 40 35 39 40 35 39 40 35 39 40 35 39 40 35 39 40 37 39 38 34 32 33 36 32 31 36 32 31 36 32 31 36 32 31 36 32 31 36 32 31 36 32 31 36 32 31 36 32 31 36 32 31 36 32 31 36 32 31 36 32 31 36 32 31 36 32 31 38 33 30 38 33 30 38 33 30 38 33 30 38 33 30 38 33 30 38 33 30 38 33 30 38 33 30 38 33 30 38 33 30 38 33 30 38 33 30 38 33 30 38 33 30 38 33 30
124 110 125 124 110 125 124 110 125 124 110 125 120 106 121 120 106 121 120 106 121 120 106 121 120 106 121 120 106 121 120 106 121 120 106 121 122 104 120 122 104 120 122 104 120 122 104 120 122 104 120 122 104 120 122 104 120 122 104 120 121 103 119 121 103 119 121 103 119 121 103 119 121 103 119 121 103 119 121 103 119 121 103 119 125 109 122 125 109 122 125 109 122 125 109 122 125 109 122 125 109 122 125 109 122 125 109 122 102 86 99 80 64 77 53 37 50 37 21 34 34 18 31 30 14 27 19 3 16 6 0 7 9 7 18 5 9 18 5 9 18 5 9 18 5 9 18 5 9 18 5 9 18 5 9 18 5 9 18 5 9 18 5 9 18 5 9 18 5 9 18 5 9 18 5 9 18 5 9 18 0 6 12 2 9 15 6 13 19 12 19 25 18 25 31 24 31 37 28 35 41 30 37 43 39 46 52 41 48 54 44 51 57 48 55 61 52 59 65 56 63 69 59 66 72 60 67 73 68 76 79 70 78 81 75 83 86 82 90 93 88 96 99 95 103 106 100 108 111 102 110 113 111 119 122 107 115 118 100 108 111 90 98 101 80 88 91 70 78 81 63 71 74 59 67 70 55 60 63 53 58 61 49 54 57 43 48 51 37 42 45 31 36 39 27 32 35 25 30 33 21 26 29 19 24 27 17 22 25 14 19 22 10 15 18 7 12 15 5 10 13 3 8 11 9 17 19 9 17 19 9 17 19 9 17 19 9 17 19 9 17 19 9 17 19 9 17 19 20 28 30 20 28 30 20 28 30 20 28 30 20 28 30 20 28 30 20 28 30 20 28 30 32 36 37 32 36 37 32 36 37 32 36 37 32 36 37 32 36 37 32 36 37 32 36 37 35 39 40 35 39 40 35 39 40 35 39 40 35 39 40 35 39 40 35 39 40 37 39 38 34 32 33 36 32 31 36 32 31 36 32 31 36 32 31 36 32 31 36 32 31 36 32 31 36 32 31 36 32 31 36 32 31 36 32 31 36 32 31 36 32 31 36 32 31 36 32 31 38 33 30 38 33 30 38 33 30 38 33 30 38 33 30 38 33 30 38 33 30 38 33 30 38 33 30 38 33 30 38 33 30 38 33 30 38 33 30 38 33 30 38 33 30 38 33 30
124 110 125 124 110 125 124 110 125 124 110 125 120 106 121 120 106 121 120 106 121 120 106 121 120 106 121 120 106 121 120 106 121 120 106 121 122 104 120 122 104 120 122 104 120 122 104 120 122 104 120 122 104 120 122 104 120 122 104 120 119 101 117 119 101 117 119 101 117 119 101 117 119 101 117 119 101 117 119 101 117 119 101 117 123 107 120 123 107 120 123 107 120 123 107 120 123 107 120 123 107 120 123 107 120 123 107 120 92 76 89 66 50 63 37 21 34 26 10 23 31 15 28 31 15 28 18 2 15 6 0 7 9 7 18 5 9 18 5 9 18 5 9 18 5 9 18 5 9 18 5 9 18 5 9 18 5 9 18 5 9 18 5 9 18 5 9 18 5 9 18 5 9 18 5 9 18 5 9 18 0 5 11 1 8 14 7 14 20 14 21 27 21 28 34 28 35 41 33 40 46 36 43 49 48 55 61 49 56 62 51 58 64 53 60 66 56 63 69 59 66 72 61 68 74 62 69 75 68 76 79 70 78 81 75 83 86 82 90 93 88 96 99 95 103 106 100 108 111 102 110 113 111 119 122 107 115 118 100 108 111 90 98 101 80 88 91 70 78 81 63 71 74 59 67 70 59 64 67 56 61 64 51 56 59 44 49 52 36 41 44 29 34 37 24 29 32 21 26 29 21 26 29 19 24 27 17 22 25 14 19 22 10 15 18 7 12 15 5 10 13 3 8 11 9 17 19 9 17 19 9 17 19 9 17 19 9 17 19 9 17 19 9 17 19 9 17 19 20 28 30 20 28 30 20 28 30 20 28 30 20 28 30 20 28 30 20 28 30 20 28 30 32 36 37 32 36 37 32 36 37 32 36 37 32 36 37 32 36 37 32 36 37 32 36 37 35 39 40 35 39 40 35 39 40 35 39 40 35 39 40 35 39 40 35 39 40 37 39 38 34 32 33 36 32 31 36 32 31 36 32 31 36 32 31 36 32 31 36 32 31 36 32 31 36 32 31 36 32 31 36 32 31 36 32 31 36 32 31 36 32 31 36 32 31 36 32 31 38 33 30 38 33 30 38 33 30 38 33 30 38 33 30 38 33 30 38 33 30 38 33 30 38 33 30 38 33 30 38 33 30 38 33 30 38 33 30 38 33 30 38 33 30 38 33 30
126 109 125 124 110 125 126 109 125 124 110 125 122 105 121 120 106 121 122 105 121 120 106 121 122 105 121 120 106 121 122 105 121 122 105 121 122 104 120 122 104 120 124 103 120 122 104 120 124 103 120 122 104 120 124 103 120 122 104 120 119 98 115 117 99 115 119 98 115 117 99 115 119 98 115 117 99 115 119 98 115 117 99 115 122 104 118 122 104 118 122 104 118 122 104 118 121 105 118 121 105 118 121 105 118 119 105 118 85 71 84 55 43 55 25 13 25 17 5 17 25 15 26 28 18 29 14 4 15 3 0 7 8 8 18 5 9 18 5 9 18 5 9 18 5 9 18 5 9 18 5 9 18 5 9 18 5 9 18 5 9 18 5 9 18 5 9 18 5 9 18 5 9 18 5 9 18 5 9 18 0 5 11 1 8 14 7 14 20 15 22 28 23 30 36 30 37 43 36 43 49 39 46 52 52 59 65 53 60 66 54 61 67 56 63 69 58 65 71 60 67 73 62 69 75 63 70 76 68 76 79 70 78 81 75 83 86 82 90 93 88 96 99 95 103 106 100 108 111 102 110 113 111 119 122 107 115 118 100 108 111 90 98 101 80 88 91 70 78 81 63 71 74 59 67 70 61 66 69 58 63 66 52 57 60 44 49 52 36 41 44 28 33 36 22 27 30 19 24 27 21 26 29 19 24 27 17 22 25 14 19 22 10 15 18 7 12 15 5 10 13 1 9 11 9 17 19 9 17 19 9 17 19 9 17 19 9 17 19 9 17 19 9 17 19 9 17 19 20 28 30 20 28 30 20 28 30 20 28 30 20 28 30 20 28 30 20 28 30 20 28 30 31 36 39 31 37 37 32 36 37 31 37 37 32 36 37 31 37 37 32 36 37 31 37 37 35 39 40 34 40 40 35 39 40 34 40 40 35 39 40 34 40 40 35 39 40 37 38 40 34 32 33 36 32 31 36 32 31 36 32 31 36 32 31 36 32 31 36 32 31 36 32 31 36 32 31 36 32 31 36 32 31 36 32 31 36 32 31 36 32 31 36 32 31 37 31 31 38 33 30 38 33 30 40 32 30 38 33 30 40 32 30 38 33 30 40 32 30 38 33 30 40 32 30 38 33 30 40 32 30 38 33 30 40 32 30 38 33 30 40 32 30 38 33 30
116 97 116 111 94 112 108 89 108 105 88 106 112 93 112 112 95 113 116 97 116 118 101 119 122 103 122 125 108 126 128 109 128 129 110 129 118 97 114 118 97 114 119 96 114 118 97 114 119 96 114 118 97 114 119 96 114 118 97 114 129 106 124 128 107 124 129 106 124 128 107 124 129 106 124 128 107 124 129 106 124 129 106 124 111 88 106 116 93 111 123 100 118 125 104 121 121 103 119 113 96 112 101 87 102 94 82 96 39 31 44 35 29 41 27 24 35 18 16 27 9 9 19 0 2 11 0 0 9 0 0 9 6 10 19 4 11 19 4 11 19 4 11 19 4 11 19 4 11 19 4 11 19 4 11 19 0 5 13 0 6 14 1 8 16 5 12 20 8 15 23 11 18 26 14 21 29 15 22 30 30 34 43 31 35 44 33 37 46 37 41 50 40 44 53 43 47 56 46 50 59 47 51 60 46 50 59 47 51 60 49 53 62 53 57 66 56 60 69 59 63 72 62 66 75 63 68 74 71 76 80 73 78 81 75 80 83 78 83 86 82 87 90 85 90 93 87 92 95 89 94 97 110 115 118 110 115 118 110 115 118 110 115 118 110 115 118 110 115 118 110 115 118 110 115 118 86 94 97 82 90 93 74 82 85 65 73 76 54 62 65 45 53 56 38 46 49 34 42 45 1 9 12 10 18 21 23 31 34 32 40 43 32 40 43 23 31 34 10 18 21 1 9 12 14 22 25 13 23 25 13 23 25 13 23 25 13 23 25 13 23 25 13 23 25 13 23 25 8 18 20 10 20 22 12 22 24 15 25 27 19 29 31 22 32 34 24 34 36 27 35 37 24 32 34 24 32 34 26 31 34 24 32 34 26 31 34 24 32 34 26 31 34 24 32 34 24 29 32 22 30 32 24 29 32 22 30 32 24 29 32 22 30 32 24 29 32 25 29 30 30 28 29 33 27 27 33 27 27 33 27 27 33 27 27 33 27 27 33 27 27 33 27 27 36 30 30 36 30 30 36 30 30 36 30 30 36 30 30 36 30 30 36 30 30 36 30 30 39 31 29 39 31 29 40 30 29 39 31 29 40 30 29 39 31 29 40 30 29 39 31 29 41 31 30 40 32 30 41 31 30 40 32 30 41 31 30 40 32 30 41 31 30 40 32 30
118 99 118 114 95 114 111 92 111 110 91 110 106 87 106 108 89 108 110 91 110 113 94 113 117 98 117 120 101 120 122 103 122 124 105 124 121 98 116 121 98 116 121 98 116 121 98 116 121 98 116 121 98 116 121 98 116 121 98 116 129 106 124 129 106 124 129 106 124 129 106 124 129 106 124 129 106 124 129 106 124 129 106 124 115 88 107 117 92 111 123 98 117 124 103 120 122 101 118 110 93 109 98 84 99 90 79 93 36 30 42 30 28 39 24 24 34 14 18 27 6 10 19 0 5 12 0 2 9 0 3 9 4 11 19 4 11 19 4 11 19 4 11 19 4 11 19 4 11 19 4 11 19 4 11 19 0 6 14 0 7 15 3 10 18 6 13 21 9 16 24 13 20 28 15 22 30 16 23 31 31 35 44 32 36 45 35 39 48 38 42 51 41 45 54 45 49 58 47 51 60 48 52 61 47 51 60 48 52 61 51 55 64 54 58 67 57 61 70 61 65 74 63 67 76 64 69 75 71 76 80 73 78 81 75 80 83 78 83 86 82 87 90 85 90 93 87 92 95 89 94 97 110 115 118 110 115 118 110 115 118 110 115 118 110 115 118 110 115 118 110 115 118 110 115 118 88 96 99 84 92 95 77 85 88 67 75 78 57 65 68 48 56 59 40 48 51 36 44 47 5 13 16 12 20 23 23 31 34 31 39 42 31 39 42 23 31 34 12 20 23 5 13 16 13 23 25 13 23 25 13 23 25 13 23 25 13 23 25 13 23 25 13 23 25 13 23 25 8 18 20 10 20 22 12 22 24 15 25 27 19 29 31 22 32 34 24 34 36 26 36 38 24 32 34 24 32 34 24 32 34 24 32 34 24 32 34 24 32 34 24 32 34 24 32 34 22 30 32 22 30 32 22 30 32 22 30 32 22 30 32 22 30 32 22 30 32 25 29 30 30 28 29 33 27 27 33 27 27 33 27 27 33 27 27 33 27 27 33 27 27 33 27 27 36 30 30 36 30 30 36 30 30 36 30 30 36 30 30 36 30 30 36 30 30 36 30 30 40 30 29 40 30 29 40 30 29 40 30 29 40 30 29 40 30 29 40 30 29 40 30 29 41 31 30 41 31 30 41 31 30 41 31 30 41 31 30 41 31 30 41 31 30 40 32 30
110 91 110 108 89 108 106 87 106 105 86 105 98 79 98 100 81 100 102 83 102 105 86 105 109 90 109 112 93 112 114 95 114 116 97 116 123 100 118 123 100 118 123 100 118 123 100 118 123 100 118 123 100 118 123 100 118 123 100 118 129 106 124 129 106 124 129 106 124 129 106 124 129 106 124 129 106 124 129 106 124 129 106 124 116 89 108 118 93 112 123 98 117 123 102 119 118 97 114 106 89 105 93 79 94 84 73 87 32 26 38 27 25 36 22 22 32 13 17 26 7 11 20 0 7 14 0 3 10 0 3 9 4 11 19 4 11 19 4 11 19 4 11 19 4 11 19 4 11 19 4 11 19 4 11 19 1 8 16 3 10 18 5 12 20 8 15 23 12 19 27 15 22 30 17 24 32 19 26 34 33 37 46 35 39 48 37 41 50 40 44 53 44 48 57 47 51 60 49 53 62 51 55 64 49 53 62 51 55 64 53 57 66 56 60 69 60 64 73 63 67 76 65 69 78 67 72 78 71 76 80 73 78 81 75 80 83 78 83 86 82 87 90 85 90 93 87 92 95 89 94 97 110 115 118 110 115 118 110 115 118 110 115 118 110 115 118 110 115 118 110 115 118 110 115 118 93 101 104 89 97 100 82 90 93 72 80 83 62 70 73 52 60 63 45 53 56 41 49 52 11 19 22 16 24 27 24 32 35 29 37 40 29 37 40 24 32 35 16 24 27 11 19 22 13 23 25 13 23 25 13 23 25 13 23 25 13 23 25 13 23 25 13 23 25 13 23 25 8 18 20 10 20 22 12 22 24 15 25 27 19 29 31 22 32 34 24 34 36 26 36 38 24 32 34 24 32 34 24 32 34 24 32 34 24 32 34 24 32 34 24 32 34 24 32 34 22 30 32 22 30 32 22 30 32 22 30 32 22 30 32 22 30 32 22 30 32 25 29 30 30 28 29 33 27 27 33 27 27 33 27 27 33 27 27 33 27 27 33 27 27 33 27 27 36 30 30 36 30 30 36 30 30 36 30 30 36 30 30 36 30 30 36 30 30 36 30 30 40 30 29 40 30 29 40 30 29 40 30 29 40 30 29 40 30 29 40 30 29 40 30 29 41 31 30 41 31 30 41 31 30 41 31 30 41 31 30 41 31 30 41 31 30 40 32 30
