P3
172 37
255
121 110 126 121 110 126 121 110 126 121 110 126 119 108 124 119 108 124 119 108 124 119 108 124 119 108 124 119 108 124 119 108 124 119 108 124 122 108 123 122 108 123 122 108 123 122 108 123 122 108 123 122 108 123 122 108 123 122 108 123 124 110 125 124 110 125 124 110 125 124 110 125 124 110 125 124 110 125 124 110 125 124 110 123 113 95 109 113 95 107 113 95 107 113 95 107 113 95 107 113 95 107 113 95 107 113 95 107 98 80 92 95 77 89 90 72 84 84 66 78 77 59 71 70 52 64 66 48 60 62 46 57 50 36 49 49 37 49 49 37 49 49 37 49 49 37 49 49 37 49 49 37 49 49 37 49 34 22 34 34 22 34 34 22 34 34 22 34 34 22 34 34 22 34 34 22 34 33 23 34 18 8 19 16 8 19 16 8 19 16 8 19 16 8 19 16 8 19 16 8 19 16 8 19 11 3 14 11 3 14 11 3 14 11 3 14 11 3 14 11 3 14 11 3 14 10 5 12 6 3 10 5 4 9 5 4 9 5 4 9 5 4 9 5 4 9 5 4 9 5 4 9 10 9 14 10 9 14 10 9 14 10 9 14 10 9 14 10 9 14 10 9 14 10 9 14 8 9 13 8 9 13 8 9 13 8 9 13 8 9 13 8 9 13 8 9 13 8 9 13 2 3 7 2 3 7 2 3 7 2 3 7 2 3 7 2 3 7 2 3 7 2 3 7 1 5 6 1 5 6 1 5 6 1 5 6 1 5 6 1 5 6 1 5 6 1 5 6 12 16 17 12 16 17 12 16 17 12 16 17 12 16 17 12 16 17 12 16 17 12 16 17 20 24 23 22 26 25 27 31 30 34 38 37 40 44 43 47 51 50 52 56 55 54 58 57 88 92 91 95 99 98 105 109 108 114 118 117 117 121 120 115 119 118 109 113 112 107 109 108 66 66 66 60 58 59 50 48 49 41 39 40 38 36 37 40 38 39 46 44 45 50 48 49 42 40 41 42 40 41 42 40 41 42 40 41 42 40 41 42 40 41 42 40 41 42 40 41 39 38 36 39 38 36 39 38 36 39 38 36 39 38 36 39 38 36 39 38 36 39 38 36 43 42 40 43 42 40 43 42 40 43 42 40 43 42 40 43 42 40 43 42 40 43 42 40
122 109 126 122 109 126 122 109 126 122 109 126 120 107 124 120 107 124 120 107 124 120 107 124 120 107 124 120 107 124 120 107 124 120 107 124 122 108 123 124 107 123 124 107 123 124 107 123 124 107 123 124 107 123 124 107 123 124 107 123 126 109 125 126 109 125 126 109 125 126 109 125 126 109 125 126 109 125 126 109 125 126 109 125 110 94 107 110 94 105 110 94 107 110 94 105 110 94 107 110 94 105 110 94 107 110 94 105 94 78 91 91 75 86 86 70 83 80 64 75 73 57 70 67 51 62 62 46 59 57 43 56 47 35 49 46 35 49 46 35 49 46 35 49 46 35 49 46 35 49 46 35 49 46 35 49 31 20 34 31 20 34 31 20 34 31 20 34 31 20 34 31 20 34 31 20 34 29 21 34 11 5 15 11 5 15 11 5 15 11 5 15 11 5 15 11 5 15 11 5 15 11 5 15 8 2 12 8 2 12 8 2 12 8 2 12 8 2 12 8 2 12 8 2 12 6 3 12 3 2 8 2 3 8 2 3 8 2 3 8 2 3 8 2 3 8 2 3 8 2 3 8 9 10 15 9 10 15 9 10 15 9 10 15 9 10 15 9 10 15 9 10 15 9 10 15 8 9 13 8 9 13 8 9 13 8 9 13 8 9 13 8 9 13 8 9 13 8 9 13 2 3 7 2 3 7 2 3 7 2 3 7 2 3 7 2 3 7 2 3 7 2 3 7 1 5 6 1 5 6 1 5 6 1 5 6 1 5 6 1 5 6 1 5 6 1 5 6 12 16 17 12 16 17 12 16 17 12 16 17 12 16 17 12 16 17 12 16 17 12 16 17 20 24 23 22 26 25 27 31 30 34 38 37 40 44 43 47 51 50 52 56 55 54 58 57 88 92 91 95 99 98 105 109 108 114 118 117 117 121 120 115 119 118 109 113 112 107 109 108 66 66 66 60 59 57 50 48 49 41 40 38 38 36 37 40 39 37 46 44 45 50 49 47 42 40 41 42 41 39 42 40 41 42 41 39 42 40 41 42 41 39 42 40 41 42 41 39 39 38 36 39 38 36 39 38 36 39 38 36 39 38 36 39 38 36 39 38 36 39 38 36 43 42 40 43 42 40 43 42 40 43 42 40 43 42 40 43 42 40 43 42 40 43 42 40
122 107 126 122 107 126 122 107 126 122 107 126 122 107 126 122 107 126 122 107 126 122 107 126 122 107 126 122 107 126 122 107 126 124 107 125 129 111 127 129 111 127 129 111 127 129 111 127 129 111 127 129 111 127 129 111 127 129 111 127 127 109 125 127 109 125 127 109 125 127 109 125 127 109 125 127 109 125 127 109 125 127 109 125 116 102 117 115 101 114 114 100 115 112 98 111 110 96 111 108 94 107 106 92 107 105 91 104 91 77 92 87 73 86 79 65 80 68 54 67 56 42 57 45 31 44 37 23 38 32 20 34 22 14 29 21 14 30 21 14 30 21 14 30 21 14 30 21 14 30 21 14 30 21 14 30 8 1 17 8 1 17 8 1 17 8 1 17 8 1 17 8 1 17 8 1 17 6 2 16 6 4 15 5 5 15 5 5 15 5 5 15 5 5 15 5 5 15 5 5 15 5 5 15 8 8 18 8 8 18 8 8 18 8 8 18 8 8 18 8 8 18 8 8 18 8 8 18 5 8 15 5 8 15 5 8 15 5 8 15 5 8 15 5 8 15 5 8 15 5 8 15 7 10 17 7 10 17 7 10 17 7 10 17 7 10 17 7 10 17 7 10 17 7 10 17 5 8 13 5 9 12 5 9 12 5 9 12 5 9 12 5 9 12 5 9 12 5 9 12 0 2 5 0 2 5 0 2 5 0 2 5 0 2 5 0 2 5 0 2 5 0 2 5 0 4 7 0 4 7 0 4 7 0 4 7 0 4 7 0 4 7 0 4 7 0 4 7 6 10 13 8 12 15 10 14 17 13 17 20 17 21 24 20 24 27 22 26 29 24 28 29 30 36 34 32 38 34 37 43 39 44 50 46 50 56 52 57 63 59 62 68 64 64 70 66 82 88 84 89 95 91 100 106 102 109 115 111 112 118 114 110 116 112 104 110 106 101 106 102 75 75 73 68 67 63 55 54 52 43 42 38 36 35 33 35 34 30 38 37 35 41 40 36 41 40 38 41 40 36 41 40 38 41 40 36 41 40 38 41 40 36 41 40 38 41 40 38 39 38 36 39 38 36 39 38 36 39 38 36 39 38 36 39 38 36 39 38 36 39 38 36 38 37 35 38 37 35 38 37 35 38 37 35 38 37 35 38 37 35 38 37 35 38 37 35
124 107 126 124 107 126 124 107 126 124 107 126 124 107 126 124 107 126 124 107 126 124 107 126 124 107 126 124 107 126 124 107 126 124 107 125 131 110 129 131 110 127 131 110 127 131 110 127 131 110 127 131 110 127 131 110 127 131 110 127 129 108 125 129 108 125 129 108 125 129 108 125 129 108 125 129 108 125 129 108 125 127 109 125 116 102 117 114 102 116 112 100 114 110 98 112 107 95 109 104 92 106 102 90 104 101 89 103 85 73 87 80 68 82 73 61 75 63 51 65 52 40 54 41 29 43 34 22 36 29 18 34 19 12 28 17 13 30 17 13 30 17 13 30 17 13 30 17 13 30 17 13 30 17 13 30 6 2 19 6 2 19 6 2 19 6 2 19 6 2 19 6 2 19 6 2 19 5 3 17 5 5 17 3 6 15 3 6 15 3 6 15 3 6 15 3 6 15 3 6 15 3 6 15 6 9 18 6 9 18 6 9 18 6 9 18 6 9 18 6 9 18 6 9 18 6 9 18 4 8 17 4 8 17 4 8 17 4 8 17 4 8 17 4 8 17 4 8 17 4 8 17 6 10 19 6 10 19 6 10 19 6 10 19 6 10 19 6 10 19 6 10 19 6 11 17 5 8 13 5 9 12 5 9 12 5 9 12 5 9 12 5 9 12 5 9 12 5 9 12 0 2 5 0 2 5 0 2 5 0 2 5 0 2 5 0 2 5 0 2 5 0 2 5 0 4 7 0 4 7 0 4 7 0 4 7 0 4 7 0 4 7 0 4 7 0 4 7 6 10 13 8 12 15 10 14 17 13 17 20 17 21 24 20 24 27 22 26 29 24 28 29 30 36 34 32 38 34 37 43 39 44 50 46 50 56 52 57 63 59 62 68 64 64 70 66 81 87 83 88 94 90 98 104 100 107 113 109 111 117 113 108 114 110 103 109 105 99 104 100 75 76 71 68 67 63 55 54 50 43 42 38 36 35 31 35 34 30 38 37 33 41 40 36 41 40 36 41 40 36 41 40 36 41 40 36 41 40 36 41 40 36 41 40 36 41 40 36 39 38 36 39 38 36 39 38 36 39 38 36 39 38 36 39 38 36 39 38 36 39 38 36 38 37 35 38 37 35 38 37 35 38 37 35 38 37 35 38 37 35 38 37 35 38 37 35
124 107 126 124 107 126 124 107 126 124 107 126 124 107 126 124 107 126 124 107 126 124 107 126 124 107 126 124 107 126 124 107 126 124 107 125 131 110 129 131 110 127 131 110 127 131 110 127 131 110 127 131 110 127 131 110 127 131 110 127 129 108 125 129 108 125 129 108 125 129 108 125 129 108 125 129 108 125 129 108 125 127 109 125 117 103 118 115 103 117 112 100 114 108 96 110 104 92 106 100 88 102 97 85 99 95 83 97 74 62 76 70 58 72 63 51 65 55 43 57 45 33 47 36 24 38 29 17 31 25 14 30 17 10 26 15 11 28 15 11 28 15 11 28 15 11 28 15 11 28 15 11 28 15 11 28 6 2 19 6 2 19 6 2 19 6 2 19 6 2 19 6 2 19 6 2 19 5 3 17 5 5 17 3 6 15 3 6 15 3 6 15 3 6 15 3 6 15 3 6 15 3 6 15 6 9 18 6 9 18 6 9 18 6 9 18 6 9 18 6 9 18 6 9 18 6 9 18 4 8 17 4 8 17 4 8 17 4 8 17 4 8 17 4 8 17 4 8 17 4 8 17 6 10 19 6 10 19 6 10 19 6 10 19 6 10 19 6 10 19 6 10 19 6 11 17 5 8 13 5 9 12 5 9 12 5 9 12 5 9 12 5 9 12 5 9 12 5 9 12 0 2 5 0 2 5 0 2 5 0 2 5 0 2 5 0 2 5 0 2 5 0 2 5 0 4 7 0 4 7 0 4 7 0 4 7 0 4 7 0 4 7 0 4 7 0 4 7 6 10 13 8 12 15 10 14 17 13 17 20 17 21 24 20 24 27 22 26 29 24 28 29 30 36 34 32 38 34 37 43 39 44 50 46 50 56 52 57 63 59 62 68 64 64 70 66 79 85 81 86 92 88 96 102 98 105 111 107 108 114 110 106 112 108 100 106 102 97 102 98 75 76 71 68 67 63 55 54 50 43 42 38 36 35 31 35 34 30 38 37 33 41 40 36 41 40 36 41 40 36 41 40 36 41 40 36 41 40 36 41 40 36 41 40 36 41 40 36 39 38 36 39 38 36 39 38 36 39 38 36 39 38 36 39 38 36 39 38 36 39 38 36 38 37 35 38 37 35 38 37 35 38 37 35 38 37 35 38 37 35 38 37 35 38 37 35
124 107 126 124 107 126 124 107 126 124 107 126 124 107 126 124 107 126 124 107 126 124 107 126 124 107 126 124 107 126 124 107 126 124 107 125 131 110 129 131 110 127 131 110 127 131 110 127 131 110 127 131 110 127 131 110 127 131 110 127 129 108 125 129 108 125 129 108 125 129 108 125 129 108 125 129 108 125 129 108 125 127 109 125 119 105 120 115 103 117 111 99 113 106 94 108 100 88 102 94 82 96 90 78 92 88 76 90 60 48 62 57 45 59 51 39 53 44 32 46 36 24 38 29 17 31 23 11 25 19 8 24 14 7 23 12 8 25 12 8 25 12 8 25 12 8 25 12 8 25 12 8 25 12 8 25 6 2 19 6 2 19 6 2 19 6 2 19 6 2 19 6 2 19 6 2 19 5 3 17 5 5 17 3 6 15 3 6 15 3 6 15 3 6 15 3 6 15 3 6 15 3 6 15 6 9 18 6 9 18 6 9 18 6 9 18 6 9 18 6 9 18 6 9 18 6 9 18 4 8 17 4 8 17 4 8 17 4 8 17 4 8 17 4 8 17 4 8 17 4 8 17 6 10 19 6 10 19 6 10 19 6 10 19 6 10 19 6 10 19 6 10 19 6 11 17 5 8 13 5 9 12 5 9 12 5 9 12 5 9 12 5 9 12 5 9 12 5 9 12 0 2 5 0 2 5 0 2 5 0 2 5 0 2 5 0 2 5 0 2 5 0 2 5 0 4 7 0 4 7 0 4 7 0 4 7 0 4 7 0 4 7 0 4 7 0 4 7 6 10 13 8 12 15 10 14 17 13 17 20 17 21 24 20 24 27 22 26 29 24 28 29 30 36 34 32 38 34 37 43 39 44 50 46 50 56 52 57 63 59 62 68 64 64 70 66 75 81 77 82 88 84 93 99 95 102 108 104 105 111 107 103 109 105 97 103 99 94 99 95 75 76 71 68 67 63 55 54 50 43 42 38 36 35 31 35 34 30 38 37 33 41 40 36 41 40 36 41 40 36 41 40 36 41 40 36 41 40 36 41 40 36 41 40 36 41 40 36 39 38 36 39 38 36 39 38 36 39 38 36 39 38 36 39 38 36 39 38 36 39 38 36 38 37 35 38 37 35 38 37 35 38 37 35 38 37 35 38 37 35 38 37 35 38 37 35
124 107 126 124 107 126 124 107 126 124 107 126 124 107 126 124 107 126 124 107 126 124 107 126 124 107 126 124 107 126 124 107 126 124 107 125 131 110 129 131 110 127 131 110 127 131 110 127 131 110 127 131 110 127 131 110 127 131 110 127 129 108 125 129 108 125 129 108 125 129 108 125 129 108 125 129 108 125 129 108 125 127 109 125 120 106 121 116 104 118 110 98 112 103 91 105 95 83 97 88 76 90 83 71 85 80 68 82 45 33 47 42 30 44 38 26 40 33 21 35 27 15 29 21 9 23 17 5 19 14 3 19 10 3 19 8 4 21 8 4 21 8 4 21 8 4 21 8 4 21 8 4 21 8 4 21 6 2 19 6 2 19 6 2 19 6 2 19 6 2 19 6 2 19 6 2 19 5 3 17 5 5 17 3 6 15 3 6 15 3 6 15 3 6 15 3 6 15 3 6 15 3 6 15 6 9 18 6 9 18 6 9 18 6 9 18 6 9 18 6 9 18 6 9 18 6 9 18 4 8 17 4 8 17 4 8 17 4 8 17 4 8 17 4 8 17 4 8 17 4 8 17 6 10 19 6 10 19 6 10 19 6 10 19 6 10 19 6 10 19 6 10 19 6 11 17 5 8 13 5 9 12 5 9 12 5 9 12 5 9 12 5 9 12 5 9 12 5 9 12 0 2 5 0 2 5 0 2 5 0 2 5 0 2 5 0 2 5 0 2 5 0 2 5 0 4 7 0 4 7 0 4 7 0 4 7 0 4 7 0 4 7 0 4 7 0 4 7 6 10 13 8 12 15 10 14 17 13 17 20 17 21 24 20 24 27 22 26 29 24 28 29 30 36 34 32 38 34 37 43 39 44 50 46 50 56 52 57 63 59 62 68 64 64 70 66 72 78 74 79 85 81 89 95 91 98 104 100 102 108 104 99 105 101 94 100 96 90 95 91 75 76 71 68 67 63 55 54 50 43 42 38 36 35 31 35 34 30 38 37 33 41 40 36 41 40 36 41 40 36 41 40 36 41 40 36 41 40 36 41 40 36 41 40 36 41 40 36 39 38 36 39 38 36 39 38 36 39 38 36 39 38 36 39 38 36 39 38 36 39 38 36 38 37 35 38 37 35 38 37 35 38 37 35 38 37 35 38 37 35 38 37 35 38 37 35
124 107 126 124 107 126 124 107 126 124 107 126 124 107 126 124 107 126 124 107 126 124 107 126 124 107 126 124 107 126 124 107 126 124 107 125 131 110 129 131 110 127 131 110 127 131 110 127 131 110 127 131 110 127 131 110 127 131 110 127 129 108 125 129 108 125 129 108 125 129 108 125 129 108 125 129 108 125 129 108 125 127 109 125 121 107 122 117 105 119 110 98 112 101 89 103 91 79 93 82 70 84 76 64 78 72 60 74 31 19 33 29 17 31 26 14 28 22 10 24 18 6 20 14 2 16 11 0 13 9 0 14 7 0 16 5 1 18 5 1 18 5 1 18 5 1 18 5 1 18 5 1 18 5 1 18 6 2 19 6 2 19 6 2 19 6 2 19 6 2 19 6 2 19 6 2 19 5 3 17 5 5 17 3 6 15 3 6 15 3 6 15 3 6 15 3 6 15 3 6 15 3 6 15 6 9 18 6 9 18 6 9 18 6 9 18 6 9 18 6 9 18 6 9 18 6 9 18 4 8 17 4 8 17 4 8 17 4 8 17 4 8 17 4 8 17 4 8 17 4 8 17 6 10 19 6 10 19 6 10 19 6 10 19 6 10 19 6 10 19 6 10 19 6 11 17 5 8 13 5 9 12 5 9 12 5 9 12 5 9 12 5 9 12 5 9 12 5 9 12 0 2 5 0 2 5 0 2 5 0 2 5 0 2 5 0 2 5 0 2 5 0 2 5 0 4 7 0 4 7 0 4 7 0 4 7 0 4 7 0 4 7 0 4 7 0 4 7 6 10 13 8 12 15 10 14 17 13 17 20 17 21 24 20 24 27 22 26 29 24 28 29 30 36 34 32 38 34 37 43 39 44 50 46 50 56 52 57 63 59 62 68 64 64 70 66 69 75 71 76 82 78 86 92 88 95 101 97 98 104 100 96 102 98 90 96 92 87 92 88 75 76 71 68 67 63 55 54 50 43 42 38 36 35 31 35 34 30 38 37 33 41 40 36 41 40 36 41 40 36 41 40 36 41 40 36 41 40 36 41 40 36 41 40 36 41 40 36 39 38 36 39 38 36 39 38 36 39 38 36 39 38 36 39 38 36 39 38 36 39 38 36 38 37 35 38 37 35 38 37 35 38 37 35 38 37 35 38 37 35 38 37 35 38 37 35
124 107 126 124 107 126 124 107 126 124 107 126 124 107 126 124 107 126 124 107 126 124 107 126 124 107 126 124 107 126 124 107 126 124 107 125 131 110 129 131 110 127 131 110 127 131 110 127 131 110 127 131 110 127 131 110 127 131 110 127 129 108 125 129 108 125 129 108 125 129 108 125 129 108 125 129 108 125 129 108 125 127 109 125 122 108 123 117 105 119 109 97 111 99 87 101 88 76 90 78 66 80 70 58 72 66 54 68 20 8 22 19 7 21 17 5 19 14 2 16 12 0 14 9 0 11 7 0 9 6 0 11 5 0 14 3 0 16 3 0 16 3 0 16 3 0 16 3 0 16 3 0 16 3 0 16 6 2 19 6 2 19 6 2 19 6 2 19 6 2 19 6 2 19 6 2 19 5 3 17 5 5 17 3 6 15 3 6 15 3 6 15 3 6 15 3 6 15 3 6 15 3 6 15 6 9 18 6 9 18 6 9 18 6 9 18 6 9 18 6 9 18 6 9 18 6 9 18 4 8 17 4 8 17 4 8 17 4 8 17 4 8 17 4 8 17 4 8 17 4 8 17 6 10 19 6 10 19 6 10 19 6 10 19 6 10 19 6 10 19 6 10 19 6 11 17 5 8 13 5 9 12 5 9 12 5 9 12 5 9 12 5 9 12 5 9 12 5 9 12 0 2 5 0 2 5 0 2 5 0 2 5 0 2 5 0 2 5 0 2 5 0 2 5 0 4 7 0 4 7 0 4 7 0 4 7 0 4 7 0 4 7 0 4 7 0 4 7 6 10 13 8 12 15 10 14 17 13 17 20 17 21 24 20 24 27 22 26 29 24 28 29 30 36 34 32 38 34 37 43 39 44 50 46 50 56 52 57 63 59 62 68 64 64 70 66 66 72 68 73 79 75 84 90 86 93 99 95 96 102 98 94 100 96 88 94 90 85 90 86 75 76 71 68 67 63 55 54 50 43 42 38 36 35 31 35 34 30 38 37 33 41 40 36 41 40 36 41 40 36 41 40 36 41 40 36 41 40 36 41 40 36 41 40 36 41 40 36 39 38 36 39 38 36 39 38 36 39 38 36 39 38 36 39 38 36 39 38 36 39 38 36 38 37 35 38 37 35 38 37 35 38 37 35 38 37 35 38 37 35 38 37 35 38 37 35
124 107 126 124 107 126 124 107 126 124 107 126 124 107 126 124 107 126 124 107 126 124 107 126 124 107 126 124 107 126 124 107 126 124 107 125 131 110 129 131 110 127 131 110 127 131 110 127 131 110 127 131 110 127 131 110 127 131 110 127 129 108 125 129 108 125 129 108 125 129 108 125 129 108 125 129 108 125 129 108 125 127 109 125 123 109 124 117 105 119 109 97 111 98 86 100 87 75 89 76 64 78 67 55 69 63 51 65 14 2 16 14 2 16 12 0 14 10 0 12 8 0 10 7 0 9 7 0 9 6 0 11 3 0 12 1 0 14 1 0 14 1 0 14 1 0 14 1 0 14 1 0 14 1 0 14 6 2 19 6 2 19 6 2 19 6 2 19 6 2 19 6 2 19 6 2 19 5 3 17 5 5 17 3 6 15 3 6 15 3 6 15 3 6 15 3 6 15 3 6 15 3 6 15 6 9 18 6 9 18 6 9 18 6 9 18 6 9 18 6 9 18 6 9 18 6 9 18 4 8 17 4 8 17 4 8 17 4 8 17 4 8 17 4 8 17 4 8 17 4 8 17 6 10 19 6 10 19 6 10 19 6 10 19 6 10 19 6 10 19 6 10 19 6 11 17 5 8 13 5 9 12 5 9 12 5 9 12 5 9 12 5 9 12 5 9 12 5 9 12 0 2 5 0 2 5 0 2 5 0 2 5 0 2 5 0 2 5 0 2 5 0 2 5 0 4 7 0 4 7 0 4 7 0 4 7 0 4 7 0 4 7 0 4 7 0 4 7 6 10 13 8 12 15 10 14 17 13 17 20 17 21 24 20 24 27 22 26 29 24 28 29 30 36 34 32 38 34 37 43 39 44 50 46 50 56 52 57 63 59 62 68 64 64 70 66 65 71 67 72 78 74 82 88 84 91 97 93 95 101 97 92 98 94 87 93 89 83 88 84 75 76 71 68 67 63 55 54 50 43 42 38 36 35 31 35 34 30 38 37 33 41 40 36 41 40 36 41 40 36 41 40 36 41 40 36 41 40 36 41 40 36 41 40 36 41 40 36 39 38 36 39 38 36 39 38 36 39 38 36 39 38 36 39 38 36 39 38 36 39 38 36 38 37 35 38 37 35 38 37 35 38 37 35 38 37 35 38 37 35 38 37 35 38 37 35
116 99 118 116 99 118 116 99 118 116 99 118 115 98 117 115 98 117 115 98 117 115 98 117 115 98 117 115 98 117 115 98 117 115 98 116 117 96 115 117 96 113 117 96 113 117 96 113 117 96 113 117 96 113 117 96 113 117 96 113 128 107 124 128 107 124 126 105 122 124 103 120 122 101 118 120 99 116 118 97 114 116 98 114 113 99 114 106 94 108 94 82 96 79 67 81 62 50 64 47 35 49 36 24 38 29 17 31 13 1 15 13 1 15 13 1 15 13 1 15 13 1 15 13 1 15 13 1 15 12 1 17 8 1 17 6 2 19 6 2 19 6 2 19 6 2 19 6 2 19 6 2 19 6 2 19 7 3 20 7 3 20 7 3 20 7 3 20 7 3 20 7 3 20 7 3 20 6 4 18 7 7 19 5 8 17 5 8 17 5 8 17 5 8 17 5 8 17 5 8 17 5 8 17 8 11 20 8 11 20 8 11 20 8 11 20 8 11 20 8 11 20 8 11 20 8 11 20 4 8 17 4 8 17 4 8 17 4 8 17 4 8 17 4 8 17 4 8 17 4 8 17 5 9 18 5 9 18 5 9 18 5 9 18 5 9 18 5 9 18 5 9 18 5 10 16 8 11 16 8 12 15 8 12 15 8 12 15 8 12 15 8 12 15 8 12 15 8 12 15 0 4 7 0 4 7 0 4 7 0 4 7 0 4 7 0 4 7 0 4 7 0 4 7 1 5 8 1 5 8 1 5 8 1 5 8 1 5 8 1 5 8 1 5 8 1 5 8 9 13 16 11 15 18 13 17 20 16 20 23 20 24 27 23 27 30 25 29 32 27 31 32 40 46 44 42 48 44 44 50 46 47 53 49 51 57 53 54 60 56 56 62 58 58 64 60 82 88 84 82 88 84 82 88 84 82 88 84 82 88 84 82 88 84 82 88 84 83 88 84 70 71 66 63 62 58 50 49 45 38 37 33 31 30 26 30 29 25 33 32 28 36 35 31 34 33 29 34 33 29 34 33 29 34 33 29 34 33 29 34 33 29 34 33 29 34 33 29 34 33 31 34 33 31 34 33 31 34 33 31 34 33 31 34 33 31 34 33 31 34 33 31 37 36 34 37 36 34 37 36 34 37 36 34 37 36 34 37 36 34 37 36 34 37 36 34
116 99 118 116 99 118 116 99 118 116 99 118 115 98 117 115 98 117 115 98 117 115 98 117 115 98 117 115 98 117 115 98 117 115 98 116 117 96 115 117 96 113 117 96 113 117 96 113 117 96 113 117 96 113 117 96 113 117 96 113 126 105 122 125 104 121 123 102 119 120 99 116 118 97 114 115 94 111 113 92 109 110 92 108 100 86 101 93 81 95 82 70 84 69 57 71 54 42 56 40 28 42 29 17 31 23 11 25 13 1 15 13 1 15 13 1 15 13 1 15 13 1 15 13 1 15 13 1 15 12 1 17 8 1 17 6 2 19 6 2 19 6 2 19 6 2 19 6 2 19 6 2 19 6 2 19 7 3 20 7 3 20 7 3 20 7 3 20 7 3 20 7 3 20 7 3 20 6 4 18 7 7 19 5 8 17 5 8 17 5 8 17 5 8 17 5 8 17 5 8 17 5 8 17 8 11 20 8 11 20 8 11 20 8 11 20 8 11 20 8 11 20 8 11 20 8 11 20 4 8 17 4 8 17 4 8 17 4 8 17 4 8 17 4 8 17 4 8 17 4 8 17 5 9 18 5 9 18 5 9 18 5 9 18 5 9 18 5 9 18 5 9 18 5 10 16 8 11 16 8 12 15 8 12 15 8 12 15 8 12 15 8 12 15 8 12 15 8 12 15 0 4 7 0 4 7 0 4 7 0 4 7 0 4 7 0 4 7 0 4 7 0 4 7 1 5 8 1 5 8 1 5 8 1 5 8 1 5 8 1 5 8 1 5 8 1 5 8 9 13 16 11 15 18 13 17 20 16 20 23 20 24 27 23 27 30 25 29 32 27 31 32 40 46 44 42 48 44 44 50 46 47 53 49 51 57 53 54 60 56 56 62 58 58 64 60 80 86 82 80 86 82 80 86 82 80 86 82 80 86 82 80 86 82 80 86 82 81 86 82 70 71 66 63 62 58 50 49 45 38 37 33 31 30 26 30 29 25 33 32 28 36 35 31 34 33 29 34 33 29 34 33 29 34 33 29 34 33 29 34 33 29 34 33 29 34 33 29 34 33 31 34 33 31 34 33 31 34 33 31 34 33 31 34 33 31 34 33 31 34 33 31 37 36 34 37 36 34 37 36 34 37 36 34 37 36 34 37 36 34 37 36 34 37 36 34
116 99 118 116 99 118 116 99 118 116 99 118 115 98 117 115 98 117 115 98 117 115 98 117 115 98 117 115 98 117 115 98 117 115 98 116 117 96 115 117 96 113 117 96 113 117 96 113 117 96 113 117 96 113 117 96 113 117 96 113 122 101 118 121 100 117 118 97 114 114 93 110 110 89 106 106 85 102 103 82 99 99 81 97 78 64 79 72 60 74 63 51 65 52 40 54 40 28 42 28 16 30 20 8 22 15 3 17 13 1 15 13 1 15 13 1 15 13 1 15 13 1 15 13 1 15 13 1 15 12 1 17 8 1 17 6 2 19 6 2 19 6 2 19 6 2 19 6 2 19 6 2 19 6 2 19 7 3 20 7 3 20 7 3 20 7 3 20 7 3 20 7 3 20 7 3 20 6 4 18 7 7 19 5 8 17 5 8 17 5 8 17 5 8 17 5 8 17 5 8 17 5 8 17 8 11 20 8 11 20 8 11 20 8 11 20 8 11 20 8 11 20 8 11 20 8 11 20 4 8 17 4 8 17 4 8 17 4 8 17 4 8 17 4 8 17 4 8 17 4 8 17 5 9 18 5 9 18 5 9 18 5 9 18 5 9 18 5 9 18 5 9 18 5 10 16 8 11 16 8 12 15 8 12 15 8 12 15 8 12 15 8 12 15 8 12 15 8 12 15 0 4 7 0 4 7 0 4 7 0 4 7 0 4 7 0 4 7 0 4 7 0 4 7 1 5 8 1 5 8 1 5 8 1 5 8 1 5 8 1 5 8 1 5 8 1 5 8 9 13 16 11 15 18 13 17 20 16 20 23 20 24 27 23 27 30 25 29 32 27 31 32 40 46 44 42 48 44 44 50 46 47 53 49 51 57 53 54 60 56 56 62 58 58 64 60 78 84 80 78 84 80 78 84 80 78 84 80 78 84 80 78 84 80 78 84 80 79 84 80 70 71 66 63 62 58 50 49 45 38 37 33 31 30 26 30 29 25 33 32 28 36 35 31 34 33 29 34 33 29 34 33 29 34 33 29 34 33 29 34 33 29 34 33 29 34 33 29 34 33 31 34 33 31 34 33 31 34 33 31 34 33 31 34 33 31 34 33 31 34 33 31 37 36 34 37 36 34 37 36 34 37 36 34 37 36 34 37 36 34 37 36 34 37 36 34
116 99 118 116 99 118 116 99 118 116 99 118 115 98 117 115 98 117 115 98 117 115 98 117 115 98 117 115 98 117 115 98 117 115 98 116 117 96 115 117 96 113 117 96 113 117 96 113 117 96 113 117 96 113 117 96 113 117 96 113 117 96 113 115 94 111 111 90 107 105 84 101 99 78 95 94 73 90 90 69 86 85 67 83 54 40 55 49 37 51 43 31 45 35 23 37 26 14 28 18 6 20 12 0 14 8 0 10 13 1 15 13 1 15 13 1 15 13 1 15 13 1 15 13 1 15 13 1 15 12 1 17 8 1 17 6 2 19 6 2 19 6 2 19 6 2 19 6 2 19 6 2 19 6 2 19 7 3 20 7 3 20 7 3 20 7 3 20 7 3 20 7 3 20 7 3 20 6 4 18 7 7 19 5 8 17 5 8 17 5 8 17 5 8 17 5 8 17 5 8 17 5 8 17 8 11 20 8 11 20 8 11 20 8 11 20 8 11 20 8 11 20 8 11 20 8 11 20 4 8 17 4 8 17 4 8 17 4 8 17 4 8 17 4 8 17 4 8 17 4 8 17 5 9 18 5 9 18 5 9 18 5 9 18 5 9 18 5 9 18 5 9 18 5 10 16 8 11 16 8 12 15 8 12 15 8 12 15 8 12 15 8 12 15 8 12 15 8 12 15 0 4 7 0 4 7 0 4 7 0 4 7 0 4 7 0 4 7 0 4 7 0 4 7 1 5 8 1 5 8 1 5 8 1 5 8 1 5 8 1 5 8 1 5 8 1 5 8 9 13 16 11 15 18 13 17 20 16 20 23 20 24 27 23 27 30 25 29 32 27 31 32 40 46 44 42 48 44 44 50 46 47 53 49 51 57 53 54 60 56 56 62 58 58 64 60 75 81 77 75 81 77 75 81 77 75 81 77 75 81 77 75 81 77 75 81 77 76 81 77 70 71 66 63 62 58 50 49 45 38 37 33 31 30 26 30 29 25 33 32 28 36 35 31 34 33 29 34 33 29 34 33 29 34 33 29 34 33 29 34 33 29 34 33 29 34 33 29 34 33 31 34 33 31 34 33 31 34 33 31 34 33 31 34 33 31 34 33 31 34 33 31 37 36 34 37 36 34 37 36 34 37 36 34 37 36 34 37 36 34 37 36 34 37 36 34
116 99 118 116 99 118 116 99 118 116 99 118 115 98 117 115 98 117 115 98 117 115 98 117 115 98 117 115 98 117 115 98 117 115 98 116 117 96 115 117 96 113 117 96 113 117 96 113 117 96 113 117 96 113 117 96 113 117 96 113 112 91 108 109 88 105 103 82 99 96 75 92 88 67 84 81 60 77 75 54 71 70 52 68 34 20 35 31 19 33 27 15 29 23 11 25 18 6 20 13 1 15 10 0 12 8 0 10 13 1 15 13 1 15 13 1 15 13 1 15 13 1 15 13 1 15 13 1 15 12 1 17 8 1 17 6 2 19 6 2 19 6 2 19 6 2 19 6 2 19 6 2 19 6 2 19 7 3 20 7 3 20 7 3 20 7 3 20 7 3 20 7 3 20 7 3 20 6 4 18 7 7 19 5 8 17 5 8 17 5 8 17 5 8 17 5 8 17 5 8 17 5 8 17 8 11 20 8 11 20 8 11 20 8 11 20 8 11 20 8 11 20 8 11 20 8 11 20 4 8 17 4 8 17 4 8 17 4 8 17 4 8 17 4 8 17 4 8 17 4 8 17 5 9 18 5 9 18 5 9 18 5 9 18 5 9 18 5 9 18 5 9 18 5 10 16 8 11 16 8 12 15 8 12 15 8 12 15 8 12 15 8 12 15 8 12 15 8 12 15 0 4 7 0 4 7 0 4 7 0 4 7 0 4 7 0 4 7 0 4 7 0 4 7 1 5 8 1 5 8 1 5 8 1 5 8 1 5 8 1 5 8 1 5 8 1 5 8 9 13 16 11 15 18 13 17 20 16 20 23 20 24 27 23 27 30 25 29 32 27 31 32 40 46 44 42 48 44 44 50 46 47 53 49 51 57 53 54 60 56 56 62 58 58 64 60 71 77 73 71 77 73 71 77 73 71 77 73 71 77 73 71 77 73 71 77 73 72 77 73 70 71 66 63 62 58 50 49 45 38 37 33 31 30 26 30 29 25 33 32 28 36 35 31 34 33 29 34 33 29 34 33 29 34 33 29 34 33 29 34 33 29 34 33 29 34 33 29 34 33 31 34 33 31 34 33 31 34 33 31 34 33 31 34 33 31 34 33 31 34 33 31 37 36 34 37 36 34 37 36 34 37 36 34 37 36 34 37 36 34 37 36 34 37 36 34
116 99 118 116 99 118 116 99 118 116 99 118 115 98 117 115 98 117 115 98 117 115 98 117 115 98 117 115 98 117 115 98 117 115 98 116 117 96 115 117 96 113 117 96 113 117 96 113 117 96 113 117 96 113 117 96 113 117 96 113 106 85 102 103 82 99 96 75 92 87 66 83 77 56 73 69 48 65 62 41 58 56 38 54 21 7 22 19 7 21 18 6 20 17 5 19 16 4 18 14 2 16 13 1 15 13 1 15 13 1 15 13 1 15 13 1 15 13 1 15 13 1 15 13 1 15 13 1 15 12 1 17 8 1 17 6 2 19 6 2 19 6 2 19 6 2 19 6 2 19 6 2 19 6 2 19 7 3 20 7 3 20 7 3 20 7 3 20 7 3 20 7 3 20 7 3 20 6 4 18 7 7 19 5 8 17 5 8 17 5 8 17 5 8 17 5 8 17 5 8 17 5 8 17 8 11 20 8 11 20 8 11 20 8 11 20 8 11 20 8 11 20 8 11 20 8 11 20 4 8 17 4 8 17 4 8 17 4 8 17 4 8 17 4 8 17 4 8 17 4 8 17 5 9 18 5 9 18 5 9 18 5 9 18 5 9 18 5 9 18 5 9 18 5 10 16 8 11 16 8 12 15 8 12 15 8 12 15 8 12 15 8 12 15 8 12 15 8 12 15 0 4 7 0 4 7 0 4 7 0 4 7 0 4 7 0 4 7 0 4 7 0 4 7 1 5 8 1 5 8 1 5 8 1 5 8 1 5 8 1 5 8 1 5 8 1 5 8 9 13 16 11 15 18 13 17 20 16 20 23 20 24 27 23 27 30 25 29 32 27 31 32 40 46 44 42 48 44 44 50 46 47 53 49 51 57 53 54 60 56 56 62 58 58 64 60 68 74 70 68 74 70 68 74 70 68 74 70 68 74 70 68 74 70 68 74 70 69 74 70 70 71 66 63 62 58 50 49 45 38 37 33 31 30 26 30 29 25 33 32 28 36 35 31 34 33 29 34 33 29 34 33 29 34 33 29 34 33 29 34 33 29 34 33 29 34 33 29 34 33 31 34 33 31 34 33 31 34 33 31 34 33 31 34 33 31 34 33 31 34 33 31 37 36 34 37 36 34 37 36 34 37 36 34 37 36 34 37 36 34 37 36 34 37 36 34
116 99 118 116 99 118 116 99 118 116 99 118 115 98 117 115 98 117 115 98 117 115 98 117 115 98 117 115 98 117 115 98 117 115 98 116 117 96 115 117 96 113 117 96 113 117 96 113 117 96 113 117 96 113 117 96 113 117 96 113 102 81 98 98 77 94 91 70 87 80 59 76 69 48 65 59 38 55 52 31 48 45 27 43 15 1 16 14 2 16 15 3 17 16 4 18 18 6 20 19 7 21 20 8 22 20 8 22 13 1 15 13 1 15 13 1 15 13 1 15 13 1 15 13 1 15 13 1 15 12 1 17 8 1 17 6 2 19 6 2 19 6 2 19 6 2 19 6 2 19 6 2 19 6 2 19 7 3 20 7 3 20 7 3 20 7 3 20 7 3 20 7 3 20 7 3 20 6 4 18 7 7 19 5 8 17 5 8 17 5 8 17 5 8 17 5 8 17 5 8 17 5 8 17 8 11 20 8 11 20 8 11 20 8 11 20 8 11 20 8 11 20 8 11 20 8 11 20 4 8 17 4 8 17 4 8 17 4 8 17 4 8 17 4 8 17 4 8 17 4 8 17 5 9 18 5 9 18 5 9 18 5 9 18 5 9 18 5 9 18 5 9 18 5 10 16 8 11 16 8 12 15 8 12 15 8 12 15 8 12 15 8 12 15 8 12 15 8 12 15 0 4 7 0 4 7 0 4 7 0 4 7 0 4 7 0 4 7 0 4 7 0 4 7 1 5 8 1 5 8 1 5 8 1 5 8 1 5 8 1 5 8 1 5 8 1 5 8 9 13 16 11 15 18 13 17 20 16 20 23 20 24 27 23 27 30 25 29 32 27 31 32 40 46 44 42 48 44 44 50 46 47 53 49 51 57 53 54 60 56 56 62 58 58 64 60 66 72 68 66 72 68 66 72 68 66 72 68 66 72 68 66 72 68 66 72 68 67 72 68 70 71 66 63 62 58 50 49 45 38 37 33 31 30 26 30 29 25 33 32 28 36 35 31 34 33 29 34 33 29 34 33 29 34 33 29 34 33 29 34 33 29 34 33 29 34 33 29 34 33 31 34 33 31 34 33 31 34 33 31 34 33 31 34 33 31 34 33 31 34 33 31 37 36 34 37 36 34 37 36 34 37 36 34 37 36 34 37 36 34 37 36 34 37 36 34
113 100 117 113 100 117 113 100 117 113 100 117 112 99 116 112 99 116 112 99 116 112 99 116 112 99 116 112 99 116 112 99 116 113 99 116 114 97 115 114 97 113 114 97 113 114 97 113 114 97 113 114 97 113 114 97 113 114 97 113 97 80 96 93 76 92 85 68 84 74 57 73 62 45 61 51 34 50 43 26 42 37 23 38 12 0 14 12 1 15 14 3 17 16 5 19 19 8 22 21 10 24 23 12 26 24 13 27 12 1 15 12 1 15 12 1 15 12 1 15 12 1 15 12 1 15 12 1 15 10 2 17 6 2 17 5 3 17 5 3 17 5 3 17 5 3 17 5 3 17 5 3 17 5 3 17 6 4 18 6 4 18 6 4 18 6 4 18 6 4 18 6 4 18 6 4 18 6 4 18 5 7 19 5 8 17 5 8 17 5 8 17 5 8 17 5 8 17 5 8 17 5 8 17 8 11 20 8 11 20 8 11 20 8 11 20 8 11 20 8 11 20 8 11 20 7 11 20 4 8 17 4 8 17 4 8 17 4 8 17 4 8 17 4 8 17 4 8 17 4 8 17 5 9 18 5 9 18 5 9 18 5 9 18 5 9 18 5 9 18 5 9 18 5 10 16 8 11 16 8 12 15 8 12 15 8 12 15 8 12 15 8 12 15 8 12 15 8 12 15 0 4 7 0 4 7 0 4 7 0 4 7 0 4 7 0 4 7 0 4 7 0 4 7 1 5 8 1 5 6 1 5 8 1 5 6 1 5 8 1 5 6 1 5 8 1 5 6 9 13 16 11 15 16 13 17 20 16 20 21 20 24 27 23 27 28 25 29 32 27 31 32 40 46 44 42 48 44 44 50 46 47 53 49 51 57 53 54 60 56 56 62 58 58 64 60 64 70 66 64 70 66 64 70 66 64 70 66 64 70 66 64 70 66 64 70 66 65 70 66 70 71 66 63 62 58 50 49 45 38 37 33 31 30 26 30 29 25 33 32 28 36 35 31 34 33 29 34 33 29 34 33 29 34 33 29 34 33 29 34 33 29 34 33 29 34 33 29 34 33 31 34 33 31 36 32 31 34 33 31 36 32 31 34 33 31 36 32 31 34 33 31 39 35 34 37 36 34 39 35 34 37 36 34 39 35 34 37 36 34 39 35 34 37 36 34
77 71 83 77 71 83 77 71 83 77 71 83 79 73 85 79 73 85 79 73 85 79 73 85 79 73 85 79 73 85 79 73 85 79 73 85 79 71 86 79 71 86 79 71 86 79 71 86 79 71 86 79 71 86 79 71 86 79 71 86 21 13 28 21 13 28 21 13 28 21 13 28 21 13 28 21 13 28 21 13 28 21 13 28 8 2 16 6 2 16 6 2 16 6 2 16 6 2 16 6 2 16 6 2 16 6 2 16 6 2 16 6 2 16 6 2 16 6 2 16 6 2 16 6 2 16 6 2 16 6 2 16 5 5 17 5 5 17 5 5 17 5 5 17 5 5 17 5 5 17 5 5 17 5 5 17 5 5 17 5 5 17 5 5 17 5 5 17 5 5 17 5 5 17 5 5 17 3 5 17 6 9 18 5 9 18 5 9 18 5 9 18 5 9 18 5 9 18 5 9 18 5 9 18 7 11 20 7 11 20 7 11 20 7 11 20 7 11 20 7 11 20 7 11 20 7 11 20 8 13 19 6 13 19 6 13 19 6 13 19 6 13 19 6 13 19 6 13 19 6 13 19 0 3 9 0 4 10 0 7 13 3 10 16 6 13 19 10 17 23 12 19 25 13 20 26 30 35 39 30 35 39 30 35 39 30 35 39 30 35 39 30 35 39 30 35 39 30 35 39 15 20 24 13 18 22 11 16 20 8 13 17 4 9 13 1 6 10 0 4 8 0 2 5 2 8 8 2 8 6 2 8 8 2 8 6 2 8 8 2 8 6 2 8 8 2 8 6 14 20 20 16 22 20 18 24 24 21 27 25 25 31 31 28 34 32 30 36 36 32 38 36 34 40 38 36 42 40 38 44 42 41 47 45 45 51 49 48 54 52 50 56 54 52 58 56 63 69 67 63 69 67 63 69 67 63 69 67 63 69 67 63 69 67 63 69 67 64 69 65 47 46 42 47 43 40 45 41 38 42 38 35 38 34 31 35 31 28 33 29 26 31 27 24 34 30 27 34 30 27 34 30 27 34 30 27 34 30 27 34 30 27 34 30 27 34 30 27 35 31 28 35 31 28 36 31 28 35 31 28 36 31 28 35 31 28 36 31 28 35 31 28 38 33 30 37 33 30 38 33 30 37 33 30 38 33 30 37 33 30 38 33 30 37 33 30
47 46 54 47 46 54 47 46 54 47 46 54 49 48 56 49 48 56 49 48 56 49 48 56 49 48 56 49 48 56 49 48 56 49 48 56 49 45 59 49 45 59 49 45 59 49 45 59 49 45 59 49 45 59 49 45 59 49 45 59 16 12 26 16 12 26 16 12 26 16 12 26 16 12 26 16 12 26 16 12 26 16 12 26 5 3 16 5 3 16 5 3 16 5 3 16 5 3 16 5 3 16 5 3 16 5 3 16 5 3 16 5 3 16 5 3 16 5 3 16 5 3 16 5 3 16 5 3 16 4 4 16 5 5 15 3 6 15 3 6 15 3 6 15 3 6 15 3 6 15 3 6 15 3 6 15 3 6 15 3 6 15 3 6 15 3 6 15 3 6 15 3 6 15 3 6 15 3 6 15 5 9 18 5 9 18 5 9 18 5 9 18 5 9 18 5 9 18 5 9 18 5 9 18 7 11 20 7 11 20 7 11 20 7 11 20 7 11 20 7 11 20 7 11 20 7 11 20 6 13 19 6 13 19 6 13 19 6 13 19 6 13 19 6 13 19 6 13 19 6 13 19 0 6 12 0 7 13 2 9 15 6 13 19 9 16 22 12 19 25 15 22 28 16 23 29 30 35 39 30 35 39 30 35 39 30 35 39 30 35 39 30 35 39 30 35 39 30 35 39 15 20 24 13 18 22 11 16 20 8 13 17 4 9 13 1 6 10 0 4 8 0 2 5 2 8 8 2 8 6 2 8 6 2 8 6 2 8 6 2 8 6 2 8 6 2 8 6 14 20 18 16 22 20 18 24 22 21 27 25 25 31 29 28 34 32 30 36 34 32 38 36 34 40 38 36 42 40 38 44 42 41 47 45 45 51 49 48 54 52 50 56 54 52 58 56 61 67 65 61 67 65 61 67 65 61 67 65 61 67 65 61 67 65 61 67 65 62 67 63 47 46 44 47 43 40 45 41 38 42 38 35 38 34 31 35 31 28 33 29 26 31 27 24 34 30 27 34 30 27 34 30 27 34 30 27 34 30 27 34 30 27 34 30 27 34 30 27 36 31 28 36 31 28 36 31 28 36 31 28 36 31 28 36 31 28 36 31 28 36 31 28 38 33 30 38 33 30 38 33 30 38 33 30 38 33 30 38 33 30 38 33 30 38 33 30
14 13 21 14 13 21 14 13 21 14 13 21 16 15 23 16 15 23 16 15 23 16 15 23 16 15 23 16 15 23 16 15 23 16 15 23 16 12 26 16 12 26 16 12 26 16 12 26 16 12 26 16 12 26 16 12 26 16 12 26 14 10 24 14 10 24 14 10 24 14 10 24 14 10 24 14 10 24 14 10 24 14 10 24 5 3 16 5 3 16 5 3 16 5 3 16 5 3 16 5 3 16 5 3 16 5 3 16 5 3 16 5 3 16 5 3 16 5 3 16 5 3 16 5 3 16 5 3 16 4 4 16 5 5 15 3 6 15 3 6 15 3 6 15 3 6 15 3 6 15 3 6 15 3 6 15 3 6 15 3 6 15 3 6 15 3 6 15 3 6 15 3 6 15 3 6 15 3 6 15 5 9 18 5 9 18 5 9 18 5 9 18 5 9 18 5 9 18 5 9 18 5 9 18 7 11 20 7 11 20 7 11 20 7 11 20 7 11 20 7 11 20 7 11 20 7 11 20 6 13 19 6 13 19 6 13 19 6 13 19 6 13 19 6 13 19 6 13 19 6 13 19 4 11 17 5 12 18 7 14 20 10 17 23 14 21 27 17 24 30 20 27 33 21 28 34 30 35 39 30 35 39 30 35 39 30 35 39 30 35 39 30 35 39 30 35 39 30 35 39 15 20 24 13 18 22 11 16 20 8 13 17 4 9 13 1 6 10 0 4 8 0 2 5 2 8 8 2 8 6 2 8 6 2 8 6 2 8 6 2 8 6 2 8 6 2 8 6 14 20 18 16 22 20 18 24 22 21 27 25 25 31 29 28 34 32 30 36 34 32 38 36 34 40 38 36 42 40 38 44 42 41 47 45 45 51 49 48 54 52 50 56 54 52 58 56 59 65 63 59 65 63 59 65 63 59 65 63 59 65 63 59 65 63 59 65 63 60 65 61 47 46 44 47 43 40 45 41 38 42 38 35 38 34 31 35 31 28 33 29 26 31 27 24 34 30 27 34 30 27 34 30 27 34 30 27 34 30 27 34 30 27 34 30 27 34 30 27 36 31 28 36 31 28 36 31 28 36 31 28 36 31 28 36 31 28 36 31 28 36 31 28 38 33 30 38 33 30 38 33 30 38 33 30 38 33 30 38 33 30 38 33 30 38 33 30
0 0 7 0 0 7 0 0 7 0 0 7 0 0 7 0 0 7 0 0 7 0 0 7 0 0 7 0 0 7 0 0 7 0 0 7 1 0 11 1 0 11 1 0 11 1 0 11 1 0 11 1 0 11 1 0 11 1 0 11 11 7 21 11 7 21 11 7 21 11 7 21 11 7 21 11 7 21 11 7 21 11 7 21 5 3 16 5 3 16 5 3 16 5 3 16 5 3 16 5 3 16 5 3 16 5 3 16 5 3 16 5 3 16 5 3 16 5 3 16 5 3 16 5 3 16 5 3 16 4 4 16 5 5 15 3 6 15 3 6 15 3 6 15 3 6 15 3 6 15 3 6 15 3 6 15 3 6 15 3 6 15 3 6 15 3 6 15 3 6 15 3 6 15 3 6 15 3 6 15 5 9 18 5 9 18 5 9 18 5 9 18 5 9 18 5 9 18 5 9 18 5 9 18 7 11 20 7 11 20 7 11 20 7 11 20 7 11 20 7 11 20 7 11 20 7 11 20 6 13 19 6 13 19 6 13 19 6 13 19 6 13 19 6 13 19 6 13 19 6 13 19 10 17 23 11 18 24 14 21 27 17 24 30 20 27 33 23 30 36 26 33 39 27 34 40 30 35 39 30 35 39 30 35 39 30 35 39 30 35 39 30 35 39 30 35 39 30 35 39 15 20 24 13 18 22 11 16 20 8 13 17 4 9 13 1 6 10 0 4 8 0 2 5 2 8 8 2 8 6 2 8 6 2 8 6 2 8 6 2 8 6 2 8 6 2 8 6 14 20 18 16 22 20 18 24 22 21 27 25 25 31 29 28 34 32 30 36 34 32 38 36 34 40 38 36 42 40 38 44 42 41 47 45 45 51 49 48 54 52 50 56 54 52 58 56 56 62 60 56 62 60 56 62 60 56 62 60 56 62 60 56 62 60 56 62 60 57 62 58 47 46 44 47 43 40 45 41 38 42 38 35 38 34 31 35 31 28 33 29 26 31 27 24 34 30 27 34 30 27 34 30 27 34 30 27 34 30 27 34 30 27 34 30 27 34 30 27 36 31 28 36 31 28 36 31 28 36 31 28 36 31 28 36 31 28 36 31 28 36 31 28 38 33 30 38 33 30 38 33 30 38 33 30 38 33 30 38 33 30 38 33 30 38 33 30
1 0 8 1 0 8 1 0 8 1 0 8 3 2 10 3 2 10 3 2 10 3 2 10 3 2 10 3 2 10 3 2 10 3 2 10 3 0 13 3 0 13 3 0 13 3 0 13 3 0 13 3 0 13 3 0 13 3 0 13 7 3 17 7 3 17 7 3 17 7 3 17 7 3 17 7 3 17 7 3 17 7 3 17 5 3 16 5 3 16 5 3 16 5 3 16 5 3 16 5 3 16 5 3 16 5 3 16 5 3 16 5 3 16 5 3 16 5 3 16 5 3 16 5 3 16 5 3 16 4 4 16 5 5 15 3 6 15 3 6 15 3 6 15 3 6 15 3 6 15 3 6 15 3 6 15 3 6 15 3 6 15 3 6 15 3 6 15 3 6 15 3 6 15 3 6 15 3 6 15 5 9 18 5 9 18 5 9 18 5 9 18 5 9 18 5 9 18 5 9 18 5 9 18 7 11 20 7 11 20 7 11 20 7 11 20 7 11 20 7 11 20 7 11 20 7 11 20 6 13 19 6 13 19 6 13 19 6 13 19 6 13 19 6 13 19 6 13 19 6 13 19 17 24 30 18 25 31 21 28 34 24 31 37 27 34 40 30 37 43 33 40 46 34 41 47 30 35 39 30 35 39 30 35 39 30 35 39 30 35 39 30 35 39 30 35 39 30 35 39 15 20 24 13 18 22 11 16 20 8 13 17 4 9 13 1 6 10 0 4 8 0 2 5 2 8 8 2 8 6 2 8 6 2 8 6 2 8 6 2 8 6 2 8 6 2 8 6 14 20 18 16 22 20 18 24 22 21 27 25 25 31 29 28 34 32 30 36 34 32 38 36 34 40 38 36 42 40 38 44 42 41 47 45 45 51 49 48 54 52 50 56 54 52 58 56 52 58 56 52 58 56 52 58 56 52 58 56 52 58 56 52 58 56 52 58 56 53 58 54 47 46 44 47 43 40 45 41 38 42 38 35 38 34 31 35 31 28 33 29 26 31 27 24 34 30 27 34 30 27 34 30 27 34 30 27 34 30 27 34 30 27 34 30 27 34 30 27 36 31 28 36 31 28 36 31 28 36 31 28 36 31 28 36 31 28 36 31 28 36 31 28 38 33 30 38 33 30 38 33 30 38 33 30 38 33 30 38 33 30 38 33 30 38 33 30
8 7 15 8 7 15 8 7 15 8 7 15 10 9 17 10 9 17 10 9 17 10 9 17 10 9 17 10 9 17 10 9 17 10 9 17 10 6 20 10 6 20 10 6 20 10 6 20 10 6 20 10 6 20 10 6 20 10 6 20 4 0 14 4 0 14 4 0 14 4 0 14 4 0 14 4 0 14 4 0 14 4 0 14 5 3 16 5 3 16 5 3 16 5 3 16 5 3 16 5 3 16 5 3 16 5 3 16 5 3 16 5 3 16 5 3 16 5 3 16 5 3 16 5 3 16 5 3 16 4 4 16 5 5 15 3 6 15 3 6 15 3 6 15 3 6 15 3 6 15 3 6 15 3 6 15 3 6 15 3 6 15 3 6 15 3 6 15 3 6 15 3 6 15 3 6 15 3 6 15 5 9 18 5 9 18 5 9 18 5 9 18 5 9 18 5 9 18 5 9 18 5 9 18 7 11 20 7 11 20 7 11 20 7 11 20 7 11 20 7 11 20 7 11 20 7 11 20 6 13 19 6 13 19 6 13 19 6 13 19 6 13 19 6 13 19 6 13 19 6 13 19 23 30 36 24 31 37 27 34 40 30 37 43 34 41 47 37 44 50 39 46 52 40 47 53 30 35 39 30 35 39 30 35 39 30 35 39 30 35 39 30 35 39 30 35 39 30 35 39 15 20 24 13 18 22 11 16 20 8 13 17 4 9 13 1 6 10 0 4 8 0 2 5 2 8 8 2 8 6 2 8 6 2 8 6 2 8 6 2 8 6 2 8 6 2 8 6 14 20 18 16 22 20 18 24 22 21 27 25 25 31 29 28 34 32 30 36 34 32 38 36 34 40 38 36 42 40 38 44 42 41 47 45 45 51 49 48 54 52 50 56 54 52 58 56 49 55 53 49 55 53 49 55 53 49 55 53 49 55 53 49 55 53 49 55 53 50 55 51 47 46 44 47 43 40 45 41 38 42 38 35 38 34 31 35 31 28 33 29 26 31 27 24 34 30 27 34 30 27 34 30 27 34 30 27 34 30 27 34 30 27 34 30 27 34 30 27 36 31 28 36 31 28 36 31 28 36 31 28 36 31 28 36 31 28 36 31 28 36 31 28 38 33 30 38 33 30 38 33 30 38 33 30 38 33 30 38 33 30 38 33 30 38 33 30
7 6 14 7 6 14 7 6 14 7 6 14 9 8 16 9 8 16 9 8 16 9 8 16 9 8 16 9 8 16 9 8 16 9 8 16 9 5 19 9 5 19 9 5 19 9 5 19 9 5 19 9 5 19 9 5 19 9 5 19 2 0 12 2 0 12 2 0 12 2 0 12 2 0 12 2 0 12 2 0 12 2 0 12 5 3 16 5 3 16 5 3 16 5 3 16 5 3 16 5 3 16 5 3 16 5 3 16 5 3 16 5 3 16 5 3 16 5 3 16 5 3 16 5 3 16 5 3 16 4 4 16 5 5 15 3 6 15 3 6 15 3 6 15 3 6 15 3 6 15 3 6 15 3 6 15 3 6 15 3 6 15 3 6 15 3 6 15 3 6 15 3 6 15 3 6 15 3 6 15 5 9 18 5 9 18 5 9 18 5 9 18 5 9 18 5 9 18 5 9 18 5 9 18 7 11 20 7 11 20 7 11 20 7 11 20 7 11 20 7 11 20 7 11 20 7 11 20 6 13 19 6 13 19 6 13 19 6 13 19 6 13 19 6 13 19 6 13 19 6 13 19 28 35 41 29 36 42 32 39 45 35 42 48 38 45 51 42 49 55 44 51 57 45 52 58 30 35 39 30 35 39 30 35 39 30 35 39 30 35 39 30 35 39 30 35 39 30 35 39 15 20 24 13 18 22 11 16 20 8 13 17 4 9 13 1 6 10 0 4 8 0 2 5 2 8 8 2 8 6 2 8 6 2 8 6 2 8 6 2 8 6 2 8 6 2 8 6 14 20 18 16 22 20 18 24 22 21 27 25 25 31 29 28 34 32 30 36 34 32 38 36 34 40 38 36 42 40 38 44 42 41 47 45 45 51 49 48 54 52 50 56 54 52 58 56 47 53 51 47 53 51 47 53 51 47 53 51 47 53 51 47 53 51 47 53 51 48 53 49 47 46 44 47 43 40 45 41 38 42 38 35 38 34 31 35 31 28 33 29 26 31 27 24 34 30 27 34 30 27 34 30 27 34 30 27 34 30 27 34 30 27 34 30 27 34 30 27 36 31 28 36 31 28 36 31 28 36 31 28 36 31 28 36 31 28 36 31 28 36 31 28 38 33 30 38 33 30 38 33 30 38 33 30 38 33 30 38 33 30 38 33 30 38 33 30
2 1 9 2 1 9 2 1 9 2 1 9 4 3 11 4 3 11 4 3 11 4 3 11 4 3 11 4 3 11 4 3 11 4 3 11 4 0 14 4 0 14 4 0 14 4 0 14 4 0 14 4 0 14 4 0 14 4 0 14 1 0 11 1 0 11 1 0 11 1 0 11 1 0 11 1 0 11 1 0 11 1 0 11 5 3 16 5 3 16 5 3 16 5 3 16 5 3 16 5 3 16 5 3 16 5 3 16 5 3 16 5 3 16 5 3 16 5 3 16 5 3 16 5 3 16 5 3 16 4 4 16 5 5 15 3 6 15 3 6 15 3 6 15 3 6 15 3 6 15 3 6 15 3 6 15 3 6 15 3 6 15 3 6 15 3 6 15 3 6 15 3 6 15 3 6 15 3 6 15 5 9 18 5 9 18 5 9 18 5 9 18 5 9 18 5 9 18 5 9 18 5 9 18 7 11 20 7 11 20 7 11 20 7 11 20 7 11 20 7 11 20 7 11 20 7 11 20 6 13 19 6 13 19 6 13 19 6 13 19 6 13 19 6 13 19 6 13 19 6 13 19 31 38 44 32 39 45 34 41 47 38 45 51 41 48 54 44 51 57 47 54 60 48 55 61 30 35 39 30 35 39 30 35 39 30 35 39 30 35 39 30 35 39 30 35 39 30 35 39 15 20 24 13 18 22 11 16 20 8 13 17 4 9 13 1 6 10 0 4 8 0 2 5 2 8 8 2 8 6 2 8 6 2 8 6 2 8 6 2 8 6 2 8 6 2 8 6 14 20 18 16 22 20 18 24 22 21 27 25 25 31 29 28 34 32 30 36 34 32 38 36 34 40 38 36 42 40 38 44 42 41 47 45 45 51 49 48 54 52 50 56 54 52 58 56 45 51 49 45 51 49 45 51 49 45 51 49 45 51 49 45 51 49 45 51 49 46 51 47 47 46 44 47 43 40 45 41 38 42 38 35 38 34 31 35 31 28 33 29 26 31 27 24 34 30 27 34 30 27 34 30 27 34 30 27 34 30 27 34 30 27 34 30 27 34 30 27 36 31 28 36 31 28 36 31 28 36 31 28 36 31 28 36 31 28 36 31 28 36 31 28 38 33 30 38 33 30 38 33 30 38 33 30 38 33 30 38 33 30 38 33 30 38 33 30
2 1 9 2 1 9 2 1 9 2 1 9 1 0 8 1 0 8 1 0 8 1 0 8 1 0 8 1 0 8 1 0 8 1 0 8 4 0 14 4 0 14 4 0 14 4 0 14 4 0 14 4 0 14 4 0 14 4 0 14 5 1 15 5 1 15 5 1 15 5 1 15 5 1 15 5 1 15 5 1 15 5 1 15 4 2 15 4 2 15 4 2 15 4 2 15 4 2 15 4 2 15 4 2 15 4 2 15 4 2 15 4 2 15 4 2 15 4 2 15 4 2 15 4 2 15 4 2 15 3 3 15 5 5 15 3 6 15 3 6 15 3 6 15 3 6 15 3 6 15 3 6 15 3 6 15 2 5 14 2 5 14 2 5 14 2 5 14 2 5 14 2 5 14 2 5 14 2 5 14 5 9 18 5 9 18 5 9 18 5 9 18 5 9 18 5 9 18 5 9 18 5 9 18 3 7 16 2 6 15 2 6 15 0 4 13 0 3 12 0 2 11 0 1 10 0 0 9 13 20 26 14 21 27 17 24 30 20 27 33 23 30 36 27 34 40 29 36 42 30 37 43 42 49 55 42 49 55 42 49 55 42 49 55 42 49 55 42 49 55 42 49 55 42 49 55 50 55 59 48 53 57 46 51 55 43 48 52 39 44 48 36 41 45 34 39 43 32 37 41 15 20 24 13 18 22 11 16 20 8 13 17 4 9 13 1 6 10 0 4 8 0 2 5 5 11 11 5 11 9 5 11 9 5 11 9 5 11 9 5 11 9 5 11 9 5 11 9 13 19 17 15 21 19 17 23 21 20 26 24 24 30 28 27 33 31 29 35 33 31 37 35 34 40 38 34 40 38 34 40 38 34 40 38 34 40 38 34 40 38 34 40 38 34 40 38 46 52 50 46 52 50 46 52 50 46 52 50 46 52 50 46 52 50 46 52 50 47 52 48 33 32 30 35 31 28 35 31 28 35 31 28 35 31 28 35 31 28 35 31 28 35 31 28 33 29 26 33 29 26 33 29 26 33 29 26 33 29 26 33 29 26 33 29 26 33 29 26 36 31 28 36 31 28 36 31 28 36 31 28 36 31 28 36 31 28 36 31 28 36 31 28 36 31 28 36 31 28 36 31 28 36 31 28 36 31 28 36 31 28 36 31 28 36 31 28
2 1 9 2 1 9 2 1 9 2 1 9 1 0 8 1 0 8 1 0 8 1 0 8 1 0 8 1 0 8 1 0 8 1 0 8 4 0 14 4 0 14 4 0 14 4 0 14 4 0 14 4 0 14 4 0 14 4 0 14 5 1 15 5 1 15 5 1 15 5 1 15 5 1 15 5 1 15 5 1 15 5 1 15 4 2 15 4 2 15 4 2 15 4 2 15 4 2 15 4 2 15 4 2 15 4 2 15 4 2 15 4 2 15 4 2 15 4 2 15 4 2 15 4 2 15 4 2 15 3 3 15 5 5 15 3 6 15 3 6 15 3 6 15 3 6 15 3 6 15 3 6 15 3 6 15 2 5 14 2 5 14 2 5 14 2 5 14 2 5 14 2 5 14 2 5 14 2 5 14 5 9 18 5 9 18 5 9 18 5 9 18 5 9 18 5 9 18 5 9 18 5 9 18 4 8 17 4 8 17 3 7 16 3 7 16 2 6 15 1 5 14 1 5 14 1 5 14 16 23 29 17 24 30 19 26 32 23 30 36 26 33 39 29 36 42 32 39 45 33 40 46 44 51 57 44 51 57 44 51 57 44 51 57 44 51 57 44 51 57 44 51 57 44 51 57 50 55 59 48 53 57 46 51 55 43 48 52 39 44 48 36 41 45 34 39 43 32 37 41 15 20 24 13 18 22 11 16 20 8 13 17 4 9 13 1 6 10 0 4 8 0 2 5 5 11 11 5 11 9 5 11 9 5 11 9 5 11 9 5 11 9 5 11 9 5 11 9 13 19 17 15 21 19 17 23 21 20 26 24 24 30 28 27 33 31 29 35 33 31 37 35 34 40 38 34 40 38 34 40 38 34 40 38 34 40 38 34 40 38 34 40 38 34 40 38 44 50 48 44 50 48 44 50 48 44 50 48 44 50 48 44 50 48 44 50 48 45 50 46 33 32 30 35 31 28 35 31 28 35 31 28 35 31 28 35 31 28 35 31 28 35 31 28 33 29 26 33 29 26 33 29 26 33 29 26 33 29 26 33 29 26 33 29 26 33 29 26 36 31 28 36 31 28 36 31 28 36 31 28 36 31 28 36 31 28 36 31 28 36 31 28 36 31 28 36 31 28 36 31 28 36 31 28 36 31 28 36 31 28 36 31 28 36 31 28
2 1 9 2 1 9 2 1 9 2 1 9 1 0 8 1 0 8 1 0 8 1 0 8 1 0 8 1 0 8 1 0 8 1 0 8 4 0 14 4 0 14 4 0 14 4 0 14 4 0 14 4 0 14 4 0 14 4 0 14 5 1 15 5 1 15 5 1 15 5 1 15 5 1 15 5 1 15 5 1 15 5 1 15 4 2 15 4 2 15 4 2 15 4 2 15 4 2 15 4 2 15 4 2 15 4 2 15 4 2 15 4 2 15 4 2 15 4 2 15 4 2 15 4 2 15 4 2 15 3 3 15 5 5 15 3 6 15 3 6 15 3 6 15 3 6 15 3 6 15 3 6 15 3 6 15 2 5 14 2 5 14 2 5 14 2 5 14 2 5 14 2 5 14 2 5 14 2 5 14 5 9 18 5 9 18 5 9 18 5 9 18 5 9 18 5 9 18 5 9 18 5 9 18 5 9 18 6 10 19 6 10 19 7 11 20 8 12 21 8 12 21 9 13 22 9 13 22 21 28 34 22 29 35 24 31 37 27 34 40 31 38 44 34 41 47 37 44 50 38 45 51 46 53 59 46 53 59 46 53 59 46 53 59 46 53 59 46 53 59 46 53 59 46 53 59 50 55 59 48 53 57 46 51 55 43 48 52 39 44 48 36 41 45 34 39 43 32 37 41 15 20 24 13 18 22 11 16 20 8 13 17 4 9 13 1 6 10 0 4 8 0 2 5 5 11 11 5 11 9 5 11 9 5 11 9 5 11 9 5 11 9 5 11 9 5 11 9 13 19 17 15 21 19 17 23 21 20 26 24 24 30 28 27 33 31 29 35 33 31 37 35 34 40 38 34 40 38 34 40 38 34 40 38 34 40 38 34 40 38 34 40 38 34 40 38 42 48 46 42 48 46 42 48 46 42 48 46 42 48 46 42 48 46 42 48 46 43 48 44 33 32 30 35 31 28 35 31 28 35 31 28 35 31 28 35 31 28 35 31 28 35 31 28 33 29 26 33 29 26 33 29 26 33 29 26 33 29 26 33 29 26 33 29 26 33 29 26 36 31 28 36 31 28 36 31 28 36 31 28 36 31 28 36 31 28 36 31 28 36 31 28 36 31 28 36 31 28 36 31 28 36 31 28 36 31 28 36 31 28 36 31 28 36 31 28
2 1 9 2 1 9 2 1 9 2 1 9 1 0 8 1 0 8 1 0 8 1 0 8 1 0 8 1 0 8 1 0 8 1 0 8 4 0 14 4 0 14 4 0 14 4 0 14 4 0 14 4 0 14 4 0 14 4 0 14 5 1 15 5 1 15 5 1 15 5 1 15 5 1 15 5 1 15 5 1 15 5 1 15 4 2 15 4 2 15 4 2 15 4 2 15 4 2 15 4 2 15 4 2 15 4 2 15 4 2 15 4 2 15 4 2 15 4 2 15 4 2 15 4 2 15 4 2 15 3 3 15 5 5 15 3 6 15 3 6 15 3 6 15 3 6 15 3 6 15 3 6 15 3 6 15 2 5 14 2 5 14 2 5 14 2 5 14 2 5 14 2 5 14 2 5 14 2 5 14 5 9 18 5 9 18 5 9 18 5 9 18 5 9 18 5 9 18 5 9 18 5 9 18 7 11 20 8 12 21 10 14 23 12 16 25 15 19 28 17 21 30 19 23 32 20 24 33 27 34 40 28 35 41 31 38 44 34 41 47 37 44 50 40 47 53 43 50 56 44 51 57 49 56 62 49 56 62 49 56 62 49 56 62 49 56 62 49 56 62 49 56 62 49 56 62 50 55 59 48 53 57 46 51 55 43 48 52 39 44 48 36 41 45 34 39 43 32 37 41 15 20 24 13 18 22 11 16 20 8 13 17 4 9 13 1 6 10 0 4 8 0 2 5 5 11 11 5 11 9 5 11 9 5 11 9 5 11 9 5 11 9 5 11 9 5 11 9 13 19 17 15 21 19 17 23 21 20 26 24 24 30 28 27 33 31 29 35 33 31 37 35 34 40 38 34 40 38 34 40 38 34 40 38 34 40 38 34 40 38 34 40 38 34 40 38 39 45 43 39 45 43 39 45 43 39 45 43 39 45 43 39 45 43 39 45 43 40 45 41 33 32 30 35 31 28 35 31 28 35 31 28 35 31 28 35 31 28 35 31 28 35 31 28 33 29 26 33 29 26 33 29 26 33 29 26 33 29 26 33 29 26 33 29 26 33 29 26 36 31 28 36 31 28 36 31 28 36 31 28 36 31 28 36 31 28 36 31 28 36 31 28 36 31 28 36 31 28 36 31 28 36 31 28 36 31 28 36 31 28 36 31 28 36 31 28
2 1 9 2 1 9 2 1 9 2 1 9 1 0 8 1 0 8 1 0 8 1 0 8 1 0 8 1 0 8 1 0 8 1 0 8 4 0 14 4 0 14 4 0 14 4 0 14 4 0 14 4 0 14 4 0 14 4 0 14 5 1 15 5 1 15 5 1 15 5 1 15 5 1 15 5 1 15 5 1 15 5 1 15 4 2 15 4 2 15 4 2 15 4 2 15 4 2 15 4 2 15 4 2 15 4 2 15 4 2 15 4 2 15 4 2 15 4 2 15 4 2 15 4 2 15 4 2 15 3 3 15 5 5 15 3 6 15 3 6 15 3 6 15 3 6 15 3 6 15 3 6 15 3 6 15 2 5 14 2 5 14 2 5 14 2 5 14 2 5 14 2 5 14 2 5 14 2 5 14 5 9 18 5 9 18 5 9 18 5 9 18 5 9 18 5 9 18 5 9 18 5 9 18 9 13 22 11 15 24 14 18 27 18 22 31 23 27 36 27 31 40 30 34 43 31 35 44 34 41 47 35 42 48 38 45 51 41 48 54 44 51 57 47 54 60 50 57 63 51 58 64 53 60 66 53 60 66 53 60 66 53 60 66 53 60 66 53 60 66 53 60 66 53 60 66 50 55 59 48 53 57 46 51 55 43 48 52 39 44 48 36 41 45 34 39 43 32 37 41 15 20 24 13 18 22 11 16 20 8 13 17 4 9 13 1 6 10 0 4 8 0 2 5 5 11 11 5 11 9 5 11 9 5 11 9 5 11 9 5 11 9 5 11 9 5 11 9 13 19 17 15 21 19 17 23 21 20 26 24 24 30 28 27 33 31 29 35 33 31 37 35 34 40 38 34 40 38 34 40 38 34 40 38 34 40 38 34 40 38 34 40 38 34 40 38 35 41 39 35 41 39 35 41 39 35 41 39 35 41 39 35 41 39 35 41 39 36 41 37 33 32 30 35 31 28 35 31 28 35 31 28 35 31 28 35 31 28 35 31 28 35 31 28 33 29 26 33 29 26 33 29 26 33 29 26 33 29 26 33 29 26 33 29 26 33 29 26 36 31 28 36 31 28 36 31 28 36 31 28 36 31 28 36 31 28 36 31 28 36 31 28 36 31 28 36 31 28 36 31 28 36 31 28 36 31 28 36 31 28 36 31 28 36 31 28
2 1 9 2 1 9 2 1 9 2 1 9 1 0 8 1 0 8 1 0 8 1 0 8 1 0 8 1 0 8 1 0 8 1 0 8 4 0 14 4 0 14 4 0 14 4 0 14 4 0 14 4 0 14 4 0 14 4 0 14 5 1 15 5 1 15 5 1 15 5 1 15 5 1 15 5 1 15 5 1 15 5 1 15 4 2 15 4 2 15 4 2 15 4 2 15 4 2 15 4 2 15 4 2 15 4 2 15 4 2 15 4 2 15 4 2 15 4 2 15 4 2 15 4 2 15 4 2 15 3 3 15 5 5 15 3 6 15 3 6 15 3 6 15 3 6 15 3 6 15 3 6 15 3 6 15 2 5 14 2 5 14 2 5 14 2 5 14 2 5 14 2 5 14 2 5 14 2 5 14 5 9 18 5 9 18 5 9 18 5 9 18 5 9 18 5 9 18 5 9 18 5 9 18 11 15 24 14 18 27 18 22 31 24 28 37 30 34 43 36 40 49 40 44 53 42 46 55 40 47 53 41 48 54 44 51 57 47 54 60 51 58 64 54 61 67 56 63 69 57 64 70 56 63 69 56 63 69 56 63 69 56 63 69 56 63 69 56 63 69 56 63 69 56 63 69 50 55 59 48 53 57 46 51 55 43 48 52 39 44 48 36 41 45 34 39 43 32 37 41 15 20 24 13 18 22 11 16 20 8 13 17 4 9 13 1 6 10 0 4 8 0 2 5 5 11 11 5 11 9 5 11 9 5 11 9 5 11 9 5 11 9 5 11 9 5 11 9 13 19 17 15 21 19 17 23 21 20 26 24 24 30 28 27 33 31 29 35 33 31 37 35 34 40 38 34 40 38 34 40 38 34 40 38 34 40 38 34 40 38 34 40 38 34 40 38 32 38 36 32 38 36 32 38 36 32 38 36 32 38 36 32 38 36 32 38 36 33 38 34 33 32 30 35 31 28 35 31 28 35 31 28 35 31 28 35 31 28 35 31 28 35 31 28 33 29 26 33 29 26 33 29 26 33 29 26 33 29 26 33 29 26 33 29 26 33 29 26 36 31 28 36 31 28 36 31 28 36 31 28 36 31 28 36 31 28 36 31 28 36 31 28 36 31 28 36 31 28 36 31 28 36 31 28 36 31 28 36 31 28 36 31 28 36 31 28
2 1 9 2 1 9 2 1 9 2 1 9 1 0 8 1 0 8 1 0 8 1 0 8 1 0 8 1 0 8 1 0 8 1 0 8 4 0 14 4 0 14 4 0 14 4 0 14 4 0 14 4 0 14 4 0 14 4 0 14 5 1 15 5 1 15 5 1 15 5 1 15 5 1 15 5 1 15 5 1 15 5 1 15 4 2 15 4 2 15 4 2 15 4 2 15 4 2 15 4 2 15 4 2 15 4 2 15 4 2 15 4 2 15 4 2 15 4 2 15 4 2 15 4 2 15 4 2 15 3 3 15 5 5 15 3 6 15 3 6 15 3 6 15 3 6 15 3 6 15 3 6 15 3 6 15 2 5 14 2 5 14 2 5 14 2 5 14 2 5 14 2 5 14 2 5 14 2 5 14 5 9 18 5 9 18 5 9 18 5 9 18 5 9 18 5 9 18 5 9 18 5 9 18 13 17 26 16 20 29 21 25 34 28 32 41 35 39 48 42 46 55 48 52 61 51 55 64 45 52 58 46 53 59 49 56 62 52 59 65 55 62 68 59 66 72 61 68 74 62 69 75 58 65 71 58 65 71 58 65 71 58 65 71 58 65 71 58 65 71 58 65 71 58 65 71 50 55 59 48 53 57 46 51 55 43 48 52 39 44 48 36 41 45 34 39 43 32 37 41 15 20 24 13 18 22 11 16 20 8 13 17 4 9 13 1 6 10 0 4 8 0 2 5 5 11 11 5 11 9 5 11 9 5 11 9 5 11 9 5 11 9 5 11 9 5 11 9 13 19 17 15 21 19 17 23 21 20 26 24 24 30 28 27 33 31 29 35 33 31 37 35 34 40 38 34 40 38 34 40 38 34 40 38 34 40 38 34 40 38 34 40 38 34 40 38 30 36 34 30 36 34 30 36 34 30 36 34 30 36 34 30 36 34 30 36 34 31 36 32 33 32 30 35 31 28 35 31 28 35 31 28 35 31 28 35 31 28 35 31 28 35 31 28 33 29 26 33 29 26 33 29 26 33 29 26 33 29 26 33 29 26 33 29 26 33 29 26 36 31 28 36 31 28 36 31 28 36 31 28 36 31 28 36 31 28 36 31 28 36 31 28 36 31 28 36 31 28 36 31 28 36 31 28 36 31 28 36 31 28 36 31 28 36 31 28
2 1 9 2 1 7 2 1 9 2 1 7 1 0 8 1 0 6 1 0 8 1 0 6 1 0 8 1 0 6 1 0 8 1 0 8 4 1 12 4 1 12 4 1 12 4 1 12 4 1 12 4 1 12 4 1 12 4 1 12 5 2 13 5 2 13 5 2 13 5 2 13 5 2 13 5 2 13 5 2 13 4 2 13 4 2 13 4 2 13 4 2 15 4 2 13 4 2 15 4 2 13 4 2 15 4 2 13 4 2 15 4 2 13 4 2 15 4 2 13 4 2 15 4 2 13 4 2 15 3 3 13 3 6 15 2 7 13 3 6 15 2 7 13 3 6 15 2 7 13 3 6 15 2 7 13 2 5 14 1 6 12 2 5 14 1 6 12 2 5 14 1 6 12 2 5 14 1 5 14 5 9 18 5 9 18 5 9 18 5 9 18 5 9 18 5 9 18 5 9 18 5 9 18 14 18 27 17 21 30 23 27 36 30 34 43 38 42 51 46 50 59 52 56 65 55 60 66 48 55 61 49 56 62 51 58 64 55 62 68 58 65 71 61 68 74 64 71 77 65 72 78 60 67 73 60 67 73 60 67 73 60 67 73 60 67 73 60 67 73 60 67 73 60 68 71 50 55 59 48 53 57 46 51 55 43 48 52 39 44 48 36 41 45 34 39 43 32 37 41 15 20 24 13 18 22 11 16 20 8 13 17 4 9 13 1 6 10 0 4 8 0 2 5 5 11 11 5 11 9 5 11 11 5 11 9 5 11 11 5 11 9 5 11 11 5 11 9 13 19 19 15 21 19 17 23 23 20 26 24 24 30 30 27 33 31 29 35 35 31 37 35 34 40 38 34 40 38 34 40 38 34 40 38 34 40 38 34 40 38 34 40 38 34 40 38 28 34 32 28 34 32 28 34 32 28 34 32 28 34 32 28 34 32 28 34 32 29 33 32 33 32 30 35 31 28 35 31 28 35 31 28 35 31 28 35 31 28 35 31 28 35 31 28 33 29 26 33 29 26 33 29 26 33 29 26 33 29 26 33 29 26 33 29 26 33 29 26 36 31 28 36 31 28 36 31 28 36 31 28 36 31 28 36 31 28 36 31 28 36 31 28 36 31 28 36 31 28 36 31 28 36 31 28 36 31 28 36 31 28 36 31 28 36 31 28
1 0 6 1 0 5 1 0 6 1 0 5 1 0 6 1 0 5 1 0 6 1 0 5 1 0 6 1 0 5 1 0 6 1 0 6 1 0 6 1 0 6 1 0 6 1 0 6 1 0 6 1 0 6 1 0 6 1 0 6 2 1 7 2 1 7 2 1 7 2 1 7 2 1 7 2 1 7 2 1 7 2 1 7 4 3 11 3 3 11 3 3 13 3 3 11 3 3 13 3 3 11 3 3 13 3 3 11 2 2 12 2 2 10 2 2 12 2 2 10 2 2 12 2 2 10 2 2 12 2 2 10 4 9 15 2 10 13 4 9 15 2 10 13 4 9 15 2 10 13 4 9 15 2 10 13 0 3 9 0 5 8 1 6 12 3 11 14 8 13 19 9 17 20 14 19 25 13 20 26 7 14 20 8 15 21 11 18 24 14 21 27 17 24 30 21 28 34 23 30 36 24 31 37 47 54 60 47 54 60 47 54 60 47 54 60 47 54 60 47 54 60 47 54 60 47 54 60 66 73 79 66 74 77 66 74 77 66 74 77 66 74 77 66 74 77 66 74 77 66 74 77 63 71 74 63 71 74 63 71 74 63 71 74 63 71 74 63 71 74 63 71 74 63 71 74 54 59 63 52 57 60 50 55 58 47 52 55 43 48 51 40 45 48 38 43 46 36 41 44 9 14 17 9 14 17 9 14 17 9 14 17 9 14 17 9 14 17 9 14 17 9 14 17 9 17 19 9 18 17 9 17 19 9 18 17 9 17 19 9 18 17 9 17 19 9 18 17 21 29 31 21 30 29 21 29 31 21 30 29 21 29 31 21 30 29 21 29 31 21 30 29 25 31 31 25 31 31 25 31 31 25 31 31 25 31 31 25 31 31 25 31 31 25 31 31 25 31 31 25 31 31 25 31 31 25 31 31 25 31 31 25 31 31 25 31 31 26 30 29 29 28 26 32 27 24 32 27 24 32 27 24 32 27 24 32 27 24 32 27 24 32 27 24 35 30 27 35 30 27 35 30 27 35 30 27 35 30 27 35 30 27 35 30 27 35 30 27 37 29 26 37 29 26 37 29 26 37 29 26 37 29 26 37 29 26 37 29 26 37 29 26 38 30 27 38 30 27 38 30 27 38 30 27 38 30 27 38 30 27 38 30 27 38 30 27
1 0 5 1 0 5 1 0 5 1 0 5 1 0 5 1 0 5 1 0 5 1 0 5 1 0 5 1 0 5 1 0 5 1 0 5 1 0 5 1 0 5 1 0 5 1 0 5 1 0 5 1 0 5 1 0 5 1 0 5 2 1 6 2 1 6 2 1 6 2 1 6 2 1 6 2 1 6 2 1 6 2 1 6 3 3 11 3 3 11 3 3 11 3 3 11 3 3 11 3 3 11 3 3 11 3 3 11 2 2 10 2 2 10 2 2 10 2 2 10 2 2 10 2 2 10 2 2 10 0 3 10 4 9 13 2 10 13 2 10 13 2 10 13 2 10 13 2 10 13 2 10 13 2 10 13 0 5 8 0 6 9 1 9 12 4 12 15 7 15 18 11 19 22 13 21 24 14 22 25 10 17 23 11 18 24 13 20 26 17 24 30 20 27 33 23 30 36 26 33 39 27 34 40 49 56 62 49 56 62 49 56 62 49 56 62 49 56 62 49 56 62 49 56 62 49 56 62 66 74 77 66 74 77 66 74 77 66 74 77 66 74 77 66 74 77 66 74 77 66 74 77 63 71 74 63 71 74 63 71 74 63 71 74 63 71 74 63 71 74 63 71 74 63 71 74 54 59 62 52 57 60 50 55 58 47 52 55 43 48 51 40 45 48 38 43 46 36 41 44 9 14 17 9 14 17 9 14 17 9 14 17 9 14 17 9 14 17 9 14 17 9 14 17 9 17 19 9 17 19 9 17 19 9 17 19 9 17 19 9 17 19 9 17 19 9 17 19 21 29 31 21 29 31 21 29 31 21 29 31 21 29 31 21 29 31 21 29 31 21 29 31 25 31 31 25 31 31 25 31 31 25 31 31 25 31 31 25 31 31 25 31 31 25 31 31 25 31 31 25 31 31 25 31 31 25 31 31 25 31 31 25 31 31 25 31 31 26 30 29 31 27 26 32 27 24 32 27 24 32 27 24 32 27 24 32 27 24 32 27 24 32 27 24 35 30 27 35 30 27 35 30 27 35 30 27 35 30 27 35 30 27 35 30 27 35 30 27 37 29 26 37 29 26 37 29 26 37 29 26 37 29 26 37 29 26 37 29 26 37 29 26 38 30 27 38 30 27 38 30 27 38 30 27 38 30 27 38 30 27 38 30 27 38 30 27
1 0 5 1 0 5 1 0 5 1 0 5 1 0 5 1 0 5 1 0 5 1 0 5 1 0 5 1 0 5 1 0 5 1 0 5 1 0 5 1 0 5 1 0 5 1 0 5 1 0 5 1 0 5 1 0 5 1 0 5 2 1 6 2 1 6 2 1 6 2 1 6 2 1 6 2 1 6 2 1 6 2 1 6 3 3 11 3 3 11 3 3 11 3 3 11 3 3 11 3 3 11 3 3 11 3 3 11 2 2 10 2 2 10 2 2 10 2 2 10 2 2 10 2 2 10 2 2 10 0 3 10 4 9 13 2 10 13 2 10 13 2 10 13 2 10 13 2 10 13 2 10 13 2 10 13 0 7 10 1 9 12 3 11 14 6 14 17 10 18 21 13 21 24 15 23 26 17 25 28 15 22 28 16 23 29 18 25 31 21 28 34 25 32 38 28 35 41 31 38 44 32 39 45 51 58 64 51 58 64 51 58 64 51 58 64 51 58 64 51 58 64 51 58 64 51 58 64 66 74 77 66 74 77 66 74 77 66 74 77 66 74 77 66 74 77 66 74 77 66 74 77 63 71 74 63 71 74 63 71 74 63 71 74 63 71 74 63 71 74 63 71 74 63 71 74 54 59 62 52 57 60 50 55 58 47 52 55 43 48 51 40 45 48 38 43 46 36 41 44 9 14 17 9 14 17 9 14 17 9 14 17 9 14 17 9 14 17 9 14 17 9 14 17 9 17 19 9 17 19 9 17 19 9 17 19 9 17 19 9 17 19 9 17 19 9 17 19 21 29 31 21 29 31 21 29 31 21 29 31 21 29 31 21 29 31 21 29 31 21 29 31 25 31 31 25 31 31 25 31 31 25 31 31 25 31 31 25 31 31 25 31 31 25 31 31 25 31 31 25 31 31 25 31 31 25 31 31 25 31 31 25 31 31 25 31 31 26 30 29 31 27 26 32 27 24 32 27 24 32 27 24 32 27 24 32 27 24 32 27 24 32 27 24 35 30 27 35 30 27 35 30 27 35 30 27 35 30 27 35 30 27 35 30 27 35 30 27 37 29 26 37 29 26 37 29 26 37 29 26 37 29 26 37 29 26 37 29 26 37 29 26 38 30 27 38 30 27 38 30 27 38 30 27 38 30 27 38 30 27 38 30 27 38 30 27
