P3
172 37
255
106 93 111 99 86 104 94 81 99 91 78 96 72 59 77 68 55 73 60 47 65 50 37 55 39 26 44 29 16 34 21 8 26 17 4 22 30 19 36 29 18 35 26 15 32 23 12 29 20 9 26 16 5 22 14 3 20 13 2 19 10 0 16 10 0 16 11 0 17 11 0 17 12 1 18 12 1 18 13 2 19 11 2 19 4 0 12 2 0 12 3 0 13 3 0 13 4 0 14 5 1 15 5 1 15 5 1 15 7 3 17 7 3 17 7 3 17 7 3 17 7 3 17 7 3 17 7 3 17 6 4 17 7 7 19 5 7 19 5 7 19 5 7 19 5 7 19 5 7 19 5 7 19 5 7 19 3 5 17 3 5 17 3 5 17 3 5 17 3 5 17 3 5 17 3 5 17 3 6 15 7 11 20 7 12 18 7 12 18 7 12 18 7 12 18 7 12 18 7 12 18 7 12 18 6 11 17 6 11 17 6 11 17 6 11 17 6 11 17 6 11 17 6 11 17 6 11 15 7 15 18 7 15 17 7 15 17 7 15 17 7 15 17 7 15 17 7 15 17 7 15 17 8 16 18 8 16 18 8 16 18 8 16 18 8 16 18 8 16 18 8 16 18 8 16 18 8 11 18 8 11 18 8 11 18 8 11 18 8 11 18 8 11 18 8 11 18 8 11 18 1 4 11 1 4 11 1 4 11 1 4 11 1 4 11 1 4 11 1 4 11 1 4 9 0 1 4 0 3 4 1 5 6 4 8 9 8 12 13 11 15 16 13 17 18 15 19 20 13 17 18 15 19 20 17 21 22 20 24 25 24 28 29 27 31 32 29 33 34 31 35 34 45 49 48 47 52 48 52 57 53 59 64 60 65 70 66 72 77 73 77 82 78 79 84 80 89 94 90 90 95 91 93 98 94 96 101 97 99 104 100 103 108 104 105 110 106 106 111 107 82 82 80 74 74 72 61 61 59 49 49 47 42 42 40 41 41 39 44 44 42 47 47 45 41 41 39 41 41 39 41 41 39 41 41 39 41 41 39 41 41 39 41 41 39 41 41 39 38 36 37 38 36 37 38 36 37 38 36 37 38 36 37 38 36 37 38 36 37 38 36 37 42 40 41 42 40 41 42 40 41 42 40 41 42 40 41 42 40 41 42 40 41 42 40 41
98 87 104 90 79 96 84 73 90 81 70 87 60 49 66 56 45 62 48 37 54 37 26 43 25 14 31 14 3 20 6 0 12 6 0 12 21 12 29 20 11 28 18 9 26 14 5 22 11 2 19 8 0 16 5 0 13 4 0 12 7 0 15 7 0 15 8 0 16 9 0 17 11 2 19 12 3 20 13 4 21 12 5 21 1 0 12 0 0 11 1 0 11 1 0 12 3 0 13 3 1 14 5 1 15 5 3 16 7 3 17 6 4 17 7 3 17 6 4 17 7 3 17 6 4 17 7 3 17 6 4 17 7 7 19 5 7 19 5 7 19 5 7 19 5 7 19 5 7 19 5 7 19 5 7 19 3 5 17 3 5 17 3 5 17 3 5 17 3 5 17 3 5 17 3 5 17 3 5 17 7 11 20 7 12 18 7 12 18 7 12 18 7 12 18 7 12 18 7 12 18 7 12 18 6 11 17 6 11 17 6 11 17 6 11 17 6 11 17 6 11 17 6 11 17 6 11 17 7 15 18 7 15 17 7 15 18 7 15 17 7 15 18 7 15 17 7 15 18 7 15 17 8 16 19 8 16 18 8 16 19 8 16 18 8 16 19 8 16 18 8 16 19 8 16 19 7 12 16 8 11 18 8 11 18 8 11 18 8 11 18 8 11 18 8 11 18 8 11 18 1 4 11 1 4 11 1 4 11 1 4 11 1 4 11 1 4 11 1 4 11 1 4 9 0 1 4 0 3 4 1 5 6 4 8 9 8 12 13 11 15 16 13 17 18 15 19 20 13 17 18 15 19 20 17 21 22 20 24 25 24 28 29 27 31 32 29 33 34 31 35 34 45 49 48 47 52 48 52 57 53 59 64 60 65 70 66 72 77 73 77 82 78 79 84 80 88 93 89 89 94 90 91 96 92 95 100 96 98 103 99 101 106 102 104 109 105 105 110 106 81 83 80 74 74 72 61 61 59 49 49 47 42 42 40 41 41 39 44 44 42 47 47 45 41 41 39 41 41 39 41 41 39 41 41 39 41 41 39 41 41 39 41 41 39 41 41 39 38 36 37 38 36 37 38 36 37 38 36 37 38 36 37 38 36 37 38 36 37 38 36 37 42 40 41 42 40 41 42 40 41 42 40 41 42 40 41 42 40 41 42 40 41 42 40 41
76 67 84 66 57 74 57 48 65 53 44 61 22 13 30 22 13 30 22 13 30 22 13 30 22 13 30 22 13 30 22 13 30 21 14 30 6 2 19 6 2 19 6 2 19 6 2 19 6 2 19 6 2 19 6 2 19 6 2 19 6 2 19 6 2 19 6 2 19 6 2 19 6 2 19 6 2 19 6 2 19 6 2 17 5 3 17 4 3 17 5 3 17 4 3 17 5 3 17 4 3 17 5 3 17 4 3 17 6 4 18 5 4 18 6 4 18 5 4 18 6 4 18 5 4 18 6 4 18 5 4 18 4 6 19 4 6 19 4 6 19 4 6 19 4 6 19 4 6 19 4 6 19 4 6 19 6 8 21 6 8 21 6 8 21 6 8 21 6 8 21 6 8 21 6 8 21 6 8 20 7 11 20 7 11 20 7 11 20 7 11 20 7 11 20 7 11 20 7 11 20 7 11 20 7 11 20 7 11 20 7 11 20 7 11 20 7 11 20 7 11 20 7 11 20 7 12 18 6 13 19 6 14 17 6 13 19 6 14 17 6 13 19 6 14 17 6 13 19 6 14 17 8 15 21 8 16 19 8 15 21 8 16 19 8 15 21 8 16 19 8 15 21 8 16 19 4 9 13 6 11 15 8 13 17 11 16 20 15 20 24 18 23 27 20 25 29 22 27 31 37 42 46 29 34 38 16 21 25 4 9 13 0 2 6 0 1 5 0 4 8 2 7 10 2 8 8 2 8 6 2 8 6 2 8 6 2 8 6 2 8 6 2 8 6 2 8 6 14 20 18 16 22 20 18 24 22 21 27 25 25 31 29 28 34 32 30 36 34 32 38 36 47 53 51 49 55 53 51 57 55 54 60 58 58 64 62 61 67 65 63 69 67 65 71 69 81 87 85 82 88 86 85 91 89 88 94 92 91 97 95 95 101 99 97 103 101 99 103 102 79 81 78 72 72 70 59 59 57 47 47 45 40 40 38 39 39 37 42 42 40 45 45 43 40 40 38 40 40 38 40 40 38 40 40 38 40 40 38 40 40 38 40 40 38 40 40 38 38 37 35 38 37 35 38 37 35 38 37 35 38 37 35 38 37 35 38 37 35 38 37 35 38 37 35 38 37 35 38 37 35 38 37 35 38 37 35 38 37 35 38 37 35 38 37 35
65 58 74 55 48 64 47 40 56 43 36 52 19 12 28 19 12 28 19 12 28 19 12 28 19 12 28 19 12 28 19 12 28 17 13 28 6 2 19 5 2 19 5 2 19 5 2 19 5 2 19 5 2 19 5 2 19 5 2 19 5 2 19 5 2 19 5 2 19 5 2 19 5 2 19 5 2 19 5 2 19 5 2 19 4 3 17 4 3 17 4 3 17 4 3 17 4 3 17 4 3 17 4 3 17 4 3 17 5 4 18 5 4 18 5 4 18 5 4 18 5 4 18 5 4 18 5 4 18 5 4 18 4 6 19 4 6 19 4 6 19 4 6 19 4 6 19 4 6 19 4 6 19 4 6 19 6 8 21 6 8 21 6 8 21 6 8 21 6 8 21 6 8 21 6 8 21 6 8 20 7 11 22 7 11 20 7 11 20 7 11 20 7 11 20 7 11 20 7 11 20 7 11 20 7 11 20 7 11 20 7 11 20 7 11 20 7 11 20 7 11 20 7 11 20 7 11 20 6 13 19 6 13 19 6 13 19 6 13 19 6 13 19 6 13 19 6 13 19 6 13 19 8 15 21 8 15 21 8 15 21 8 15 21 8 15 21 8 15 21 8 15 21 8 15 21 4 9 13 6 11 15 8 13 17 11 16 20 15 20 24 18 23 27 20 25 29 22 27 31 37 42 46 29 34 38 16 21 25 4 9 13 0 2 6 0 1 5 0 4 8 2 7 10 2 8 8 2 8 6 2 8 6 2 8 6 2 8 6 2 8 6 2 8 6 2 8 6 14 20 18 16 22 20 18 24 22 21 27 25 25 31 29 28 34 32 30 36 34 32 38 36 47 53 51 49 55 53 51 57 55 54 60 58 58 64 62 61 67 65 63 69 67 65 71 69 80 86 84 81 87 85 83 89 87 87 93 91 90 96 94 93 99 97 96 102 100 98 102 101 79 81 78 72 72 70 59 59 57 47 47 45 40 40 38 39 39 37 42 42 40 45 45 43 40 40 38 40 40 38 40 40 38 40 40 38 40 40 38 40 40 38 40 40 38 40 40 38 38 37 35 38 37 35 38 37 35 38 37 35 38 37 35 38 37 35 38 37 35 38 37 35 38 37 35 38 37 35 38 37 35 38 37 35 38 37 35 38 37 35 38 37 35 38 37 35
48 41 57 39 32 48 32 25 41 29 22 38 17 10 26 17 10 26 17 10 26 17 10 26 17 10 26 17 10 26 17 10 26 15 11 26 6 2 19 5 2 19 5 2 19 5 2 19 5 2 19 5 2 19 5 2 19 5 2 19 5 2 19 5 2 19 5 2 19 5 2 19 5 2 19 5 2 19 5 2 19 5 2 19 4 3 17 4 3 17 4 3 17 4 3 17 4 3 17 4 3 17 4 3 17 4 3 17 5 4 18 5 4 18 5 4 18 5 4 18 5 4 18 5 4 18 5 4 18 5 4 18 4 6 19 4 6 19 4 6 19 4 6 19 4 6 19 4 6 19 4 6 19 4 6 19 6 8 21 6 8 21 6 8 21 6 8 21 6 8 21 6 8 21 6 8 21 6 8 20 7 11 22 7 11 20 7 11 20 7 11 20 7 11 20 7 11 20 7 11 20 7 11 20 7 11 20 7 11 20 7 11 20 7 11 20 7 11 20 7 11 20 7 11 20 7 11 20 6 13 19 6 13 19 6 13 19 6 13 19 6 13 19 6 13 19 6 13 19 6 13 19 8 15 21 8 15 21 8 15 21 8 15 21 8 15 21 8 15 21 8 15 21 8 15 21 4 9 13 6 11 15 8 13 17 11 16 20 15 20 24 18 23 27 20 25 29 22 27 31 37 42 46 29 34 38 16 21 25 4 9 13 0 2 6 0 1 5 0 4 8 2 7 10 2 8 8 2 8 6 2 8 6 2 8 6 2 8 6 2 8 6 2 8 6 2 8 6 14 20 18 16 22 20 18 24 22 21 27 25 25 31 29 28 34 32 30 36 34 32 38 36 47 53 51 49 55 53 51 57 55 54 60 58 58 64 62 61 67 65 63 69 67 65 71 69 77 83 81 79 85 83 81 87 85 84 90 88 88 94 92 91 97 95 93 99 97 96 100 99 79 81 78 72 72 70 59 59 57 47 47 45 40 40 38 39 39 37 42 42 40 45 45 43 40 40 38 40 40 38 40 40 38 40 40 38 40 40 38 40 40 38 40 40 38 40 40 38 38 37 35 38 37 35 38 37 35 38 37 35 38 37 35 38 37 35 38 37 35 38 37 35 38 37 35 38 37 35 38 37 35 38 37 35 38 37 35 38 37 35 38 37 35 38 37 35
30 23 39 23 16 32 18 11 27 15 8 24 14 7 23 14 7 23 14 7 23 14 7 23 14 7 23 14 7 23 14 7 23 12 8 23 6 2 19 5 2 19 5 2 19 5 2 19 5 2 19 5 2 19 5 2 19 5 2 19 5 2 19 5 2 19 5 2 19 5 2 19 5 2 19 5 2 19 5 2 19 5 2 19 4 3 17 4 3 17 4 3 17 4 3 17 4 3 17 4 3 17 4 3 17 4 3 17 5 4 18 5 4 18 5 4 18 5 4 18 5 4 18 5 4 18 5 4 18 5 4 18 4 6 19 4 6 19 4 6 19 4 6 19 4 6 19 4 6 19 4 6 19 4 6 19 6 8 21 6 8 21 6 8 21 6 8 21 6 8 21 6 8 21 6 8 21 6 8 20 7 11 22 7 11 20 7 11 20 7 11 20 7 11 20 7 11 20 7 11 20 7 11 20 7 11 20 7 11 20 7 11 20 7 11 20 7 11 20 7 11 20 7 11 20 7 11 20 6 13 19 6 13 19 6 13 19 6 13 19 6 13 19 6 13 19 6 13 19 6 13 19 8 15 21 8 15 21 8 15 21 8 15 21 8 15 21 8 15 21 8 15 21 8 15 21 4 9 13 6 11 15 8 13 17 11 16 20 15 20 24 18 23 27 20 25 29 22 27 31 37 42 46 29 34 38 16 21 25 4 9 13 0 2 6 0 1 5 0 4 8 2 7 10 2 8 8 2 8 6 2 8 6 2 8 6 2 8 6 2 8 6 2 8 6 2 8 6 14 20 18 16 22 20 18 24 22 21 27 25 25 31 29 28 34 32 30 36 34 32 38 36 47 53 51 49 55 53 51 57 55 54 60 58 58 64 62 61 67 65 63 69 67 65 71 69 74 80 78 75 81 79 78 84 82 81 87 85 84 90 88 88 94 92 90 96 94 92 96 95 79 81 78 72 72 70 59 59 57 47 47 45 40 40 38 39 39 37 42 42 40 45 45 43 40 40 38 40 40 38 40 40 38 40 40 38 40 40 38 40 40 38 40 40 38 40 40 38 38 37 35 38 37 35 38 37 35 38 37 35 38 37 35 38 37 35 38 37 35 38 37 35 38 37 35 38 37 35 38 37 35 38 37 35 38 37 35 38 37 35 38 37 35 38 37 35
17 10 26 12 5 21 8 1 17 6 0 15 10 3 19 10 3 19 10 3 19 10 3 19 10 3 19 10 3 19 10 3 19 8 4 19 6 2 19 5 2 19 5 2 19 5 2 19 5 2 19 5 2 19 5 2 19 5 2 19 5 2 19 5 2 19 5 2 19 5 2 19 5 2 19 5 2 19 5 2 19 5 2 19 4 3 17 4 3 17 4 3 17 4 3 17 4 3 17 4 3 17 4 3 17 4 3 17 5 4 18 5 4 18 5 4 18 5 4 18 5 4 18 5 4 18 5 4 18 5 4 18 4 6 19 4 6 19 4 6 19 4 6 19 4 6 19 4 6 19 4 6 19 4 6 19 6 8 21 6 8 21 6 8 21 6 8 21 6 8 21 6 8 21 6 8 21 6 8 20 7 11 22 7 11 20 7 11 20 7 11 20 7 11 20 7 11 20 7 11 20 7 11 20 7 11 20 7 11 20 7 11 20 7 11 20 7 11 20 7 11 20 7 11 20 7 11 20 6 13 19 6 13 19 6 13 19 6 13 19 6 13 19 6 13 19 6 13 19 6 13 19 8 15 21 8 15 21 8 15 21 8 15 21 8 15 21 8 15 21 8 15 21 8 15 21 4 9 13 6 11 15 8 13 17 11 16 20 15 20 24 18 23 27 20 25 29 22 27 31 37 42 46 29 34 38 16 21 25 4 9 13 0 2 6 0 1 5 0 4 8 2 7 10 2 8 8 2 8 6 2 8 6 2 8 6 2 8 6 2 8 6 2 8 6 2 8 6 14 20 18 16 22 20 18 24 22 21 27 25 25 31 29 28 34 32 30 36 34 32 38 36 47 53 51 49 55 53 51 57 55 54 60 58 58 64 62 61 67 65 63 69 67 65 71 69 71 77 75 72 78 76 74 80 78 78 84 82 81 87 85 84 90 88 87 93 91 89 93 92 79 81 78 72 72 70 59 59 57 47 47 45 40 40 38 39 39 37 42 42 40 45 45 43 40 40 38 40 40 38 40 40 38 40 40 38 40 40 38 40 40 38 40 40 38 40 40 38 38 37 35 38 37 35 38 37 35 38 37 35 38 37 35 38 37 35 38 37 35 38 37 35 38 37 35 38 37 35 38 37 35 38 37 35 38 37 35 38 37 35 38 37 35 38 37 35
11 4 20 7 0 16 4 0 13 3 0 12 7 0 16 7 0 16 7 0 16 7 0 16 7 0 16 7 0 16 7 0 16 5 1 16 6 2 19 5 2 19 5 2 19 5 2 19 5 2 19 5 2 19 5 2 19 5 2 19 5 2 19 5 2 19 5 2 19 5 2 19 5 2 19 5 2 19 5 2 19 5 2 19 4 3 17 4 3 17 4 3 17 4 3 17 4 3 17 4 3 17 4 3 17 4 3 17 5 4 18 5 4 18 5 4 18 5 4 18 5 4 18 5 4 18 5 4 18 5 4 18 4 6 19 4 6 19 4 6 19 4 6 19 4 6 19 4 6 19 4 6 19 4 6 19 6 8 21 6 8 21 6 8 21 6 8 21 6 8 21 6 8 21 6 8 21 6 8 20 7 11 22 7 11 20 7 11 20 7 11 20 7 11 20 7 11 20 7 11 20 7 11 20 7 11 20 7 11 20 7 11 20 7 11 20 7 11 20 7 11 20 7 11 20 7 11 20 6 13 19 6 13 19 6 13 19 6 13 19 6 13 19 6 13 19 6 13 19 6 13 19 8 15 21 8 15 21 8 15 21 8 15 21 8 15 21 8 15 21 8 15 21 8 15 21 4 9 13 6 11 15 8 13 17 11 16 20 15 20 24 18 23 27 20 25 29 22 27 31 37 42 46 29 34 38 16 21 25 4 9 13 0 2 6 0 1 5 0 4 8 2 7 10 2 8 8 2 8 6 2 8 6 2 8 6 2 8 6 2 8 6 2 8 6 2 8 6 14 20 18 16 22 20 18 24 22 21 27 25 25 31 29 28 34 32 30 36 34 32 38 36 47 53 51 49 55 53 51 57 55 54 60 58 58 64 62 61 67 65 63 69 67 65 71 69 67 73 71 69 75 73 71 77 75 74 80 78 78 84 82 81 87 85 83 89 87 86 90 89 79 81 78 72 72 70 59 59 57 47 47 45 40 40 38 39 39 37 42 42 40 45 45 43 40 40 38 40 40 38 40 40 38 40 40 38 40 40 38 40 40 38 40 40 38 40 40 38 38 37 35 38 37 35 38 37 35 38 37 35 38 37 35 38 37 35 38 37 35 38 37 35 38 37 35 38 37 35 38 37 35 38 37 35 38 37 35 38 37 35 38 37 35 38 37 35
10 3 19 8 1 17 6 0 15 4 0 13 5 0 14 5 0 14 5 0 14 5 0 14 5 0 14 5 0 14 5 0 14 3 0 14 6 2 19 5 2 19 5 2 19 5 2 19 5 2 19 5 2 19 5 2 19 5 2 19 5 2 19 5 2 19 5 2 19 5 2 19 5 2 19 5 2 19 5 2 19 5 2 19 4 3 17 4 3 17 4 3 17 4 3 17 4 3 17 4 3 17 4 3 17 4 3 17 5 4 18 5 4 18 5 4 18 5 4 18 5 4 18 5 4 18 5 4 18 5 4 18 4 6 19 4 6 19 4 6 19 4 6 19 4 6 19 4 6 19 4 6 19 4 6 19 6 8 21 6 8 21 6 8 21 6 8 21 6 8 21 6 8 21 6 8 21 6 8 20 7 11 22 7 11 20 7 11 20 7 11 20 7 11 20 7 11 20 7 11 20 7 11 20 7 11 20 7 11 20 7 11 20 7 11 20 7 11 20 7 11 20 7 11 20 7 11 20 6 13 19 6 13 19 6 13 19 6 13 19 6 13 19 6 13 19 6 13 19 6 13 19 8 15 21 8 15 21 8 15 21 8 15 21 8 15 21 8 15 21 8 15 21 8 15 21 4 9 13 6 11 15 8 13 17 11 16 20 15 20 24 18 23 27 20 25 29 22 27 31 37 42 46 29 34 38 16 21 25 4 9 13 0 2 6 0 1 5 0 4 8 2 7 10 2 8 8 2 8 6 2 8 6 2 8 6 2 8 6 2 8 6 2 8 6 2 8 6 14 20 18 16 22 20 18 24 22 21 27 25 25 31 29 28 34 32 30 36 34 32 38 36 47 53 51 49 55 53 51 57 55 54 60 58 58 64 62 61 67 65 63 69 67 65 71 69 65 71 69 66 72 70 69 75 73 72 78 76 75 81 79 79 85 83 81 87 85 83 87 86 79 81 78 72 72 70 59 59 57 47 47 45 40 40 38 39 39 37 42 42 40 45 45 43 40 40 38 40 40 38 40 40 38 40 40 38 40 40 38 40 40 38 40 40 38 40 40 38 38 37 35 38 37 35 38 37 35 38 37 35 38 37 35 38 37 35 38 37 35 38 37 35 38 37 35 38 37 35 38 37 35 38 37 35 38 37 35 38 37 35 38 37 35 38 37 35
11 4 20 9 2 18 7 0 16 7 0 16 3 0 12 3 0 12 3 0 12 3 0 12 3 0 12 3 0 12 3 0 12 1 0 12 6 2 19 5 2 19 5 2 19 5 2 19 5 2 19 5 2 19 5 2 19 5 2 19 5 2 19 5 2 19 5 2 19 5 2 19 5 2 19 5 2 19 5 2 19 5 2 19 4 3 17 4 3 17 4 3 17 4 3 17 4 3 17 4 3 17 4 3 17 4 3 17 5 4 18 5 4 18 5 4 18 5 4 18 5 4 18 5 4 18 5 4 18 5 4 18 4 6 19 4 6 19 4 6 19 4 6 19 4 6 19 4 6 19 4 6 19 4 6 19 6 8 21 6 8 21 6 8 21 6 8 21 6 8 21 6 8 21 6 8 21 6 8 20 7 11 22 7 11 20 7 11 20 7 11 20 7 11 20 7 11 20 7 11 20 7 11 20 7 11 20 7 11 20 7 11 20 7 11 20 7 11 20 7 11 20 7 11 20 7 11 20 6 13 19 6 13 19 6 13 19 6 13 19 6 13 19 6 13 19 6 13 19 6 13 19 8 15 21 8 15 21 8 15 21 8 15 21 8 15 21 8 15 21 8 15 21 8 15 21 4 9 13 6 11 15 8 13 17 11 16 20 15 20 24 18 23 27 20 25 29 22 27 31 37 42 46 29 34 38 16 21 25 4 9 13 0 2 6 0 1 5 0 4 8 2 7 10 2 8 8 2 8 6 2 8 6 2 8 6 2 8 6 2 8 6 2 8 6 2 8 6 14 20 18 16 22 20 18 24 22 21 27 25 25 31 29 28 34 32 30 36 34 32 38 36 47 53 51 49 55 53 51 57 55 54 60 58 58 64 62 61 67 65 63 69 67 65 71 69 64 70 68 65 71 69 67 73 71 71 77 75 74 80 78 77 83 81 80 86 84 82 86 85 79 81 78 72 72 70 59 59 57 47 47 45 40 40 38 39 39 37 42 42 40 45 45 43 40 40 38 40 40 38 40 40 38 40 40 38 40 40 38 40 40 38 40 40 38 40 40 38 38 37 35 38 37 35 38 37 35 38 37 35 38 37 35 38 37 35 38 37 35 38 37 35 38 37 35 38 37 35 38 37 35 38 37 35 38 37 35 38 37 35 38 37 35 38 37 35
8 1 17 8 1 17 8 1 17 8 1 17 7 0 16 7 0 16 7 0 16 7 0 16 7 0 16 7 0 16 7 0 16 5 1 16 6 2 19 5 2 19 5 2 19 5 2 19 5 2 19 5 2 19 5 2 19 5 2 19 7 4 21 7 4 21 7 4 21 7 4 21 7 4 21 7 4 21 7 4 21 7 4 21 7 6 20 7 6 20 7 6 20 7 6 20 7 6 20 7 6 20 7 6 20 7 6 20 7 6 20 7 6 20 7 6 20 7 6 20 7 6 20 7 6 20 7 6 20 7 6 20 5 7 20 5 7 20 5 7 20 5 7 20 5 7 20 5 7 20 5 7 20 5 7 20 7 9 22 7 9 22 7 9 22 7 9 22 7 9 22 7 9 22 7 9 22 7 9 21 6 10 21 6 10 19 6 10 19 6 10 19 6 10 19 6 10 19 6 10 19 6 10 19 7 11 20 7 11 20 7 11 20 7 11 20 7 11 20 7 11 20 7 11 20 7 11 20 8 15 21 8 15 21 8 15 21 8 15 21 8 15 21 8 15 21 8 15 21 8 15 21 10 17 23 11 18 24 13 20 26 17 24 30 20 27 33 23 30 36 26 33 39 27 34 40 40 45 49 38 43 47 36 41 45 33 38 42 29 34 38 26 31 35 24 29 33 22 27 31 18 23 27 16 21 25 14 19 23 11 16 20 7 12 16 4 9 13 2 7 11 0 5 8 4 10 10 4 10 8 4 10 8 4 10 8 4 10 8 4 10 8 4 10 8 4 10 8 12 18 16 14 20 18 16 22 20 19 25 23 23 29 27 26 32 30 28 34 32 30 36 34 37 43 41 39 45 43 41 47 45 44 50 48 48 54 52 51 57 55 53 59 57 55 61 59 68 74 72 68 74 72 68 74 72 68 74 72 68 74 72 68 74 72 68 74 72 69 73 72 62 64 61 61 61 59 56 56 54 49 49 47 43 43 41 36 36 34 31 31 29 29 29 27 32 32 30 32 32 30 32 32 30 32 32 30 32 32 30 32 32 30 32 32 30 32 32 30 34 33 31 34 33 31 34 33 31 34 33 31 34 33 31 34 33 31 34 33 31 34 33 31 37 36 34 37 36 34 37 36 34 37 36 34 37 36 34 37 36 34 37 36 34 37 36 34
8 1 17 8 1 17 8 1 17 8 1 17 7 0 16 7 0 16 7 0 16 7 0 16 7 0 16 7 0 16 7 0 16 5 1 16 6 2 19 5 2 19 5 2 19 5 2 19 5 2 19 5 2 19 5 2 19 5 2 19 7 4 21 7 4 21 7 4 21 7 4 21 7 4 21 7 4 21 7 4 21 7 4 21 7 6 20 7 6 20 7 6 20 7 6 20 7 6 20 7 6 20 7 6 20 7 6 20 7 6 20 7 6 20 7 6 20 7 6 20 7 6 20 7 6 20 7 6 20 7 6 20 5 7 20 5 7 20 5 7 20 5 7 20 5 7 20 5 7 20 5 7 20 5 7 20 7 9 22 7 9 22 7 9 22 7 9 22 7 9 22 7 9 22 7 9 22 7 9 21 6 10 21 6 10 19 6 10 19 6 10 19 6 10 19 6 10 19 6 10 19 6 10 19 7 11 20 7 11 20 7 11 20 7 11 20 7 11 20 7 11 20 7 11 20 7 11 20 8 15 21 8 15 21 8 15 21 8 15 21 8 15 21 8 15 21 8 15 21 8 15 21 11 18 24 12 19 25 15 22 28 18 25 31 21 28 34 25 32 38 27 34 40 28 35 41 40 45 49 38 43 47 36 41 45 33 38 42 29 34 38 26 31 35 24 29 33 22 27 31 18 23 27 16 21 25 14 19 23 11 16 20 7 12 16 4 9 13 2 7 11 0 5 8 4 10 10 4 10 8 4 10 8 4 10 8 4 10 8 4 10 8 4 10 8 4 10 8 12 18 16 14 20 18 16 22 20 19 25 23 23 29 27 26 32 30 28 34 32 30 36 34 37 43 41 39 45 43 41 47 45 44 50 48 48 54 52 51 57 55 53 59 57 55 61 59 66 72 70 66 72 70 66 72 70 66 72 70 66 72 70 66 72 70 66 72 70 67 71 70 62 64 61 61 61 59 56 56 54 49 49 47 43 43 41 36 36 34 31 31 29 29 29 27 32 32 30 32 32 30 32 32 30 32 32 30 32 32 30 32 32 30 32 32 30 32 32 30 34 33 31 34 33 31 34 33 31 34 33 31 34 33 31 34 33 31 34 33 31 34 33 31 37 36 34 37 36 34 37 36 34 37 36 34 37 36 34 37 36 34 37 36 34 37 36 34
8 1 17 8 1 17 8 1 17 8 1 17 7 0 16 7 0 16 7 0 16 7 0 16 7 0 16 7 0 16 7 0 16 5 1 16 6 2 19 5 2 19 5 2 19 5 2 19 5 2 19 5 2 19 5 2 19 5 2 19 7 4 21 7 4 21 7 4 21 7 4 21 7 4 21 7 4 21 7 4 21 7 4 21 7 6 20 7 6 20 7 6 20 7 6 20 7 6 20 7 6 20 7 6 20 7 6 20 7 6 20 7 6 20 7 6 20 7 6 20 7 6 20 7 6 20 7 6 20 7 6 20 5 7 20 5 7 20 5 7 20 5 7 20 5 7 20 5 7 20 5 7 20 5 7 20 7 9 22 7 9 22 7 9 22 7 9 22 7 9 22 7 9 22 7 9 22 7 9 21 6 10 21 6 10 19 6 10 19 6 10 19 6 10 19 6 10 19 6 10 19 6 10 19 7 11 20 7 11 20 7 11 20 7 11 20 7 11 20 7 11 20 7 11 20 7 11 20 8 15 21 8 15 21 8 15 21 8 15 21 8 15 21 8 15 21 8 15 21 8 15 21 13 20 26 15 22 28 17 24 30 20 27 33 24 31 37 27 34 40 29 36 42 31 38 44 40 45 49 38 43 47 36 41 45 33 38 42 29 34 38 26 31 35 24 29 33 22 27 31 18 23 27 16 21 25 14 19 23 11 16 20 7 12 16 4 9 13 2 7 11 0 5 8 4 10 10 4 10 8 4 10 8 4 10 8 4 10 8 4 10 8 4 10 8 4 10 8 12 18 16 14 20 18 16 22 20 19 25 23 23 29 27 26 32 30 28 34 32 30 36 34 37 43 41 39 45 43 41 47 45 44 50 48 48 54 52 51 57 55 53 59 57 55 61 59 64 70 68 64 70 68 64 70 68 64 70 68 64 70 68 64 70 68 64 70 68 65 69 68 62 64 61 61 61 59 56 56 54 49 49 47 43 43 41 36 36 34 31 31 29 29 29 27 32 32 30 32 32 30 32 32 30 32 32 30 32 32 30 32 32 30 32 32 30 32 32 30 34 33 31 34 33 31 34 33 31 34 33 31 34 33 31 34 33 31 34 33 31 34 33 31 37 36 34 37 36 34 37 36 34 37 36 34 37 36 34 37 36 34 37 36 34 37 36 34
8 1 17 8 1 17 8 1 17 8 1 17 7 0 16 7 0 16 7 0 16 7 0 16 7 0 16 7 0 16 7 0 16 5 1 16 6 2 19 5 2 19 5 2 19 5 2 19 5 2 19 5 2 19 5 2 19 5 2 19 7 4 21 7 4 21 7 4 21 7 4 21 7 4 21 7 4 21 7 4 21 7 4 21 7 6 20 7 6 20 7 6 20 7 6 20 7 6 20 7 6 20 7 6 20 7 6 20 7 6 20 7 6 20 7 6 20 7 6 20 7 6 20 7 6 20 7 6 20 7 6 20 5 7 20 5 7 20 5 7 20 5 7 20 5 7 20 5 7 20 5 7 20 5 7 20 7 9 22 7 9 22 7 9 22 7 9 22 7 9 22 7 9 22 7 9 22 7 9 21 6 10 21 6 10 19 6 10 19 6 10 19 6 10 19 6 10 19 6 10 19 6 10 19 7 11 20 7 11 20 7 11 20 7 11 20 7 11 20 7 11 20 7 11 20 7 11 20 8 15 21 8 15 21 8 15 21 8 15 21 8 15 21 8 15 21 8 15 21 8 15 21 17 24 30 18 25 31 20 27 33 24 31 37 27 34 40 30 37 43 33 40 46 34 41 47 40 45 49 38 43 47 36 41 45 33 38 42 29 34 38 26 31 35 24 29 33 22 27 31 18 23 27 16 21 25 14 19 23 11 16 20 7 12 16 4 9 13 2 7 11 0 5 8 4 10 10 4 10 8 4 10 8 4 10 8 4 10 8 4 10 8 4 10 8 4 10 8 12 18 16 14 20 18 16 22 20 19 25 23 23 29 27 26 32 30 28 34 32 30 36 34 37 43 41 39 45 43 41 47 45 44 50 48 48 54 52 51 57 55 53 59 57 55 61 59 61 67 65 61 67 65 61 67 65 61 67 65 61 67 65 61 67 65 61 67 65 62 66 65 62 64 61 61 61 59 56 56 54 49 49 47 43 43 41 36 36 34 31 31 29 29 29 27 32 32 30 32 32 30 32 32 30 32 32 30 32 32 30 32 32 30 32 32 30 32 32 30 34 33 31 34 33 31 34 33 31 34 33 31 34 33 31 34 33 31 34 33 31 34 33 31 37 36 34 37 36 34 37 36 34 37 36 34 37 36 34 37 36 34 37 36 34 37 36 34
8 1 17 8 1 17 8 1 17 8 1 17 7 0 16 7 0 16 7 0 16 7 0 16 7 0 16 7 0 16 7 0 16 5 1 16 6 2 19 5 2 19 5 2 19 5 2 19 5 2 19 5 2 19 5 2 19 5 2 19 7 4 21 7 4 21 7 4 21 7 4 21 7 4 21 7 4 21 7 4 21 7 4 21 7 6 20 7 6 20 7 6 20 7 6 20 7 6 20 7 6 20 7 6 20 7 6 20 7 6 20 7 6 20 7 6 20 7 6 20 7 6 20 7 6 20 7 6 20 7 6 20 5 7 20 5 7 20 5 7 20 5 7 20 5 7 20 5 7 20 5 7 20 5 7 20 7 9 22 7 9 22 7 9 22 7 9 22 7 9 22 7 9 22 7 9 22 7 9 21 6 10 21 6 10 19 6 10 19 6 10 19 6 10 19 6 10 19 6 10 19 6 10 19 7 11 20 7 11 20 7 11 20 7 11 20 7 11 20 7 11 20 7 11 20 7 11 20 8 15 21 8 15 21 8 15 21 8 15 21 8 15 21 8 15 21 8 15 21 8 15 21 20 27 33 21 28 34 24 31 37 27 34 40 30 37 43 34 41 47 36 43 49 37 44 50 40 45 49 38 43 47 36 41 45 33 38 42 29 34 38 26 31 35 24 29 33 22 27 31 18 23 27 16 21 25 14 19 23 11 16 20 7 12 16 4 9 13 2 7 11 0 5 8 4 10 10 4 10 8 4 10 8 4 10 8 4 10 8 4 10 8 4 10 8 4 10 8 12 18 16 14 20 18 16 22 20 19 25 23 23 29 27 26 32 30 28 34 32 30 36 34 37 43 41 39 45 43 41 47 45 44 50 48 48 54 52 51 57 55 53 59 57 55 61 59 57 63 61 57 63 61 57 63 61 57 63 61 57 63 61 57 63 61 57 63 61 58 62 61 62 64 61 61 61 59 56 56 54 49 49 47 43 43 41 36 36 34 31 31 29 29 29 27 32 32 30 32 32 30 32 32 30 32 32 30 32 32 30 32 32 30 32 32 30 32 32 30 34 33 31 34 33 31 34 33 31 34 33 31 34 33 31 34 33 31 34 33 31 34 33 31 37 36 34 37 36 34 37 36 34 37 36 34 37 36 34 37 36 34 37 36 34 37 36 34
8 1 17 8 1 17 8 1 17 8 1 17 7 0 16 7 0 16 7 0 16 7 0 16 7 0 16 7 0 16 7 0 16 5 1 16 6 2 19 5 2 19 5 2 19 5 2 19 5 2 19 5 2 19 5 2 19 5 2 19 7 4 21 7 4 21 7 4 21 7 4 21 7 4 21 7 4 21 7 4 21 7 4 21 7 6 20 7 6 20 7 6 20 7 6 20 7 6 20 7 6 20 7 6 20 7 6 20 7 6 20 7 6 20 7 6 20 7 6 20 7 6 20 7 6 20 7 6 20 7 6 20 5 7 20 5 7 20 5 7 20 5 7 20 5 7 20 5 7 20 5 7 20 5 7 20 7 9 22 7 9 22 7 9 22 7 9 22 7 9 22 7 9 22 7 9 22 7 9 21 6 10 21 6 10 19 6 10 19 6 10 19 6 10 19 6 10 19 6 10 19 6 10 19 7 11 20 7 11 20 7 11 20 7 11 20 7 11 20 7 11 20 7 11 20 7 11 20 8 15 21 8 15 21 8 15 21 8 15 21 8 15 21 8 15 21 8 15 21 8 15 21 23 30 36 25 32 38 27 34 40 30 37 43 34 41 47 37 44 50 39 46 52 41 48 54 40 45 49 38 43 47 36 41 45 33 38 42 29 34 38 26 31 35 24 29 33 22 27 31 18 23 27 16 21 25 14 19 23 11 16 20 7 12 16 4 9 13 2 7 11 0 5 8 4 10 10 4 10 8 4 10 8 4 10 8 4 10 8 4 10 8 4 10 8 4 10 8 12 18 16 14 20 18 16 22 20 19 25 23 23 29 27 26 32 30 28 34 32 30 36 34 37 43 41 39 45 43 41 47 45 44 50 48 48 54 52 51 57 55 53 59 57 55 61 59 54 60 58 54 60 58 54 60 58 54 60 58 54 60 58 54 60 58 54 60 58 55 59 58 62 64 61 61 61 59 56 56 54 49 49 47 43 43 41 36 36 34 31 31 29 29 29 27 32 32 30 32 32 30 32 32 30 32 32 30 32 32 30 32 32 30 32 32 30 32 32 30 34 33 31 34 33 31 34 33 31 34 33 31 34 33 31 34 33 31 34 33 31 34 33 31 37 36 34 37 36 34 37 36 34 37 36 34 37 36 34 37 36 34 37 36 34 37 36 34
8 1 17 8 1 17 8 1 17 8 1 17 7 0 16 7 0 16 7 0 16 7 0 16 7 0 16 7 0 16 7 0 16 5 1 16 6 2 19 5 2 19 5 2 19 5 2 19 5 2 19 5 2 19 5 2 19 5 2 19 7 4 21 7 4 21 7 4 21 7 4 21 7 4 21 7 4 21 7 4 21 7 4 21 7 6 20 7 6 20 7 6 20 7 6 20 7 6 20 7 6 20 7 6 20 7 6 20 7 6 20 7 6 20 7 6 20 7 6 20 7 6 20 7 6 20 7 6 20 7 6 20 5 7 20 5 7 20 5 7 20 5 7 20 5 7 20 5 7 20 5 7 20 5 7 20 7 9 22 7 9 22 7 9 22 7 9 22 7 9 22 7 9 22 7 9 22 7 9 21 6 10 21 6 10 19 6 10 19 6 10 19 6 10 19 6 10 19 6 10 19 6 10 19 7 11 20 7 11 20 7 11 20 7 11 20 7 11 20 7 11 20 7 11 20 7 11 20 8 15 21 8 15 21 8 15 21 8 15 21 8 15 21 8 15 21 8 15 21 8 15 21 26 33 39 27 34 40 29 36 42 33 40 46 36 43 49 39 46 52 42 49 55 43 50 56 40 45 49 38 43 47 36 41 45 33 38 42 29 34 38 26 31 35 24 29 33 22 27 31 18 23 27 16 21 25 14 19 23 11 16 20 7 12 16 4 9 13 2 7 11 0 5 8 4 10 10 4 10 8 4 10 8 4 10 8 4 10 8 4 10 8 4 10 8 4 10 8 12 18 16 14 20 18 16 22 20 19 25 23 23 29 27 26 32 30 28 34 32 30 36 34 37 43 41 39 45 43 41 47 45 44 50 48 48 54 52 51 57 55 53 59 57 55 61 59 52 58 56 52 58 56 52 58 56 52 58 56 52 58 56 52 58 56 52 58 56 53 57 56 62 64 61 61 61 59 56 56 54 49 49 47 43 43 41 36 36 34 31 31 29 29 29 27 32 32 30 32 32 30 32 32 30 32 32 30 32 32 30 32 32 30 32 32 30 32 32 30 34 33 31 34 33 31 34 33 31 34 33 31 34 33 31 34 33 31 34 33 31 34 33 31 37 36 34 37 36 34 37 36 34 37 36 34 37 36 34 37 36 34 37 36 34 37 36 34
8 1 17 6 2 17 8 1 17 6 2 17 7 0 16 5 1 16 7 0 16 5 1 16 7 0 16 5 1 16 7 0 16 5 1 16 5 2 19 5 2 19 5 2 19 5 2 19 5 2 19 5 2 19 5 2 19 5 2 19 7 4 21 7 4 21 7 4 21 7 4 21 7 4 21 7 4 21 7 4 21 7 4 21 7 6 20 7 6 20 7 6 20 7 6 20 7 6 20 7 6 20 7 6 20 7 6 20 7 6 20 7 6 20 7 6 20 7 6 20 7 6 20 7 6 20 7 6 20 7 6 20 5 7 20 5 7 19 5 7 20 5 7 19 5 7 20 5 7 19 5 7 20 5 7 19 7 9 22 7 9 21 7 9 22 7 9 21 7 9 22 7 9 21 7 9 22 6 10 21 6 10 19 6 10 19 6 10 19 6 10 19 6 10 19 6 10 19 6 10 19 6 10 19 7 11 20 7 11 20 7 11 20 7 11 20 7 11 20 7 11 20 7 11 20 7 11 20 8 15 21 8 15 21 8 15 21 8 15 21 8 15 21 8 15 21 8 15 21 8 15 21 27 34 40 28 35 41 31 38 44 34 41 47 37 44 50 41 48 54 43 50 56 44 51 57 40 45 49 38 43 47 36 41 45 33 38 42 29 34 38 26 31 35 24 29 33 22 27 31 18 23 27 16 21 25 14 19 23 11 16 20 7 12 16 4 9 13 2 7 11 0 5 8 4 10 10 4 10 8 4 10 10 4 10 8 4 10 10 4 10 8 4 10 10 4 10 8 12 18 18 14 20 18 16 22 22 19 25 23 23 29 29 26 32 30 28 34 34 30 36 34 37 43 41 39 45 43 41 47 45 44 50 48 48 54 52 51 57 55 53 59 57 55 61 59 50 56 54 50 56 54 50 56 54 50 56 54 50 56 54 50 56 54 50 56 54 51 55 54 62 64 61 61 61 59 56 56 54 49 49 47 43 43 41 36 36 34 31 31 29 29 29 27 32 32 30 32 32 30 32 32 30 32 32 30 32 32 30 32 32 30 32 32 30 33 32 30 34 33 31 34 33 31 36 32 31 34 33 31 36 32 31 34 33 31 36 32 31 34 33 31 39 35 34 37 36 34 39 35 34 37 36 34 39 35 34 37 36 34 39 35 34 37 36 34
6 2 16 5 3 16 6 2 16 5 3 16 6 2 16 5 3 16 6 2 16 5 3 16 6 2 16 5 3 16 6 2 16 5 3 16 5 3 17 5 3 17 5 3 17 5 3 17 5 3 17 5 3 17 5 3 17 5 3 17 5 3 17 5 3 17 5 3 17 5 3 17 5 3 17 5 3 17 5 3 17 5 3 17 6 4 18 6 4 18 6 4 18 6 4 18 6 4 18 6 4 18 6 4 18 6 4 18 5 3 17 5 3 17 5 3 17 5 3 17 5 3 17 5 3 17 5 3 17 4 3 17 2 4 16 1 5 14 1 5 16 1 5 14 1 5 16 1 5 14 1 5 16 1 5 14 5 9 20 5 9 18 5 9 20 5 9 18 5 9 20 5 9 18 5 9 20 5 9 18 7 11 20 5 12 18 5 12 18 5 12 18 5 12 18 5 12 18 5 12 18 5 12 18 3 10 16 3 10 16 3 10 16 3 10 16 3 10 16 3 10 16 3 10 16 3 10 16 12 19 25 13 20 26 16 23 29 19 26 32 22 29 35 26 33 39 28 35 41 29 36 42 41 48 54 41 48 54 41 48 54 41 48 54 41 48 54 41 48 54 41 48 54 41 48 54 48 53 57 46 51 54 44 49 52 41 46 49 37 42 45 34 39 42 32 37 40 30 35 38 17 22 25 15 20 23 13 18 21 10 15 18 6 11 14 3 8 11 1 6 9 0 4 7 5 13 15 5 14 13 5 13 15 5 14 13 5 13 15 5 14 13 5 13 15 5 14 13 10 18 20 12 21 20 14 22 24 17 26 25 21 29 31 24 33 32 26 34 36 28 37 36 36 42 42 36 42 42 36 42 42 36 42 42 36 42 42 36 42 42 36 42 42 36 42 42 50 56 56 50 56 56 50 56 56 50 56 56 50 56 56 50 56 56 50 56 56 51 55 54 45 45 43 44 43 41 42 41 39 39 38 36 35 34 32 32 31 29 30 29 27 28 27 25 33 32 30 33 32 30 33 32 30 33 32 30 33 32 30 33 32 30 33 32 30 33 32 30 36 32 29 36 32 29 37 32 29 36 32 29 37 32 29 36 32 29 37 32 29 36 32 29 38 33 30 37 33 30 38 33 30 37 33 30 38 33 30 37 33 30 38 33 30 37 33 30
5 3 16 5 3 16 5 3 16 5 3 16 5 3 16 5 3 16 5 3 16 5 3 16 5 3 16 5 3 16 5 3 16 5 3 16 5 3 17 5 3 17 5 3 17 5 3 17 5 3 17 5 3 17 5 3 17 5 3 17 5 3 17 5 3 17 5 3 17 5 3 17 5 3 17 5 3 17 5 3 17 5 3 17 6 4 18 6 4 18 6 4 18 6 4 18 6 4 18 6 4 18 6 4 18 6 4 18 5 3 17 5 3 17 5 3 17 5 3 17 5 3 17 5 3 17 5 3 17 4 4 16 2 4 16 1 5 14 1 5 14 1 5 14 1 5 14 1 5 14 1 5 14 1 5 14 5 9 18 5 9 18 5 9 18 5 9 18 5 9 18 5 9 18 5 9 18 5 9 18 5 12 18 5 12 18 5 12 18 5 12 18 5 12 18 5 12 18 5 12 18 5 12 18 5 12 18 5 12 18 5 12 18 5 12 18 5 12 18 5 12 18 5 12 18 5 12 18 15 22 28 16 23 29 18 25 31 22 29 35 25 32 38 28 35 41 31 38 44 32 39 45 43 50 56 43 50 56 43 50 56 43 50 56 43 50 56 43 50 56 43 50 56 43 51 54 48 53 57 46 51 54 44 49 52 41 46 49 37 42 45 34 39 42 32 37 40 30 35 38 17 22 25 15 20 23 13 18 21 10 15 18 6 11 14 3 8 11 1 6 9 0 4 7 5 13 15 5 13 15 5 13 15 5 13 15 5 13 15 5 13 15 5 13 15 5 13 15 10 18 20 12 20 22 14 22 24 17 25 27 21 29 31 24 32 34 26 34 36 28 36 38 36 42 42 36 42 42 36 42 42 36 42 42 36 42 42 36 42 42 36 42 42 36 42 42 48 54 54 48 54 54 48 54 54 48 54 54 48 54 54 48 54 54 48 54 54 49 53 52 45 45 45 44 43 41 42 41 39 39 38 36 35 34 32 32 31 29 30 29 27 28 27 25 33 32 30 33 32 30 33 32 30 33 32 30 33 32 30 33 32 30 33 32 30 33 32 30 37 32 29 37 32 29 37 32 29 37 32 29 37 32 29 37 32 29 37 32 29 37 32 29 38 33 30 38 33 30 38 33 30 38 33 30 38 33 30 38 33 30 38 33 30 38 33 30
5 3 16 5 3 16 5 3 16 5 3 16 5 3 16 5 3 16 5 3 16 5 3 16 5 3 16 5 3 16 5 3 16 5 3 16 5 3 17 5 3 17 5 3 17 5 3 17 5 3 17 5 3 17 5 3 17 5 3 17 5 3 17 5 3 17 5 3 17 5 3 17 5 3 17 5 3 17 5 3 17 5 3 17 6 4 18 6 4 18 6 4 18 6 4 18 6 4 18 6 4 18 6 4 18 6 4 18 5 3 17 5 3 17 5 3 17 5 3 17 5 3 17 5 3 17 5 3 17 4 4 16 2 4 16 1 5 14 1 5 14 1 5 14 1 5 14 1 5 14 1 5 14 1 5 14 5 9 18 5 9 18 5 9 18 5 9 18 5 9 18 5 9 18 5 9 18 5 9 18 5 12 18 5 12 18 5 12 18 5 12 18 5 12 18 5 12 18 5 12 18 5 12 18 7 14 20 7 14 20 7 14 20 7 14 20 7 14 20 7 14 20 7 14 20 7 14 20 20 27 33 21 28 34 23 30 36 26 33 39 30 37 43 33 40 46 36 43 49 37 44 50 45 52 58 45 52 58 45 52 58 45 52 58 45 52 58 45 52 58 45 52 58 45 53 56 48 53 57 46 51 54 44 49 52 41 46 49 37 42 45 34 39 42 32 37 40 30 35 38 17 22 25 15 20 23 13 18 21 10 15 18 6 11 14 3 8 11 1 6 9 0 4 7 5 13 15 5 13 15 5 13 15 5 13 15 5 13 15 5 13 15 5 13 15 5 13 15 10 18 20 12 20 22 14 22 24 17 25 27 21 29 31 24 32 34 26 34 36 28 36 38 36 42 42 36 42 42 36 42 42 36 42 42 36 42 42 36 42 42 36 42 42 36 42 42 46 52 52 46 52 52 46 52 52 46 52 52 46 52 52 46 52 52 46 52 52 47 51 50 45 45 45 44 43 41 42 41 39 39 38 36 35 34 32 32 31 29 30 29 27 28 27 25 33 32 30 33 32 30 33 32 30 33 32 30 33 32 30 33 32 30 33 32 30 33 32 30 37 32 29 37 32 29 37 32 29 37 32 29 37 32 29 37 32 29 37 32 29 37 32 29 38 33 30 38 33 30 38 33 30 38 33 30 38 33 30 38 33 30 38 33 30 38 33 30
5 3 16 5 3 16 5 3 16 5 3 16 5 3 16 5 3 16 5 3 16 5 3 16 5 3 16 5 3 16 5 3 16 5 3 16 5 3 17 5 3 17 5 3 17 5 3 17 5 3 17 5 3 17 5 3 17 5 3 17 5 3 17 5 3 17 5 3 17 5 3 17 5 3 17 5 3 17 5 3 17 5 3 17 6 4 18 6 4 18 6 4 18 6 4 18 6 4 18 6 4 18 6 4 18 6 4 18 5 3 17 5 3 17 5 3 17 5 3 17 5 3 17 5 3 17 5 3 17 4 4 16 2 4 16 1 5 14 1 5 14 1 5 14 1 5 14 1 5 14 1 5 14 1 5 14 5 9 18 5 9 18 5 9 18 5 9 18 5 9 18 5 9 18 5 9 18 5 9 18 5 12 18 5 12 18 5 12 18 5 12 18 5 12 18 5 12 18 5 12 18 5 12 18 10 17 23 10 17 23 10 17 23 10 17 23 10 17 23 10 17 23 10 17 23 10 17 23 26 33 39 27 34 40 30 37 43 33 40 46 36 43 49 39 46 52 42 49 55 43 50 56 48 55 61 48 55 61 48 55 61 48 55 61 48 55 61 48 55 61 48 55 61 48 56 59 48 53 57 46 51 54 44 49 52 41 46 49 37 42 45 34 39 42 32 37 40 30 35 38 17 22 25 15 20 23 13 18 21 10 15 18 6 11 14 3 8 11 1 6 9 0 4 7 5 13 15 5 13 15 5 13 15 5 13 15 5 13 15 5 13 15 5 13 15 5 13 15 10 18 20 12 20 22 14 22 24 17 25 27 21 29 31 24 32 34 26 34 36 28 36 38 36 42 42 36 42 42 36 42 42 36 42 42 36 42 42 36 42 42 36 42 42 36 42 42 43 49 49 43 49 49 43 49 49 43 49 49 43 49 49 43 49 49 43 49 49 44 48 47 45 45 45 44 43 41 42 41 39 39 38 36 35 34 32 32 31 29 30 29 27 28 27 25 33 32 30 33 32 30 33 32 30 33 32 30 33 32 30 33 32 30 33 32 30 33 32 30 37 32 29 37 32 29 37 32 29 37 32 29 37 32 29 37 32 29 37 32 29 37 32 29 38 33 30 38 33 30 38 33 30 38 33 30 38 33 30 38 33 30 38 33 30 38 33 30
5 3 16 5 3 16 5 3 16 5 3 16 5 3 16 5 3 16 5 3 16 5 3 16 5 3 16 5 3 16 5 3 16 5 3 16 5 3 17 5 3 17 5 3 17 5 3 17 5 3 17 5 3 17 5 3 17 5 3 17 5 3 17 5 3 17 5 3 17 5 3 17 5 3 17 5 3 17 5 3 17 5 3 17 6 4 18 6 4 18 6 4 18 6 4 18 6 4 18 6 4 18 6 4 18 6 4 18 5 3 17 5 3 17 5 3 17 5 3 17 5 3 17 5 3 17 5 3 17 4 4 16 2 4 16 1 5 14 1 5 14 1 5 14 1 5 14 1 5 14 1 5 14 1 5 14 5 9 18 5 9 18 5 9 18 5 9 18 5 9 18 5 9 18 5 9 18 5 9 18 5 12 18 5 12 18 5 12 18 5 12 18 5 12 18 5 12 18 5 12 18 5 12 18 14 21 27 14 21 27 14 21 27 14 21 27 14 21 27 14 21 27 14 21 27 14 21 27 33 40 46 34 41 47 37 44 50 40 47 53 43 50 56 46 53 59 49 56 62 50 57 63 52 59 65 52 59 65 52 59 65 52 59 65 52 59 65 52 59 65 52 59 65 52 60 63 48 53 57 46 51 54 44 49 52 41 46 49 37 42 45 34 39 42 32 37 40 30 35 38 17 22 25 15 20 23 13 18 21 10 15 18 6 11 14 3 8 11 1 6 9 0 4 7 5 13 15 5 13 15 5 13 15 5 13 15 5 13 15 5 13 15 5 13 15 5 13 15 10 18 20 12 20 22 14 22 24 17 25 27 21 29 31 24 32 34 26 34 36 28 36 38 36 42 42 36 42 42 36 42 42 36 42 42 36 42 42 36 42 42 36 42 42 36 42 42 39 45 45 39 45 45 39 45 45 39 45 45 39 45 45 39 45 45 39 45 45 40 44 43 45 45 45 44 43 41 42 41 39 39 38 36 35 34 32 32 31 29 30 29 27 28 27 25 33 32 30 33 32 30 33 32 30 33 32 30 33 32 30 33 32 30 33 32 30 33 32 30 37 32 29 37 32 29 37 32 29 37 32 29 37 32 29 37 32 29 37 32 29 37 32 29 38 33 30 38 33 30 38 33 30 38 33 30 38 33 30 38 33 30 38 33 30 38 33 30
5 3 16 5 3 16 5 3 16 5 3 16 5 3 16 5 3 16 5 3 16 5 3 16 5 3 16 5 3 16 5 3 16 5 3 16 5 3 17 5 3 17 5 3 17 5 3 17 5 3 17 5 3 17 5 3 17 5 3 17 5 3 17 5 3 17 5 3 17 5 3 17 5 3 17 5 3 17 5 3 17 5 3 17 6 4 18 6 4 18 6 4 18 6 4 18 6 4 18 6 4 18 6 4 18 6 4 18 5 3 17 5 3 17 5 3 17 5 3 17 5 3 17 5 3 17 5 3 17 4 4 16 2 4 16 1 5 14 1 5 14 1 5 14 1 5 14 1 5 14 1 5 14 1 5 14 5 9 18 5 9 18 5 9 18 5 9 18 5 9 18 5 9 18 5 9 18 5 9 18 5 12 18 5 12 18 5 12 18 5 12 18 5 12 18 5 12 18 5 12 18 5 12 18 17 24 30 17 24 30 17 24 30 17 24 30 17 24 30 17 24 30 17 24 30 17 24 30 39 46 52 40 47 53 43 50 56 46 53 59 50 57 63 53 60 66 55 62 68 56 63 69 55 62 68 55 62 68 55 62 68 55 62 68 55 62 68 55 62 68 55 62 68 55 63 66 48 53 57 46 51 54 44 49 52 41 46 49 37 42 45 34 39 42 32 37 40 30 35 38 17 22 25 15 20 23 13 18 21 10 15 18 6 11 14 3 8 11 1 6 9 0 4 7 5 13 15 5 13 15 5 13 15 5 13 15 5 13 15 5 13 15 5 13 15 5 13 15 10 18 20 12 20 22 14 22 24 17 25 27 21 29 31 24 32 34 26 34 36 28 36 38 36 42 42 36 42 42 36 42 42 36 42 42 36 42 42 36 42 42 36 42 42 36 42 42 36 42 42 36 42 42 36 42 42 36 42 42 36 42 42 36 42 42 36 42 42 37 41 40 45 45 45 44 43 41 42 41 39 39 38 36 35 34 32 32 31 29 30 29 27 28 27 25 33 32 30 33 32 30 33 32 30 33 32 30 33 32 30 33 32 30 33 32 30 33 32 30 37 32 29 37 32 29 37 32 29 37 32 29 37 32 29 37 32 29 37 32 29 37 32 29 38 33 30 38 33 30 38 33 30 38 33 30 38 33 30 38 33 30 38 33 30 38 33 30
5 3 16 5 3 16 5 3 16 5 3 16 5 3 16 5 3 16 5 3 16 5 3 16 5 3 16 5 3 16 5 3 16 5 3 16 5 3 17 5 3 17 5 3 17 5 3 17 5 3 17 5 3 17 5 3 17 5 3 17 5 3 17 5 3 17 5 3 17 5 3 17 5 3 17 5 3 17 5 3 17 5 3 17 6 4 18 6 4 18 6 4 18 6 4 18 6 4 18 6 4 18 6 4 18 6 4 18 5 3 17 5 3 17 5 3 17 5 3 17 5 3 17 5 3 17 5 3 17 4 4 16 2 4 16 1 5 14 1 5 14 1 5 14 1 5 14 1 5 14 1 5 14 1 5 14 5 9 18 5 9 18 5 9 18 5 9 18 5 9 18 5 9 18 5 9 18 5 9 18 5 12 18 5 12 18 5 12 18 5 12 18 5 12 18 5 12 18 5 12 18 5 12 18 19 26 32 19 26 32 19 26 32 19 26 32 19 26 32 19 26 32 19 26 32 19 26 32 44 51 57 45 52 58 48 55 61 51 58 64 54 61 67 58 65 71 60 67 73 61 68 74 57 64 70 57 64 70 57 64 70 57 64 70 57 64 70 57 64 70 57 64 70 57 65 68 48 53 57 46 51 54 44 49 52 41 46 49 37 42 45 34 39 42 32 37 40 30 35 38 17 22 25 15 20 23 13 18 21 10 15 18 6 11 14 3 8 11 1 6 9 0 4 7 5 13 15 5 13 15 5 13 15 5 13 15 5 13 15 5 13 15 5 13 15 5 13 15 10 18 20 12 20 22 14 22 24 17 25 27 21 29 31 24 32 34 26 34 36 28 36 38 36 42 42 36 42 42 36 42 42 36 42 42 36 42 42 36 42 42 36 42 42 36 42 42 34 40 40 34 40 40 34 40 40 34 40 40 34 40 40 34 40 40 34 40 40 35 39 38 45 45 45 44 43 41 42 41 39 39 38 36 35 34 32 32 31 29 30 29 27 28 27 25 33 32 30 33 32 30 33 32 30 33 32 30 33 32 30 33 32 30 33 32 30 33 32 30 37 32 29 37 32 29 37 32 29 37 32 29 37 32 29 37 32 29 37 32 29 37 32 29 38 33 30 38 33 30 38 33 30 38 33 30 38 33 30 38 33 30 38 33 30 38 33 30
5 3 16 5 3 16 5 3 16 5 3 16 5 3 16 5 3 16 5 3 16 5 3 16 5 3 16 5 3 16 5 3 16 5 3 16 5 3 17 5 3 17 5 3 17 5 3 17 5 3 17 5 3 17 5 3 17 5 3 17 5 3 17 5 3 17 5 3 17 5 3 17 5 3 17 5 3 17 5 3 17 5 3 17 6 4 18 6 4 18 6 4 18 6 4 18 6 4 18 6 4 18 6 4 18 6 4 18 5 3 17 5 3 17 5 3 17 5 3 17 5 3 17 5 3 17 5 3 17 4 4 16 2 4 16 1 5 14 1 5 14 1 5 14 1 5 14 1 5 14 1 5 14 1 5 14 5 9 18 5 9 18 5 9 18 5 9 18 5 9 18 5 9 18 5 9 18 5 9 18 5 12 18 5 12 18 5 12 18 5 12 18 5 12 18 5 12 18 5 12 18 5 12 18 21 28 34 21 28 34 21 28 34 21 28 34 21 28 34 21 28 34 21 28 34 21 28 34 47 54 60 48 55 61 50 57 63 54 61 67 57 64 70 60 67 73 63 70 76 64 71 77 59 66 72 59 66 72 59 66 72 59 66 72 59 66 72 59 66 72 59 66 72 59 67 70 48 53 57 46 51 54 44 49 52 41 46 49 37 42 45 34 39 42 32 37 40 30 35 38 17 22 25 15 20 23 13 18 21 10 15 18 6 11 14 3 8 11 1 6 9 0 4 7 5 13 15 5 13 15 5 13 15 5 13 15 5 13 15 5 13 15 5 13 15 5 13 15 10 18 20 12 20 22 14 22 24 17 25 27 21 29 31 24 32 34 26 34 36 28 36 38 36 42 42 36 42 42 36 42 42 36 42 42 36 42 42 36 42 42 36 42 42 36 42 42 32 38 38 32 38 38 32 38 38 32 38 38 32 38 38 32 38 38 32 38 38 33 37 36 45 45 45 44 43 41 42 41 39 39 38 36 35 34 32 32 31 29 30 29 27 28 27 25 33 32 30 33 32 30 33 32 30 33 32 30 33 32 30 33 32 30 33 32 30 33 32 30 37 32 29 37 32 29 37 32 29 37 32 29 37 32 29 37 32 29 37 32 29 37 32 29 38 33 30 38 33 30 38 33 30 38 33 30 38 33 30 38 33 30 38 33 30 38 33 30
5 3 16 5 3 16 5 3 16 5 3 16 3 1 14 3 1 14 3 1 14 3 1 14 3 1 14 3 1 14 3 1 14 3 1 14 5 3 17 5 3 17 5 3 17 5 3 17 5 3 17 5 3 17 5 3 17 5 3 17 6 4 18 6 4 18 6 4 18 6 4 18 6 4 18 6 4 18 6 4 18 6 4 18 5 3 17 5 3 17 5 3 17 5 3 17 5 3 17 5 3 17 5 3 17 5 3 17 6 4 18 6 4 18 6 4 18 6 4 18 6 4 18 6 4 18 6 4 18 5 5 17 6 8 20 5 9 18 5 9 18 5 9 18 5 9 18 5 9 18 5 9 18 5 9 18 8 12 21 8 12 21 8 12 21 8 12 21 8 12 21 8 12 21 8 12 21 8 12 21 7 14 20 6 13 19 6 13 19 4 11 17 3 10 16 2 9 15 1 8 14 0 7 13 14 21 27 17 24 30 23 30 36 31 38 44 39 46 52 46 53 59 52 59 65 55 62 68 64 71 77 64 71 77 64 71 77 64 71 77 64 71 77 64 71 77 64 71 77 64 71 77 59 66 72 59 66 72 59 66 72 59 66 72 59 66 72 59 66 72 59 66 72 59 67 70 49 54 58 47 52 55 45 50 53 42 47 50 38 43 46 35 40 43 33 38 41 31 36 39 10 15 18 10 15 18 10 15 18 10 15 18 10 15 18 10 15 18 10 15 18 10 15 18 8 16 18 8 16 18 8 16 18 8 16 18 8 16 18 8 16 18 8 16 18 8 16 18 10 18 20 12 20 22 14 22 24 17 25 27 21 29 31 24 32 34 26 34 36 28 36 38 26 32 32 26 32 32 26 32 32 26 32 32 26 32 32 26 32 32 26 32 32 26 32 32 27 33 33 27 33 33 27 33 33 27 33 33 27 33 33 27 33 33 27 33 33 28 32 31 29 29 29 30 29 27 30 29 27 30 29 27 30 29 27 30 29 27 30 29 27 30 29 27 32 31 29 32 31 29 32 31 29 32 31 29 32 31 29 32 31 29 32 31 29 32 31 29 37 32 29 37 32 29 37 32 29 37 32 29 37 32 29 37 32 29 37 32 29 37 32 29 37 32 29 37 32 29 37 32 29 37 32 29 37 32 29 37 32 29 37 32 29 37 32 29
5 3 16 5 3 16 5 3 16 5 3 16 3 1 14 3 1 14 3 1 14 3 1 14 3 1 14 3 1 14 3 1 14 3 1 14 5 3 17 5 3 17 5 3 17 5 3 17 5 3 17 5 3 17 5 3 17 5 3 17 6 4 18 6 4 18 6 4 18 6 4 18 6 4 18 6 4 18 6 4 18 6 4 18 5 3 17 5 3 17 5 3 17 5 3 17 5 3 17 5 3 17 5 3 17 5 3 17 6 4 18 6 4 18 6 4 18 6 4 18 6 4 18 6 4 18 6 4 18 5 5 17 6 8 20 5 9 18 5 9 18 5 9 18 5 9 18 5 9 18 5 9 18 5 9 18 8 12 21 8 12 21 8 12 21 8 12 21 8 12 21 8 12 21 8 12 21 8 12 21 8 15 21 8 15 21 7 14 20 7 14 20 6 13 19 5 12 18 5 12 18 5 12 18 18 25 31 21 28 34 27 34 40 34 41 47 41 48 54 48 55 61 53 60 66 56 63 69 64 71 77 64 71 77 64 71 77 64 71 77 64 71 77 64 71 77 64 71 77 64 71 77 59 66 72 59 66 72 59 66 72 59 66 72 59 66 72 59 66 72 59 66 72 59 67 70 49 54 58 47 52 55 45 50 53 42 47 50 38 43 46 35 40 43 33 38 41 31 36 39 10 15 18 10 15 18 10 15 18 10 15 18 10 15 18 10 15 18 10 15 18 10 15 18 8 16 18 8 16 18 8 16 18 8 16 18 8 16 18 8 16 18 8 16 18 8 16 18 10 18 20 12 20 22 14 22 24 17 25 27 21 29 31 24 32 34 26 34 36 28 36 38 26 32 32 26 32 32 26 32 32 26 32 32 26 32 32 26 32 32 26 32 32 26 32 32 27 33 33 27 33 33 27 33 33 27 33 33 27 33 33 27 33 33 27 33 33 28 32 31 29 29 29 30 29 27 30 29 27 30 29 27 30 29 27 30 29 27 30 29 27 30 29 27 32 31 29 32 31 29 32 31 29 32 31 29 32 31 29 32 31 29 32 31 29 32 31 29 37 32 29 37 32 29 37 32 29 37 32 29 37 32 29 37 32 29 37 32 29 37 32 29 37 32 29 37 32 29 37 32 29 37 32 29 37 32 29 37 32 29 37 32 29 37 32 29
5 3 16 5 3 16 5 3 16 5 3 16 3 1 14 3 1 14 3 1 14 3 1 14 3 1 14 3 1 14 3 1 14 3 1 14 5 3 17 5 3 17 5 3 17 5 3 17 5 3 17 5 3 17 5 3 17 5 3 17 6 4 18 6 4 18 6 4 18 6 4 18 6 4 18 6 4 18 6 4 18 6 4 18 5 3 17 5 3 17 5 3 17 5 3 17 5 3 17 5 3 17 5 3 17 5 3 17 6 4 18 6 4 18 6 4 18 6 4 18 6 4 18 6 4 18 6 4 18 5 5 17 6 8 20 5 9 18 5 9 18 5 9 18 5 9 18 5 9 18 5 9 18 5 9 18 8 12 21 8 12 21 8 12 21 8 12 21 8 12 21 8 12 21 8 12 21 8 12 21 9 16 22 10 17 23 10 17 23 11 18 24 12 19 25 12 19 25 13 20 26 13 20 26 27 34 40 29 36 42 33 40 46 39 46 52 45 52 58 51 58 64 55 62 68 58 65 71 64 71 77 64 71 77 64 71 77 64 71 77 64 71 77 64 71 77 64 71 77 64 71 77 59 66 72 59 66 72 59 66 72 59 66 72 59 66 72 59 66 72 59 66 72 59 67 70 49 54 58 47 52 55 45 50 53 42 47 50 38 43 46 35 40 43 33 38 41 31 36 39 10 15 18 10 15 18 10 15 18 10 15 18 10 15 18 10 15 18 10 15 18 10 15 18 8 16 18 8 16 18 8 16 18 8 16 18 8 16 18 8 16 18 8 16 18 8 16 18 10 18 20 12 20 22 14 22 24 17 25 27 21 29 31 24 32 34 26 34 36 28 36 38 26 32 32 26 32 32 26 32 32 26 32 32 26 32 32 26 32 32 26 32 32 26 32 32 27 33 33 27 33 33 27 33 33 27 33 33 27 33 33 27 33 33 27 33 33 28 32 31 29 29 29 30 29 27 30 29 27 30 29 27 30 29 27 30 29 27 30 29 27 30 29 27 32 31 29 32 31 29 32 31 29 32 31 29 32 31 29 32 31 29 32 31 29 32 31 29 37 32 29 37 32 29 37 32 29 37 32 29 37 32 29 37 32 29 37 32 29 37 32 29 37 32 29 37 32 29 37 32 29 37 32 29 37 32 29 37 32 29 37 32 29 37 32 29
5 3 16 5 3 16 5 3 16 5 3 16 3 1 14 3 1 14 3 1 14 3 1 14 3 1 14 3 1 14 3 1 14 3 1 14 5 3 17 5 3 17 5 3 17 5 3 17 5 3 17 5 3 17 5 3 17 5 3 17 6 4 18 6 4 18 6 4 18 6 4 18 6 4 18 6 4 18 6 4 18 6 4 18 5 3 17 5 3 17 5 3 17 5 3 17 5 3 17 5 3 17 5 3 17 5 3 17 6 4 18 6 4 18 6 4 18 6 4 18 6 4 18 6 4 18 6 4 18 5 5 17 6 8 20 5 9 18 5 9 18 5 9 18 5 9 18 5 9 18 5 9 18 5 9 18 8 12 21 8 12 21 8 12 21 8 12 21 8 12 21 8 12 21 8 12 21 8 12 21 11 18 24 12 19 25 14 21 27 16 23 29 19 26 32 21 28 34 23 30 36 24 31 37 38 45 51 39 46 52 42 49 55 46 53 59 51 58 64 55 62 68 58 65 71 60 67 73 64 71 77 64 71 77 64 71 77 64 71 77 64 71 77 64 71 77 64 71 77 64 71 77 59 66 72 59 66 72 59 66 72 59 66 72 59 66 72 59 66 72 59 66 72 59 67 70 49 54 58 47 52 55 45 50 53 42 47 50 38 43 46 35 40 43 33 38 41 31 36 39 10 15 18 10 15 18 10 15 18 10 15 18 10 15 18 10 15 18 10 15 18 10 15 18 8 16 18 8 16 18 8 16 18 8 16 18 8 16 18 8 16 18 8 16 18 8 16 18 10 18 20 12 20 22 14 22 24 17 25 27 21 29 31 24 32 34 26 34 36 28 36 38 26 32 32 26 32 32 26 32 32 26 32 32 26 32 32 26 32 32 26 32 32 26 32 32 27 33 33 27 33 33 27 33 33 27 33 33 27 33 33 27 33 33 27 33 33 28 32 31 29 29 29 30 29 27 30 29 27 30 29 27 30 29 27 30 29 27 30 29 27 30 29 27 32 31 29 32 31 29 32 31 29 32 31 29 32 31 29 32 31 29 32 31 29 32 31 29 37 32 29 37 32 29 37 32 29 37 32 29 37 32 29 37 32 29 37 32 29 37 32 29 37 32 29 37 32 29 37 32 29 37 32 29 37 32 29 37 32 29 37 32 29 37 32 29
5 3 16 5 3 16 5 3 16 5 3 16 3 1 14 3 1 14 3 1 14 3 1 14 3 1 14 3 1 14 3 1 14 3 1 14 5 3 17 5 3 17 5 3 17 5 3 17 5 3 17 5 3 17 5 3 17 5 3 17 6 4 18 6 4 18 6 4 18 6 4 18 6 4 18 6 4 18 6 4 18 6 4 18 5 3 17 5 3 17 5 3 17 5 3 17 5 3 17 5 3 17 5 3 17 5 3 17 6 4 18 6 4 18 6 4 18 6 4 18 6 4 18 6 4 18 6 4 18 5 5 17 6 8 20 5 9 18 5 9 18 5 9 18 5 9 18 5 9 18 5 9 18 5 9 18 8 12 21 8 12 21 8 12 21 8 12 21 8 12 21 8 12 21 8 12 21 8 12 21 13 20 26 15 22 28 18 25 31 22 29 35 27 34 40 31 38 44 34 41 47 35 42 48 49 56 62 50 57 63 52 59 65 54 61 67 57 64 70 59 66 72 61 68 74 62 69 75 64 71 77 64 71 77 64 71 77 64 71 77 64 71 77 64 71 77 64 71 77 64 71 77 59 66 72 59 66 72 59 66 72 59 66 72 59 66 72 59 66 72 59 66 72 59 67 70 49 54 58 47 52 55 45 50 53 42 47 50 38 43 46 35 40 43 33 38 41 31 36 39 10 15 18 10 15 18 10 15 18 10 15 18 10 15 18 10 15 18 10 15 18 10 15 18 8 16 18 8 16 18 8 16 18 8 16 18 8 16 18 8 16 18 8 16 18 8 16 18 10 18 20 12 20 22 14 22 24 17 25 27 21 29 31 24 32 34 26 34 36 28 36 38 26 32 32 26 32 32 26 32 32 26 32 32 26 32 32 26 32 32 26 32 32 26 32 32 27 33 33 27 33 33 27 33 33 27 33 33 27 33 33 27 33 33 27 33 33 28 32 31 29 29 29 30 29 27 30 29 27 30 29 27 30 29 27 30 29 27 30 29 27 30 29 27 32 31 29 32 31 29 32 31 29 32 31 29 32 31 29 32 31 29 32 31 29 32 31 29 37 32 29 37 32 29 37 32 29 37 32 29 37 32 29 37 32 29 37 32 29 37 32 29 37 32 29 37 32 29 37 32 29 37 32 29 37 32 29 37 32 29 37 32 29 37 32 29
5 3 16 5 3 16 5 3 16 5 3 16 3 1 14 3 1 14 3 1 14 3 1 14 3 1 14 3 1 14 3 1 14 3 1 14 5 3 17 5 3 17 5 3 17 5 3 17 5 3 17 5 3 17 5 3 17 5 3 17 6 4 18 6 4 18 6 4 18 6 4 18 6 4 18 6 4 18 6 4 18 6 4 18 5 3 17 5 3 17 5 3 17 5 3 17 5 3 17 5 3 17 5 3 17 5 3 17 6 4 18 6 4 18 6 4 18 6 4 18 6 4 18 6 4 18 6 4 18 5 5 17 6 8 20 5 9 18 5 9 18 5 9 18 5 9 18 5 9 18 5 9 18 5 9 18 8 12 21 8 12 21 8 12 21 8 12 21 8 12 21 8 12 21 8 12 21 8 12 21 15 22 28 18 25 31 22 29 35 28 35 41 34 41 47 40 47 53 44 51 57 46 53 59 60 67 73 60 67 73 61 68 74 61 68 74 62 69 75 63 70 76 63 70 76 64 71 77 64 71 77 64 71 77 64 71 77 64 71 77 64 71 77 64 71 77 64 71 77 64 71 77 59 66 72 59 66 72 59 66 72 59 66 72 59 66 72 59 66 72 59 66 72 59 67 70 49 54 58 47 52 55 45 50 53 42 47 50 38 43 46 35 40 43 33 38 41 31 36 39 10 15 18 10 15 18 10 15 18 10 15 18 10 15 18 10 15 18 10 15 18 10 15 18 8 16 18 8 16 18 8 16 18 8 16 18 8 16 18 8 16 18 8 16 18 8 16 18 10 18 20 12 20 22 14 22 24 17 25 27 21 29 31 24 32 34 26 34 36 28 36 38 26 32 32 26 32 32 26 32 32 26 32 32 26 32 32 26 32 32 26 32 32 26 32 32 27 33 33 27 33 33 27 33 33 27 33 33 27 33 33 27 33 33 27 33 33 28 32 31 29 29 29 30 29 27 30 29 27 30 29 27 30 29 27 30 29 27 30 29 27 30 29 27 32 31 29 32 31 29 32 31 29 32 31 29 32 31 29 32 31 29 32 31 29 32 31 29 37 32 29 37 32 29 37 32 29 37 32 29 37 32 29 37 32 29 37 32 29 37 32 29 37 32 29 37 32 29 37 32 29 37 32 29 37 32 29 37 32 29 37 32 29 37 32 29
5 3 16 5 3 16 5 3 16 5 3 16 3 1 14 3 1 14 3 1 14 3 1 14 3 1 14 3 1 14 3 1 14 3 1 14 5 3 17 5 3 17 5 3 17 5 3 17 5 3 17 5 3 17 5 3 17 5 3 17 6 4 18 6 4 18 6 4 18 6 4 18 6 4 18 6 4 18 6 4 18 6 4 18 5 3 17 5 3 17 5 3 17 5 3 17 5 3 17 5 3 17 5 3 17 5 3 17 6 4 18 6 4 18 6 4 18 6 4 18 6 4 18 6 4 18 6 4 18 5 5 17 6 8 20 5 9 18 5 9 18 5 9 18 5 9 18 5 9 18 5 9 18 5 9 18 8 12 21 8 12 21 8 12 21 8 12 21 8 12 21 8 12 21 8 12 21 8 12 21 17 24 30 20 27 33 25 32 38 32 39 45 39 46 52 46 53 59 52 59 65 55 62 68 68 75 81 68 75 81 68 75 81 67 74 80 66 73 79 66 73 79 65 72 78 65 72 78 64 71 77 64 71 77 64 71 77 64 71 77 64 71 77 64 71 77 64 71 77 64 71 77 59 66 72 59 66 72 59 66 72 59 66 72 59 66 72 59 66 72 59 66 72 59 67 70 49 54 58 47 52 55 45 50 53 42 47 50 38 43 46 35 40 43 33 38 41 31 36 39 10 15 18 10 15 18 10 15 18 10 15 18 10 15 18 10 15 18 10 15 18 10 15 18 8 16 18 8 16 18 8 16 18 8 16 18 8 16 18 8 16 18 8 16 18 8 16 18 10 18 20 12 20 22 14 22 24 17 25 27 21 29 31 24 32 34 26 34 36 28 36 38 26 32 32 26 32 32 26 32 32 26 32 32 26 32 32 26 32 32 26 32 32 26 32 32 27 33 33 27 33 33 27 33 33 27 33 33 27 33 33 27 33 33 27 33 33 28 32 31 29 29 29 30 29 27 30 29 27 30 29 27 30 29 27 30 29 27 30 29 27 30 29 27 32 31 29 32 31 29 32 31 29 32 31 29 32 31 29 32 31 29 32 31 29 32 31 29 37 32 29 37 32 29 37 32 29 37 32 29 37 32 29 37 32 29 37 32 29 37 32 29 37 32 29 37 32 29 37 32 29 37 32 29 37 32 29 37 32 29 37 32 29 37 32 29
5 3 14 5 3 14 5 3 14 5 3 14 3 1 12 3 1 12 3 1 12 3 1 12 3 1 12 3 1 12 3 1 12 3 1 12 5 3 16 5 3 16 5 3 16 5 3 16 5 3 16 5 3 16 5 3 16 5 3 16 6 4 17 6 4 17 6 4 17 6 4 17 6 4 17 6 4 17 6 4 17 6 4 17 5 3 16 4 4 16 5 3 16 4 4 16 5 3 16 4 4 16 5 3 16 4 4 16 6 4 17 5 5 17 6 4 17 5 5 17 6 4 17 5 5 17 6 4 17 5 5 17 5 9 18 3 10 18 5 9 18 3 10 18 5 9 18 3 10 18 5 9 18 3 10 18 8 12 21 6 13 21 8 12 21 6 13 21 8 12 21 6 13 21 8 12 21 6 13 21 18 25 31 21 28 34 27 34 40 34 41 47 42 49 55 50 57 63 56 63 69 59 66 72 73 80 86 72 79 85 71 78 84 70 77 83 69 76 82 67 74 80 67 74 80 66 73 79 64 71 77 64 72 75 64 71 77 64 72 75 64 71 77 64 72 75 64 71 77 64 72 75 59 66 72 59 67 70 59 66 72 59 67 70 59 66 72 59 67 70 59 66 72 59 67 70 49 54 58 47 52 55 45 50 53 42 47 50 38 43 46 35 40 43 33 38 41 31 36 39 10 15 18 10 15 18 10 15 18 10 15 18 10 15 18 10 15 18 10 15 18 10 15 18 8 16 18 8 16 18 8 16 18 8 16 18 8 16 18 8 16 18 8 16 18 8 16 18 10 18 20 12 20 22 14 22 24 17 25 27 21 29 31 24 32 34 26 34 36 28 36 38 26 31 34 26 32 32 26 32 32 26 32 32 26 32 32 26 32 32 26 32 32 26 32 32 27 33 33 27 33 33 27 33 33 27 33 33 27 33 33 27 33 33 27 33 33 28 32 33 29 29 27 30 29 27 32 28 27 30 29 27 32 28 27 30 29 27 32 28 27 30 29 27 34 30 29 32 31 29 34 30 29 32 31 29 34 30 29 32 31 29 34 30 29 34 30 29 37 32 29 37 32 29 37 32 29 37 32 29 37 32 29 37 32 29 37 32 29 37 32 29 37 32 29 37 32 29 37 32 29 37 32 29 37 32 29 37 32 29 37 32 29 37 32 29
3 2 10 3 2 10 3 2 10 3 2 10 2 1 9 2 1 9 2 1 9 2 1 9 2 1 9 2 1 9 2 1 9 2 1 9 2 1 9 2 1 9 2 1 9 2 1 9 2 1 9 2 1 9 2 1 9 2 1 9 3 2 10 3 2 10 3 2 10 3 2 10 3 2 10 3 2 10 3 2 10 3 2 10 5 5 15 3 6 15 5 5 15 3 6 15 5 5 15 3 6 15 5 5 15 3 6 15 5 5 15 3 6 15 5 5 15 3 6 15 5 5 15 3 6 15 5 5 15 3 6 15 16 23 29 15 24 29 15 22 28 13 22 27 12 19 25 10 19 24 10 17 23 9 18 23 0 1 7 0 5 10 3 10 16 10 19 24 19 26 32 26 35 40 33 40 46 36 43 49 60 67 73 60 67 73 60 67 73 60 67 73 60 67 73 60 67 73 60 67 73 60 67 73 66 73 79 66 73 79 66 73 79 66 73 79 66 73 79 66 73 79 66 73 79 66 73 79 71 76 80 71 76 79 71 76 80 71 76 79 71 76 80 71 76 79 71 76 80 71 76 79 62 67 71 62 67 70 62 67 71 62 67 70 62 67 71 62 67 70 62 67 71 62 67 71 50 55 59 49 54 58 47 52 56 43 48 52 40 45 49 37 42 46 34 39 43 33 38 42 14 19 23 14 19 23 14 19 23 14 19 23 14 19 23 14 19 23 14 19 23 14 19 23 13 21 24 12 22 24 12 22 24 12 22 24 12 22 24 12 22 24 12 22 24 12 22 24 12 22 24 12 22 24 12 22 24 12 22 24 12 22 24 12 22 24 12 22 24 12 22 23 24 32 34 24 32 34 24 32 34 24 32 34 24 32 34 24 32 34 24 32 34 24 32 34 25 33 35 25 33 35 25 33 35 25 33 35 25 33 35 25 33 35 25 33 35 28 32 33 29 28 26 31 27 24 32 27 24 31 27 24 32 27 24 31 27 24 32 27 24 31 27 24 35 30 27 34 30 27 35 30 27 34 30 27 35 30 27 34 30 27 35 30 27 35 30 27 36 31 28 38 30 28 38 30 28 38 30 28 38 30 28 38 30 28 38 30 28 38 30 28 38 30 28 38 30 28 38 30 28 38 30 28 38 30 28 38 30 28 38 30 28 38 30 28
3 2 8 3 2 8 3 2 8 3 2 8 2 1 7 2 1 7 2 1 7 2 1 7 2 1 7 2 1 7 2 1 7 2 1 7 2 1 7 2 1 7 2 1 7 2 1 7 2 1 7 2 1 7 2 1 7 2 1 7 3 2 8 3 2 8 3 2 8 3 2 8 3 2 8 3 2 8 3 2 8 2 3 8 5 5 13 3 6 13 3 6 13 3 6 13 3 6 13 3 6 13 3 6 13 3 6 13 3 6 13 3 6 13 3 6 13 3 6 13 3 6 13 3 6 13 3 6 13 2 7 13 10 17 23 9 18 23 9 18 23 8 17 22 7 16 21 7 16 21 6 15 20 6 15 20 0 8 13 2 11 16 7 16 21 14 23 28 22 31 36 29 38 43 34 43 48 37 46 51 60 67 73 60 67 73 60 67 73 60 67 73 60 67 73 60 67 73 60 67 73 60 67 73 66 73 79 66 73 79 66 73 79 66 73 79 66 73 79 66 73 79 66 73 79 66 74 77 71 76 80 71 76 79 71 76 79 71 76 79 71 76 79 71 76 79 71 76 79 71 76 79 64 69 72 64 69 72 64 69 72 64 69 72 64 69 72 64 69 72 64 69 72 64 69 72 53 58 62 52 57 61 49 54 58 46 51 55 43 48 52 39 44 48 37 42 46 36 41 45 16 21 25 16 21 25 16 21 25 16 21 25 16 21 25 16 21 25 16 21 25 14 22 25 13 21 24 12 22 24 12 22 24 12 22 24 12 22 24 12 22 24 12 22 24 12 22 24 12 22 24 12 22 24 12 22 24 12 22 24 12 22 24 12 22 24 12 22 24 12 22 24 22 30 32 22 30 32 22 30 32 22 30 32 22 30 32 22 30 32 22 30 32 22 30 32 23 31 33 23 31 33 23 31 33 23 31 33 23 31 33 23 31 33 23 31 33 26 30 31 29 28 26 32 27 24 32 27 24 32 27 24 32 27 24 32 27 24 32 27 24 32 27 24 35 30 27 35 30 27 35 30 27 35 30 27 35 30 27 35 30 27 35 30 27 35 30 27 38 30 28 38 30 28 38 30 28 38 30 28 38 30 28 38 30 28 38 30 28 38 30 28 38 30 28 38 30 28 38 30 28 38 30 28 38 30 28 38 30 28 38 30 28 38 30 28
3 2 8 3 2 8 3 2 8 3 2 8 2 1 7 2 1 7 2 1 7 2 1 7 2 1 7 2 1 7 2 1 7 2 1 7 2 1 7 2 1 7 2 1 7 2 1 7 2 1 7 2 1 7 2 1 7 2 1 7 3 2 8 3 2 8 3 2 8 3 2 8 3 2 8 3 2 8 3 2 8 2 3 8 5 5 13 3 6 13 3 6 13 3 6 13 3 6 13 3 6 13 3 6 13 3 6 13 3 6 13 3 6 13 3 6 13 3 6 13 3 6 13 3 6 13 3 6 13 2 7 13 1 8 14 1 10 15 1 10 15 2 11 16 2 11 16 3 12 17 4 13 18 4 13 18 10 19 24 12 21 26 17 26 31 22 31 36 28 37 42 34 43 48 38 47 52 41 50 55 60 67 73 60 67 73 60 67 73 60 67 73 60 67 73 60 67 73 60 67 73 60 67 73 66 73 79 66 73 79 66 73 79 66 73 79 66 73 79 66 73 79 66 73 79 66 74 77 71 76 80 71 76 79 71 76 79 71 76 79 71 76 79 71 76 79 71 76 79 71 76 79 66 71 74 66 71 74 66 71 74 66 71 74 66 71 74 66 71 74 66 71 74 66 71 74 58 63 67 57 62 66 54 59 63 51 56 60 47 52 56 44 49 53 42 47 51 41 46 50 18 23 27 18 23 27 18 23 27 18 23 27 18 23 27 18 23 27 18 23 27 16 24 27 13 21 24 12 22 24 12 22 24 12 22 24 12 22 24 12 22 24 12 22 24 12 22 24 12 22 24 12 22 24 12 22 24 12 22 24 12 22 24 12 22 24 12 22 24 12 22 24 20 28 30 20 28 30 20 28 30 20 28 30 20 28 30 20 28 30 20 28 30 20 28 30 21 29 31 21 29 31 21 29 31 21 29 31 21 29 31 21 29 31 21 29 31 24 28 29 29 28 26 32 27 24 32 27 24 32 27 24 32 27 24 32 27 24 32 27 24 32 27 24 35 30 27 35 30 27 35 30 27 35 30 27 35 30 27 35 30 27 35 30 27 35 30 27 38 30 28 38 30 28 38 30 28 38 30 28 38 30 28 38 30 28 38 30 28 38 30 28 38 30 28 38 30 28 38 30 28 38 30 28 38 30 28 38 30 28 38 30 28 38 30 28
