P3
172 37
255
109 94 123 109 95 121 109 94 123 109 95 121 107 92 121 107 93 119 107 92 121 107 93 119 107 92 121 107 93 119 107 92 121 107 93 119 103 88 117 102 89 115 103 88 117 102 89 115 103 88 117 102 89 115 103 88 117 102 89 115 95 80 109 90 77 103 84 69 98 72 59 85 62 47 76 51 38 64 45 30 59 37 27 52 15 11 34 13 11 32 11 9 31 8 6 27 6 4 26 3 1 22 1 0 21 0 0 19 2 0 22 2 0 21 2 0 22 2 0 21 2 0 22 2 0 21 2 0 22 0 3 17 0 11 11 0 14 6 0 14 6 0 14 6 0 14 6 0 14 6 0 14 6 0 14 6 0 15 7 0 15 7 0 15 7 0 15 7 0 15 7 0 15 7 0 15 7 0 16 7 0 21 12 0 21 12 0 21 12 0 21 12 0 21 12 0 21 12 0 21 12 0 21 12 0 19 10 0 19 10 0 19 10 0 19 10 0 19 10 0 19 10 0 19 10 0 19 10 1 18 12 2 17 12 2 17 12 2 17 12 2 17 12 2 17 12 2 17 12 2 17 12 2 17 12 2 17 12 2 17 12 2 17 12 2 17 12 2 17 12 2 17 12 0 19 10 0 19 9 0 21 7 0 21 7 0 21 7 0 21 7 0 21 7 0 21 7 0 21 7 0 13 0 0 13 0 0 13 0 0 13 0 0 13 0 0 13 0 0 13 0 0 13 0 0 10 0 0 12 0 0 14 2 0 17 5 0 21 9 0 24 12 0 26 14 0 28 16 5 33 21 7 35 23 9 37 25 12 40 28 16 44 32 19 47 35 21 49 37 23 51 39 43 71 57 47 75 61 54 82 68 64 92 78 74 102 88 84 112 98 91 119 105 95 123 109 95 123 109 99 127 113 105 133 119 107 135 121 104 132 118 95 123 109 84 112 98 80 104 91 46 59 50 46 56 48 44 54 46 41 51 43 37 47 39 34 44 36 32 42 34 30 40 32 34 44 36 34 44 36 34 44 36 34 44 36 34 44 36 34 44 36 34 44 36 32 45 36 26 43 33 23 45 33 23 45 33 23 45 33 23 45 33 23 45 33 23 45 33 23 45 33 27 49 37 27 49 37 27 49 37 27 49 37 27 49 37 27 49 37 27 49 37 30 47 37
103 95 118 103 95 118 103 95 118 103 95 118 101 93 116 101 93 116 101 93 116 101 93 116 101 93 116 101 93 116 101 93 116 101 93 116 100 88 112 101 87 112 101 87 113 101 87 112 101 87 113 101 87 112 101 87 113 101 87 112 88 74 100 83 69 94 75 61 87 64 50 75 53 39 65 42 28 53 33 19 45 26 16 40 8 6 27 5 8 25 3 6 23 1 4 21 0 2 19 0 0 17 0 0 16 0 0 16 0 2 19 0 2 19 0 2 19 0 2 19 0 2 19 0 2 19 0 2 19 0 4 15 0 11 11 0 14 8 0 14 8 0 14 8 0 14 8 0 14 8 0 14 8 0 14 8 0 15 9 0 15 9 0 15 9 0 15 9 0 15 9 0 15 9 0 15 9 0 15 9 0 20 14 0 21 12 0 21 14 0 21 12 0 21 14 0 21 12 0 21 14 0 21 12 0 19 12 0 19 10 0 19 12 0 19 10 0 19 12 0 19 10 0 19 12 0 18 10 1 17 14 4 16 12 4 16 14 4 16 12 4 16 14 4 16 12 4 16 14 4 16 12 4 16 14 4 16 12 4 16 14 4 16 12 4 16 14 4 16 12 4 16 14 1 18 12 0 19 9 0 21 7 0 20 9 0 21 7 0 20 9 0 21 7 0 20 9 0 21 7 0 12 1 0 13 0 0 12 1 0 13 0 0 12 1 0 13 0 0 12 1 0 13 1 0 10 0 0 12 0 0 13 4 0 17 5 0 20 11 0 24 12 0 25 16 0 28 16 5 32 23 7 35 23 9 36 27 12 40 28 16 43 34 19 47 35 21 48 39 23 51 39 43 71 57 47 75 61 55 81 68 64 92 78 75 101 88 84 112 98 92 118 105 95 123 109 94 120 107 98 126 112 104 130 117 106 134 120 103 129 116 93 121 107 84 110 97 80 102 90 47 58 50 48 55 48 47 52 46 43 50 43 40 45 39 36 43 36 35 40 34 32 39 32 37 42 36 36 43 36 37 42 36 36 43 36 37 42 36 36 43 36 37 42 36 34 44 36 26 43 33 23 45 33 24 44 33 23 45 33 24 44 33 23 45 33 24 44 33 23 45 33 28 48 37 27 49 37 28 48 37 27 49 37 28 48 37 27 49 37 28 48 37 30 47 37
69 65 80 76 72 87 82 78 93 85 81 96 92 88 103 92 88 103 92 88 103 92 88 103 92 88 103 92 88 103 92 88 103 92 88 103 96 89 105 94 87 103 91 84 102 86 79 95 82 75 93 77 70 86 74 67 85 72 65 81 52 45 63 49 42 58 43 36 54 35 28 44 27 20 38 20 13 29 14 7 25 9 5 20 4 2 15 3 3 15 3 3 15 3 3 15 3 3 15 3 3 15 3 3 15 3 3 15 3 3 15 3 3 15 3 3 15 3 3 15 3 3 15 3 3 15 3 3 15 1 4 13 2 12 14 1 13 13 1 13 13 1 13 13 1 13 13 1 13 13 1 13 13 1 13 13 0 11 11 0 11 11 0 11 11 0 11 11 0 11 11 0 11 11 0 11 11 0 11 11 1 13 13 1 13 11 1 13 13 1 13 11 1 13 13 1 13 11 1 13 13 1 13 11 4 16 16 4 16 14 4 16 16 4 16 14 4 16 16 4 16 14 4 16 16 4 16 14 5 15 16 5 15 14 5 15 16 5 15 14 5 15 16 5 15 14 5 15 16 5 15 14 6 16 17 6 16 15 6 16 17 6 16 15 6 16 17 6 16 15 6 16 17 6 16 15 3 14 10 2 15 8 3 14 10 2 15 8 3 14 10 2 15 8 3 14 10 2 15 8 0 5 1 0 6 0 0 5 1 0 6 0 0 5 1 0 6 0 0 5 1 0 5 1 0 4 0 0 4 0 0 5 3 0 8 4 0 12 10 3 15 11 5 17 15 7 19 15 12 24 22 14 26 22 19 31 29 26 38 34 32 44 42 39 51 47 44 56 54 46 58 54 60 73 64 62 75 65 65 77 67 67 80 70 72 84 74 74 87 77 77 89 79 78 91 81 93 105 95 98 111 101 107 119 109 111 124 114 112 124 114 106 119 109 99 111 101 94 104 96 53 55 50 52 52 50 51 50 48 47 47 45 44 43 41 40 40 38 39 38 36 36 36 34 40 39 37 39 39 37 40 39 37 39 39 37 40 39 37 39 39 37 40 39 37 39 39 37 35 40 34 34 41 34 35 40 34 34 41 34 35 40 34 34 41 34 35 40 34 34 41 34 34 39 33 33 40 33 34 39 33 33 40 33 34 39 33 33 40 33 34 39 33 34 39 33
46 43 54 53 50 61 59 56 67 62 59 70 74 71 82 74 71 82 74 71 82 74 71 82 74 71 82 74 71 82 74 71 82 74 71 82 76 72 86 74 70 84 71 67 81 67 63 77 63 59 73 60 56 70 57 53 67 55 51 65 41 37 51 38 34 48 33 29 43 26 22 36 19 15 29 12 8 22 6 2 16 3 0 11 4 2 13 4 3 11 4 3 11 4 3 11 4 3 11 4 3 11 4 3 11 4 3 11 4 3 11 4 3 11 4 3 11 4 3 11 4 3 11 4 3 11 4 3 11 3 3 11 6 9 14 5 10 14 5 10 14 5 10 14 5 10 14 5 10 14 5 10 14 5 10 14 3 8 12 3 8 12 3 8 12 3 8 12 3 8 12 3 8 12 3 8 12 3 8 12 5 10 13 5 10 13 5 10 13 5 10 13 5 10 13 5 10 13 5 10 13 5 10 13 8 13 16 8 13 16 8 13 16 8 13 16 8 13 16 8 13 16 8 13 16 8 13 16 6 14 16 6 14 16 6 14 16 6 14 16 6 14 16 6 14 16 6 14 16 6 14 16 7 15 17 7 15 17 7 15 17 7 15 17 7 15 17 7 15 17 7 15 17 7 16 15 7 11 12 7 11 10 7 11 10 7 11 10 7 11 10 7 11 10 7 11 10 7 11 10 0 2 1 0 2 1 0 2 1 0 2 1 0 2 1 0 2 1 0 2 1 0 2 1 0 2 2 0 2 2 0 3 3 0 6 6 4 10 10 7 13 13 9 15 15 11 17 17 16 22 22 18 24 24 23 29 29 30 36 36 36 42 42 43 49 49 48 54 54 50 56 54 65 70 64 67 72 65 69 74 67 72 77 70 76 81 74 79 84 77 81 86 79 83 88 81 96 101 94 101 106 99 109 114 107 115 120 113 115 120 113 109 114 107 101 106 99 98 101 94 55 54 52 55 51 50 53 49 48 50 46 45 46 42 41 43 39 38 41 37 36 39 35 34 42 38 37 42 38 37 42 38 37 42 38 37 42 38 37 42 38 37 42 38 37 42 38 37 39 38 34 39 38 34 39 38 34 39 38 34 39 38 34 39 38 34 39 38 34 39 38 34 38 37 33 38 37 33 38 37 33 38 37 33 38 37 33 38 37 33 38 37 33 38 37 33
21 18 29 27 24 35 31 28 39 33 30 41 46 43 54 46 43 54 46 43 54 46 43 54 46 43 54 46 43 54 46 43 54 46 43 54 46 42 56 45 41 55 44 40 54 41 37 51 38 34 48 36 32 46 34 30 44 33 29 43 27 23 37 25 21 35 21 17 31 15 11 25 9 5 19 3 0 13 1 0 11 1 0 9 4 2 13 4 3 11 4 3 11 4 3 11 4 3 11 4 3 11 4 3 11 4 3 11 4 3 11 4 3 11 4 3 11 4 3 11 4 3 11 4 3 11 4 3 11 3 3 11 6 9 14 5 10 14 5 10 14 5 10 14 5 10 14 5 10 14 5 10 14 5 10 14 3 8 12 3 8 12 3 8 12 3 8 12 3 8 12 3 8 12 3 8 12 3 8 12 5 10 13 5 10 13 5 10 13 5 10 13 5 10 13 5 10 13 5 10 13 5 10 13 8 13 16 8 13 16 8 13 16 8 13 16 8 13 16 8 13 16 8 13 16 8 13 16 6 14 16 6 14 16 6 14 16 6 14 16 6 14 16 6 14 16 6 14 16 6 14 16 7 15 17 7 15 17 7 15 17 7 15 17 7 15 17 7 15 17 7 15 17 7 16 15 7 11 12 7 11 10 7 11 10 7 11 10 7 11 10 7 11 10 7 11 10 7 11 10 0 2 1 0 2 1 0 2 1 0 2 1 0 2 1 0 2 1 0 2 1 0 2 1 0 2 2 0 2 2 0 3 3 0 6 6 4 10 10 7 13 13 9 15 15 11 17 17 16 22 22 18 24 24 23 29 29 30 36 36 36 42 42 43 49 49 48 54 54 50 56 54 65 70 64 67 72 65 69 74 67 72 77 70 76 81 74 79 84 77 81 86 79 83 88 81 93 98 91 99 104 97 107 112 105 113 118 111 113 118 111 107 112 105 99 104 97 95 98 91 55 54 52 55 51 50 53 49 48 50 46 45 46 42 41 43 39 38 41 37 36 39 35 34 42 38 37 42 38 37 42 38 37 42 38 37 42 38 37 42 38 37 42 38 37 42 38 37 39 38 34 39 38 34 39 38 34 39 38 34 39 38 34 39 38 34 39 38 34 39 38 34 38 37 33 38 37 33 38 37 33 38 37 33 38 37 33 38 37 33 38 37 33 38 37 33
10 7 18 14 11 22 17 14 25 19 16 27 18 15 26 18 15 26 18 15 26 18 15 26 18 15 26 18 15 26 18 15 26 18 15 26 18 14 28 18 14 28 17 13 27 16 12 26 15 11 25 14 10 24 14 10 24 13 9 23 14 10 24 12 8 22 9 5 19 5 1 15 1 0 11 1 0 11 1 0 11 1 0 9 4 2 13 4 3 11 4 3 11 4 3 11 4 3 11 4 3 11 4 3 11 4 3 11 4 3 11 4 3 11 4 3 11 4 3 11 4 3 11 4 3 11 4 3 11 3 3 11 6 9 14 5 10 14 5 10 14 5 10 14 5 10 14 5 10 14 5 10 14 5 10 14 3 8 12 3 8 12 3 8 12 3 8 12 3 8 12 3 8 12 3 8 12 3 8 12 5 10 13 5 10 13 5 10 13 5 10 13 5 10 13 5 10 13 5 10 13 5 10 13 8 13 16 8 13 16 8 13 16 8 13 16 8 13 16 8 13 16 8 13 16 8 13 16 6 14 16 6 14 16 6 14 16 6 14 16 6 14 16 6 14 16 6 14 16 6 14 16 7 15 17 7 15 17 7 15 17 7 15 17 7 15 17 7 15 17 7 15 17 7 16 15 7 11 12 7 11 10 7 11 10 7 11 10 7 11 10 7 11 10 7 11 10 7 11 10 0 2 1 0 2 1 0 2 1 0 2 1 0 2 1 0 2 1 0 2 1 0 2 1 0 2 2 0 2 2 0 3 3 0 6 6 4 10 10 7 13 13 9 15 15 11 17 17 16 22 22 18 24 24 23 29 29 30 36 36 36 42 42 43 49 49 48 54 54 50 56 54 65 70 64 67 72 65 69 74 67 72 77 70 76 81 74 79 84 77 81 86 79 83 88 81 90 95 88 96 101 94 104 109 102 109 114 107 109 114 107 104 109 102 96 101 94 92 95 88 55 54 52 55 51 50 53 49 48 50 46 45 46 42 41 43 39 38 41 37 36 39 35 34 42 38 37 42 38 37 42 38 37 42 38 37 42 38 37 42 38 37 42 38 37 42 38 37 39 38 34 39 38 34 39 38 34 39 38 34 39 38 34 39 38 34 39 38 34 39 38 34 38 37 33 38 37 33 38 37 33 38 37 33 38 37 33 38 37 33 38 37 33 38 37 33
12 9 20 14 11 22 16 13 24 17 14 25 1 0 9 1 0 9 1 0 9 1 0 9 1 0 9 1 0 9 1 0 9 1 0 9 1 0 11 1 0 11 1 0 11 1 0 11 2 0 12 3 0 13 4 0 14 4 0 14 6 2 16 5 1 15 3 0 13 1 0 11 1 0 11 1 0 11 1 0 11 1 0 9 4 2 13 4 3 11 4 3 11 4 3 11 4 3 11 4 3 11 4 3 11 4 3 11 4 3 11 4 3 11 4 3 11 4 3 11 4 3 11 4 3 11 4 3 11 3 3 11 6 9 14 5 10 14 5 10 14 5 10 14 5 10 14 5 10 14 5 10 14 5 10 14 3 8 12 3 8 12 3 8 12 3 8 12 3 8 12 3 8 12 3 8 12 3 8 12 5 10 13 5 10 13 5 10 13 5 10 13 5 10 13 5 10 13 5 10 13 5 10 13 8 13 16 8 13 16 8 13 16 8 13 16 8 13 16 8 13 16 8 13 16 8 13 16 6 14 16 6 14 16 6 14 16 6 14 16 6 14 16 6 14 16 6 14 16 6 14 16 7 15 17 7 15 17 7 15 17 7 15 17 7 15 17 7 15 17 7 15 17 7 16 15 7 11 12 7 11 10 7 11 10 7 11 10 7 11 10 7 11 10 7 11 10 7 11 10 0 2 1 0 2 1 0 2 1 0 2 1 0 2 1 0 2 1 0 2 1 0 2 1 0 2 2 0 2 2 0 3 3 0 6 6 4 10 10 7 13 13 9 15 15 11 17 17 16 22 22 18 24 24 23 29 29 30 36 36 36 42 42 43 49 49 48 54 54 50 56 54 65 70 64 67 72 65 69 74 67 72 77 70 76 81 74 79 84 77 81 86 79 83 88 81 87 92 85 92 97 90 100 105 98 106 111 104 106 111 104 100 105 98 92 97 90 89 92 85 55 54 52 55 51 50 53 49 48 50 46 45 46 42 41 43 39 38 41 37 36 39 35 34 42 38 37 42 38 37 42 38 37 42 38 37 42 38 37 42 38 37 42 38 37 42 38 37 39 38 34 39 38 34 39 38 34 39 38 34 39 38 34 39 38 34 39 38 34 39 38 34 38 37 33 38 37 33 38 37 33 38 37 33 38 37 33 38 37 33 38 37 33 38 37 33
12 9 20 13 10 21 14 11 22 14 11 22 1 0 9 1 0 9 1 0 9 1 0 9 1 0 9 1 0 9 1 0 9 1 0 9 1 0 11 1 0 11 1 0 11 1 0 11 2 0 12 4 0 14 6 2 16 7 3 17 4 0 14 4 0 14 3 0 13 2 0 12 2 0 12 1 0 11 1 0 11 1 0 9 4 2 13 4 3 11 4 3 11 4 3 11 4 3 11 4 3 11 4 3 11 4 3 11 4 3 11 4 3 11 4 3 11 4 3 11 4 3 11 4 3 11 4 3 11 3 3 11 6 9 14 5 10 14 5 10 14 5 10 14 5 10 14 5 10 14 5 10 14 5 10 14 3 8 12 3 8 12 3 8 12 3 8 12 3 8 12 3 8 12 3 8 12 3 8 12 5 10 13 5 10 13 5 10 13 5 10 13 5 10 13 5 10 13 5 10 13 5 10 13 8 13 16 8 13 16 8 13 16 8 13 16 8 13 16 8 13 16 8 13 16 8 13 16 6 14 16 6 14 16 6 14 16 6 14 16 6 14 16 6 14 16 6 14 16 6 14 16 7 15 17 7 15 17 7 15 17 7 15 17 7 15 17 7 15 17 7 15 17 7 16 15 7 11 12 7 11 10 7 11 10 7 11 10 7 11 10 7 11 10 7 11 10 7 11 10 0 2 1 0 2 1 0 2 1 0 2 1 0 2 1 0 2 1 0 2 1 0 2 1 0 2 2 0 2 2 0 3 3 0 6 6 4 10 10 7 13 13 9 15 15 11 17 17 16 22 22 18 24 24 23 29 29 30 36 36 36 42 42 43 49 49 48 54 54 50 56 54 65 70 64 67 72 65 69 74 67 72 77 70 76 81 74 79 84 77 81 86 79 83 88 81 83 88 81 89 94 87 97 102 95 103 108 101 103 108 101 97 102 95 89 94 87 85 88 81 55 54 52 55 51 50 53 49 48 50 46 45 46 42 41 43 39 38 41 37 36 39 35 34 42 38 37 42 38 37 42 38 37 42 38 37 42 38 37 42 38 37 42 38 37 42 38 37 39 38 34 39 38 34 39 38 34 39 38 34 39 38 34 39 38 34 39 38 34 39 38 34 38 37 33 38 37 33 38 37 33 38 37 33 38 37 33 38 37 33 38 37 33 38 37 33
3 0 11 2 0 10 2 0 10 2 0 10 1 0 9 1 0 9 1 0 9 1 0 9 1 0 9 1 0 9 1 0 9 1 0 9 1 0 11 1 0 11 1 0 11 5 1 15 9 5 19 12 8 22 15 11 25 17 13 27 6 2 16 6 2 16 7 3 17 7 3 17 8 4 18 9 5 19 9 5 19 9 6 17 4 2 13 4 3 11 4 3 11 4 3 11 4 3 11 4 3 11 4 3 11 4 3 11 4 3 11 4 3 11 4 3 11 4 3 11 4 3 11 4 3 11 4 3 11 3 3 11 6 9 14 5 10 14 5 10 14 5 10 14 5 10 14 5 10 14 5 10 14 5 10 14 3 8 12 3 8 12 3 8 12 3 8 12 3 8 12 3 8 12 3 8 12 3 8 12 5 10 13 5 10 13 5 10 13 5 10 13 5 10 13 5 10 13 5 10 13 5 10 13 8 13 16 8 13 16 8 13 16 8 13 16 8 13 16 8 13 16 8 13 16 8 13 16 6 14 16 6 14 16 6 14 16 6 14 16 6 14 16 6 14 16 6 14 16 6 14 16 7 15 17 7 15 17 7 15 17 7 15 17 7 15 17 7 15 17 7 15 17 7 16 15 7 11 12 7 11 10 7 11 10 7 11 10 7 11 10 7 11 10 7 11 10 7 11 10 0 2 1 0 2 1 0 2 1 0 2 1 0 2 1 0 2 1 0 2 1 0 2 1 0 2 2 0 2 2 0 3 3 0 6 6 4 10 10 7 13 13 9 15 15 11 17 17 16 22 22 18 24 24 23 29 29 30 36 36 36 42 42 43 49 49 48 54 54 50 56 54 65 70 64 67 72 65 69 74 67 72 77 70 76 81 74 79 84 77 81 86 79 83 88 81 81 86 79 87 92 85 95 100 93 100 105 98 100 105 98 95 100 93 87 92 85 83 86 79 55 54 52 55 51 50 53 49 48 50 46 45 46 42 41 43 39 38 41 37 36 39 35 34 42 38 37 42 38 37 42 38 37 42 38 37 42 38 37 42 38 37 42 38 37 42 38 37 39 38 34 39 38 34 39 38 34 39 38 34 39 38 34 39 38 34 39 38 34 39 38 34 38 37 33 38 37 33 38 37 33 38 37 33 38 37 33 38 37 33 38 37 33 38 37 33
1 0 9 1 0 9 1 0 9 1 0 9 5 2 13 5 2 13 5 2 13 5 2 13 5 2 13 5 2 13 5 2 13 5 2 13 1 0 11 2 0 12 6 2 16 10 6 20 15 11 25 19 15 29 23 19 33 25 21 35 9 5 19 9 5 19 10 6 20 11 7 21 13 9 23 14 10 24 15 11 25 15 12 23 4 2 13 4 3 11 4 3 11 4 3 11 4 3 11 4 3 11 4 3 11 4 3 11 4 3 11 4 3 11 4 3 11 4 3 11 4 3 11 4 3 11 4 3 11 3 3 11 6 9 14 5 10 14 5 10 14 5 10 14 5 10 14 5 10 14 5 10 14 5 10 14 3 8 12 3 8 12 3 8 12 3 8 12 3 8 12 3 8 12 3 8 12 3 8 12 5 10 13 5 10 13 5 10 13 5 10 13 5 10 13 5 10 13 5 10 13 5 10 13 8 13 16 8 13 16 8 13 16 8 13 16 8 13 16 8 13 16 8 13 16 8 13 16 6 14 16 6 14 16 6 14 16 6 14 16 6 14 16 6 14 16 6 14 16 6 14 16 7 15 17 7 15 17 7 15 17 7 15 17 7 15 17 7 15 17 7 15 17 7 16 15 7 11 12 7 11 10 7 11 10 7 11 10 7 11 10 7 11 10 7 11 10 7 11 10 0 2 1 0 2 1 0 2 1 0 2 1 0 2 1 0 2 1 0 2 1 0 2 1 0 2 2 0 2 2 0 3 3 0 6 6 4 10 10 7 13 13 9 15 15 11 17 17 16 22 22 18 24 24 23 29 29 30 36 36 36 42 42 43 49 49 48 54 54 50 56 54 65 70 64 67 72 65 69 74 67 72 77 70 76 81 74 79 84 77 81 86 79 83 88 81 80 85 78 85 90 83 93 98 91 99 104 97 99 104 97 93 98 91 85 90 83 82 85 78 55 54 52 55 51 50 53 49 48 50 46 45 46 42 41 43 39 38 41 37 36 39 35 34 42 38 37 42 38 37 42 38 37 42 38 37 42 38 37 42 38 37 42 38 37 42 38 37 39 38 34 39 38 34 39 38 34 39 38 34 39 38 34 39 38 34 39 38 34 39 38 34 38 37 33 38 37 33 38 37 33 38 37 33 38 37 33 38 37 33 38 37 33 38 37 33
4 1 12 4 1 12 4 1 12 4 1 12 2 0 10 2 0 10 2 0 10 2 0 10 2 0 10 2 0 10 2 0 10 2 0 10 3 0 13 3 0 13 3 0 13 3 0 13 3 0 13 3 0 13 3 0 13 3 0 13 4 0 14 4 0 14 4 0 14 4 0 14 4 0 14 4 0 14 4 0 14 4 1 12 2 0 11 2 1 9 2 1 9 2 1 9 2 1 9 2 1 9 2 1 9 2 1 9 4 3 11 4 3 11 4 3 11 4 3 11 4 3 11 4 3 11 4 3 11 3 3 11 4 7 12 3 8 12 3 8 12 3 8 12 3 8 12 3 8 12 3 8 12 3 8 12 5 10 14 5 10 14 5 10 14 5 10 14 5 10 14 5 10 14 5 10 14 5 10 14 5 10 13 5 10 13 5 10 13 5 10 13 5 10 13 5 10 13 5 10 13 5 10 13 5 10 13 5 10 13 5 10 13 5 10 13 5 10 13 5 10 13 5 10 13 5 10 13 4 12 14 4 12 14 4 12 14 4 12 14 4 12 14 4 12 14 4 12 14 4 12 14 4 12 14 4 12 14 4 12 14 4 12 14 4 12 14 4 12 14 4 12 14 4 13 12 11 15 16 11 15 14 11 15 14 11 15 14 11 15 14 11 15 14 11 15 14 11 15 14 0 3 2 0 3 2 0 3 2 0 3 2 0 3 2 0 3 2 0 3 2 0 3 2 0 2 2 0 2 2 0 3 3 0 6 6 4 10 10 7 13 13 9 15 15 11 17 17 25 31 31 27 33 33 29 35 35 32 38 38 36 42 42 39 45 45 41 47 47 43 49 47 52 57 51 54 59 52 56 61 54 59 64 57 63 68 61 66 71 64 68 73 66 70 75 68 84 89 82 84 89 82 84 89 82 84 89 82 84 89 82 84 89 82 84 89 82 86 89 82 49 48 46 49 45 44 47 43 42 44 40 39 40 36 35 37 33 32 35 31 30 33 29 28 35 31 30 35 31 30 35 31 30 35 31 30 35 31 30 35 31 30 35 31 30 35 31 30 33 32 28 33 32 28 33 32 28 33 32 28 33 32 28 33 32 28 33 32 28 33 32 28 36 35 31 36 35 31 36 35 31 36 35 31 36 35 31 36 35 31 36 35 31 36 35 31
4 1 12 4 1 12 4 1 12 4 1 12 2 0 10 2 0 10 2 0 10 2 0 10 2 0 10 2 0 10 2 0 10 2 0 10 3 0 13 3 0 13 3 0 13 3 0 13 3 0 13 3 0 13 3 0 13 3 0 13 4 0 14 4 0 14 4 0 14 4 0 14 4 0 14 4 0 14 4 0 14 4 1 12 2 0 11 2 1 9 2 1 9 2 1 9 2 1 9 2 1 9 2 1 9 2 1 9 4 3 11 4 3 11 4 3 11 4 3 11 4 3 11 4 3 11 4 3 11 3 3 11 4 7 12 3 8 12 3 8 12 3 8 12 3 8 12 3 8 12 3 8 12 3 8 12 5 10 14 5 10 14 5 10 14 5 10 14 5 10 14 5 10 14 5 10 14 5 10 14 5 10 13 5 10 13 5 10 13 5 10 13 5 10 13 5 10 13 5 10 13 5 10 13 5 10 13 5 10 13 5 10 13 5 10 13 5 10 13 5 10 13 5 10 13 5 10 13 4 12 14 4 12 14 4 12 14 4 12 14 4 12 14 4 12 14 4 12 14 4 12 14 4 12 14 4 12 14 4 12 14 4 12 14 4 12 14 4 12 14 4 12 14 4 13 12 11 15 16 11 15 14 11 15 14 11 15 14 11 15 14 11 15 14 11 15 14 11 15 14 0 3 2 0 3 2 0 3 2 0 3 2 0 3 2 0 3 2 0 3 2 0 3 2 0 2 2 0 2 2 0 3 3 0 6 6 4 10 10 7 13 13 9 15 15 11 17 17 25 31 31 27 33 33 29 35 35 32 38 38 36 42 42 39 45 45 41 47 47 43 49 47 52 57 51 54 59 52 56 61 54 59 64 57 63 68 61 66 71 64 68 73 66 70 75 68 82 87 80 82 87 80 82 87 80 82 87 80 82 87 80 82 87 80 82 87 80 84 87 80 49 48 46 49 45 44 47 43 42 44 40 39 40 36 35 37 33 32 35 31 30 33 29 28 35 31 30 35 31 30 35 31 30 35 31 30 35 31 30 35 31 30 35 31 30 35 31 30 33 32 28 33 32 28 33 32 28 33 32 28 33 32 28 33 32 28 33 32 28 33 32 28 36 35 31 36 35 31 36 35 31 36 35 31 36 35 31 36 35 31 36 35 31 36 35 31
4 1 12 4 1 12 4 1 12 4 1 12 2 0 10 2 0 10 2 0 10 2 0 10 2 0 10 2 0 10 2 0 10 2 0 10 3 0 13 3 0 13 3 0 13 3 0 13 3 0 13 3 0 13 3 0 13 3 0 13 4 0 14 4 0 14 4 0 14 4 0 14 4 0 14 4 0 14 4 0 14 4 1 12 2 0 11 2 1 9 2 1 9 2 1 9 2 1 9 2 1 9 2 1 9 2 1 9 4 3 11 4 3 11 4 3 11 4 3 11 4 3 11 4 3 11 4 3 11 3 3 11 4 7 12 3 8 12 3 8 12 3 8 12 3 8 12 3 8 12 3 8 12 3 8 12 5 10 14 5 10 14 5 10 14 5 10 14 5 10 14 5 10 14 5 10 14 5 10 14 5 10 13 5 10 13 5 10 13 5 10 13 5 10 13 5 10 13 5 10 13 5 10 13 5 10 13 5 10 13 5 10 13 5 10 13 5 10 13 5 10 13 5 10 13 5 10 13 4 12 14 4 12 14 4 12 14 4 12 14 4 12 14 4 12 14 4 12 14 4 12 14 4 12 14 4 12 14 4 12 14 4 12 14 4 12 14 4 12 14 4 12 14 4 13 12 11 15 16 11 15 14 11 15 14 11 15 14 11 15 14 11 15 14 11 15 14 11 15 14 0 3 2 0 3 2 0 3 2 0 3 2 0 3 2 0 3 2 0 3 2 0 3 2 0 2 2 0 2 2 0 3 3 0 6 6 4 10 10 7 13 13 9 15 15 11 17 17 25 31 31 27 33 33 29 35 35 32 38 38 36 42 42 39 45 45 41 47 47 43 49 47 52 57 51 54 59 52 56 61 54 59 64 57 63 68 61 66 71 64 68 73 66 70 75 68 80 85 78 80 85 78 80 85 78 80 85 78 80 85 78 80 85 78 80 85 78 82 85 78 49 48 46 49 45 44 47 43 42 44 40 39 40 36 35 37 33 32 35 31 30 33 29 28 35 31 30 35 31 30 35 31 30 35 31 30 35 31 30 35 31 30 35 31 30 35 31 30 33 32 28 33 32 28 33 32 28 33 32 28 33 32 28 33 32 28 33 32 28 33 32 28 36 35 31 36 35 31 36 35 31 36 35 31 36 35 31 36 35 31 36 35 31 36 35 31
4 1 12 4 1 12 4 1 12 4 1 12 2 0 10 2 0 10 2 0 10 2 0 10 2 0 10 2 0 10 2 0 10 2 0 10 3 0 13 3 0 13 3 0 13 3 0 13 3 0 13 3 0 13 3 0 13 3 0 13 4 0 14 4 0 14 4 0 14 4 0 14 4 0 14 4 0 14 4 0 14 4 1 12 2 0 11 2 1 9 2 1 9 2 1 9 2 1 9 2 1 9 2 1 9 2 1 9 4 3 11 4 3 11 4 3 11 4 3 11 4 3 11 4 3 11 4 3 11 3 3 11 4 7 12 3 8 12 3 8 12 3 8 12 3 8 12 3 8 12 3 8 12 3 8 12 5 10 14 5 10 14 5 10 14 5 10 14 5 10 14 5 10 14 5 10 14 5 10 14 5 10 13 5 10 13 5 10 13 5 10 13 5 10 13 5 10 13 5 10 13 5 10 13 5 10 13 5 10 13 5 10 13 5 10 13 5 10 13 5 10 13 5 10 13 5 10 13 4 12 14 4 12 14 4 12 14 4 12 14 4 12 14 4 12 14 4 12 14 4 12 14 4 12 14 4 12 14 4 12 14 4 12 14 4 12 14 4 12 14 4 12 14 4 13 12 11 15 16 11 15 14 11 15 14 11 15 14 11 15 14 11 15 14 11 15 14 11 15 14 0 3 2 0 3 2 0 3 2 0 3 2 0 3 2 0 3 2 0 3 2 0 3 2 0 2 2 0 2 2 0 3 3 0 6 6 4 10 10 7 13 13 9 15 15 11 17 17 25 31 31 27 33 33 29 35 35 32 38 38 36 42 42 39 45 45 41 47 47 43 49 47 52 57 51 54 59 52 56 61 54 59 64 57 63 68 61 66 71 64 68 73 66 70 75 68 77 82 75 77 82 75 77 82 75 77 82 75 77 82 75 77 82 75 77 82 75 79 82 75 49 48 46 49 45 44 47 43 42 44 40 39 40 36 35 37 33 32 35 31 30 33 29 28 35 31 30 35 31 30 35 31 30 35 31 30 35 31 30 35 31 30 35 31 30 35 31 30 33 32 28 33 32 28 33 32 28 33 32 28 33 32 28 33 32 28 33 32 28 33 32 28 36 35 31 36 35 31 36 35 31 36 35 31 36 35 31 36 35 31 36 35 31 36 35 31
4 1 12 4 1 12 4 1 12 4 1 12 2 0 10 2 0 10 2 0 10 2 0 10 2 0 10 2 0 10 2 0 10 2 0 10 3 0 13 3 0 13 3 0 13 3 0 13 3 0 13 3 0 13 3 0 13 3 0 13 4 0 14 4 0 14 4 0 14 4 0 14 4 0 14 4 0 14 4 0 14 4 1 12 2 0 11 2 1 9 2 1 9 2 1 9 2 1 9 2 1 9 2 1 9 2 1 9 4 3 11 4 3 11 4 3 11 4 3 11 4 3 11 4 3 11 4 3 11 3 3 11 4 7 12 3 8 12 3 8 12 3 8 12 3 8 12 3 8 12 3 8 12 3 8 12 5 10 14 5 10 14 5 10 14 5 10 14 5 10 14 5 10 14 5 10 14 5 10 14 5 10 13 5 10 13 5 10 13 5 10 13 5 10 13 5 10 13 5 10 13 5 10 13 5 10 13 5 10 13 5 10 13 5 10 13 5 10 13 5 10 13 5 10 13 5 10 13 4 12 14 4 12 14 4 12 14 4 12 14 4 12 14 4 12 14 4 12 14 4 12 14 4 12 14 4 12 14 4 12 14 4 12 14 4 12 14 4 12 14 4 12 14 4 13 12 11 15 16 11 15 14 11 15 14 11 15 14 11 15 14 11 15 14 11 15 14 11 15 14 0 3 2 0 3 2 0 3 2 0 3 2 0 3 2 0 3 2 0 3 2 0 3 2 0 2 2 0 2 2 0 3 3 0 6 6 4 10 10 7 13 13 9 15 15 11 17 17 25 31 31 27 33 33 29 35 35 32 38 38 36 42 42 39 45 45 41 47 47 43 49 47 52 57 51 54 59 52 56 61 54 59 64 57 63 68 61 66 71 64 68 73 66 70 75 68 73 78 71 73 78 71 73 78 71 73 78 71 73 78 71 73 78 71 73 78 71 75 78 71 49 48 46 49 45 44 47 43 42 44 40 39 40 36 35 37 33 32 35 31 30 33 29 28 35 31 30 35 31 30 35 31 30 35 31 30 35 31 30 35 31 30 35 31 30 35 31 30 33 32 28 33 32 28 33 32 28 33 32 28 33 32 28 33 32 28 33 32 28 33 32 28 36 35 31 36 35 31 36 35 31 36 35 31 36 35 31 36 35 31 36 35 31 36 35 31
4 1 12 4 1 12 4 1 12 4 1 12 2 0 10 2 0 10 2 0 10 2 0 10 2 0 10 2 0 10 2 0 10 2 0 10 3 0 13 3 0 13 3 0 13 3 0 13 3 0 13 3 0 13 3 0 13 3 0 13 4 0 14 4 0 14 4 0 14 4 0 14 4 0 14 4 0 14 4 0 14 4 1 12 2 0 11 2 1 9 2 1 9 2 1 9 2 1 9 2 1 9 2 1 9 2 1 9 4 3 11 4 3 11 4 3 11 4 3 11 4 3 11 4 3 11 4 3 11 3 3 11 4 7 12 3 8 12 3 8 12 3 8 12 3 8 12 3 8 12 3 8 12 3 8 12 5 10 14 5 10 14 5 10 14 5 10 14 5 10 14 5 10 14 5 10 14 5 10 14 5 10 13 5 10 13 5 10 13 5 10 13 5 10 13 5 10 13 5 10 13 5 10 13 5 10 13 5 10 13 5 10 13 5 10 13 5 10 13 5 10 13 5 10 13 5 10 13 4 12 14 4 12 14 4 12 14 4 12 14 4 12 14 4 12 14 4 12 14 4 12 14 4 12 14 4 12 14 4 12 14 4 12 14 4 12 14 4 12 14 4 12 14 4 13 12 11 15 16 11 15 14 11 15 14 11 15 14 11 15 14 11 15 14 11 15 14 11 15 14 0 3 2 0 3 2 0 3 2 0 3 2 0 3 2 0 3 2 0 3 2 0 3 2 0 2 2 0 2 2 0 3 3 0 6 6 4 10 10 7 13 13 9 15 15 11 17 17 25 31 31 27 33 33 29 35 35 32 38 38 36 42 42 39 45 45 41 47 47 43 49 47 52 57 51 54 59 52 56 61 54 59 64 57 63 68 61 66 71 64 68 73 66 70 75 68 70 75 68 70 75 68 70 75 68 70 75 68 70 75 68 70 75 68 70 75 68 72 75 68 49 48 46 49 45 44 47 43 42 44 40 39 40 36 35 37 33 32 35 31 30 33 29 28 35 31 30 35 31 30 35 31 30 35 31 30 35 31 30 35 31 30 35 31 30 35 31 30 33 32 28 33 32 28 33 32 28 33 32 28 33 32 28 33 32 28 33 32 28 33 32 28 36 35 31 36 35 31 36 35 31 36 35 31 36 35 31 36 35 31 36 35 31 36 35 31
4 1 12 4 1 12 4 1 12 4 1 12 2 0 10 2 0 10 2 0 10 2 0 10 2 0 10 2 0 10 2 0 10 2 0 10 3 0 13 3 0 13 3 0 13 3 0 13 3 0 13 3 0 13 3 0 13 3 0 13 4 0 14 4 0 14 4 0 14 4 0 14 4 0 14 4 0 14 4 0 14 4 1 12 2 0 11 2 1 9 2 1 9 2 1 9 2 1 9 2 1 9 2 1 9 2 1 9 4 3 11 4 3 11 4 3 11 4 3 11 4 3 11 4 3 11 4 3 11 3 3 11 4 7 12 3 8 12 3 8 12 3 8 12 3 8 12 3 8 12 3 8 12 3 8 12 5 10 14 5 10 14 5 10 14 5 10 14 5 10 14 5 10 14 5 10 14 5 10 14 5 10 13 5 10 13 5 10 13 5 10 13 5 10 13 5 10 13 5 10 13 5 10 13 5 10 13 5 10 13 5 10 13 5 10 13 5 10 13 5 10 13 5 10 13 5 10 13 4 12 14 4 12 14 4 12 14 4 12 14 4 12 14 4 12 14 4 12 14 4 12 14 4 12 14 4 12 14 4 12 14 4 12 14 4 12 14 4 12 14 4 12 14 4 13 12 11 15 16 11 15 14 11 15 14 11 15 14 11 15 14 11 15 14 11 15 14 11 15 14 0 3 2 0 3 2 0 3 2 0 3 2 0 3 2 0 3 2 0 3 2 0 3 2 0 2 2 0 2 2 0 3 3 0 6 6 4 10 10 7 13 13 9 15 15 11 17 17 25 31 31 27 33 33 29 35 35 32 38 38 36 42 42 39 45 45 41 47 47 43 49 47 52 57 51 54 59 52 56 61 54 59 64 57 63 68 61 66 71 64 68 73 66 70 75 68 68 73 66 68 73 66 68 73 66 68 73 66 68 73 66 68 73 66 68 73 66 70 73 66 49 48 46 49 45 44 47 43 42 44 40 39 40 36 35 37 33 32 35 31 30 33 29 28 35 31 30 35 31 30 35 31 30 35 31 30 35 31 30 35 31 30 35 31 30 35 31 30 33 32 28 33 32 28 33 32 28 33 32 28 33 32 28 33 32 28 33 32 28 33 32 28 36 35 31 36 35 31 36 35 31 36 35 31 36 35 31 36 35 31 36 35 31 36 35 31
4 1 10 4 1 10 4 1 10 4 1 10 2 0 8 2 0 8 2 0 8 2 0 8 2 0 8 2 0 8 2 0 8 2 0 10 3 0 11 3 0 11 3 0 13 3 0 11 3 0 13 3 0 11 3 0 13 3 0 11 4 0 14 4 1 12 4 0 14 4 1 12 4 0 14 4 1 12 4 0 14 4 1 12 2 1 9 2 1 9 2 1 9 2 1 9 2 1 9 2 1 9 2 1 9 2 1 9 4 3 11 4 3 11 4 3 11 4 3 11 4 3 11 4 3 11 4 3 11 3 3 11 4 7 12 3 8 12 4 7 12 3 8 12 4 7 12 3 8 12 4 7 12 3 8 12 6 9 14 5 10 14 6 9 14 5 10 14 6 9 14 5 10 14 6 9 14 5 10 14 5 10 13 5 10 13 5 10 13 5 10 13 5 10 13 5 10 13 5 10 13 5 10 13 5 10 13 5 10 13 5 10 13 5 10 13 5 10 13 5 10 13 5 10 13 5 10 13 4 12 14 4 12 14 4 12 14 4 12 14 4 12 14 4 12 14 4 12 14 4 12 14 4 12 14 4 12 14 4 12 14 4 12 14 4 12 14 4 12 14 4 12 14 4 12 14 10 16 16 11 15 14 11 15 16 11 15 14 11 15 16 11 15 14 11 15 16 11 15 14 0 3 4 0 3 2 0 3 4 0 3 2 0 3 4 0 3 2 0 3 4 0 3 4 0 2 2 0 2 2 0 3 3 0 6 6 4 10 10 7 13 13 9 15 15 11 17 17 25 31 31 27 33 33 29 35 35 32 38 38 36 42 42 39 45 45 41 47 47 43 49 47 52 57 51 54 59 52 56 61 55 59 64 57 63 68 62 66 71 64 68 73 67 70 75 68 66 71 65 66 71 64 66 71 65 66 71 64 66 71 65 66 71 64 66 71 65 68 70 65 49 48 44 49 45 44 47 43 42 44 40 39 40 36 35 37 33 32 35 31 30 33 29 28 35 31 30 35 31 30 35 31 30 35 31 30 35 31 30 35 31 30 35 31 30 35 31 30 35 31 28 33 32 28 35 31 28 33 32 28 35 31 28 33 32 28 35 31 28 33 32 28 38 34 31 36 35 31 38 34 31 36 35 31 38 34 31 36 35 31 38 34 31 36 35 31
1 0 6 1 0 6 1 0 6 1 0 6 1 0 6 1 0 6 1 0 6 1 0 6 1 0 6 1 0 6 1 0 6 1 0 6 3 2 10 3 2 10 3 1 12 3 2 10 3 1 12 3 2 10 3 1 12 3 2 10 3 1 12 3 2 10 3 1 12 3 2 10 3 1 12 3 2 10 3 1 12 3 2 10 4 3 11 4 3 11 4 3 11 4 3 11 4 3 11 4 3 11 4 3 11 4 3 11 4 3 11 4 3 11 4 3 11 4 3 11 4 3 11 4 3 11 4 3 11 4 3 11 6 6 14 4 7 14 6 6 14 4 7 14 6 6 14 4 7 14 6 6 14 4 7 14 8 8 16 6 9 16 8 8 16 6 9 16 8 8 16 6 9 16 8 8 16 6 9 14 7 12 15 7 12 15 7 12 15 7 12 15 7 12 15 7 12 15 7 12 15 7 12 15 6 11 14 6 11 14 6 11 14 6 11 14 6 11 14 6 11 14 6 11 14 6 11 14 7 15 17 6 14 16 5 13 15 4 12 14 3 11 13 1 9 11 1 9 11 0 8 10 4 12 14 5 13 15 9 17 19 13 21 23 18 26 28 22 30 32 26 34 36 28 36 38 34 39 42 34 40 40 34 39 42 34 40 40 34 39 42 34 40 40 34 39 42 34 40 40 12 17 20 10 16 16 8 13 16 5 11 11 1 6 9 0 4 4 0 1 4 0 2 2 0 2 2 0 3 3 0 5 5 2 8 8 6 12 12 9 15 15 11 17 17 13 19 19 21 27 27 23 29 29 25 31 31 28 34 34 32 38 38 35 41 41 37 43 43 39 45 43 57 62 58 57 62 56 57 62 58 57 62 56 57 62 58 57 62 56 57 62 58 57 62 56 63 68 64 63 68 62 63 68 64 63 68 62 63 68 64 63 68 62 63 68 64 65 67 62 45 44 40 45 41 38 43 39 36 40 36 33 36 32 29 33 29 26 31 27 24 29 25 22 33 29 26 33 29 26 33 29 26 33 29 26 33 29 26 33 29 26 33 29 26 33 29 26 35 31 28 35 31 28 36 31 28 35 31 28 36 31 28 35 31 28 36 31 28 35 31 28 37 32 29 36 32 29 37 32 29 36 32 29 37 32 29 36 32 29 37 32 29 36 32 29
1 0 5 1 0 5 1 0 5 1 0 5 1 0 5 1 0 5 1 0 5 1 0 5 1 0 5 1 0 5 1 0 5 1 0 5 3 2 10 3 2 10 3 2 10 3 2 10 3 2 10 3 2 10 3 2 10 3 2 10 3 2 10 3 2 10 3 2 10 3 2 10 3 2 10 3 2 10 3 2 10 3 2 10 4 3 11 4 3 11 4 3 11 4 3 11 4 3 11 4 3 11 4 3 11 4 3 11 4 3 11 4 3 11 4 3 11 4 3 11 4 3 11 4 3 11 4 3 11 4 3 11 6 6 14 6 6 14 6 6 14 6 6 14 6 6 14 6 6 14 6 6 14 6 6 14 8 8 16 8 8 16 8 8 16 8 8 16 8 8 16 8 8 16 8 8 16 6 9 14 8 11 16 7 12 15 7 12 15 7 12 15 7 12 15 7 12 15 7 12 15 7 12 15 6 11 14 6 11 14 6 11 14 6 11 14 6 11 14 6 11 14 6 11 14 6 11 14 6 14 16 6 14 16 6 14 16 5 13 15 4 12 14 4 12 14 3 11 13 3 11 13 8 16 18 10 18 20 13 21 23 16 24 26 20 28 30 24 32 34 27 35 37 28 36 38 34 39 42 34 39 42 34 39 42 34 39 42 34 39 42 34 39 42 34 39 42 34 39 42 12 17 20 10 15 18 8 13 16 5 10 13 1 6 9 0 3 6 0 1 4 0 1 4 0 2 2 0 3 3 0 5 5 2 8 8 6 12 12 9 15 15 11 17 17 13 19 19 21 27 27 23 29 29 25 31 31 28 34 34 32 38 38 35 41 41 37 43 43 39 45 43 55 59 58 55 60 56 55 60 56 55 60 56 55 60 56 55 60 56 55 60 56 55 60 56 61 66 62 61 66 62 61 66 62 61 66 62 61 66 62 61 66 62 61 66 62 63 65 62 45 44 40 45 41 38 43 39 36 40 36 33 36 32 29 33 29 26 31 27 24 29 25 22 33 29 26 33 29 26 33 29 26 33 29 26 33 29 26 33 29 26 33 29 26 33 29 26 36 31 28 36 31 28 36 31 28 36 31 28 36 31 28 36 31 28 36 31 28 36 31 28 37 32 29 37 32 29 37 32 29 37 32 29 37 32 29 37 32 29 37 32 29 37 32 29
1 0 5 1 0 5 1 0 5 1 0 5 1 0 5 1 0 5 1 0 5 1 0 5 1 0 5 1 0 5 1 0 5 1 0 5 3 2 10 3 2 10 3 2 10 3 2 10 3 2 10 3 2 10 3 2 10 3 2 10 3 2 10 3 2 10 3 2 10 3 2 10 3 2 10 3 2 10 3 2 10 3 2 10 4 3 11 4 3 11 4 3 11 4 3 11 4 3 11 4 3 11 4 3 11 4 3 11 4 3 11 4 3 11 4 3 11 4 3 11 4 3 11 4 3 11 4 3 11 4 3 11 6 6 14 6 6 14 6 6 14 6 6 14 6 6 14 6 6 14 6 6 14 6 6 14 8 8 16 8 8 16 8 8 16 8 8 16 8 8 16 8 8 16 8 8 16 6 9 14 8 11 16 7 12 15 7 12 15 7 12 15 7 12 15 7 12 15 7 12 15 7 12 15 6 11 14 6 11 14 6 11 14 6 11 14 6 11 14 6 11 14 6 11 14 6 11 14 5 13 15 6 14 16 6 14 16 7 15 17 7 15 17 8 16 18 9 17 19 9 17 19 16 24 26 17 25 27 19 27 29 22 30 32 25 33 35 27 35 37 29 37 39 30 38 40 34 39 42 34 39 42 34 39 42 34 39 42 34 39 42 34 39 42 34 39 42 34 39 42 12 17 20 10 15 18 8 13 16 5 10 13 1 6 9 0 3 6 0 1 4 0 1 4 0 2 2 0 3 3 0 5 5 2 8 8 6 12 12 9 15 15 11 17 17 13 19 19 21 27 27 23 29 29 25 31 31 28 34 34 32 38 38 35 41 41 37 43 43 39 45 43 53 57 56 53 58 54 53 58 54 53 58 54 53 58 54 53 58 54 53 58 54 53 58 54 59 64 60 59 64 60 59 64 60 59 64 60 59 64 60 59 64 60 59 64 60 61 63 60 45 44 40 45 41 38 43 39 36 40 36 33 36 32 29 33 29 26 31 27 24 29 25 22 33 29 26 33 29 26 33 29 26 33 29 26 33 29 26 33 29 26 33 29 26 33 29 26 36 31 28 36 31 28 36 31 28 36 31 28 36 31 28 36 31 28 36 31 28 36 31 28 37 32 29 37 32 29 37 32 29 37 32 29 37 32 29 37 32 29 37 32 29 37 32 29
1 0 5 1 0 5 1 0 5 1 0 5 1 0 5 1 0 5 1 0 5 1 0 5 1 0 5 1 0 5 1 0 5 1 0 5 3 2 10 3 2 10 3 2 10 3 2 10 3 2 10 3 2 10 3 2 10 3 2 10 3 2 10 3 2 10 3 2 10 3 2 10 3 2 10 3 2 10 3 2 10 3 2 10 4 3 11 4 3 11 4 3 11 4 3 11 4 3 11 4 3 11 4 3 11 4 3 11 4 3 11 4 3 11 4 3 11 4 3 11 4 3 11 4 3 11 4 3 11 4 3 11 6 6 14 6 6 14 6 6 14 6 6 14 6 6 14 6 6 14 6 6 14 6 6 14 8 8 16 8 8 16 8 8 16 8 8 16 8 8 16 8 8 16 8 8 16 6 9 14 8 11 16 7 12 15 7 12 15 7 12 15 7 12 15 7 12 15 7 12 15 7 12 15 6 11 14 6 11 14 6 11 14 6 11 14 6 11 14 6 11 14 6 11 14 6 11 14 4 12 14 5 13 15 7 15 17 9 17 19 12 20 22 14 22 24 16 24 26 17 25 27 27 35 37 28 36 38 28 36 38 29 37 39 30 38 40 31 39 41 32 40 42 32 40 42 34 39 42 34 39 42 34 39 42 34 39 42 34 39 42 34 39 42 34 39 42 34 39 42 12 17 20 10 15 18 8 13 16 5 10 13 1 6 9 0 3 6 0 1 4 0 1 4 0 2 2 0 3 3 0 5 5 2 8 8 6 12 12 9 15 15 11 17 17 13 19 19 21 27 27 23 29 29 25 31 31 28 34 34 32 38 38 35 41 41 37 43 43 39 45 43 50 54 53 50 55 51 50 55 51 50 55 51 50 55 51 50 55 51 50 55 51 50 55 51 56 61 57 56 61 57 56 61 57 56 61 57 56 61 57 56 61 57 56 61 57 58 60 57 45 44 40 45 41 38 43 39 36 40 36 33 36 32 29 33 29 26 31 27 24 29 25 22 33 29 26 33 29 26 33 29 26 33 29 26 33 29 26 33 29 26 33 29 26 33 29 26 36 31 28 36 31 28 36 31 28 36 31 28 36 31 28 36 31 28 36 31 28 36 31 28 37 32 29 37 32 29 37 32 29 37 32 29 37 32 29 37 32 29 37 32 29 37 32 29
1 0 5 1 0 5 1 0 5 1 0 5 1 0 5 1 0 5 1 0 5 1 0 5 1 0 5 1 0 5 1 0 5 1 0 5 3 2 10 3 2 10 3 2 10 3 2 10 3 2 10 3 2 10 3 2 10 3 2 10 3 2 10 3 2 10 3 2 10 3 2 10 3 2 10 3 2 10 3 2 10 3 2 10 4 3 11 4 3 11 4 3 11 4 3 11 4 3 11 4 3 11 4 3 11 4 3 11 4 3 11 4 3 11 4 3 11 4 3 11 4 3 11 4 3 11 4 3 11 4 3 11 6 6 14 6 6 14 6 6 14 6 6 14 6 6 14 6 6 14 6 6 14 6 6 14 8 8 16 8 8 16 8 8 16 8 8 16 8 8 16 8 8 16 8 8 16 6 9 14 8 11 16 7 12 15 7 12 15 7 12 15 7 12 15 7 12 15 7 12 15 7 12 15 6 11 14 6 11 14 6 11 14 6 11 14 6 11 14 6 11 14 6 11 14 6 11 14 3 11 13 4 12 14 7 15 17 12 20 22 16 24 26 20 28 30 23 31 33 25 33 35 39 47 49 38 46 48 38 46 48 37 45 47 36 44 46 35 43 45 34 42 44 34 42 44 34 39 42 34 39 42 34 39 42 34 39 42 34 39 42 34 39 42 34 39 42 34 39 42 12 17 20 10 15 18 8 13 16 5 10 13 1 6 9 0 3 6 0 1 4 0 1 4 0 2 2 0 3 3 0 5 5 2 8 8 6 12 12 9 15 15 11 17 17 13 19 19 21 27 27 23 29 29 25 31 31 28 34 34 32 38 38 35 41 41 37 43 43 39 45 43 46 50 49 46 51 47 46 51 47 46 51 47 46 51 47 46 51 47 46 51 47 46 51 47 52 57 53 52 57 53 52 57 53 52 57 53 52 57 53 52 57 53 52 57 53 54 56 53 45 44 40 45 41 38 43 39 36 40 36 33 36 32 29 33 29 26 31 27 24 29 25 22 33 29 26 33 29 26 33 29 26 33 29 26 33 29 26 33 29 26 33 29 26 33 29 26 36 31 28 36 31 28 36 31 28 36 31 28 36 31 28 36 31 28 36 31 28 36 31 28 37 32 29 37 32 29 37 32 29 37 32 29 37 32 29 37 32 29 37 32 29 37 32 29
1 0 5 1 0 5 1 0 5 1 0 5 1 0 5 1 0 5 1 0 5 1 0 5 1 0 5 1 0 5 1 0 5 1 0 5 3 2 10 3 2 10 3 2 10 3 2 10 3 2 10 3 2 10 3 2 10 3 2 10 3 2 10 3 2 10 3 2 10 3 2 10 3 2 10 3 2 10 3 2 10 3 2 10 4 3 11 4 3 11 4 3 11 4 3 11 4 3 11 4 3 11 4 3 11 4 3 11 4 3 11 4 3 11 4 3 11 4 3 11 4 3 11 4 3 11 4 3 11 4 3 11 6 6 14 6 6 14 6 6 14 6 6 14 6 6 14 6 6 14 6 6 14 6 6 14 8 8 16 8 8 16 8 8 16 8 8 16 8 8 16 8 8 16 8 8 16 6 9 14 8 11 16 7 12 15 7 12 15 7 12 15 7 12 15 7 12 15 7 12 15 7 12 15 6 11 14 6 11 14 6 11 14 6 11 14 6 11 14 6 11 14 6 11 14 6 11 14 1 9 11 4 12 14 8 16 18 14 22 24 20 28 30 26 34 36 30 38 40 32 40 42 50 58 60 49 57 59 47 55 57 44 52 54 41 49 51 39 47 49 37 45 47 36 44 46 34 39 42 34 39 42 34 39 42 34 39 42 34 39 42 34 39 42 34 39 42 34 39 42 12 17 20 10 15 18 8 13 16 5 10 13 1 6 9 0 3 6 0 1 4 0 1 4 0 2 2 0 3 3 0 5 5 2 8 8 6 12 12 9 15 15 11 17 17 13 19 19 21 27 27 23 29 29 25 31 31 28 34 34 32 38 38 35 41 41 37 43 43 39 45 43 43 47 46 43 48 44 43 48 44 43 48 44 43 48 44 43 48 44 43 48 44 43 48 44 49 54 50 49 54 50 49 54 50 49 54 50 49 54 50 49 54 50 49 54 50 51 53 50 45 44 40 45 41 38 43 39 36 40 36 33 36 32 29 33 29 26 31 27 24 29 25 22 33 29 26 33 29 26 33 29 26 33 29 26 33 29 26 33 29 26 33 29 26 33 29 26 36 31 28 36 31 28 36 31 28 36 31 28 36 31 28 36 31 28 36 31 28 36 31 28 37 32 29 37 32 29 37 32 29 37 32 29 37 32 29 37 32 29 37 32 29 37 32 29
1 0 5 1 0 5 1 0 5 1 0 5 1 0 5 1 0 5 1 0 5 1 0 5 1 0 5 1 0 5 1 0 5 1 0 5 3 2 10 3 2 10 3 2 10 3 2 10 3 2 10 3 2 10 3 2 10 3 2 10 3 2 10 3 2 10 3 2 10 3 2 10 3 2 10 3 2 10 3 2 10 3 2 10 4 3 11 4 3 11 4 3 11 4 3 11 4 3 11 4 3 11 4 3 11 4 3 11 4 3 11 4 3 11 4 3 11 4 3 11 4 3 11 4 3 11 4 3 11 4 3 11 6 6 14 6 6 14 6 6 14 6 6 14 6 6 14 6 6 14 6 6 14 6 6 14 8 8 16 8 8 16 8 8 16 8 8 16 8 8 16 8 8 16 8 8 16 6 9 14 8 11 16 7 12 15 7 12 15 7 12 15 7 12 15 7 12 15 7 12 15 7 12 15 6 11 14 6 11 14 6 11 14 6 11 14 6 11 14 6 11 14 6 11 14 6 11 14 0 8 10 3 11 13 9 17 19 16 24 26 23 31 33 30 38 40 35 43 45 38 46 48 58 66 68 56 64 66 53 61 63 50 58 60 46 54 56 42 50 52 39 47 49 38 46 48 34 39 42 34 39 42 34 39 42 34 39 42 34 39 42 34 39 42 34 39 42 34 39 42 12 17 20 10 15 18 8 13 16 5 10 13 1 6 9 0 3 6 0 1 4 0 1 4 0 2 2 0 3 3 0 5 5 2 8 8 6 12 12 9 15 15 11 17 17 13 19 19 21 27 27 23 29 29 25 31 31 28 34 34 32 38 38 35 41 41 37 43 43 39 45 43 41 45 44 41 46 42 41 46 42 41 46 42 41 46 42 41 46 42 41 46 42 41 46 42 47 52 48 47 52 48 47 52 48 47 52 48 47 52 48 47 52 48 47 52 48 49 51 48 45 44 40 45 41 38 43 39 36 40 36 33 36 32 29 33 29 26 31 27 24 29 25 22 33 29 26 33 29 26 33 29 26 33 29 26 33 29 26 33 29 26 33 29 26 33 29 26 36 31 28 36 31 28 36 31 28 36 31 28 36 31 28 36 31 28 36 31 28 36 31 28 37 32 29 37 32 29 37 32 29 37 32 29 37 32 29 37 32 29 37 32 29 37 32 29
1 0 5 1 0 5 1 0 5 1 0 5 1 0 5 1 0 5 1 0 5 1 0 5 1 0 5 1 0 5 1 0 5 1 0 5 3 2 10 3 2 10 3 2 10 3 2 10 3 2 10 3 2 10 3 2 10 3 2 10 3 2 10 3 2 10 3 2 10 3 2 10 3 2 10 3 2 10 3 2 10 3 2 10 4 3 11 4 3 11 4 3 11 4 3 11 4 3 11 4 3 11 4 3 11 4 3 11 4 3 11 4 3 11 4 3 11 4 3 11 4 3 11 4 3 11 4 3 11 4 3 11 6 6 14 6 6 14 6 6 14 6 6 14 6 6 14 6 6 14 6 6 14 6 6 14 8 8 16 8 8 16 8 8 16 8 8 16 8 8 16 8 8 16 8 8 16 6 9 14 8 11 16 7 12 15 7 12 15 7 12 15 7 12 15 7 12 15 7 12 15 7 12 15 6 11 14 6 11 14 6 11 14 6 11 14 6 11 14 6 11 14 6 11 14 6 11 14 0 8 10 3 11 13 9 17 19 17 25 27 25 33 35 32 40 42 38 46 48 41 49 51 62 70 72 61 69 71 57 65 67 53 61 63 48 56 58 44 52 54 40 48 50 38 46 48 34 39 42 34 39 42 34 39 42 34 39 42 34 39 42 34 39 42 34 39 42 34 39 42 12 17 20 10 15 18 8 13 16 5 10 13 1 6 9 0 3 6 0 1 4 0 1 4 0 2 2 0 3 3 0 5 5 2 8 8 6 12 12 9 15 15 11 17 17 13 19 19 21 27 27 23 29 29 25 31 31 28 34 34 32 38 38 35 41 41 37 43 43 39 45 43 39 43 42 39 44 40 39 44 40 39 44 40 39 44 40 39 44 40 39 44 40 39 44 40 45 50 46 45 50 46 45 50 46 45 50 46 45 50 46 45 50 46 45 50 46 47 49 46 45 44 40 45 41 38 43 39 36 40 36 33 36 32 29 33 29 26 31 27 24 29 25 22 33 29 26 33 29 26 33 29 26 33 29 26 33 29 26 33 29 26 33 29 26 33 29 26 36 31 28 36 31 28 36 31 28 36 31 28 36 31 28 36 31 28 36 31 28 36 31 28 37 32 29 37 32 29 37 32 29 37 32 29 37 32 29 37 32 29 37 32 29 37 32 29
1 0 5 1 0 5 1 0 5 1 0 5 1 0 5 1 0 5 1 0 5 1 0 5 1 0 5 1 0 5 1 0 5 1 0 5 2 1 9 2 1 9 2 1 9 2 1 9 2 1 9 2 1 9 2 1 9 2 1 9 1 0 8 1 0 8 1 0 8 1 0 8 1 0 8 1 0 8 1 0 8 1 0 8 2 1 9 2 1 9 2 1 9 2 1 9 2 1 9 2 1 9 2 1 9 2 1 9 5 4 12 5 4 12 5 4 12 5 4 12 5 4 12 5 4 12 5 4 12 5 4 12 2 2 10 2 2 10 2 2 10 2 2 10 2 2 10 2 2 10 2 2 10 2 2 10 4 4 12 4 4 12 4 4 12 4 4 12 4 4 12 4 4 12 4 4 12 2 5 10 8 11 16 7 12 15 7 12 15 7 12 15 7 12 15 7 12 15 7 12 15 7 12 15 0 1 4 0 1 4 0 2 5 0 5 8 4 9 12 7 12 15 9 14 17 11 16 19 36 44 46 37 45 47 39 47 49 43 51 53 46 54 56 49 57 59 52 60 62 53 61 63 52 60 62 52 60 62 52 60 62 52 60 62 52 60 62 52 60 62 52 60 62 52 60 62 53 58 61 51 56 59 49 54 57 46 51 54 42 47 50 39 44 47 37 42 45 35 40 43 6 11 14 6 11 14 6 11 14 6 11 14 6 11 14 6 11 14 6 11 14 6 11 14 0 6 6 2 8 8 4 10 10 7 13 13 11 17 17 14 20 20 16 22 22 18 24 24 25 31 31 25 31 31 25 31 31 25 31 31 25 31 31 25 31 31 25 31 31 25 31 29 35 39 38 35 40 36 35 40 36 35 40 36 35 40 36 35 40 36 35 40 36 35 40 36 45 50 46 45 50 46 45 50 46 45 50 46 45 50 46 45 50 46 45 50 46 47 49 46 32 31 27 34 30 27 34 30 27 34 30 27 34 30 27 34 30 27 34 30 27 34 30 27 33 29 26 33 29 26 33 29 26 33 29 26 33 29 26 33 29 26 33 29 26 33 29 26 35 30 27 35 30 27 35 30 27 35 30 27 35 30 27 35 30 27 35 30 27 35 30 27 37 32 29 37 32 29 37 32 29 37 32 29 37 32 29 37 32 29 37 32 29 37 32 29
1 0 5 1 0 5 1 0 5 1 0 5 1 0 5 1 0 5 1 0 5 1 0 5 1 0 5 1 0 5 1 0 5 1 0 5 2 1 9 2 1 9 2 1 9 2 1 9 2 1 9 2 1 9 2 1 9 2 1 9 1 0 8 1 0 8 1 0 8 1 0 8 1 0 8 1 0 8 1 0 8 1 0 8 2 1 9 2 1 9 2 1 9 2 1 9 2 1 9 2 1 9 2 1 9 2 1 9 5 4 12 5 4 12 5 4 12 5 4 12 5 4 12 5 4 12 5 4 12 5 4 12 2 2 10 2 2 10 2 2 10 2 2 10 2 2 10 2 2 10 2 2 10 2 2 10 4 4 12 4 4 12 4 4 12 4 4 12 4 4 12 4 4 12 4 4 12 2 5 10 8 11 16 7 12 15 7 12 15 7 12 15 7 12 15 7 12 15 7 12 15 7 12 15 0 2 5 0 4 7 1 6 9 4 9 12 8 13 16 11 16 19 13 18 21 15 20 23 37 45 47 38 46 48 41 49 51 44 52 54 47 55 57 51 59 61 53 61 63 54 62 64 54 62 64 54 62 64 54 62 64 54 62 64 54 62 64 54 62 64 54 62 64 54 62 64 53 58 61 51 56 59 49 54 57 46 51 54 42 47 50 39 44 47 37 42 45 35 40 43 6 11 14 6 11 14 6 11 14 6 11 14 6 11 14 6 11 14 6 11 14 6 11 14 0 6 6 2 8 8 4 10 10 7 13 13 11 17 17 14 20 20 16 22 22 18 24 24 25 31 31 25 31 31 25 31 31 25 31 31 25 31 31 25 31 31 25 31 31 25 31 29 35 39 38 35 40 36 35 40 36 35 40 36 35 40 36 35 40 36 35 40 36 35 40 36 43 48 44 43 48 44 43 48 44 43 48 44 43 48 44 43 48 44 43 48 44 45 47 44 32 31 27 34 30 27 34 30 27 34 30 27 34 30 27 34 30 27 34 30 27 34 30 27 33 29 26 33 29 26 33 29 26 33 29 26 33 29 26 33 29 26 33 29 26 33 29 26 35 30 27 35 30 27 35 30 27 35 30 27 35 30 27 35 30 27 35 30 27 35 30 27 37 32 29 37 32 29 37 32 29 37 32 29 37 32 29 37 32 29 37 32 29 37 32 29
1 0 5 1 0 5 1 0 5 1 0 5 1 0 5 1 0 5 1 0 5 1 0 5 1 0 5 1 0 5 1 0 5 1 0 5 2 1 9 2 1 9 2 1 9 2 1 9 2 1 9 2 1 9 2 1 9 2 1 9 1 0 8 1 0 8 1 0 8 1 0 8 1 0 8 1 0 8 1 0 8 1 0 8 2 1 9 2 1 9 2 1 9 2 1 9 2 1 9 2 1 9 2 1 9 2 1 9 5 4 12 5 4 12 5 4 12 5 4 12 5 4 12 5 4 12 5 4 12 5 4 12 2 2 10 2 2 10 2 2 10 2 2 10 2 2 10 2 2 10 2 2 10 2 2 10 4 4 12 4 4 12 4 4 12 4 4 12 4 4 12 4 4 12 4 4 12 2 5 10 8 11 16 7 12 15 7 12 15 7 12 15 7 12 15 7 12 15 7 12 15 7 12 15 5 10 13 6 11 14 8 13 16 12 17 20 15 20 23 18 23 26 21 26 29 22 27 30 39 47 49 41 49 51 43 51 53 46 54 56 50 58 60 53 61 63 55 63 65 57 65 67 56 64 66 56 64 66 56 64 66 56 64 66 56 64 66 56 64 66 56 64 66 56 64 66 53 58 61 51 56 59 49 54 57 46 51 54 42 47 50 39 44 47 37 42 45 35 40 43 6 11 14 6 11 14 6 11 14 6 11 14 6 11 14 6 11 14 6 11 14 6 11 14 0 6 6 2 8 8 4 10 10 7 13 13 11 17 17 14 20 20 16 22 22 18 24 24 25 31 31 25 31 31 25 31 31 25 31 31 25 31 31 25 31 31 25 31 31 25 31 29 35 39 38 35 40 36 35 40 36 35 40 36 35 40 36 35 40 36 35 40 36 35 40 36 41 46 42 41 46 42 41 46 42 41 46 42 41 46 42 41 46 42 41 46 42 43 45 42 32 31 27 34 30 27 34 30 27 34 30 27 34 30 27 34 30 27 34 30 27 34 30 27 33 29 26 33 29 26 33 29 26 33 29 26 33 29 26 33 29 26 33 29 26 33 29 26 35 30 27 35 30 27 35 30 27 35 30 27 35 30 27 35 30 27 35 30 27 35 30 27 37 32 29 37 32 29 37 32 29 37 32 29 37 32 29 37 32 29 37 32 29 37 32 29
1 0 5 1 0 5 1 0 5 1 0 5 1 0 5 1 0 5 1 0 5 1 0 5 1 0 5 1 0 5 1 0 5 1 0 5 2 1 9 2 1 9 2 1 9 2 1 9 2 1 9 2 1 9 2 1 9 2 1 9 1 0 8 1 0 8 1 0 8 1 0 8 1 0 8 1 0 8 1 0 8 1 0 8 2 1 9 2 1 9 2 1 9 2 1 9 2 1 9 2 1 9 2 1 9 2 1 9 5 4 12 5 4 12 5 4 12 5 4 12 5 4 12 5 4 12 5 4 12 5 4 12 2 2 10 2 2 10 2 2 10 2 2 10 2 2 10 2 2 10 2 2 10 2 2 10 4 4 12 4 4 12 4 4 12 4 4 12 4 4 12 4 4 12 4 4 12 2 5 10 8 11 16 7 12 15 7 12 15 7 12 15 7 12 15 7 12 15 7 12 15 7 12 15 14 19 22 15 20 23 18 23 26 21 26 29 25 30 33 28 33 36 30 35 38 31 36 39 43 51 53 44 52 54 46 54 56 50 58 60 53 61 63 56 64 66 59 67 69 60 68 70 59 67 69 59 67 69 59 67 69 59 67 69 59 67 69 59 67 69 59 67 69 59 67 69 53 58 61 51 56 59 49 54 57 46 51 54 42 47 50 39 44 47 37 42 45 35 40 43 6 11 14 6 11 14 6 11 14 6 11 14 6 11 14 6 11 14 6 11 14 6 11 14 0 6 6 2 8 8 4 10 10 7 13 13 11 17 17 14 20 20 16 22 22 18 24 24 25 31 31 25 31 31 25 31 31 25 31 31 25 31 31 25 31 31 25 31 31 25 31 29 35 39 38 35 40 36 35 40 36 35 40 36 35 40 36 35 40 36 35 40 36 35 40 36 38 43 39 38 43 39 38 43 39 38 43 39 38 43 39 38 43 39 38 43 39 40 42 39 32 31 27 34 30 27 34 30 27 34 30 27 34 30 27 34 30 27 34 30 27 34 30 27 33 29 26 33 29 26 33 29 26 33 29 26 33 29 26 33 29 26 33 29 26 33 29 26 35 30 27 35 30 27 35 30 27 35 30 27 35 30 27 35 30 27 35 30 27 35 30 27 37 32 29 37 32 29 37 32 29 37 32 29 37 32 29 37 32 29 37 32 29 37 32 29
1 0 5 1 0 5 1 0 5 1 0 5 1 0 5 1 0 5 1 0 5 1 0 5 1 0 5 1 0 5 1 0 5 1 0 5 2 1 9 2 1 9 2 1 9 2 1 9 2 1 9 2 1 9 2 1 9 2 1 9 1 0 8 1 0 8 1 0 8 1 0 8 1 0 8 1 0 8 1 0 8 1 0 8 2 1 9 2 1 9 2 1 9 2 1 9 2 1 9 2 1 9 2 1 9 2 1 9 5 4 12 5 4 12 5 4 12 5 4 12 5 4 12 5 4 12 5 4 12 5 4 12 2 2 10 2 2 10 2 2 10 2 2 10 2 2 10 2 2 10 2 2 10 2 2 10 4 4 12 4 4 12 4 4 12 4 4 12 4 4 12 4 4 12 4 4 12 2 5 10 8 11 16 7 12 15 7 12 15 7 12 15 7 12 15 7 12 15 7 12 15 7 12 15 25 30 33 26 31 34 28 33 36 31 36 39 35 40 43 38 43 46 41 46 49 42 47 50 46 54 56 47 55 57 50 58 60 53 61 63 56 64 66 60 68 70 62 70 72 63 71 73 63 71 73 63 71 73 63 71 73 63 71 73 63 71 73 63 71 73 63 71 73 63 71 73 53 58 61 51 56 59 49 54 57 46 51 54 42 47 50 39 44 47 37 42 45 35 40 43 6 11 14 6 11 14 6 11 14 6 11 14 6 11 14 6 11 14 6 11 14 6 11 14 0 6 6 2 8 8 4 10 10 7 13 13 11 17 17 14 20 20 16 22 22 18 24 24 25 31 31 25 31 31 25 31 31 25 31 31 25 31 31 25 31 31 25 31 31 25 31 29 35 39 38 35 40 36 35 40 36 35 40 36 35 40 36 35 40 36 35 40 36 35 40 36 34 39 35 34 39 35 34 39 35 34 39 35 34 39 35 34 39 35 34 39 35 36 38 35 32 31 27 34 30 27 34 30 27 34 30 27 34 30 27 34 30 27 34 30 27 34 30 27 33 29 26 33 29 26 33 29 26 33 29 26 33 29 26 33 29 26 33 29 26 33 29 26 35 30 27 35 30 27 35 30 27 35 30 27 35 30 27 35 30 27 35 30 27 35 30 27 37 32 29 37 32 29 37 32 29 37 32 29 37 32 29 37 32 29 37 32 29 37 32 29
1 0 5 1 0 5 1 0 5 1 0 5 1 0 5 1 0 5 1 0 5 1 0 5 1 0 5 1 0 5 1 0 5 1 0 5 2 1 9 2 1 9 2 1 9 2 1 9 2 1 9 2 1 9 2 1 9 2 1 9 1 0 8 1 0 8 1 0 8 1 0 8 1 0 8 1 0 8 1 0 8 1 0 8 2 1 9 2 1 9 2 1 9 2 1 9 2 1 9 2 1 9 2 1 9 2 1 9 5 4 12 5 4 12 5 4 12 5 4 12 5 4 12 5 4 12 5 4 12 5 4 12 2 2 10 2 2 10 2 2 10 2 2 10 2 2 10 2 2 10 2 2 10 2 2 10 4 4 12 4 4 12 4 4 12 4 4 12 4 4 12 4 4 12 4 4 12 2 5 10 8 11 16 7 12 15 7 12 15 7 12 15 7 12 15 7 12 15 7 12 15 7 12 15 34 39 42 35 40 43 38 43 46 41 46 49 44 49 52 48 53 56 50 55 58 51 56 59 49 57 59 51 59 61 53 61 63 56 64 66 60 68 70 63 71 73 65 73 75 67 75 77 66 74 76 66 74 76 66 74 76 66 74 76 66 74 76 66 74 76 66 74 76 66 74 76 53 58 61 51 56 59 49 54 57 46 51 54 42 47 50 39 44 47 37 42 45 35 40 43 6 11 14 6 11 14 6 11 14 6 11 14 6 11 14 6 11 14 6 11 14 6 11 14 0 6 6 2 8 8 4 10 10 7 13 13 11 17 17 14 20 20 16 22 22 18 24 24 25 31 31 25 31 31 25 31 31 25 31 31 25 31 31 25 31 31 25 31 31 25 31 29 35 39 38 35 40 36 35 40 36 35 40 36 35 40 36 35 40 36 35 40 36 35 40 36 31 36 32 31 36 32 31 36 32 31 36 32 31 36 32 31 36 32 31 36 32 33 35 32 32 31 27 34 30 27 34 30 27 34 30 27 34 30 27 34 30 27 34 30 27 34 30 27 33 29 26 33 29 26 33 29 26 33 29 26 33 29 26 33 29 26 33 29 26 33 29 26 35 30 27 35 30 27 35 30 27 35 30 27 35 30 27 35 30 27 35 30 27 35 30 27 37 32 29 37 32 29 37 32 29 37 32 29 37 32 29 37 32 29 37 32 29 37 32 29
1 0 5 1 0 5 1 0 5 1 0 5 1 0 5 1 0 5 1 0 5 1 0 5 1 0 5 1 0 5 1 0 5 1 0 5 2 1 9 2 1 9 2 1 9 2 1 9 2 1 9 2 1 9 2 1 9 2 1 9 1 0 8 1 0 8 1 0 8 1 0 8 1 0 8 1 0 8 1 0 8 1 0 8 2 1 9 2 1 9 2 1 9 2 1 9 2 1 9 2 1 9 2 1 9 2 1 9 5 4 12 5 4 12 5 4 12 5 4 12 5 4 12 5 4 12 5 4 12 5 4 12 2 2 10 2 2 10 2 2 10 2 2 10 2 2 10 2 2 10 2 2 10 2 2 10 4 4 12 4 4 12 4 4 12 4 4 12 4 4 12 4 4 12 4 4 12 2 5 10 8 11 16 7 12 15 7 12 15 7 12 15 7 12 15 7 12 15 7 12 15 7 12 15 41 46 49 43 48 51 45 50 53 48 53 56 52 57 60 55 60 63 57 62 65 59 64 67 52 60 62 53 61 63 55 63 65 59 67 69 62 70 72 65 73 75 68 76 78 69 77 79 68 76 78 68 76 78 68 76 78 68 76 78 68 76 78 68 76 78 68 76 78 68 76 78 53 58 61 51 56 59 49 54 57 46 51 54 42 47 50 39 44 47 37 42 45 35 40 43 6 11 14 6 11 14 6 11 14 6 11 14 6 11 14 6 11 14 6 11 14 6 11 14 0 6 6 2 8 8 4 10 10 7 13 13 11 17 17 14 20 20 16 22 22 18 24 24 25 31 31 25 31 31 25 31 31 25 31 31 25 31 31 25 31 31 25 31 31 25 31 29 35 39 38 35 40 36 35 40 36 35 40 36 35 40 36 35 40 36 35 40 36 35 40 36 29 34 30 29 34 30 29 34 30 29 34 30 29 34 30 29 34 30 29 34 30 31 33 30 32 31 27 34 30 27 34 30 27 34 30 27 34 30 27 34 30 27 34 30 27 34 30 27 33 29 26 33 29 26 33 29 26 33 29 26 33 29 26 33 29 26 33 29 26 33 29 26 35 30 27 35 30 27 35 30 27 35 30 27 35 30 27 35 30 27 35 30 27 35 30 27 37 32 29 37 32 29 37 32 29 37 32 29 37 32 29 37 32 29 37 32 29 37 32 29
1 0 5 1 1 3 1 0 5 1 1 3 1 0 5 1 1 3 1 0 5 1 1 3 1 0 5 1 1 3 1 0 5 1 0 5 2 1 7 2 1 7 2 1 7 2 1 7 2 1 7 2 1 7 2 1 7 2 1 7 1 0 6 1 0 6 1 0 6 1 0 6 1 0 6 1 0 6 1 0 6 1 0 6 2 1 7 2 1 7 2 1 9 2 1 7 2 1 9 2 1 7 2 1 9 2 1 7 5 4 12 5 4 10 5 4 12 5 4 10 5 4 12 5 4 10 5 4 12 4 4 12 2 2 10 0 3 10 0 3 10 0 3 10 0 3 10 0 3 10 0 3 10 0 3 10 2 5 12 2 5 12 2 5 12 2 5 12 2 5 12 2 5 12 2 5 12 2 5 10 7 12 16 7 12 15 7 12 16 7 12 15 7 12 16 7 12 15 7 12 16 7 12 15 45 50 54 47 52 55 49 54 58 52 57 60 56 61 65 59 64 67 61 66 70 63 68 71 53 61 63 54 62 64 57 65 67 60 68 70 63 71 73 67 75 77 69 77 79 70 78 80 70 78 80 70 78 80 70 78 80 70 78 80 70 78 80 70 78 80 70 78 80 70 78 80 53 58 61 51 56 59 49 54 57 46 51 54 42 47 50 39 44 47 37 42 45 35 40 43 6 11 14 6 11 14 6 11 14 6 11 14 6 11 14 6 11 14 6 11 14 6 11 14 0 5 8 2 8 8 4 9 12 7 13 13 11 16 19 14 20 20 16 21 24 18 24 24 25 30 33 25 31 31 25 30 33 25 31 31 25 30 33 25 31 31 25 30 33 25 31 31 35 39 38 35 40 36 35 39 38 35 40 36 35 39 38 35 40 36 35 39 38 35 40 36 27 31 30 27 32 28 27 31 30 27 32 28 27 31 30 27 32 28 27 31 30 29 31 28 32 31 27 34 30 27 35 30 27 34 30 27 35 30 27 34 30 27 35 30 27 34 30 27 34 29 26 33 29 26 34 29 26 33 29 26 34 29 26 33 29 26 34 29 26 34 29 26 35 30 27 35 30 27 37 29 27 35 30 27 37 29 27 35 30 27 37 29 27 35 30 27 39 31 29 37 32 29 39 31 29 37 32 29 39 31 29 37 32 29 39 31 29 37 32 29
0 0 2 0 0 0 0 0 2 0 0 0 0 0 2 0 0 0 0 0 2 0 0 0 0 0 2 0 0 0 0 0 2 0 0 2 1 1 3 1 0 5 1 0 5 1 0 5 1 0 5 1 0 5 1 0 5 1 0 5 0 0 4 0 0 4 0 0 4 0 0 4 0 0 4 0 0 4 0 0 4 0 0 4 0 1 5 0 1 5 0 1 6 0 1 5 0 1 6 0 1 5 0 1 6 0 1 5 2 3 8 2 3 7 2 3 8 2 3 7 2 3 8 2 3 7 2 3 8 2 3 8 0 2 6 0 4 8 1 6 10 4 9 13 8 13 17 11 16 20 13 18 22 15 20 24 0 1 5 0 2 6 0 5 9 3 8 12 6 11 15 10 15 19 12 17 21 13 18 22 21 29 32 22 30 33 25 32 38 28 36 39 31 38 44 35 43 46 37 44 50 38 46 49 55 62 68 55 63 66 55 62 68 55 63 66 55 62 68 55 63 66 55 62 68 55 63 66 78 83 87 78 83 87 78 83 87 78 83 87 78 83 87 78 83 87 78 83 87 78 83 87 74 79 83 74 79 83 74 79 83 74 79 83 74 79 83 74 79 83 74 79 83 74 79 83 61 69 71 59 67 69 54 62 64 47 55 57 41 49 51 34 42 44 29 37 39 27 35 37 4 12 14 4 12 14 4 12 14 4 12 14 4 12 14 4 12 14 4 12 14 4 12 14 8 16 18 8 16 18 8 16 19 8 16 18 8 16 19 8 16 18 8 16 19 8 16 18 21 29 32 21 29 31 21 29 32 21 29 31 21 29 32 21 29 31 21 29 32 21 29 31 25 31 31 25 31 29 25 31 31 25 31 29 25 31 31 25 31 29 25 31 31 25 31 29 23 29 29 23 29 27 23 29 29 23 29 27 23 29 29 23 29 27 23 29 29 26 28 27 31 27 26 32 27 24 34 26 24 32 27 24 34 26 24 32 27 24 34 26 24 32 27 24 36 28 26 34 29 26 36 28 26 34 29 26 36 28 26 34 29 26 36 28 26 36 28 26 37 29 26 37 29 26 38 28 26 37 29 26 38 28 26 37 29 26 38 28 26 37 29 26 39 29 27 38 30 27 39 29 27 38 30 27 39 29 27 38 30 27 39 29 27 38 30 27
0 0 0 0 0 0 0 0 0 0 0 0 0 0 0 0 0 0 0 0 0 0 0 0 0 0 0 0 0 0 0 0 0 0 0 0 1 1 3 1 1 3 1 1 3 1 1 3 1 1 3 1 1 3 1 1 3 1 1 3 0 0 2 0 0 2 0 0 2 0 0 2 0 0 2 0 0 2 0 0 2 0 0 2 0 1 5 0 1 5 0 1 5 0 1 5 0 1 5 0 1 5 0 1 5 0 1 5 2 3 7 2 3 7 2 3 7 2 3 7 2 3 7 2 3 7 2 3 7 0 4 7 0 2 6 0 5 8 0 7 10 2 10 13 6 14 17 9 17 20 11 19 22 13 21 24 0 5 8 0 6 9 0 8 11 4 12 15 7 15 18 10 18 21 13 21 24 14 22 25 24 31 37 25 32 38 27 34 40 31 38 44 34 41 47 37 44 50 40 47 53 41 48 54 57 64 70 57 64 70 57 64 70 57 64 70 57 64 70 57 64 70 57 64 70 57 64 70 78 83 87 78 83 87 78 83 87 78 83 87 78 83 87 78 83 87 78 83 87 78 83 87 74 79 83 74 79 83 74 79 83 74 79 83 74 79 83 74 79 83 74 79 83 74 79 83 61 69 71 59 67 69 54 62 64 47 55 57 41 49 51 34 42 44 29 37 39 27 35 37 4 12 14 4 12 14 4 12 14 4 12 14 4 12 14 4 12 14 4 12 14 4 12 14 8 16 19 8 16 19 8 16 19 8 16 19 8 16 19 8 16 19 8 16 19 8 16 19 21 29 32 21 29 32 21 29 32 21 29 32 21 29 32 21 29 32 21 29 32 21 29 31 25 30 33 25 31 31 25 31 31 25 31 31 25 31 31 25 31 31 25 31 31 25 31 31 23 29 29 23 29 29 23 29 29 23 29 29 23 29 29 23 29 29 23 29 29 26 28 27 31 27 26 34 26 24 34 26 24 34 26 24 34 26 24 34 26 24 34 26 24 34 26 24 36 28 26 36 28 26 36 28 26 36 28 26 36 28 26 36 28 26 36 28 26 36 28 26 38 28 26 38 28 26 38 28 26 38 28 26 38 28 26 38 28 26 38 28 26 38 28 26 39 29 27 39 29 27 39 29 27 39 29 27 39 29 27 39 29 27 39 29 27 39 29 27
0 0 0 0 0 0 0 0 0 0 0 0 0 0 0 0 0 0 0 0 0 0 0 0 0 0 0 0 0 0 0 0 0 0 0 0 1 1 3 1 1 3 1 1 3 1 1 3 1 1 3 1 1 3 1 1 3 1 1 3 0 0 2 0 0 2 0 0 2 0 0 2 0 0 2 0 0 2 0 0 2 0 0 2 0 1 5 0 1 5 0 1 5 0 1 5 0 1 5 0 1 5 0 1 5 0 1 5 2 3 7 2 3 7 2 3 7 2 3 7 2 3 7 2 3 7 2 3 7 0 4 7 0 2 6 0 5 8 0 7 10 2 10 13 6 14 17 9 17 20 11 19 22 13 21 24 2 10 13 3 11 14 5 13 16 8 16 19 12 20 23 15 23 26 18 26 29 19 27 30 29 36 42 30 37 43 32 39 45 35 42 48 39 46 52 42 49 55 45 52 58 46 53 59 59 66 72 59 66 72 59 66 72 59 66 72 59 66 72 59 66 72 59 66 72 59 66 72 78 83 87 78 83 87 78 83 87 78 83 87 78 83 87 78 83 87 78 83 87 78 83 87 74 79 83 74 79 83 74 79 83 74 79 83 74 79 83 74 79 83 74 79 83 74 79 83 61 69 71 59 67 69 54 62 64 47 55 57 41 49 51 34 42 44 29 37 39 27 35 37 4 12 14 4 12 14 4 12 14 4 12 14 4 12 14 4 12 14 4 12 14 4 12 14 8 16 19 8 16 19 8 16 19 8 16 19 8 16 19 8 16 19 8 16 19 8 16 19 21 29 32 21 29 32 21 29 32 21 29 32 21 29 32 21 29 32 21 29 32 21 29 31 25 30 33 25 31 31 25 31 31 25 31 31 25 31 31 25 31 31 25 31 31 25 31 31 23 29 29 23 29 29 23 29 29 23 29 29 23 29 29 23 29 29 23 29 29 26 28 27 31 27 26 34 26 24 34 26 24 34 26 24 34 26 24 34 26 24 34 26 24 34 26 24 36 28 26 36 28 26 36 28 26 36 28 26 36 28 26 36 28 26 36 28 26 36 28 26 38 28 26 38 28 26 38 28 26 38 28 26 38 28 26 38 28 26 38 28 26 38 28 26 39 29 27 39 29 27 39 29 27 39 29 27 39 29 27 39 29 27 39 29 27 39 29 27
