P3
172 37
255
78 77 75 78 77 75 78 77 75 78 77 75 77 76 74 77 76 74 77 76 74 77 76 74 77 76 74 77 76 74 77 76 74 79 75 74 91 81 82 92 80 82 94 79 82 92 80 82 94 79 82 92 80 82 94 79 82 92 80 82 104 89 92 102 90 92 104 89 92 102 90 92 104 89 92 102 90 92 104 89 92 104 89 92 114 100 100 114 100 100 115 99 100 114 100 100 115 99 100 114 100 100 115 99 100 114 100 100 112 96 97 111 97 97 112 96 97 111 97 97 112 96 97 111 97 97 112 96 97 111 97 97 97 87 86 96 88 86 96 88 86 96 88 86 96 88 86 96 88 86 96 88 86 96 88 86 96 88 86 96 88 86 96 88 86 96 88 86 96 88 86 96 88 86 96 88 86 97 87 86 104 89 92 104 89 92 105 89 92 104 89 92 105 89 92 104 89 92 105 89 92 104 89 92 103 87 90 102 87 90 103 87 90 102 87 90 103 87 90 102 87 90 103 87 90 102 87 90 105 89 92 104 89 92 105 89 92 104 89 92 105 89 92 104 89 92 105 89 92 104 89 92 105 89 92 104 89 92 105 89 92 104 89 92 105 89 92 104 89 92 105 89 92 104 89 92 102 85 91 101 86 91 102 85 91 101 86 91 102 85 91 101 86 91 102 85 91 101 86 91 97 80 86 96 81 86 97 80 86 96 81 86 97 80 86 96 81 86 97 80 86 96 81 86 81 64 70 80 65 70 81 64 70 80 65 70 81 64 70 80 65 70 81 64 70 80 65 70 74 57 63 72 57 62 71 54 60 66 51 56 64 47 53 60 45 50 58 41 47 56 41 46 60 50 51 61 52 53 64 54 55 66 57 58 71 61 62 73 64 65 76 66 67 77 68 69 88 78 79 95 86 87 109 99 100 120 111 112 128 118 119 128 119 120 126 116 117 120 114 114 107 107 105 95 97 94 78 80 77 59 61 58 45 47 44 38 40 37 37 39 36 37 39 36 38 40 37 38 40 37 38 40 37 38 40 37 38 40 37 38 40 37 38 40 37 35 41 37 27 43 33 24 44 33 24 44 33 24 44 33 24 44 33 24 44 33 24 44 33 24 44 33 27 47 36 27 47 36 27 47 36 27 47 36 27 47 36 27 47 36 27 47 36 27 47 36
80 78 79 79 79 79 80 78 79 79 79 79 79 77 78 78 78 78 79 77 78 78 78 78 79 77 78 78 78 78 79 77 78 81 77 78 96 81 86 97 80 86 99 80 86 97 80 86 99 80 86 97 80 86 99 80 86 97 80 86 109 90 96 107 90 96 109 90 96 107 90 96 109 90 96 107 90 96 109 90 96 109 90 96 119 100 104 119 100 104 119 100 104 119 100 104 119 100 104 119 100 104 119 100 104 119 100 104 116 97 101 116 97 101 116 97 101 116 97 101 116 97 101 116 97 101 116 97 101 114 98 101 99 89 90 96 91 88 96 90 90 96 91 88 96 90 90 96 91 88 96 90 90 96 91 88 96 90 90 96 91 88 96 90 90 96 91 88 96 90 90 96 91 88 96 90 90 99 89 90 107 91 94 109 90 94 109 90 96 109 90 94 109 90 96 109 90 94 109 90 96 109 90 94 105 86 92 105 86 90 105 86 92 105 86 90 105 86 92 105 86 90 105 86 92 105 86 92 107 88 94 107 88 94 107 88 94 107 88 94 107 88 94 107 88 94 107 88 94 107 88 94 107 88 94 107 88 94 107 88 94 107 88 94 107 88 94 107 88 94 107 88 94 107 88 94 102 85 91 102 85 91 102 85 93 102 85 91 102 85 93 102 85 91 102 85 93 102 85 91 97 80 88 97 80 86 97 80 88 97 80 86 97 80 88 97 80 86 97 80 88 97 80 86 79 62 70 78 63 68 78 63 70 78 63 68 78 63 70 78 63 68 78 63 70 78 63 68 72 57 64 71 56 61 68 53 60 65 50 55 62 47 54 58 43 48 56 41 48 55 40 45 60 49 53 61 52 53 64 53 57 66 57 58 71 60 64 73 64 65 76 65 69 77 68 69 88 77 81 95 86 87 109 98 102 120 111 112 128 117 121 128 119 120 126 115 119 120 114 114 106 108 105 92 98 94 75 81 77 56 62 58 42 48 44 35 41 37 34 40 36 34 40 36 35 41 37 35 41 37 35 41 37 35 41 37 35 41 37 35 41 37 35 41 37 32 43 37 23 45 33 20 46 33 20 46 33 20 46 33 20 46 33 20 46 33 20 46 33 20 46 33 23 49 36 23 49 36 23 49 36 23 49 36 23 49 36 23 49 36 23 49 36 23 49 36
95 82 89 94 83 89 95 82 89 94 83 89 98 85 92 97 86 92 98 85 92 97 86 92 98 85 92 97 86 92 98 85 92 98 85 94 113 93 104 113 93 105 114 92 105 113 93 105 114 92 105 113 93 105 114 92 105 113 93 105 123 101 114 122 102 114 123 101 114 122 102 114 123 101 114 122 102 114 123 101 114 123 101 113 127 106 115 127 106 115 127 106 115 127 106 115 127 106 115 127 106 115 127 106 115 127 106 115 125 104 113 125 104 113 125 104 113 125 104 113 125 104 113 125 104 113 125 104 113 124 104 113 110 93 99 110 94 97 110 93 99 110 94 97 110 93 99 110 94 97 110 93 99 110 94 97 106 89 95 106 90 93 106 89 95 106 90 93 106 89 95 106 90 93 106 89 95 106 89 95 113 94 100 114 93 100 114 93 102 114 93 100 114 93 102 114 93 100 114 93 102 114 93 100 110 89 98 110 89 96 110 89 98 110 89 96 110 89 98 110 89 96 110 89 98 110 89 98 105 85 94 105 85 94 105 85 94 105 85 94 105 85 94 105 85 94 105 85 94 105 85 94 102 82 91 102 82 91 102 82 91 102 82 91 102 82 91 102 82 91 102 82 91 100 83 91 91 76 83 91 76 83 91 75 85 91 76 83 91 75 85 91 76 83 91 75 85 91 76 83 96 80 90 95 80 87 93 77 87 89 74 81 86 70 80 83 68 75 80 64 74 77 64 71 82 71 79 80 71 76 77 67 75 74 65 70 71 61 69 67 58 63 65 55 63 64 55 60 47 37 45 47 38 43 47 37 45 47 38 43 47 37 45 47 38 43 47 37 45 45 39 43 41 36 40 41 39 40 48 43 47 53 51 52 61 56 60 66 64 65 73 68 72 73 71 72 96 91 95 95 93 94 100 95 99 101 99 100 106 101 105 108 106 107 112 107 111 111 109 110 95 95 93 85 85 83 70 70 68 55 55 53 44 44 42 40 40 38 41 41 39 43 43 41 38 38 36 38 38 36 38 38 36 38 38 36 38 38 36 38 38 36 38 38 36 37 39 36 34 39 33 33 40 33 33 40 33 33 40 33 33 40 33 33 40 33 33 40 33 33 40 33 32 39 32 32 39 32 32 39 32 32 39 32 32 39 32 32 39 32 32 39 32 32 39 32
98 81 91 98 81 91 98 81 91 98 81 91 101 84 94 101 84 94 101 84 94 101 84 94 101 84 94 101 84 94 101 84 94 101 84 94 114 91 107 114 91 107 114 91 107 114 91 107 114 91 107 114 91 107 114 91 107 114 91 107 123 100 116 123 100 116 123 100 116 123 100 116 123 100 116 123 100 116 123 100 116 123 101 114 127 105 118 127 105 117 127 105 117 127 105 117 127 105 117 127 105 117 127 105 117 127 105 117 125 103 115 125 103 115 125 103 115 125 103 115 125 103 115 125 103 115 125 103 115 125 104 113 115 94 103 115 94 101 115 94 101 115 94 101 115 94 101 115 94 101 115 94 101 115 94 101 111 90 97 111 90 97 111 90 97 111 90 97 111 90 97 111 90 97 111 90 97 111 90 97 114 93 102 114 93 102 114 93 102 114 93 102 114 93 102 114 93 102 114 93 102 114 93 102 110 89 98 110 89 98 110 89 98 110 89 98 110 89 98 110 89 98 110 89 98 110 89 98 105 85 96 105 85 96 105 85 96 105 85 96 105 85 96 105 85 96 105 85 96 105 85 96 102 82 93 102 82 93 102 82 93 102 82 93 102 82 93 102 82 93 102 82 93 100 83 93 91 75 85 89 76 85 89 76 85 89 76 85 89 76 85 89 76 85 89 76 85 89 76 85 93 80 89 92 79 88 89 76 85 86 73 82 83 70 79 79 66 75 77 64 73 75 64 72 76 69 76 74 69 75 72 67 73 68 63 69 65 60 66 62 57 63 59 54 60 58 53 59 42 37 43 42 37 43 42 37 43 42 37 43 42 37 43 42 37 43 42 37 43 40 38 43 39 37 40 40 40 42 45 45 47 52 52 54 58 58 60 65 65 67 70 70 72 72 72 74 92 92 94 93 93 95 95 95 97 99 99 101 102 102 104 105 105 107 108 108 110 109 109 109 96 94 95 86 85 83 71 70 68 56 55 53 45 44 42 41 40 38 42 41 39 44 43 41 39 38 36 39 38 36 39 38 36 39 38 36 39 38 36 39 38 36 39 38 36 39 38 36 40 36 33 40 36 33 40 36 33 40 36 33 40 36 33 40 36 33 40 36 33 40 36 33 39 35 32 39 35 32 39 35 32 39 35 32 39 35 32 39 35 32 39 35 32 39 35 32
98 81 91 98 81 91 98 81 91 98 81 91 101 84 94 101 84 94 101 84 94 101 84 94 101 84 94 101 84 94 101 84 94 101 84 94 114 91 107 114 91 107 114 91 107 114 91 107 114 91 107 114 91 107 114 91 107 114 91 107 123 100 116 123 100 116 123 100 116 123 100 116 123 100 116 123 100 116 123 100 116 123 101 114 127 105 118 127 105 117 127 105 117 127 105 117 127 105 117 127 105 117 127 105 117 127 105 117 125 103 115 125 103 115 125 103 115 125 103 115 125 103 115 125 103 115 125 103 115 125 104 113 117 96 105 117 96 103 117 96 103 117 96 103 117 96 103 117 96 103 117 96 103 117 96 103 113 92 99 113 92 99 113 92 99 113 92 99 113 92 99 113 92 99 113 92 99 113 92 99 114 93 102 114 93 102 114 93 102 114 93 102 114 93 102 114 93 102 114 93 102 114 93 102 110 89 98 110 89 98 110 89 98 110 89 98 110 89 98 110 89 98 110 89 98 110 89 98 105 85 96 105 85 96 105 85 96 105 85 96 105 85 96 105 85 96 105 85 96 105 85 96 102 82 93 102 82 93 102 82 93 102 82 93 102 82 93 102 82 93 102 82 93 100 83 93 91 75 85 89 76 85 89 76 85 89 76 85 89 76 85 89 76 85 89 76 85 89 76 85 91 78 87 89 76 85 87 74 83 84 71 80 80 67 76 77 64 73 75 62 71 72 61 69 71 64 71 69 64 70 67 62 68 64 59 65 60 55 61 57 52 58 54 49 55 53 48 54 40 35 41 40 35 41 40 35 41 40 35 41 40 35 41 40 35 41 40 35 41 38 36 41 39 37 40 40 40 42 45 45 47 52 52 54 58 58 60 65 65 67 70 70 72 72 72 74 89 89 91 91 91 93 93 93 95 96 96 98 100 100 102 103 103 105 105 105 107 107 107 107 96 94 95 86 85 83 71 70 68 56 55 53 45 44 42 41 40 38 42 41 39 44 43 41 39 38 36 39 38 36 39 38 36 39 38 36 39 38 36 39 38 36 39 38 36 39 38 36 40 36 33 40 36 33 40 36 33 40 36 33 40 36 33 40 36 33 40 36 33 40 36 33 39 35 32 39 35 32 39 35 32 39 35 32 39 35 32 39 35 32 39 35 32 39 35 32
98 81 91 98 81 91 98 81 91 98 81 91 101 84 94 101 84 94 101 84 94 101 84 94 101 84 94 101 84 94 101 84 94 101 84 94 114 91 107 114 91 107 114 91 107 114 91 107 114 91 107 114 91 107 114 91 107 114 91 107 123 100 116 123 100 116 123 100 116 123 100 116 123 100 116 123 100 116 123 100 116 123 101 114 127 105 118 127 105 117 127 105 117 127 105 117 127 105 117 127 105 117 127 105 117 127 105 117 125 103 115 125 103 115 125 103 115 125 103 115 125 103 115 125 103 115 125 103 115 125 104 113 120 99 108 120 99 106 120 99 106 120 99 106 120 99 106 120 99 106 120 99 106 120 99 106 116 95 102 116 95 102 116 95 102 116 95 102 116 95 102 116 95 102 116 95 102 116 95 102 114 93 102 114 93 102 114 93 102 114 93 102 114 93 102 114 93 102 114 93 102 114 93 102 110 89 98 110 89 98 110 89 98 110 89 98 110 89 98 110 89 98 110 89 98 110 89 98 105 85 96 105 85 96 105 85 96 105 85 96 105 85 96 105 85 96 105 85 96 105 85 96 102 82 93 102 82 93 102 82 93 102 82 93 102 82 93 102 82 93 102 82 93 100 83 93 91 75 85 89 76 85 89 76 85 89 76 85 89 76 85 89 76 85 89 76 85 89 76 85 87 74 83 86 73 82 84 71 80 80 67 76 77 64 73 74 61 70 71 58 67 69 58 66 65 58 65 63 58 64 60 55 61 57 52 58 54 49 55 51 46 52 48 43 49 47 42 48 37 32 38 37 32 38 37 32 38 37 32 38 37 32 38 37 32 38 37 32 38 35 33 38 39 37 40 40 40 42 45 45 47 52 52 54 58 58 60 65 65 67 70 70 72 72 72 74 86 86 88 87 87 89 90 90 92 93 93 95 96 96 98 100 100 102 102 102 104 103 103 103 96 94 95 86 85 83 71 70 68 56 55 53 45 44 42 41 40 38 42 41 39 44 43 41 39 38 36 39 38 36 39 38 36 39 38 36 39 38 36 39 38 36 39 38 36 39 38 36 40 36 33 40 36 33 40 36 33 40 36 33 40 36 33 40 36 33 40 36 33 40 36 33 39 35 32 39 35 32 39 35 32 39 35 32 39 35 32 39 35 32 39 35 32 39 35 32
98 81 91 98 81 91 98 81 91 98 81 91 101 84 94 101 84 94 101 84 94 101 84 94 101 84 94 101 84 94 101 84 94 101 84 94 114 91 107 114 91 107 114 91 107 114 91 107 114 91 107 114 91 107 114 91 107 114 91 107 123 100 116 123 100 116 123 100 116 123 100 116 123 100 116 123 100 116 123 100 116 123 101 114 127 105 118 127 105 117 127 105 117 127 105 117 127 105 117 127 105 117 127 105 117 127 105 117 125 103 115 125 103 115 125 103 115 125 103 115 125 103 115 125 103 115 125 103 115 125 104 113 124 103 112 124 103 110 124 103 110 124 103 110 124 103 110 124 103 110 124 103 110 124 103 110 120 99 106 120 99 106 120 99 106 120 99 106 120 99 106 120 99 106 120 99 106 120 99 106 114 93 102 114 93 102 114 93 102 114 93 102 114 93 102 114 93 102 114 93 102 114 93 102 110 89 98 110 89 98 110 89 98 110 89 98 110 89 98 110 89 98 110 89 98 110 89 98 105 85 96 105 85 96 105 85 96 105 85 96 105 85 96 105 85 96 105 85 96 105 85 96 102 82 93 102 82 93 102 82 93 102 82 93 102 82 93 102 82 93 102 82 93 100 83 93 91 75 85 89 76 85 89 76 85 89 76 85 89 76 85 89 76 85 89 76 85 89 76 85 84 71 80 83 70 79 80 67 76 77 64 73 74 61 70 70 57 66 68 55 64 66 55 63 58 51 58 56 51 57 53 48 54 50 45 51 47 42 48 44 39 45 41 36 42 40 35 41 33 28 34 33 28 34 33 28 34 33 28 34 33 28 34 33 28 34 33 28 34 31 29 34 39 37 40 40 40 42 45 45 47 52 52 54 58 58 60 65 65 67 70 70 72 72 72 74 83 83 85 84 84 86 86 86 88 90 90 92 93 93 95 96 96 98 99 99 101 100 100 100 96 94 95 86 85 83 71 70 68 56 55 53 45 44 42 41 40 38 42 41 39 44 43 41 39 38 36 39 38 36 39 38 36 39 38 36 39 38 36 39 38 36 39 38 36 39 38 36 40 36 33 40 36 33 40 36 33 40 36 33 40 36 33 40 36 33 40 36 33 40 36 33 39 35 32 39 35 32 39 35 32 39 35 32 39 35 32 39 35 32 39 35 32 39 35 32
98 81 91 98 81 91 98 81 91 98 81 91 101 84 94 101 84 94 101 84 94 101 84 94 101 84 94 101 84 94 101 84 94 101 84 94 114 91 107 114 91 107 114 91 107 114 91 107 114 91 107 114 91 107 114 91 107 114 91 107 123 100 116 123 100 116 123 100 116 123 100 116 123 100 116 123 100 116 123 100 116 123 101 114 127 105 118 127 105 117 127 105 117 127 105 117 127 105 117 127 105 117 127 105 117 127 105 117 125 103 115 125 103 115 125 103 115 125 103 115 125 103 115 125 103 115 125 103 115 125 104 113 127 106 115 127 106 113 127 106 113 127 106 113 127 106 113 127 106 113 127 106 113 127 106 113 123 102 109 123 102 109 123 102 109 123 102 109 123 102 109 123 102 109 123 102 109 123 102 109 114 93 102 114 93 102 114 93 102 114 93 102 114 93 102 114 93 102 114 93 102 114 93 102 110 89 98 110 89 98 110 89 98 110 89 98 110 89 98 110 89 98 110 89 98 110 89 98 105 85 96 105 85 96 105 85 96 105 85 96 105 85 96 105 85 96 105 85 96 105 85 96 102 82 93 102 82 93 102 82 93 102 82 93 102 82 93 102 82 93 102 82 93 100 83 93 91 75 85 89 76 85 89 76 85 89 76 85 89 76 85 89 76 85 89 76 85 89 76 85 81 68 77 79 66 75 77 64 73 74 61 70 70 57 66 67 54 63 65 52 61 62 51 59 52 45 52 50 45 51 47 42 48 44 39 45 40 35 41 37 32 38 35 30 36 34 29 35 30 25 31 30 25 31 30 25 31 30 25 31 30 25 31 30 25 31 30 25 31 28 26 31 39 37 40 40 40 42 45 45 47 52 52 54 58 58 60 65 65 67 70 70 72 72 72 74 79 79 81 81 81 83 83 83 85 86 86 88 90 90 92 93 93 95 95 95 97 97 97 97 96 94 95 86 85 83 71 70 68 56 55 53 45 44 42 41 40 38 42 41 39 44 43 41 39 38 36 39 38 36 39 38 36 39 38 36 39 38 36 39 38 36 39 38 36 39 38 36 40 36 33 40 36 33 40 36 33 40 36 33 40 36 33 40 36 33 40 36 33 40 36 33 39 35 32 39 35 32 39 35 32 39 35 32 39 35 32 39 35 32 39 35 32 39 35 32
98 81 91 98 81 91 98 81 91 98 81 91 101 84 94 101 84 94 101 84 94 101 84 94 101 84 94 101 84 94 101 84 94 101 84 94 114 91 107 114 91 107 114 91 107 114 91 107 114 91 107 114 91 107 114 91 107 114 91 107 123 100 116 123 100 116 123 100 116 123 100 116 123 100 116 123 100 116 123 100 116 123 101 114 127 105 118 127 105 117 127 105 117 127 105 117 127 105 117 127 105 117 127 105 117 127 105 117 125 103 115 125 103 115 125 103 115 125 103 115 125 103 115 125 103 115 125 103 115 125 104 113 129 108 117 129 108 115 129 108 115 129 108 115 129 108 115 129 108 115 129 108 115 129 108 115 125 104 111 125 104 111 125 104 111 125 104 111 125 104 111 125 104 111 125 104 111 125 104 111 114 93 102 114 93 102 114 93 102 114 93 102 114 93 102 114 93 102 114 93 102 114 93 102 110 89 98 110 89 98 110 89 98 110 89 98 110 89 98 110 89 98 110 89 98 110 89 98 105 85 96 105 85 96 105 85 96 105 85 96 105 85 96 105 85 96 105 85 96 105 85 96 102 82 93 102 82 93 102 82 93 102 82 93 102 82 93 102 82 93 102 82 93 100 83 93 91 75 85 89 76 85 89 76 85 89 76 85 89 76 85 89 76 85 89 76 85 89 76 85 78 65 74 77 64 73 75 62 71 71 58 67 68 55 64 65 52 61 62 49 58 60 49 57 47 40 47 45 40 46 42 37 43 39 34 40 36 31 37 32 27 33 30 25 31 29 24 30 28 23 29 28 23 29 28 23 29 28 23 29 28 23 29 28 23 29 28 23 29 26 24 29 39 37 40 40 40 42 45 45 47 52 52 54 58 58 60 65 65 67 70 70 72 72 72 74 77 77 79 78 78 80 81 81 83 84 84 86 87 87 89 91 91 93 93 93 95 94 94 94 96 94 95 86 85 83 71 70 68 56 55 53 45 44 42 41 40 38 42 41 39 44 43 41 39 38 36 39 38 36 39 38 36 39 38 36 39 38 36 39 38 36 39 38 36 39 38 36 40 36 33 40 36 33 40 36 33 40 36 33 40 36 33 40 36 33 40 36 33 40 36 33 39 35 32 39 35 32 39 35 32 39 35 32 39 35 32 39 35 32 39 35 32 39 35 32
98 81 91 98 81 91 98 81 91 98 81 91 101 84 94 101 84 94 101 84 94 101 84 94 101 84 94 101 84 94 101 84 94 101 84 94 114 91 107 114 91 107 114 91 107 114 91 107 114 91 107 114 91 107 114 91 107 114 91 107 123 100 116 123 100 116 123 100 116 123 100 116 123 100 116 123 100 116 123 100 116 123 101 114 127 105 118 127 105 117 127 105 117 127 105 117 127 105 117 127 105 117 127 105 117 127 105 117 125 103 115 125 103 115 125 103 115 125 103 115 125 103 115 125 103 115 125 103 115 125 104 113 131 110 119 131 110 117 131 110 117 131 110 117 131 110 117 131 110 117 131 110 117 131 110 117 127 106 113 127 106 113 127 106 113 127 106 113 127 106 113 127 106 113 127 106 113 127 106 113 114 93 102 114 93 102 114 93 102 114 93 102 114 93 102 114 93 102 114 93 102 114 93 102 110 89 98 110 89 98 110 89 98 110 89 98 110 89 98 110 89 98 110 89 98 110 89 98 105 85 96 105 85 96 105 85 96 105 85 96 105 85 96 105 85 96 105 85 96 105 85 96 102 82 93 102 82 93 102 82 93 102 82 93 102 82 93 102 82 93 102 82 93 100 83 93 91 75 85 89 76 85 89 76 85 89 76 85 89 76 85 89 76 85 89 76 85 89 76 85 77 64 73 76 63 72 73 60 69 70 57 66 67 54 63 63 50 59 61 48 57 59 48 56 44 37 44 42 37 43 40 35 41 36 31 37 33 28 34 30 25 31 27 22 28 26 21 27 26 21 27 26 21 27 26 21 27 26 21 27 26 21 27 26 21 27 26 21 27 24 22 27 39 37 40 40 40 42 45 45 47 52 52 54 58 58 60 65 65 67 70 70 72 72 72 74 76 76 78 77 77 79 79 79 81 83 83 85 86 86 88 89 89 91 92 92 94 93 93 93 96 94 95 86 85 83 71 70 68 56 55 53 45 44 42 41 40 38 42 41 39 44 43 41 39 38 36 39 38 36 39 38 36 39 38 36 39 38 36 39 38 36 39 38 36 39 38 36 40 36 33 40 36 33 40 36 33 40 36 33 40 36 33 40 36 33 40 36 33 40 36 33 39 35 32 39 35 32 39 35 32 39 35 32 39 35 32 39 35 32 39 35 32 39 35 32
90 73 83 90 73 83 90 73 83 90 73 83 87 70 80 89 72 82 91 74 84 94 77 87 98 81 91 101 84 94 103 86 96 105 88 98 109 86 102 111 88 104 113 90 106 116 93 109 120 97 113 123 100 116 125 102 118 127 104 120 130 107 123 130 107 123 130 107 123 130 107 123 130 107 123 130 107 123 130 107 123 130 108 121 135 113 126 135 113 125 135 113 125 135 113 125 135 113 125 135 113 125 135 113 125 135 113 125 134 112 124 134 112 124 134 112 124 134 112 124 134 112 124 134 112 124 134 112 124 134 113 122 130 109 118 130 109 116 130 109 116 130 109 116 130 109 116 130 109 116 130 109 116 130 109 116 125 104 111 125 104 111 125 104 111 125 104 111 125 104 111 125 104 111 125 104 111 125 104 111 116 95 104 116 95 104 116 95 104 116 95 104 116 95 104 116 95 104 116 95 104 116 95 104 106 85 94 106 85 94 106 85 94 106 85 94 106 85 94 106 85 94 106 85 94 106 85 94 96 76 87 96 76 87 96 76 87 96 76 87 96 76 87 96 76 87 96 76 87 96 76 87 99 79 90 99 79 90 99 79 90 99 79 90 99 79 90 99 79 90 99 79 90 97 80 90 89 73 83 86 73 82 84 71 80 80 67 76 77 64 73 74 61 70 71 58 67 70 57 66 66 53 62 65 52 61 63 50 59 59 46 55 56 43 52 53 40 49 50 37 46 48 37 45 40 33 40 38 33 39 36 31 37 32 27 33 29 24 30 26 21 27 23 18 24 22 17 23 12 7 13 14 9 15 16 11 17 19 14 20 23 18 24 26 21 27 28 23 29 28 26 31 40 38 41 41 41 43 43 43 45 46 46 48 50 50 52 53 53 55 55 55 57 57 57 59 71 71 73 72 72 74 75 75 77 78 78 80 81 81 83 85 85 87 87 87 89 88 88 88 70 68 69 68 67 65 63 62 60 56 55 53 50 49 47 43 42 40 38 37 35 36 35 33 33 32 30 33 32 30 33 32 30 33 32 30 33 32 30 33 32 30 33 32 30 33 32 30 36 32 29 36 32 29 36 32 29 36 32 29 36 32 29 36 32 29 36 32 29 36 32 29 38 34 31 38 34 31 38 34 31 38 34 31 38 34 31 38 34 31 38 34 31 38 34 31
88 71 81 88 71 81 88 71 81 88 71 81 87 70 80 89 72 82 91 74 84 94 77 87 98 81 91 101 84 94 103 86 96 105 88 98 109 86 102 111 88 104 113 90 106 116 93 109 120 97 113 123 100 116 125 102 118 127 104 120 130 107 123 130 107 123 130 107 123 130 107 123 130 107 123 130 107 123 130 107 123 130 108 121 135 113 126 135 113 125 135 113 125 135 113 125 135 113 125 135 113 125 135 113 125 135 113 125 134 112 124 134 112 124 134 112 124 134 112 124 134 112 124 134 112 124 134 112 124 134 113 122 130 109 118 130 109 116 130 109 116 130 109 116 130 109 116 130 109 116 130 109 116 130 109 116 125 104 111 125 104 111 125 104 111 125 104 111 125 104 111 125 104 111 125 104 111 125 104 111 116 95 104 116 95 104 116 95 104 116 95 104 116 95 104 116 95 104 116 95 104 116 95 104 106 85 94 106 85 94 106 85 94 106 85 94 106 85 94 106 85 94 106 85 94 106 85 94 96 76 87 96 76 87 96 76 87 96 76 87 96 76 87 96 76 87 96 76 87 96 76 87 97 77 88 97 77 88 97 77 88 97 77 88 97 77 88 97 77 88 97 77 88 95 78 88 88 72 82 85 72 81 82 69 78 79 66 75 76 63 72 72 59 68 70 57 66 69 56 65 65 52 61 64 51 60 61 48 57 58 45 54 55 42 51 51 38 47 49 36 45 47 36 44 39 32 39 37 32 38 34 29 35 31 26 32 28 23 29 24 19 25 22 17 23 21 16 22 12 7 13 14 9 15 16 11 17 19 14 20 23 18 24 26 21 27 28 23 29 28 26 31 40 38 41 41 41 43 43 43 45 46 46 48 50 50 52 53 53 55 55 55 57 57 57 59 70 70 72 71 71 73 73 73 75 77 77 79 80 80 82 83 83 85 86 86 88 87 87 87 70 68 69 68 67 65 63 62 60 56 55 53 50 49 47 43 42 40 38 37 35 36 35 33 33 32 30 33 32 30 33 32 30 33 32 30 33 32 30 33 32 30 33 32 30 33 32 30 36 32 29 36 32 29 36 32 29 36 32 29 36 32 29 36 32 29 36 32 29 36 32 29 38 34 31 38 34 31 38 34 31 38 34 31 38 34 31 38 34 31 38 34 31 38 34 31
86 69 79 86 69 79 86 69 79 86 69 79 87 70 80 89 72 82 91 74 84 94 77 87 98 81 91 101 84 94 103 86 96 105 88 98 109 86 102 111 88 104 113 90 106 116 93 109 120 97 113 123 100 116 125 102 118 127 104 120 130 107 123 130 107 123 130 107 123 130 107 123 130 107 123 130 107 123 130 107 123 130 108 121 135 113 126 135 113 125 135 113 125 135 113 125 135 113 125 135 113 125 135 113 125 135 113 125 134 112 124 134 112 124 134 112 124 134 112 124 134 112 124 134 112 124 134 112 124 134 113 122 130 109 118 130 109 116 130 109 116 130 109 116 130 109 116 130 109 116 130 109 116 130 109 116 125 104 111 125 104 111 125 104 111 125 104 111 125 104 111 125 104 111 125 104 111 125 104 111 116 95 104 116 95 104 116 95 104 116 95 104 116 95 104 116 95 104 116 95 104 116 95 104 106 85 94 106 85 94 106 85 94 106 85 94 106 85 94 106 85 94 106 85 94 106 85 94 96 76 87 96 76 87 96 76 87 96 76 87 96 76 87 96 76 87 96 76 87 96 76 87 95 75 86 95 75 86 95 75 86 95 75 86 95 75 86 95 75 86 95 75 86 93 76 86 86 70 80 82 69 78 80 67 76 77 64 73 73 60 69 70 57 66 68 55 64 66 53 62 63 50 59 61 48 57 59 46 55 56 43 52 52 39 48 49 36 45 47 34 43 44 33 41 37 30 37 34 29 35 32 27 33 29 24 30 25 20 26 22 17 23 20 15 21 18 13 19 12 7 13 14 9 15 16 11 17 19 14 20 23 18 24 26 21 27 28 23 29 28 26 31 40 38 41 41 41 43 43 43 45 46 46 48 50 50 52 53 53 55 55 55 57 57 57 59 67 67 69 69 69 71 71 71 73 74 74 76 78 78 80 81 81 83 83 83 85 85 85 85 70 68 69 68 67 65 63 62 60 56 55 53 50 49 47 43 42 40 38 37 35 36 35 33 33 32 30 33 32 30 33 32 30 33 32 30 33 32 30 33 32 30 33 32 30 33 32 30 36 32 29 36 32 29 36 32 29 36 32 29 36 32 29 36 32 29 36 32 29 36 32 29 38 34 31 38 34 31 38 34 31 38 34 31 38 34 31 38 34 31 38 34 31 38 34 31
83 66 76 83 66 76 83 66 76 83 66 76 87 70 80 89 72 82 91 74 84 94 77 87 98 81 91 101 84 94 103 86 96 105 88 98 109 86 102 111 88 104 113 90 106 116 93 109 120 97 113 123 100 116 125 102 118 127 104 120 130 107 123 130 107 123 130 107 123 130 107 123 130 107 123 130 107 123 130 107 123 130 108 121 135 113 126 135 113 125 135 113 125 135 113 125 135 113 125 135 113 125 135 113 125 135 113 125 134 112 124 134 112 124 134 112 124 134 112 124 134 112 124 134 112 124 134 112 124 134 113 122 130 109 118 130 109 116 130 109 116 130 109 116 130 109 116 130 109 116 130 109 116 130 109 116 125 104 111 125 104 111 125 104 111 125 104 111 125 104 111 125 104 111 125 104 111 125 104 111 116 95 104 116 95 104 116 95 104 116 95 104 116 95 104 116 95 104 116 95 104 116 95 104 106 85 94 106 85 94 106 85 94 106 85 94 106 85 94 106 85 94 106 85 94 106 85 94 96 76 87 96 76 87 96 76 87 96 76 87 96 76 87 96 76 87 96 76 87 96 76 87 92 72 83 92 72 83 92 72 83 92 72 83 92 72 83 92 72 83 92 72 83 90 73 83 82 66 76 79 66 75 77 64 73 73 60 69 70 57 66 67 54 63 64 51 60 63 50 59 59 46 55 58 45 54 56 43 52 52 39 48 49 36 45 46 33 42 43 30 39 41 30 38 33 26 33 31 26 32 29 24 30 25 20 26 22 17 23 19 14 20 16 11 17 15 10 16 12 7 13 14 9 15 16 11 17 19 14 20 23 18 24 26 21 27 28 23 29 28 26 31 40 38 41 41 41 43 43 43 45 46 46 48 50 50 52 53 53 55 55 55 57 57 57 59 64 64 66 65 65 67 68 68 70 71 71 73 74 74 76 78 78 80 80 80 82 81 81 81 70 68 69 68 67 65 63 62 60 56 55 53 50 49 47 43 42 40 38 37 35 36 35 33 33 32 30 33 32 30 33 32 30 33 32 30 33 32 30 33 32 30 33 32 30 33 32 30 36 32 29 36 32 29 36 32 29 36 32 29 36 32 29 36 32 29 36 32 29 36 32 29 38 34 31 38 34 31 38 34 31 38 34 31 38 34 31 38 34 31 38 34 31 38 34 31
79 62 72 79 62 72 79 62 72 79 62 72 87 70 80 89 72 82 91 74 84 94 77 87 98 81 91 101 84 94 103 86 96 105 88 98 109 86 102 111 88 104 113 90 106 116 93 109 120 97 113 123 100 116 125 102 118 127 104 120 130 107 123 130 107 123 130 107 123 130 107 123 130 107 123 130 107 123 130 107 123 130 108 121 135 113 126 135 113 125 135 113 125 135 113 125 135 113 125 135 113 125 135 113 125 135 113 125 134 112 124 134 112 124 134 112 124 134 112 124 134 112 124 134 112 124 134 112 124 134 113 122 130 109 118 130 109 116 130 109 116 130 109 116 130 109 116 130 109 116 130 109 116 130 109 116 125 104 111 125 104 111 125 104 111 125 104 111 125 104 111 125 104 111 125 104 111 125 104 111 116 95 104 116 95 104 116 95 104 116 95 104 116 95 104 116 95 104 116 95 104 116 95 104 106 85 94 106 85 94 106 85 94 106 85 94 106 85 94 106 85 94 106 85 94 106 85 94 96 76 87 96 76 87 96 76 87 96 76 87 96 76 87 96 76 87 96 76 87 96 76 87 88 68 79 88 68 79 88 68 79 88 68 79 88 68 79 88 68 79 88 68 79 86 69 79 79 63 73 76 63 72 73 60 69 70 57 66 67 54 63 63 50 59 61 48 57 60 47 56 56 43 52 55 42 51 52 39 48 49 36 45 46 33 42 42 29 38 40 27 36 38 27 35 30 23 30 28 23 29 25 20 26 22 17 23 19 14 20 15 10 16 13 8 14 12 7 13 12 7 13 14 9 15 16 11 17 19 14 20 23 18 24 26 21 27 28 23 29 28 26 31 40 38 41 41 41 43 43 43 45 46 46 48 50 50 52 53 53 55 55 55 57 57 57 59 61 61 63 62 62 64 64 64 66 68 68 70 71 71 73 74 74 76 77 77 79 78 78 78 70 68 69 68 67 65 63 62 60 56 55 53 50 49 47 43 42 40 38 37 35 36 35 33 33 32 30 33 32 30 33 32 30 33 32 30 33 32 30 33 32 30 33 32 30 33 32 30 36 32 29 36 32 29 36 32 29 36 32 29 36 32 29 36 32 29 36 32 29 36 32 29 38 34 31 38 34 31 38 34 31 38 34 31 38 34 31 38 34 31 38 34 31 38 34 31
76 59 69 76 59 69 76 59 69 76 59 69 87 70 80 89 72 82 91 74 84 94 77 87 98 81 91 101 84 94 103 86 96 105 88 98 109 86 102 111 88 104 113 90 106 116 93 109 120 97 113 123 100 116 125 102 118 127 104 120 130 107 123 130 107 123 130 107 123 130 107 123 130 107 123 130 107 123 130 107 123 130 108 121 135 113 126 135 113 125 135 113 125 135 113 125 135 113 125 135 113 125 135 113 125 135 113 125 134 112 124 134 112 124 134 112 124 134 112 124 134 112 124 134 112 124 134 112 124 134 113 122 130 109 118 130 109 116 130 109 116 130 109 116 130 109 116 130 109 116 130 109 116 130 109 116 125 104 111 125 104 111 125 104 111 125 104 111 125 104 111 125 104 111 125 104 111 125 104 111 116 95 104 116 95 104 116 95 104 116 95 104 116 95 104 116 95 104 116 95 104 116 95 104 106 85 94 106 85 94 106 85 94 106 85 94 106 85 94 106 85 94 106 85 94 106 85 94 96 76 87 96 76 87 96 76 87 96 76 87 96 76 87 96 76 87 96 76 87 96 76 87 85 65 76 85 65 76 85 65 76 85 65 76 85 65 76 85 65 76 85 65 76 83 66 76 76 60 70 72 59 68 70 57 66 67 54 63 63 50 59 60 47 56 58 45 54 56 43 52 53 40 49 51 38 47 49 36 45 46 33 42 42 29 38 39 26 35 37 24 33 34 23 31 27 20 27 24 19 25 22 17 23 19 14 20 15 10 16 12 7 13 10 5 11 8 3 9 12 7 13 14 9 15 16 11 17 19 14 20 23 18 24 26 21 27 28 23 29 28 26 31 40 38 41 41 41 43 43 43 45 46 46 48 50 50 52 53 53 55 55 55 57 57 57 59 57 57 59 59 59 61 61 61 63 64 64 66 68 68 70 71 71 73 73 73 75 75 75 75 70 68 69 68 67 65 63 62 60 56 55 53 50 49 47 43 42 40 38 37 35 36 35 33 33 32 30 33 32 30 33 32 30 33 32 30 33 32 30 33 32 30 33 32 30 33 32 30 36 32 29 36 32 29 36 32 29 36 32 29 36 32 29 36 32 29 36 32 29 36 32 29 38 34 31 38 34 31 38 34 31 38 34 31 38 34 31 38 34 31 38 34 31 38 34 31
74 57 67 74 57 67 74 57 67 74 57 67 87 70 80 89 72 82 91 74 84 94 77 87 98 81 91 101 84 94 103 86 96 105 88 98 109 86 102 111 88 104 113 90 106 116 93 109 120 97 113 123 100 116 125 102 118 127 104 120 130 107 123 130 107 123 130 107 123 130 107 123 130 107 123 130 107 123 130 107 123 130 108 121 135 113 126 135 113 125 135 113 125 135 113 125 135 113 125 135 113 125 135 113 125 135 113 125 134 112 124 134 112 124 134 112 124 134 112 124 134 112 124 134 112 124 134 112 124 134 113 122 130 109 118 130 109 116 130 109 116 130 109 116 130 109 116 130 109 116 130 109 116 130 109 116 125 104 111 125 104 111 125 104 111 125 104 111 125 104 111 125 104 111 125 104 111 125 104 111 116 95 104 116 95 104 116 95 104 116 95 104 116 95 104 116 95 104 116 95 104 116 95 104 106 85 94 106 85 94 106 85 94 106 85 94 106 85 94 106 85 94 106 85 94 106 85 94 96 76 87 96 76 87 96 76 87 96 76 87 96 76 87 96 76 87 96 76 87 96 76 87 83 63 74 83 63 74 83 63 74 83 63 74 83 63 74 83 63 74 83 63 74 81 64 74 73 57 67 70 57 66 68 55 64 64 51 60 61 48 57 58 45 54 55 42 51 54 41 50 50 37 46 49 36 45 47 34 43 43 30 39 40 27 36 37 24 33 34 21 30 32 21 29 24 17 24 22 17 23 20 15 21 16 11 17 13 8 14 10 5 11 7 2 8 6 1 7 12 7 13 14 9 15 16 11 17 19 14 20 23 18 24 26 21 27 28 23 29 28 26 31 40 38 41 41 41 43 43 43 45 46 46 48 50 50 52 53 53 55 55 55 57 57 57 59 55 55 57 56 56 58 59 59 61 62 62 64 65 65 67 69 69 71 71 71 73 72 72 72 70 68 69 68 67 65 63 62 60 56 55 53 50 49 47 43 42 40 38 37 35 36 35 33 33 32 30 33 32 30 33 32 30 33 32 30 33 32 30 33 32 30 33 32 30 33 32 30 36 32 29 36 32 29 36 32 29 36 32 29 36 32 29 36 32 29 36 32 29 36 32 29 38 34 31 38 34 31 38 34 31 38 34 31 38 34 31 38 34 31 38 34 31 38 34 31
72 55 65 72 55 65 72 55 65 72 55 65 87 70 80 89 72 82 91 74 84 94 77 87 98 81 91 101 84 94 103 86 96 105 88 98 109 87 100 111 88 104 113 90 106 116 93 109 120 97 113 123 100 116 125 102 118 127 104 120 130 107 123 130 107 123 130 107 123 130 107 123 130 107 123 130 107 123 130 107 123 130 108 121 135 113 125 135 113 125 135 113 125 135 113 125 135 113 125 135 113 125 135 113 125 135 113 125 134 112 124 134 112 124 134 112 124 134 112 124 134 112 124 134 112 124 134 112 124 134 113 122 130 109 118 130 109 116 130 109 116 130 109 116 130 109 116 130 109 116 130 109 116 130 109 116 125 104 111 125 104 111 125 104 111 125 104 111 125 104 111 125 104 111 125 104 111 125 104 111 116 95 104 116 95 104 116 95 104 116 95 104 116 95 104 116 95 104 116 95 104 116 95 104 106 85 94 106 85 94 106 85 94 106 85 94 106 85 94 106 85 94 106 85 94 106 85 94 96 76 87 94 77 87 94 77 87 94 77 87 94 77 87 94 77 87 94 77 87 94 77 87 79 62 72 79 62 72 79 62 72 79 62 72 79 62 72 79 62 72 79 62 72 78 62 72 70 57 66 68 57 65 65 54 62 62 51 59 59 48 56 55 44 52 53 42 50 52 41 49 48 37 45 47 36 44 44 33 41 41 30 38 38 27 35 34 23 31 32 21 29 30 20 28 22 17 23 19 17 20 16 14 19 13 11 14 10 8 13 6 4 7 4 2 7 3 1 4 10 8 13 12 10 13 14 12 17 17 15 18 21 19 24 24 22 25 26 24 29 28 26 29 39 39 41 40 41 43 43 43 45 45 46 48 50 50 52 52 53 55 55 55 57 56 57 59 54 54 56 54 55 57 57 57 59 60 61 63 64 64 66 66 67 69 70 70 72 71 71 71 70 69 67 68 67 63 63 62 60 56 55 51 50 49 47 43 42 38 38 37 35 36 35 31 33 32 30 33 32 28 33 32 30 33 32 28 33 32 30 33 32 28 33 32 30 35 31 28 36 32 29 36 32 29 37 32 29 36 32 29 37 32 29 36 32 29 37 32 29 36 32 29 39 34 31 38 34 31 39 34 31 38 34 31 39 34 31 38 34 31 39 34 31 38 34 31
63 46 56 66 49 59 68 51 61 70 53 63 78 61 71 80 63 73 82 65 75 85 68 78 89 72 82 92 75 85 94 77 87 96 79 89 108 86 99 110 88 101 112 90 103 115 93 106 119 97 110 122 100 113 124 102 115 126 104 117 131 109 122 131 109 122 131 109 122 131 109 122 131 109 122 131 109 122 131 109 122 131 109 122 135 113 125 135 113 125 135 113 125 135 113 125 135 113 125 135 113 125 135 113 125 135 113 125 135 113 125 135 113 125 135 113 125 135 113 125 135 113 125 135 113 125 135 113 125 135 114 123 132 111 120 132 111 118 132 111 118 132 111 118 132 111 118 132 111 118 132 111 118 132 111 118 128 107 114 128 107 114 128 107 114 128 107 114 128 107 114 128 107 114 128 107 114 128 107 114 119 98 105 119 98 105 119 98 105 119 98 105 119 98 105 119 98 105 119 98 105 119 98 105 114 93 100 112 91 98 110 89 96 107 86 93 103 82 89 100 79 86 98 77 84 95 75 84 100 83 93 98 82 92 96 80 90 92 76 86 89 73 83 86 70 80 83 67 77 82 66 76 73 57 67 73 57 67 73 57 67 73 57 67 73 57 67 73 57 67 73 57 67 71 58 67 56 50 54 53 48 52 51 46 50 48 43 47 44 39 43 41 36 40 39 34 38 37 32 36 39 34 38 38 33 37 36 31 35 32 27 31 29 24 28 26 21 25 23 18 22 22 17 21 1 1 3 1 1 1 1 1 3 1 1 1 1 1 3 1 1 1 1 1 3 1 1 1 8 8 10 10 10 10 12 12 14 15 15 15 19 19 21 22 22 22 24 24 26 25 27 26 34 36 35 34 38 37 38 40 39 39 43 42 45 47 46 46 50 49 50 52 51 50 54 53 55 57 56 53 57 56 55 57 56 53 57 56 55 57 56 53 57 56 55 57 56 55 57 56 64 63 59 64 61 56 59 55 52 52 49 44 46 42 39 39 36 31 34 30 27 32 29 24 34 30 27 34 31 26 34 30 27 34 31 26 34 30 27 34 31 26 34 30 27 34 31 26 36 31 27 36 31 27 38 30 27 36 31 27 38 30 27 36 31 27 38 30 27 36 31 27 40 32 29 38 33 29 40 32 29 38 33 29 40 32 29 38 33 29 40 32 29 38 33 29
63 46 56 66 49 59 68 51 61 70 53 63 78 61 71 80 63 73 82 65 75 85 68 78 89 72 82 92 75 85 94 77 87 96 79 89 108 86 99 110 88 101 112 90 103 115 93 106 119 97 110 122 100 113 124 102 115 126 104 117 131 109 122 131 109 122 131 109 122 131 109 122 131 109 122 131 109 122 131 109 122 131 109 122 135 113 125 135 113 125 135 113 125 135 113 125 135 113 125 135 113 125 135 113 125 135 113 125 135 113 125 135 113 125 135 113 125 135 113 125 135 113 125 135 113 125 135 113 125 135 114 123 132 111 120 132 111 118 132 111 118 132 111 118 132 111 118 132 111 118 132 111 118 132 111 118 128 107 114 128 107 114 128 107 114 128 107 114 128 107 114 128 107 114 128 107 114 128 107 114 119 98 105 119 98 105 119 98 105 119 98 105 119 98 105 119 98 105 119 98 105 119 98 105 114 93 100 112 91 98 110 89 96 107 86 93 103 82 89 100 79 86 98 77 84 95 76 82 98 82 92 95 82 91 92 79 88 89 76 85 86 73 82 82 69 78 80 67 76 79 66 75 69 56 65 69 56 65 69 56 65 69 56 65 69 56 65 69 56 65 69 56 65 68 57 65 55 50 54 51 49 52 49 47 50 46 44 47 42 40 43 39 37 40 37 35 38 35 33 36 36 34 37 35 33 36 32 30 33 29 27 30 26 24 27 22 20 23 20 18 21 18 18 20 1 1 1 0 2 1 0 2 1 0 2 1 0 2 1 0 2 1 0 2 1 0 2 1 7 9 8 9 11 10 11 13 12 14 16 15 18 20 19 21 23 22 23 25 24 25 27 26 32 36 35 34 38 37 36 40 39 39 43 42 43 47 46 46 50 49 48 52 51 50 54 53 53 57 56 53 57 56 53 57 56 53 57 56 53 57 56 53 57 56 53 57 56 55 57 54 64 63 59 64 61 56 59 56 51 52 49 44 46 43 38 39 36 31 34 31 26 32 29 24 34 31 26 34 31 26 34 31 26 34 31 26 34 31 26 34 31 26 34 31 26 34 31 26 38 30 27 38 30 27 38 30 27 38 30 27 38 30 27 38 30 27 38 30 27 38 30 27 40 32 29 40 32 29 40 32 29 40 32 29 40 32 29 40 32 29 40 32 29 40 32 29
63 46 56 66 49 59 68 51 61 70 53 63 78 61 71 80 63 73 82 65 75 85 68 78 89 72 82 92 75 85 94 77 87 96 79 89 108 86 99 110 88 101 112 90 103 115 93 106 119 97 110 122 100 113 124 102 115 126 104 117 131 109 122 131 109 122 131 109 122 131 109 122 131 109 122 131 109 122 131 109 122 131 109 122 135 113 125 135 113 125 135 113 125 135 113 125 135 113 125 135 113 125 135 113 125 135 113 125 135 113 125 135 113 125 135 113 125 135 113 125 135 113 125 135 113 125 135 113 125 135 114 123 132 111 120 132 111 118 132 111 118 132 111 118 132 111 118 132 111 118 132 111 118 132 111 118 128 107 114 128 107 114 128 107 114 128 107 114 128 107 114 128 107 114 128 107 114 128 107 114 119 98 105 119 98 105 119 98 105 119 98 105 119 98 105 119 98 105 119 98 105 119 98 105 114 93 100 112 91 98 110 89 96 107 86 93 103 82 89 100 79 86 98 77 84 95 76 82 96 80 90 92 79 88 90 77 86 87 74 83 83 70 79 80 67 76 78 65 74 76 63 72 67 54 63 67 54 63 67 54 63 67 54 63 67 54 63 67 54 63 67 54 63 66 55 63 55 50 54 51 49 52 49 47 50 46 44 47 42 40 43 39 37 40 37 35 38 35 33 36 34 32 35 32 30 33 30 28 31 27 25 28 23 21 24 20 18 21 18 16 19 15 15 17 1 1 1 0 2 1 0 2 1 0 2 1 0 2 1 0 2 1 0 2 1 0 2 1 7 9 8 9 11 10 11 13 12 14 16 15 18 20 19 21 23 22 23 25 24 25 27 26 32 36 35 34 38 37 36 40 39 39 43 42 43 47 46 46 50 49 48 52 51 50 54 53 53 57 56 53 57 56 53 57 56 53 57 56 53 57 56 53 57 56 53 57 56 55 57 54 64 63 59 64 61 56 59 56 51 52 49 44 46 43 38 39 36 31 34 31 26 32 29 24 34 31 26 34 31 26 34 31 26 34 31 26 34 31 26 34 31 26 34 31 26 34 31 26 38 30 27 38 30 27 38 30 27 38 30 27 38 30 27 38 30 27 38 30 27 38 30 27 40 32 29 40 32 29 40 32 29 40 32 29 40 32 29 40 32 29 40 32 29 40 32 29
63 46 56 66 49 59 68 51 61 70 53 63 78 61 71 80 63 73 82 65 75 85 68 78 89 72 82 92 75 85 94 77 87 96 79 89 108 86 99 110 88 101 112 90 103 115 93 106 119 97 110 122 100 113 124 102 115 126 104 117 131 109 122 131 109 122 131 109 122 131 109 122 131 109 122 131 109 122 131 109 122 131 109 122 135 113 125 135 113 125 135 113 125 135 113 125 135 113 125 135 113 125 135 113 125 135 113 125 135 113 125 135 113 125 135 113 125 135 113 125 135 113 125 135 113 125 135 113 125 135 114 123 132 111 120 132 111 118 132 111 118 132 111 118 132 111 118 132 111 118 132 111 118 132 111 118 128 107 114 128 107 114 128 107 114 128 107 114 128 107 114 128 107 114 128 107 114 128 107 114 119 98 105 119 98 105 119 98 105 119 98 105 119 98 105 119 98 105 119 98 105 119 98 105 114 93 100 112 91 98 110 89 96 107 86 93 103 82 89 100 79 86 98 77 84 95 76 82 92 76 86 89 76 85 87 74 83 83 70 79 80 67 76 77 64 73 74 61 70 73 60 69 64 51 60 64 51 60 64 51 60 64 51 60 64 51 60 64 51 60 64 51 60 63 52 60 55 50 54 51 49 52 49 47 50 46 44 47 42 40 43 39 37 40 37 35 38 35 33 36 30 28 31 29 27 30 27 25 28 23 21 24 20 18 21 17 15 18 14 12 15 12 12 14 1 1 1 0 2 1 0 2 1 0 2 1 0 2 1 0 2 1 0 2 1 0 2 1 7 9 8 9 11 10 11 13 12 14 16 15 18 20 19 21 23 22 23 25 24 25 27 26 32 36 35 34 38 37 36 40 39 39 43 42 43 47 46 46 50 49 48 52 51 50 54 53 53 57 56 53 57 56 53 57 56 53 57 56 53 57 56 53 57 56 53 57 56 55 57 54 64 63 59 64 61 56 59 56 51 52 49 44 46 43 38 39 36 31 34 31 26 32 29 24 34 31 26 34 31 26 34 31 26 34 31 26 34 31 26 34 31 26 34 31 26 34 31 26 38 30 27 38 30 27 38 30 27 38 30 27 38 30 27 38 30 27 38 30 27 38 30 27 40 32 29 40 32 29 40 32 29 40 32 29 40 32 29 40 32 29 40 32 29 40 32 29
63 46 56 66 49 59 68 51 61 70 53 63 78 61 71 80 63 73 82 65 75 85 68 78 89 72 82 92 75 85 94 77 87 96 79 89 108 86 99 110 88 101 112 90 103 115 93 106 119 97 110 122 100 113 124 102 115 126 104 117 131 109 122 131 109 122 131 109 122 131 109 122 131 109 122 131 109 122 131 109 122 131 109 122 135 113 125 135 113 125 135 113 125 135 113 125 135 113 125 135 113 125 135 113 125 135 113 125 135 113 125 135 113 125 135 113 125 135 113 125 135 113 125 135 113 125 135 113 125 135 114 123 132 111 120 132 111 118 132 111 118 132 111 118 132 111 118 132 111 118 132 111 118 132 111 118 128 107 114 128 107 114 128 107 114 128 107 114 128 107 114 128 107 114 128 107 114 128 107 114 119 98 105 119 98 105 119 98 105 119 98 105 119 98 105 119 98 105 119 98 105 119 98 105 114 93 100 112 91 98 110 89 96 107 86 93 103 82 89 100 79 86 98 77 84 95 76 82 89 73 83 86 73 82 83 70 79 80 67 76 77 64 73 73 60 69 71 58 67 70 57 66 60 47 56 60 47 56 60 47 56 60 47 56 60 47 56 60 47 56 60 47 56 59 48 56 55 50 54 51 49 52 49 47 50 46 44 47 42 40 43 39 37 40 37 35 38 35 33 36 27 25 28 26 24 27 23 21 24 20 18 21 17 15 18 13 11 14 11 9 12 9 9 11 1 1 1 0 2 1 0 2 1 0 2 1 0 2 1 0 2 1 0 2 1 0 2 1 7 9 8 9 11 10 11 13 12 14 16 15 18 20 19 21 23 22 23 25 24 25 27 26 32 36 35 34 38 37 36 40 39 39 43 42 43 47 46 46 50 49 48 52 51 50 54 53 53 57 56 53 57 56 53 57 56 53 57 56 53 57 56 53 57 56 53 57 56 55 57 54 64 63 59 64 61 56 59 56 51 52 49 44 46 43 38 39 36 31 34 31 26 32 29 24 34 31 26 34 31 26 34 31 26 34 31 26 34 31 26 34 31 26 34 31 26 34 31 26 38 30 27 38 30 27 38 30 27 38 30 27 38 30 27 38 30 27 38 30 27 38 30 27 40 32 29 40 32 29 40 32 29 40 32 29 40 32 29 40 32 29 40 32 29 40 32 29
63 46 56 66 49 59 68 51 61 70 53 63 78 61 71 80 63 73 82 65 75 85 68 78 89 72 82 92 75 85 94 77 87 96 79 89 108 86 99 110 88 101 112 90 103 115 93 106 119 97 110 122 100 113 124 102 115 126 104 117 131 109 122 131 109 122 131 109 122 131 109 122 131 109 122 131 109 122 131 109 122 131 109 122 135 113 125 135 113 125 135 113 125 135 113 125 135 113 125 135 113 125 135 113 125 135 113 125 135 113 125 135 113 125 135 113 125 135 113 125 135 113 125 135 113 125 135 113 125 135 114 123 132 111 120 132 111 118 132 111 118 132 111 118 132 111 118 132 111 118 132 111 118 132 111 118 128 107 114 128 107 114 128 107 114 128 107 114 128 107 114 128 107 114 128 107 114 128 107 114 119 98 105 119 98 105 119 98 105 119 98 105 119 98 105 119 98 105 119 98 105 119 98 105 114 93 100 112 91 98 110 89 96 107 86 93 103 82 89 100 79 86 98 77 84 95 76 82 86 70 80 82 69 78 80 67 76 77 64 73 73 60 69 70 57 66 68 55 64 66 53 62 57 44 53 57 44 53 57 44 53 57 44 53 57 44 53 57 44 53 57 44 53 56 45 53 55 50 54 51 49 52 49 47 50 46 44 47 42 40 43 39 37 40 37 35 38 35 33 36 24 22 25 22 20 23 20 18 21 17 15 18 13 11 14 10 8 11 8 6 9 5 5 7 1 1 1 0 2 1 0 2 1 0 2 1 0 2 1 0 2 1 0 2 1 0 2 1 7 9 8 9 11 10 11 13 12 14 16 15 18 20 19 21 23 22 23 25 24 25 27 26 32 36 35 34 38 37 36 40 39 39 43 42 43 47 46 46 50 49 48 52 51 50 54 53 53 57 56 53 57 56 53 57 56 53 57 56 53 57 56 53 57 56 53 57 56 55 57 54 64 63 59 64 61 56 59 56 51 52 49 44 46 43 38 39 36 31 34 31 26 32 29 24 34 31 26 34 31 26 34 31 26 34 31 26 34 31 26 34 31 26 34 31 26 34 31 26 38 30 27 38 30 27 38 30 27 38 30 27 38 30 27 38 30 27 38 30 27 38 30 27 40 32 29 40 32 29 40 32 29 40 32 29 40 32 29 40 32 29 40 32 29 40 32 29
63 46 56 66 49 59 68 51 61 70 53 63 78 61 71 80 63 73 82 65 75 85 68 78 89 72 82 92 75 85 94 77 87 96 79 89 108 86 99 110 88 101 112 90 103 115 93 106 119 97 110 122 100 113 124 102 115 126 104 117 131 109 122 131 109 122 131 109 122 131 109 122 131 109 122 131 109 122 131 109 122 131 109 122 135 113 125 135 113 125 135 113 125 135 113 125 135 113 125 135 113 125 135 113 125 135 113 125 135 113 125 135 113 125 135 113 125 135 113 125 135 113 125 135 113 125 135 113 125 135 114 123 132 111 120 132 111 118 132 111 118 132 111 118 132 111 118 132 111 118 132 111 118 132 111 118 128 107 114 128 107 114 128 107 114 128 107 114 128 107 114 128 107 114 128 107 114 128 107 114 119 98 105 119 98 105 119 98 105 119 98 105 119 98 105 119 98 105 119 98 105 119 98 105 114 93 100 112 91 98 110 89 96 107 86 93 103 82 89 100 79 86 98 77 84 95 76 82 83 67 77 80 67 76 78 65 74 74 61 70 71 58 67 68 55 64 65 52 61 64 51 60 55 42 51 55 42 51 55 42 51 55 42 51 55 42 51 55 42 51 55 42 51 54 43 51 55 50 54 51 49 52 49 47 50 46 44 47 42 40 43 39 37 40 37 35 38 35 33 36 21 19 22 20 18 21 18 16 19 14 12 15 11 9 12 8 6 9 5 3 6 3 3 5 1 1 1 0 2 1 0 2 1 0 2 1 0 2 1 0 2 1 0 2 1 0 2 1 7 9 8 9 11 10 11 13 12 14 16 15 18 20 19 21 23 22 23 25 24 25 27 26 32 36 35 34 38 37 36 40 39 39 43 42 43 47 46 46 50 49 48 52 51 50 54 53 53 57 56 53 57 56 53 57 56 53 57 56 53 57 56 53 57 56 53 57 56 55 57 54 64 63 59 64 61 56 59 56 51 52 49 44 46 43 38 39 36 31 34 31 26 32 29 24 34 31 26 34 31 26 34 31 26 34 31 26 34 31 26 34 31 26 34 31 26 34 31 26 38 30 27 38 30 27 38 30 27 38 30 27 38 30 27 38 30 27 38 30 27 38 30 27 40 32 29 40 32 29 40 32 29 40 32 29 40 32 29 40 32 29 40 32 29 40 32 29
63 46 56 66 49 59 68 51 61 70 53 63 78 61 71 80 63 73 82 65 75 85 68 78 89 72 82 92 75 85 94 77 87 96 79 89 108 86 99 110 88 101 112 90 103 115 93 106 119 97 110 122 100 113 124 102 115 126 104 117 131 109 122 131 109 122 131 109 122 131 109 122 131 109 122 131 109 122 131 109 122 131 109 122 135 113 125 135 113 125 135 113 125 135 113 125 135 113 125 135 113 125 135 113 125 135 113 125 135 113 125 135 113 125 135 113 125 135 113 125 135 113 125 135 113 125 135 113 125 135 114 123 132 111 120 132 111 118 132 111 118 132 111 118 132 111 118 132 111 118 132 111 118 132 111 118 128 107 114 128 107 114 128 107 114 128 107 114 128 107 114 128 107 114 128 107 114 128 107 114 119 98 105 119 98 105 119 98 105 119 98 105 119 98 105 119 98 105 119 98 105 119 98 105 114 93 100 112 91 98 110 89 96 107 86 93 103 82 89 100 79 86 98 77 84 95 76 82 82 66 76 79 66 75 76 63 72 73 60 69 70 57 66 66 53 62 64 51 60 63 50 59 53 40 49 53 40 49 53 40 49 53 40 49 53 40 49 53 40 49 53 40 49 52 41 49 55 50 54 51 49 52 49 47 50 46 44 47 42 40 43 39 37 40 37 35 38 35 33 36 20 18 21 19 17 20 16 14 17 13 11 14 10 8 11 6 4 7 4 2 5 2 2 4 1 1 1 0 2 1 0 2 1 0 2 1 0 2 1 0 2 1 0 2 1 0 2 1 7 9 8 9 11 10 11 13 12 14 16 15 18 20 19 21 23 22 23 25 24 25 27 26 32 36 35 34 38 37 36 40 39 39 43 42 43 47 46 46 50 49 48 52 51 50 54 53 53 57 56 53 57 56 53 57 56 53 57 56 53 57 56 53 57 56 53 57 56 55 57 54 64 63 59 64 61 56 59 56 51 52 49 44 46 43 38 39 36 31 34 31 26 32 29 24 34 31 26 34 31 26 34 31 26 34 31 26 34 31 26 34 31 26 34 31 26 34 31 26 38 30 27 38 30 27 38 30 27 38 30 27 38 30 27 38 30 27 38 30 27 38 30 27 40 32 29 40 32 29 40 32 29 40 32 29 40 32 29 40 32 29 40 32 29 40 32 29
54 37 47 57 40 50 59 42 52 61 44 54 73 56 66 75 58 68 77 60 70 80 63 73 84 67 77 87 70 80 89 72 82 91 74 84 105 83 96 107 85 98 109 87 100 112 90 103 116 94 107 119 97 110 121 99 112 123 101 114 125 103 116 125 103 116 125 103 116 125 103 116 125 103 116 125 103 116 125 103 116 125 103 116 129 107 119 129 107 119 129 107 119 129 107 119 129 107 119 129 107 119 129 107 119 129 107 119 130 108 120 130 108 120 130 108 120 130 108 120 130 108 120 130 108 120 130 108 120 130 109 118 130 109 118 130 109 116 130 109 116 130 109 116 130 109 116 130 109 116 130 109 116 130 109 116 126 105 112 126 105 112 126 105 112 126 105 112 126 105 112 126 105 112 126 105 112 126 105 112 130 109 116 129 108 115 127 106 113 123 102 109 120 99 106 117 96 103 114 93 100 113 92 99 110 89 96 109 88 95 107 86 93 103 82 89 100 79 86 97 76 83 94 73 80 92 73 79 75 59 69 71 58 67 69 56 65 66 53 62 62 49 58 59 46 55 57 44 53 55 42 51 58 45 54 58 45 54 58 45 54 58 45 54 58 45 54 58 45 54 58 45 54 57 46 54 46 41 45 42 40 43 40 38 41 37 35 38 33 31 34 30 28 31 28 26 29 26 24 27 5 3 6 5 3 6 5 3 6 5 3 6 5 3 6 5 3 6 5 3 6 4 4 6 1 1 1 0 2 1 0 2 1 0 2 1 0 2 1 0 2 1 0 2 1 0 2 1 7 9 8 9 11 10 11 13 12 14 16 15 18 20 19 21 23 22 23 25 24 25 27 26 25 29 28 27 31 30 29 33 32 32 36 35 36 40 39 39 43 42 41 45 44 43 47 46 42 46 45 42 46 45 42 46 45 42 46 45 42 46 45 42 46 45 42 46 45 44 46 43 48 47 43 48 45 40 46 43 38 43 40 35 39 36 31 36 33 28 34 31 26 32 29 24 33 30 25 33 30 25 33 30 25 33 30 25 33 30 25 33 30 25 33 30 25 33 30 25 36 28 25 36 28 25 36 28 25 36 28 25 36 28 25 36 28 25 36 28 25 36 28 25 38 30 27 38 30 27 38 30 27 38 30 27 38 30 27 38 30 27 38 30 27 38 30 27
54 37 47 57 40 50 59 42 52 61 44 54 73 56 66 75 58 68 77 60 70 80 63 73 84 67 77 87 70 80 89 72 82 91 74 84 105 83 96 107 85 98 109 87 100 112 90 103 116 94 107 119 97 110 121 99 112 123 101 114 125 103 116 125 103 116 125 103 116 125 103 116 125 103 116 125 103 116 125 103 116 125 103 116 129 107 119 129 107 119 129 107 119 129 107 119 129 107 119 129 107 119 129 107 119 129 107 119 130 108 120 130 108 120 130 108 120 130 108 120 130 108 120 130 108 120 130 108 120 130 109 118 130 109 118 130 109 116 130 109 116 130 109 116 130 109 116 130 109 116 130 109 116 130 109 116 126 105 112 126 105 112 126 105 112 126 105 112 126 105 112 126 105 112 126 105 112 126 105 112 129 108 115 128 107 114 125 104 111 122 101 108 119 98 105 115 94 101 113 92 99 112 91 98 109 88 95 108 87 94 105 84 91 102 81 88 99 78 85 95 74 81 93 72 79 91 72 78 75 59 69 71 58 67 69 56 65 66 53 62 62 49 58 59 46 55 57 44 53 55 42 51 58 45 54 58 45 54 58 45 54 58 45 54 58 45 54 58 45 54 58 45 54 57 46 54 46 41 45 42 40 43 40 38 41 37 35 38 33 31 34 30 28 31 28 26 29 26 24 27 5 3 6 5 3 6 5 3 6 5 3 6 5 3 6 5 3 6 5 3 6 4 4 6 1 1 1 0 2 1 0 2 1 0 2 1 0 2 1 0 2 1 0 2 1 0 2 1 7 9 8 9 11 10 11 13 12 14 16 15 18 20 19 21 23 22 23 25 24 25 27 26 25 29 28 27 31 30 29 33 32 32 36 35 36 40 39 39 43 42 41 45 44 43 47 46 42 46 45 42 46 45 42 46 45 42 46 45 42 46 45 42 46 45 42 46 45 44 46 43 48 47 43 48 45 40 46 43 38 43 40 35 39 36 31 36 33 28 34 31 26 32 29 24 33 30 25 33 30 25 33 30 25 33 30 25 33 30 25 33 30 25 33 30 25 33 30 25 36 28 25 36 28 25 36 28 25 36 28 25 36 28 25 36 28 25 36 28 25 36 28 25 38 30 27 38 30 27 38 30 27 38 30 27 38 30 27 38 30 27 38 30 27 38 30 27
54 37 47 57 40 50 59 42 52 61 44 54 73 56 66 75 58 68 77 60 70 80 63 73 84 67 77 87 70 80 89 72 82 91 74 84 105 83 96 107 85 98 109 87 100 112 90 103 116 94 107 119 97 110 121 99 112 123 101 114 125 103 116 125 103 116 125 103 116 125 103 116 125 103 116 125 103 116 125 103 116 125 103 116 129 107 119 129 107 119 129 107 119 129 107 119 129 107 119 129 107 119 129 107 119 129 107 119 130 108 120 130 108 120 130 108 120 130 108 120 130 108 120 130 108 120 130 108 120 130 109 118 130 109 118 130 109 116 130 109 116 130 109 116 130 109 116 130 109 116 130 109 116 130 109 116 126 105 112 126 105 112 126 105 112 126 105 112 126 105 112 126 105 112 126 105 112 126 105 112 127 106 113 125 104 111 123 102 109 120 99 106 116 95 102 113 92 99 111 90 97 109 88 95 107 86 93 105 84 91 103 82 89 100 79 86 96 75 82 93 72 79 91 70 77 88 69 75 75 59 69 71 58 67 69 56 65 66 53 62 62 49 58 59 46 55 57 44 53 55 42 51 58 45 54 58 45 54 58 45 54 58 45 54 58 45 54 58 45 54 58 45 54 57 46 54 46 41 45 42 40 43 40 38 41 37 35 38 33 31 34 30 28 31 28 26 29 26 24 27 5 3 6 5 3 6 5 3 6 5 3 6 5 3 6 5 3 6 5 3 6 4 4 6 1 1 1 0 2 1 0 2 1 0 2 1 0 2 1 0 2 1 0 2 1 0 2 1 7 9 8 9 11 10 11 13 12 14 16 15 18 20 19 21 23 22 23 25 24 25 27 26 25 29 28 27 31 30 29 33 32 32 36 35 36 40 39 39 43 42 41 45 44 43 47 46 42 46 45 42 46 45 42 46 45 42 46 45 42 46 45 42 46 45 42 46 45 44 46 43 48 47 43 48 45 40 46 43 38 43 40 35 39 36 31 36 33 28 34 31 26 32 29 24 33 30 25 33 30 25 33 30 25 33 30 25 33 30 25 33 30 25 33 30 25 33 30 25 36 28 25 36 28 25 36 28 25 36 28 25 36 28 25 36 28 25 36 28 25 36 28 25 38 30 27 38 30 27 38 30 27 38 30 27 38 30 27 38 30 27 38 30 27 38 30 27
54 37 47 57 40 50 59 42 52 61 44 54 73 56 66 75 58 68 77 60 70 80 63 73 84 67 77 87 70 80 89 72 82 91 74 84 105 83 96 107 85 98 109 87 100 112 90 103 116 94 107 119 97 110 121 99 112 123 101 114 125 103 116 125 103 116 125 103 116 125 103 116 125 103 116 125 103 116 125 103 116 125 103 116 129 107 119 129 107 119 129 107 119 129 107 119 129 107 119 129 107 119 129 107 119 129 107 119 130 108 120 130 108 120 130 108 120 130 108 120 130 108 120 130 108 120 130 108 120 130 109 118 130 109 118 130 109 116 130 109 116 130 109 116 130 109 116 130 109 116 130 109 116 130 109 116 126 105 112 126 105 112 126 105 112 126 105 112 126 105 112 126 105 112 126 105 112 126 105 112 123 102 109 122 101 108 120 99 106 116 95 102 113 92 99 110 89 96 107 86 93 106 85 92 103 82 89 102 81 88 100 79 86 96 75 82 93 72 79 90 69 76 87 66 73 85 66 72 75 59 69 71 58 67 69 56 65 66 53 62 62 49 58 59 46 55 57 44 53 55 42 51 58 45 54 58 45 54 58 45 54 58 45 54 58 45 54 58 45 54 58 45 54 57 46 54 46 41 45 42 40 43 40 38 41 37 35 38 33 31 34 30 28 31 28 26 29 26 24 27 5 3 6 5 3 6 5 3 6 5 3 6 5 3 6 5 3 6 5 3 6 4 4 6 1 1 1 0 2 1 0 2 1 0 2 1 0 2 1 0 2 1 0 2 1 0 2 1 7 9 8 9 11 10 11 13 12 14 16 15 18 20 19 21 23 22 23 25 24 25 27 26 25 29 28 27 31 30 29 33 32 32 36 35 36 40 39 39 43 42 41 45 44 43 47 46 42 46 45 42 46 45 42 46 45 42 46 45 42 46 45 42 46 45 42 46 45 44 46 43 48 47 43 48 45 40 46 43 38 43 40 35 39 36 31 36 33 28 34 31 26 32 29 24 33 30 25 33 30 25 33 30 25 33 30 25 33 30 25 33 30 25 33 30 25 33 30 25 36 28 25 36 28 25 36 28 25 36 28 25 36 28 25 36 28 25 36 28 25 36 28 25 38 30 27 38 30 27 38 30 27 38 30 27 38 30 27 38 30 27 38 30 27 38 30 27
54 37 47 57 40 50 59 42 52 61 44 54 73 56 66 75 58 68 77 60 70 80 63 73 84 67 77 87 70 80 89 72 82 91 74 84 105 83 96 107 85 98 109 87 100 112 90 103 116 94 107 119 97 110 121 99 112 123 101 114 125 103 116 125 103 116 125 103 116 125 103 116 125 103 116 125 103 116 125 103 116 125 103 116 129 107 119 129 107 119 129 107 119 129 107 119 129 107 119 129 107 119 129 107 119 129 107 119 130 108 120 130 108 120 130 108 120 130 108 120 130 108 120 130 108 120 130 108 120 130 109 118 130 109 118 130 109 116 130 109 116 130 109 116 130 109 116 130 109 116 130 109 116 130 109 116 126 105 112 126 105 112 126 105 112 126 105 112 126 105 112 126 105 112 126 105 112 126 105 112 120 99 106 119 98 105 116 95 102 113 92 99 110 89 96 106 85 92 104 83 90 103 82 89 100 79 86 99 78 85 96 75 82 93 72 79 90 69 76 86 65 72 84 63 70 82 63 69 75 59 69 71 58 67 69 56 65 66 53 62 62 49 58 59 46 55 57 44 53 55 42 51 58 45 54 58 45 54 58 45 54 58 45 54 58 45 54 58 45 54 58 45 54 57 46 54 46 41 45 42 40 43 40 38 41 37 35 38 33 31 34 30 28 31 28 26 29 26 24 27 5 3 6 5 3 6 5 3 6 5 3 6 5 3 6 5 3 6 5 3 6 4 4 6 1 1 1 0 2 1 0 2 1 0 2 1 0 2 1 0 2 1 0 2 1 0 2 1 7 9 8 9 11 10 11 13 12 14 16 15 18 20 19 21 23 22 23 25 24 25 27 26 25 29 28 27 31 30 29 33 32 32 36 35 36 40 39 39 43 42 41 45 44 43 47 46 42 46 45 42 46 45 42 46 45 42 46 45 42 46 45 42 46 45 42 46 45 44 46 43 48 47 43 48 45 40 46 43 38 43 40 35 39 36 31 36 33 28 34 31 26 32 29 24 33 30 25 33 30 25 33 30 25 33 30 25 33 30 25 33 30 25 33 30 25 33 30 25 36 28 25 36 28 25 36 28 25 36 28 25 36 28 25 36 28 25 36 28 25 36 28 25 38 30 27 38 30 27 38 30 27 38 30 27 38 30 27 38 30 27 38 30 27 38 30 27
54 37 47 57 40 50 59 42 52 61 44 54 73 56 66 75 58 68 77 60 70 80 63 73 84 67 77 87 70 80 89 72 82 91 74 84 105 83 96 107 85 98 109 87 100 112 90 103 116 94 107 119 97 110 121 99 112 123 101 114 125 103 116 125 103 116 125 103 116 125 103 116 125 103 116 125 103 116 125 103 116 125 103 116 129 107 119 129 107 119 129 107 119 129 107 119 129 107 119 129 107 119 129 107 119 129 107 119 130 108 120 130 108 120 130 108 120 130 108 120 130 108 120 130 108 120 130 108 120 130 109 118 130 109 118 130 109 116 130 109 116 130 109 116 130 109 116 130 109 116 130 109 116 130 109 116 126 105 112 126 105 112 126 105 112 126 105 112 126 105 112 126 105 112 126 105 112 126 105 112 117 96 103 115 94 101 113 92 99 110 89 96 106 85 92 103 82 89 101 80 87 99 78 85 97 76 83 95 74 81 93 72 79 90 69 76 86 65 72 83 62 69 81 60 67 78 59 65 75 59 69 71 58 67 69 56 65 66 53 62 62 49 58 59 46 55 57 44 53 55 42 51 58 45 54 58 45 54 58 45 54 58 45 54 58 45 54 58 45 54 58 45 54 57 46 54 46 41 45 42 40 43 40 38 41 37 35 38 33 31 34 30 28 31 28 26 29 26 24 27 5 3 6 5 3 6 5 3 6 5 3 6 5 3 6 5 3 6 5 3 6 4 4 6 1 1 1 0 2 1 0 2 1 0 2 1 0 2 1 0 2 1 0 2 1 0 2 1 7 9 8 9 11 10 11 13 12 14 16 15 18 20 19 21 23 22 23 25 24 25 27 26 25 29 28 27 31 30 29 33 32 32 36 35 36 40 39 39 43 42 41 45 44 43 47 46 42 46 45 42 46 45 42 46 45 42 46 45 42 46 45 42 46 45 42 46 45 44 46 43 48 47 43 48 45 40 46 43 38 43 40 35 39 36 31 36 33 28 34 31 26 32 29 24 33 30 25 33 30 25 33 30 25 33 30 25 33 30 25 33 30 25 33 30 25 33 30 25 36 28 25 36 28 25 36 28 25 36 28 25 36 28 25 36 28 25 36 28 25 36 28 25 38 30 27 38 30 27 38 30 27 38 30 27 38 30 27 38 30 27 38 30 27 38 30 27
54 37 47 57 40 50 59 42 52 61 44 54 73 56 66 75 58 68 77 60 70 80 63 73 84 67 77 87 70 80 89 72 82 91 74 84 105 83 96 107 85 98 109 87 100 112 90 103 116 94 107 119 97 110 121 99 112 123 101 114 125 103 116 125 103 116 125 103 116 125 103 116 125 103 116 125 103 116 125 103 116 125 103 116 129 107 119 129 107 119 129 107 119 129 107 119 129 107 119 129 107 119 129 107 119 129 107 119 130 108 120 130 108 120 130 108 120 130 108 120 130 108 120 130 108 120 130 108 120 130 109 118 130 109 118 130 109 116 130 109 116 130 109 116 130 109 116 130 109 116 130 109 116 130 109 116 126 105 112 126 105 112 126 105 112 126 105 112 126 105 112 126 105 112 126 105 112 126 105 112 114 93 100 113 92 99 111 90 97 107 86 93 104 83 90 101 80 87 98 77 84 97 76 83 94 73 80 93 72 79 91 70 77 87 66 73 84 63 70 81 60 67 78 57 64 76 57 63 75 59 69 71 58 67 69 56 65 66 53 62 62 49 58 59 46 55 57 44 53 55 42 51 58 45 54 58 45 54 58 45 54 58 45 54 58 45 54 58 45 54 58 45 54 57 46 54 46 41 45 42 40 43 40 38 41 37 35 38 33 31 34 30 28 31 28 26 29 26 24 27 5 3 6 5 3 6 5 3 6 5 3 6 5 3 6 5 3 6 5 3 6 4 4 6 1 1 1 0 2 1 0 2 1 0 2 1 0 2 1 0 2 1 0 2 1 0 2 1 7 9 8 9 11 10 11 13 12 14 16 15 18 20 19 21 23 22 23 25 24 25 27 26 25 29 28 27 31 30 29 33 32 32 36 35 36 40 39 39 43 42 41 45 44 43 47 46 42 46 45 42 46 45 42 46 45 42 46 45 42 46 45 42 46 45 42 46 45 44 46 43 48 47 43 48 45 40 46 43 38 43 40 35 39 36 31 36 33 28 34 31 26 32 29 24 33 30 25 33 30 25 33 30 25 33 30 25 33 30 25 33 30 25 33 30 25 33 30 25 36 28 25 36 28 25 36 28 25 36 28 25 36 28 25 36 28 25 36 28 25 36 28 25 38 30 27 38 30 27 38 30 27 38 30 27 38 30 27 38 30 27 38 30 27 38 30 27
54 37 47 56 40 50 59 42 52 60 44 54 73 56 66 74 58 68 77 60 70 79 63 73 84 67 77 86 70 80 89 72 82 91 74 84 104 84 96 107 85 98 109 87 100 112 90 103 116 94 107 119 97 110 121 99 112 123 101 114 125 103 116 125 103 116 125 103 116 125 103 116 125 103 116 125 103 116 125 103 116 125 103 115 129 107 119 129 107 119 129 107 119 129 107 119 129 107 119 129 107 119 129 107 119 129 107 119 130 108 120 130 108 120 130 108 120 130 108 120 130 108 120 130 108 120 130 108 120 130 109 118 130 109 116 130 109 116 130 109 116 130 109 116 130 109 116 130 109 116 130 109 116 130 109 116 126 105 112 126 105 112 126 105 112 126 105 112 126 105 112 126 105 112 126 105 112 126 105 112 113 92 99 112 91 98 109 88 95 106 85 92 103 82 89 99 78 85 97 76 83 96 75 82 93 72 79 92 71 78 89 68 75 86 65 72 83 62 69 79 58 65 77 56 63 75 56 62 73 60 67 70 59 67 68 57 65 65 54 62 61 50 58 58 47 55 56 45 53 54 43 51 57 46 54 57 46 54 57 46 54 57 46 54 57 46 54 57 46 54 57 46 54 56 46 54 44 42 45 41 41 43 39 39 41 36 36 38 32 32 34 29 29 31 27 27 29 25 25 27 4 4 6 4 4 6 4 4 6 4 4 6 4 4 6 4 4 6 4 4 6 4 4 6 0 2 1 0 2 1 0 2 1 0 2 1 0 2 1 0 2 1 0 2 1 0 2 1 7 9 8 7 11 10 11 13 12 12 16 15 18 20 19 19 23 22 23 25 24 23 27 26 25 29 28 27 31 30 29 33 32 32 36 35 36 40 39 39 43 42 41 45 44 43 47 46 42 46 45 42 46 45 42 46 45 42 46 45 42 46 45 42 46 45 42 46 45 44 46 43 48 47 43 48 45 40 46 43 38 43 40 35 39 36 31 36 33 28 34 31 26 32 29 24 33 30 25 33 30 25 33 30 25 33 30 25 33 30 25 33 30 25 33 30 25 34 29 25 36 28 25 36 28 25 36 28 25 36 28 25 36 28 25 36 28 25 36 28 25 36 28 25 38 30 27 38 30 27 38 30 27 38 30 27 38 30 27 38 30 27 38 30 27 38 30 27
55 39 49 60 47 56 67 51 61 67 54 63 76 60 70 76 63 72 80 64 74 81 68 77 87 71 81 88 75 84 92 76 86 94 78 88 107 87 98 107 87 98 107 87 98 107 87 98 107 87 98 107 87 98 107 87 98 107 87 98 113 93 104 113 93 104 113 93 104 113 93 104 113 93 104 113 93 104 113 93 104 113 93 104 118 98 109 118 98 107 118 98 107 118 98 107 118 98 107 118 98 107 118 98 107 118 98 107 124 104 113 124 104 113 124 104 113 124 104 113 124 104 113 124 104 113 124 104 113 124 104 113 126 105 112 126 105 110 126 105 110 126 105 110 126 105 110 126 105 110 126 105 110 126 105 110 117 96 101 117 96 101 117 96 101 117 96 101 117 96 101 117 96 101 117 96 101 117 96 101 108 87 92 106 85 90 104 83 88 101 80 85 97 76 81 94 73 78 92 71 76 90 69 74 82 61 66 82 61 66 82 61 66 82 61 66 82 61 66 82 61 66 82 61 66 79 62 68 68 59 64 65 60 64 65 60 64 65 60 64 65 60 64 65 60 64 65 60 64 65 60 64 64 59 63 62 57 61 60 55 59 57 52 56 53 48 52 50 45 49 48 43 47 44 42 45 34 35 39 31 35 38 28 32 35 25 29 32 22 26 29 18 22 25 16 20 23 15 19 22 0 1 4 0 1 4 0 1 4 0 1 4 0 1 4 0 1 4 0 1 4 0 1 2 0 3 2 0 4 2 0 3 2 0 4 2 0 3 2 0 4 2 0 3 2 0 4 2 7 11 10 8 14 12 11 15 14 13 19 17 18 22 21 20 26 24 23 27 26 24 30 28 25 31 31 25 31 31 25 31 31 25 31 31 25 31 31 25 31 31 25 31 31 25 31 31 28 34 34 28 34 34 28 34 34 28 34 34 28 34 34 28 34 34 28 34 34 31 33 32 32 31 27 35 30 26 35 30 26 35 30 26 35 30 26 35 30 26 35 30 26 35 30 26 35 30 26 35 30 26 35 30 26 35 30 26 35 30 26 35 30 26 35 30 26 35 30 26 36 29 23 37 28 23 37 28 23 37 28 23 37 28 23 37 28 23 37 28 23 37 28 23 38 29 24 38 29 24 38 29 24 38 29 24 38 29 24 38 29 24 38 29 24 38 29 24
53 40 49 60 47 56 65 52 61 67 54 63 74 61 70 76 63 72 78 65 74 81 68 77 85 72 81 88 75 84 90 77 86 94 78 88 105 88 98 107 87 98 107 87 98 107 87 98 107 87 98 107 87 98 107 87 98 107 87 98 113 93 104 113 93 104 113 93 104 113 93 104 113 93 104 113 93 104 113 93 104 113 93 104 118 98 107 118 98 107 118 98 107 118 98 107 118 98 107 118 98 107 118 98 107 118 98 107 124 104 113 124 104 113 124 104 113 124 104 113 124 104 113 124 104 113 124 104 113 124 105 111 126 105 112 126 105 110 126 105 110 126 105 110 126 105 110 126 105 110 126 105 110 126 105 110 117 96 101 117 96 101 117 96 101 117 96 101 117 96 101 117 96 101 117 96 101 117 96 101 108 87 92 106 85 90 104 83 88 101 80 85 97 76 81 94 73 78 92 71 76 90 69 74 82 61 66 82 61 66 82 61 66 82 61 66 82 61 66 82 61 66 82 61 66 79 63 66 66 60 64 63 61 64 63 61 64 63 61 64 63 61 64 63 61 64 63 61 64 63 61 64 62 60 63 60 58 61 58 56 59 55 53 56 51 49 52 48 46 49 46 44 47 43 43 45 33 37 40 31 36 39 29 34 37 25 30 33 22 27 30 19 24 27 16 21 24 15 20 23 0 2 5 0 2 5 0 2 5 0 2 5 0 2 5 0 2 5 0 2 5 0 3 3 0 4 4 0 4 2 0 4 2 0 4 2 0 4 2 0 4 2 0 4 2 0 4 2 6 12 10 8 14 12 10 16 14 13 19 17 17 23 21 20 26 24 22 28 26 24 30 28 25 31 31 25 31 31 25 31 31 25 31 31 25 31 31 25 31 31 25 31 31 25 31 31 28 34 34 28 34 34 28 34 34 28 34 34 28 34 34 28 34 34 28 34 34 29 33 32 34 30 27 35 30 26 35 30 26 35 30 26 35 30 26 35 30 26 35 30 26 35 30 26 35 30 26 35 30 26 35 30 26 35 30 26 35 30 26 35 30 26 35 30 26 35 30 26 37 28 23 37 28 23 37 28 23 37 28 23 37 28 23 37 28 23 37 28 23 37 28 23 38 29 24 38 29 24 38 29 24 38 29 24 38 29 24 38 29 24 38 29 24 38 29 24
53 40 49 60 47 56 65 52 61 67 54 63 74 61 70 76 63 72 78 65 74 81 68 77 85 72 81 88 75 84 90 77 86 94 78 88 105 88 98 107 87 98 107 87 98 107 87 98 107 87 98 107 87 98 107 87 98 107 87 98 113 93 104 113 93 104 113 93 104 113 93 104 113 93 104 113 93 104 113 93 104 113 93 104 118 98 107 118 98 107 118 98 107 118 98 107 118 98 107 118 98 107 118 98 107 118 98 107 124 104 113 124 104 113 124 104 113 124 104 113 124 104 113 124 104 113 124 104 113 124 105 111 126 105 112 126 105 110 126 105 110 126 105 110 126 105 110 126 105 110 126 105 110 126 105 110 117 96 101 117 96 101 117 96 101 117 96 101 117 96 101 117 96 101 117 96 101 117 96 101 108 87 92 106 85 90 104 83 88 101 80 85 97 76 81 94 73 78 92 71 76 90 69 74 82 61 66 82 61 66 82 61 66 82 61 66 82 61 66 82 61 66 82 61 66 79 63 66 66 60 64 63 61 64 63 61 64 63 61 64 63 61 64 63 61 64 63 61 64 63 61 64 62 60 63 60 58 61 58 56 59 55 53 56 51 49 52 48 46 49 46 44 47 43 43 45 36 40 43 33 38 41 31 36 39 28 33 36 24 29 32 21 26 29 19 24 27 17 22 25 0 4 7 0 4 7 0 4 7 0 4 7 0 4 7 0 4 7 0 4 7 0 5 5 0 4 4 0 4 2 0 4 2 0 4 2 0 4 2 0 4 2 0 4 2 0 4 2 6 12 10 8 14 12 10 16 14 13 19 17 17 23 21 20 26 24 22 28 26 24 30 28 25 31 31 25 31 31 25 31 31 25 31 31 25 31 31 25 31 31 25 31 31 25 31 31 28 34 34 28 34 34 28 34 34 28 34 34 28 34 34 28 34 34 28 34 34 29 33 32 34 30 27 35 30 26 35 30 26 35 30 26 35 30 26 35 30 26 35 30 26 35 30 26 35 30 26 35 30 26 35 30 26 35 30 26 35 30 26 35 30 26 35 30 26 35 30 26 37 28 23 37 28 23 37 28 23 37 28 23 37 28 23 37 28 23 37 28 23 37 28 23 38 29 24 38 29 24 38 29 24 38 29 24 38 29 24 38 29 24 38 29 24 38 29 24
