P3
207 145
255
83 68 73 80 65 70 76 61 66 74 59 64 74 57 63 64 40 53 66 40 53 66 40 53 66 40 53 66 40 53 66 40 53 66 40 53 66 40 53 80 54 67 80 54 67 80 54 67 80 54 67 80 54 67 80 54 67 80 54 67 78 54 67 69 49 60 65 48 58 63 46 56 60 43 53 56 39 49 53 36 46 51 34 44 49 32 42 56 39 49 56 39 49 56 39 49 56 39 49 56 39 49 56 39 49 56 39 49 53 40 50 45 37 48 43 40 51 46 43 54 49 46 57 52 49 60 56 53 64 58 55 66 59 56 67 63 60 71 60 57 68 55 52 63 49 46 57 42 39 50 36 33 44 31 28 39 27 25 38 35 33 47 34 33 49 34 33 49 34 33 49 34 33 49 34 33 49 34 33 49 34 33 49 40 39 55 40 39 55 40 39 55 40 39 55 40 39 55 40 39 55 40 39 55 44 38 52 61 45 58 65 43 55 65 43 55 65 43 55 65 43 55 65 43 55 65 43 55 65 43 55 70 48 60 71 49 61 74 52 64 77 55 67 80 58 70 84 62 74 86 64 76 84 66 78 85 71 86 83 72 88 83 72 88 83 72 88 83 72 88 83 72 88 83 72 88 83 72 88 70 59 75 68 57 73 66 55 71 63 52 68 59 48 64 56 45 61 54 43 59 50 42 57 51 48 59 50 48 59 53 47 59 53 47 59 56 45 59 57 45 59 58 44 59 61 43 59 68 45 63 71 44 63 72 43 63 74 42 63 76 41 63 76 41 63 79 39 63 78 40 63 70 35 59 71 37 61 74 40 64 78 46 69 80 51 73 82 57 78 83 62 81 82 65 83 101 87 104 100 89 105 100 92 107 101 97 111 103 101 114 105 105 117 108 108 120 107 109 122 93 96 113 93 96 115 93 96 115 93 96 115 93 96 115 93 96 115 93 96 115 93 96 115 101 104 123 101 104 123 101 104 123 101 104 123 101 104 123 101 104 123 101 104 123 102 104 119 108 102 114 109 102 110 109 102 110 109 102 110 109 102 110 109 102 110 109 102 110 109 102 110 94 87 95 95 88 96 99 92 100 103 96 104 108 101 109 112 105 113 116 109 117 120 110 118 117 100 110 119 99 108 119 99 108 119 99 108 119 99 108 119 99 108 119 99 108 119 99 108 98 78 87 98 78 87 98 78 87 98 78 87 98 78 87 98 78 87 98 78 87 99 78 87 115 89 102 116 88 102 116 88 102 116 88 102 116 88 102 116 88 102 116 88 102 116 88 102 107 79 93 107 79 93 107 79 93 107 79 93 107 79 93 107 79 93 107 79 93 111 77 93 97 52 73 100 51 73 100 51 73 97 52 73 97 52 73 95 53 73 93 54 73 90 56 73 82 51 67 72 45 60
73 58 63 69 54 59 66 51 56 64 49 54 63 46 52 66 42 55 68 42 55 68 42 55 68 42 55 68 42 55 68 42 55 68 42 55 68 42 55 75 49 62 75 49 62 75 49 62 75 49 62 75 49 62 75 49 62 75 49 62 73 49 62 55 35 46 53 36 46 53 36 46 53 36 46 53 36 46 53 36 46 53 36 46 53 36 46 49 32 42 49 32 42 49 32 42 49 32 42 49 32 42 49 32 42 49 32 42 46 33 43 39 31 42 36 33 44 36 33 44 36 33 44 36 33 44 36 33 44 36 33 44 36 33 44 34 31 42 34 31 42 34 31 42 34 31 42 34 31 42 34 31 42 34 31 42 33 31 44 30 28 42 29 28 44 29 28 44 29 28 44 29 28 44 29 28 44 29 28 44 29 28 44 40 39 55 40 39 55 40 39 55 40 39 55 40 39 55 40 39 55 40 39 55 44 38 52 69 53 66 73 51 63 72 50 62 71 49 61 69 47 59 68 46 58 67 45 57 67 45 57 64 42 54 66 44 56 69 47 59 74 52 64 78 56 68 83 61 73 86 64 76 85 67 79 88 74 89 86 75 91 86 75 91 86 75 91 86 75 91 86 75 91 86 75 91 86 75 91 50 39 55 50 39 55 50 39 55 50 39 55 50 39 55 50 39 55 50 39 55 48 40 55 46 43 54 45 43 54 48 42 54 48 42 54 51 40 54 52 40 54 53 39 54 56 38 54 60 37 55 62 35 54 63 34 54 63 31 52 64 29 51 63 28 50 65 25 49 63 25 48 84 50 74 84 55 77 90 61 83 96 68 90 102 77 98 108 87 106 112 93 112 112 98 115 103 90 107 100 92 107 97 93 107 95 95 107 93 95 107 92 96 107 92 96 107 92 96 108 92 95 112 92 95 114 92 95 114 92 95 114 92 95 114 92 95 114 92 95 114 92 95 114 98 101 120 98 101 120 98 101 120 98 101 120 98 101 120 98 101 120 98 101 120 99 101 116 107 101 113 108 101 109 108 101 109 108 101 109 108 101 109 108 101 109 108 101 109 108 101 109 93 86 94 93 86 94 93 86 94 93 86 94 93 86 94 93 86 94 93 86 94 95 85 93 124 107 117 124 104 113 120 100 109 116 96 105 111 91 100 107 87 96 103 83 92 102 82 91 99 79 88 98 78 87 95 75 84 92 72 81 89 69 78 85 65 74 83 63 72 83 62 71 90 64 77 93 65 79 95 67 81 98 70 84 102 74 88 105 77 91 107 79 93 109 81 95 115 87 101 113 85 99 111 83 97 108 80 94 104 76 90 101 73 87 99 71 85 101 67 83 105 60 81 106 57 79 104 55 77 98 53 74 94 49 70 89 47 67 85 46 65 80 46 63 63 32 48 60 33 48
73 58 63 69 54 59 66 51 56 64 49 54 63 46 52 66 42 55 68 42 55 68 42 55 68 42 55 68 42 55 68 42 55 68 42 55 68 42 55 75 49 62 75 49 62 75 49 62 75 49 62 75 49 62 75 49 62 75 49 62 73 49 62 55 35 46 53 36 46 53 36 46 53 36 46 53 36 46 53 36 46 53 36 46 53 36 46 49 32 42 49 32 42 49 32 42 49 32 42 49 32 42 49 32 42 49 32 42 46 33 43 39 31 42 36 33 44 36 33 44 36 33 44 36 33 44 36 33 44 36 33 44 36 33 44 34 31 42 34 31 42 34 31 42 34 31 42 34 31 42 34 31 42 34 31 42 33 31 44 32 30 44 31 30 46 31 30 46 31 30 46 31 30 46 31 30 46 31 30 46 31 30 46 40 39 55 40 39 55 40 39 55 40 39 55 40 39 55 40 39 55 40 39 55 44 38 52 68 52 65 71 49 61 71 49 61 70 48 60 70 48 60 69 47 59 69 47 59 68 46 58 66 44 56 67 45 57 70 48 60 74 52 64 78 56 68 82 60 72 85 63 75 83 65 77 80 66 81 78 67 83 78 67 83 78 67 83 78 67 83 78 67 83 78 67 83 78 67 83 50 39 55 50 39 55 50 39 55 50 39 55 50 39 55 50 39 55 50 39 55 48 40 55 46 43 54 45 43 54 48 42 54 48 42 54 51 40 54 52 40 54 53 39 54 56 38 54 61 38 56 64 37 56 64 35 55 66 34 55 67 32 54 66 31 53 69 29 53 68 30 53 86 54 77 86 58 80 89 64 85 95 72 92 101 80 99 105 88 106 109 95 112 110 99 115 100 92 107 97 93 107 95 95 107 93 95 107 92 96 107 90 97 107 89 98 107 89 97 108 92 95 112 92 95 114 92 95 114 92 95 114 92 95 114 92 95 114 92 95 114 92 95 114 98 101 120 98 101 120 98 101 120 98 101 120 98 101 120 98 101 120 98 101 120 99 101 116 107 101 113 108 101 109 108 101 109 108 101 109 108 101 109 108 101 109 108 101 109 108 101 109 91 84 92 91 84 92 91 84 92 91 84 92 91 84 92 91 84 92 91 84 92 93 83 91 121 104 114 121 101 110 118 98 107 114 94 103 110 90 99 107 87 96 104 84 93 102 82 91 100 80 89 99 79 88 97 77 86 93 73 82 90 70 79 87 67 76 84 64 73 84 63 72 90 64 77 93 65 79 95 67 81 98 70 84 102 74 88 105 77 91 107 79 93 109 81 95 115 87 101 113 85 99 111 83 97 108 80 94 104 76 90 101 73 87 99 71 85 101 67 83 105 60 81 106 57 79 104 55 77 98 53 74 94 49 70 89 47 67 85 46 65 80 46 63 63 32 48 60 33 48
73 58 63 69 54 59 66 51 56 64 49 54 63 46 52 66 42 55 68 42 55 68 42 55 68 42 55 68 42 55 68 42 55 68 42 55 68 42 55 75 49 62 75 49 62 75 49 62 75 49 62 75 49 62 75 49 62 75 49 62 73 49 62 55 35 46 53 36 46 53 36 46 53 36 46 53 36 46 53 36 46 53 36 46 53 36 46 49 32 42 49 32 42 49 32 42 49 32 42 49 32 42 49 32 42 49 32 42 46 33 43 39 31 42 36 33 44 36 33 44 36 33 44 36 33 44 36 33 44 36 33 44 36 33 44 34 31 42 34 31 42 34 31 42 34 31 42 34 31 42 34 31 42 34 31 42 33 31 44 34 32 46 33 32 48 33 32 48 33 32 48 33 32 48 33 32 48 33 32 48 33 32 48 40 39 55 40 39 55 40 39 55 40 39 55 40 39 55 40 39 55 40 39 55 44 38 52 64 48 61 68 46 58 69 47 59 70 48 60 70 48 60 71 49 61 72 50 62 72 50 62 69 47 59 70 48 60 72 50 62 75 53 65 77 55 67 80 58 70 82 60 72 80 62 74 67 53 68 65 54 70 65 54 70 65 54 70 65 54 70 65 54 70 65 54 70 65 54 70 50 39 55 50 39 55 50 39 55 50 39 55 50 39 55 50 39 55 50 39 55 48 40 55 46 43 54 45 43 54 48 42 54 48 42 54 51 40 54 52 40 54 53 39 54 56 38 54 62 39 57 66 39 58 67 38 58 70 38 59 73 38 60 73 38 60 77 37 61 74 39 61 90 61 83 88 65 85 91 70 89 95 76 95 100 83 101 104 90 107 107 94 111 107 99 114 97 93 107 95 95 107 93 95 107 90 97 107 89 98 107 88 98 107 86 99 107 88 98 108 90 96 112 92 95 114 92 95 114 92 95 114 92 95 114 92 95 114 92 95 114 92 95 114 98 101 120 98 101 120 98 101 120 98 101 120 98 101 120 98 101 120 98 101 120 99 101 116 107 101 113 108 101 109 108 101 109 108 101 109 108 101 109 108 101 109 108 101 109 108 101 109 89 82 90 89 82 90 89 82 90 89 82 90 89 82 90 89 82 90 89 82 90 91 81 89 115 98 108 116 96 105 114 94 103 111 91 100 109 89 98 106 86 95 104 84 93 103 83 92 103 83 92 101 81 90 99 79 88 96 76 85 92 72 81 89 69 78 87 67 76 86 65 74 90 64 77 93 65 79 95 67 81 98 70 84 102 74 88 105 77 91 107 79 93 109 81 95 115 87 101 113 85 99 111 83 97 108 80 94 104 76 90 101 73 87 99 71 85 101 67 83 105 60 81 106 57 79 104 55 77 98 53 74 94 49 70 89 47 67 85 46 65 80 46 63 63 32 48 60 33 48
73 58 63 69 54 59 66 51 56 64 49 54 63 46 52 66 42 55 68 42 55 68 42 55 68 42 55 68 42 55 68 42 55 68 42 55 68 42 55 75 49 62 75 49 62 75 49 62 75 49 62 75 49 62 75 49 62 75 49 62 73 49 62 55 35 46 53 36 46 53 36 46 53 36 46 53 36 46 53 36 46 53 36 46 53 36 46 49 32 42 49 32 42 49 32 42 49 32 42 49 32 42 49 32 42 49 32 42 46 33 43 39 31 42 36 33 44 36 33 44 36 33 44 36 33 44 36 33 44 36 33 44 36 33 44 34 31 42 34 31 42 34 31 42 34 31 42 34 31 42 34 31 42 34 31 42 33 31 44 37 35 49 36 35 51 36 35 51 36 35 51 36 35 51 36 35 51 36 35 51 36 35 51 40 39 55 40 39 55 40 39 55 40 39 55 40 39 55 40 39 55 40 39 55 44 38 52 60 44 57 65 43 55 66 44 56 69 47 59 71 49 61 74 52 64 75 53 65 76 54 66 74 52 64 74 52 64 75 53 65 76 54 66 76 54 66 77 55 67 78 56 68 75 57 69 55 41 56 53 42 58 53 42 58 53 42 58 53 42 58 53 42 58 53 42 58 53 42 58 50 39 55 50 39 55 50 39 55 50 39 55 50 39 55 50 39 55 50 39 55 48 40 55 46 43 54 45 43 54 48 42 54 48 42 54 51 40 54 52 40 54 53 39 54 56 38 54 64 41 59 68 41 60 71 42 62 75 43 64 80 45 67 82 47 69 87 47 71 85 50 72 94 69 90 94 73 92 95 76 95 98 81 99 100 86 103 104 91 108 104 96 111 102 98 112 95 95 107 93 95 107 90 97 107 89 98 107 88 98 107 86 99 107 85 100 107 86 99 108 90 96 112 92 95 114 92 95 114 92 95 114 92 95 114 92 95 114 92 95 114 92 95 114 98 101 120 98 101 120 98 101 120 98 101 120 98 101 120 98 101 120 98 101 120 99 101 116 107 101 113 108 101 109 108 101 109 108 101 109 108 101 109 108 101 109 108 101 109 108 101 109 86 79 87 86 79 87 86 79 87 86 79 87 86 79 87 86 79 87 86 79 87 88 78 86 107 90 100 109 89 98 108 88 97 107 87 96 106 86 95 105 85 94 105 85 94 104 84 93 106 86 95 105 85 94 102 82 91 99 79 88 96 76 85 92 72 81 90 70 79 90 69 78 90 64 77 93 65 79 95 67 81 98 70 84 102 74 88 105 77 91 107 79 93 109 81 95 115 87 101 113 85 99 111 83 97 108 80 94 104 76 90 101 73 87 99 71 85 101 67 83 105 60 81 106 57 79 104 55 77 98 53 74 94 49 70 89 47 67 85 46 65 80 46 63 63 32 48 60 33 48
73 58 63 69 54 59 66 51 56 64 49 54 63 46 52 66 42 55 68 42 55 68 42 55 68 42 55 68 42 55 68 42 55 68 42 55 68 42 55 75 49 62 75 49 62 75 49 62 75 49 62 75 49 62 75 49 62 75 49 62 73 49 62 55 35 46 53 36 46 53 36 46 53 36 46 53 36 46 53 36 46 53 36 46 53 36 46 49 32 42 49 32 42 49 32 42 49 32 42 49 32 42 49 32 42 49 32 42 46 33 43 39 31 42 36 33 44 36 33 44 36 33 44 36 33 44 36 33 44 36 33 44 36 33 44 34 31 42 34 31 42 34 31 42 34 31 42 34 31 42 34 31 42 34 31 42 33 31 44 41 39 53 40 39 55 40 39 55 40 39 55 40 39 55 40 39 55 40 39 55 40 39 55 40 39 55 40 39 55 40 39 55 40 39 55 40 39 55 40 39 55 40 39 55 44 38 52 55 39 52 61 39 51 64 42 54 68 46 58 72 50 62 76 54 66 79 57 69 81 59 71 78 56 68 78 56 68 77 55 67 76 54 66 76 54 66 75 53 65 74 52 64 71 53 65 48 34 49 46 35 51 46 35 51 46 35 51 46 35 51 46 35 51 46 35 51 46 35 51 50 39 55 50 39 55 50 39 55 50 39 55 50 39 55 50 39 55 50 39 55 48 40 55 46 43 54 45 43 54 48 42 54 48 42 54 51 40 54 52 40 54 53 39 54 56 38 54 66 43 61 71 44 63 75 46 66 81 49 70 88 53 75 92 57 79 98 58 82 95 62 83 101 78 98 98 81 99 100 83 101 100 86 103 102 89 106 103 92 108 102 96 110 100 98 111 93 95 107 92 96 107 89 98 107 88 98 107 85 100 107 83 100 107 83 100 107 85 99 108 89 96 112 92 95 114 92 95 114 92 95 114 92 95 114 92 95 114 92 95 114 92 95 114 98 101 120 98 101 120 98 101 120 98 101 120 98 101 120 98 101 120 98 101 120 99 101 116 107 101 113 108 101 109 108 101 109 108 101 109 108 101 109 108 101 109 108 101 109 108 101 109 82 75 83 82 75 83 82 75 83 82 75 83 82 75 83 82 75 83 82 75 83 84 74 82 99 82 92 101 81 90 102 82 91 103 83 92 104 84 93 105 85 94 105 85 94 106 86 95 109 89 98 108 88 97 106 86 95 102 82 91 99 79 88 96 76 85 93 73 82 93 72 81 90 64 77 93 65 79 95 67 81 98 70 84 102 74 88 105 77 91 107 79 93 109 81 95 115 87 101 113 85 99 111 83 97 108 80 94 104 76 90 101 73 87 99 71 85 101 67 83 105 60 81 106 57 79 104 55 77 98 53 74 94 49 70 89 47 67 85 46 65 80 46 63 63 32 48 60 33 48
73 58 63 69 54 59 66 51 56 64 49 54 63 46 52 66 42 55 68 42 55 68 42 55 68 42 55 68 42 55 68 42 55 68 42 55 68 42 55 75 49 62 75 49 62 75 49 62 75 49 62 75 49 62 75 49 62 75 49 62 73 49 62 55 35 46 53 36 46 53 36 46 53 36 46 53 36 46 53 36 46 53 36 46 53 36 46 49 32 42 49 32 42 49 32 42 49 32 42 49 32 42 49 32 42 49 32 42 46 33 43 39 31 42 36 33 44 36 33 44 36 33 44 36 33 44 36 33 44 36 33 44 36 33 44 34 31 42 34 31 42 34 31 42 34 31 42 34 31 42 34 31 42 34 31 42 33 31 44 44 42 56 43 42 58 43 42 58 43 42 58 43 42 58 43 42 58 43 42 58 43 42 58 40 39 55 40 39 55 40 39 55 40 39 55 40 39 55 40 39 55 40 39 55 44 38 52 51 35 48 57 35 47 61 39 51 67 45 57 73 51 63 79 57 69 83 61 73 85 63 75 83 61 73 82 60 72 80 58 70 77 55 67 75 53 65 72 50 62 70 48 60 66 48 60 47 33 48 45 34 50 45 34 50 45 34 50 45 34 50 45 34 50 45 34 50 45 34 50 50 39 55 50 39 55 50 39 55 50 39 55 50 39 55 50 39 55 50 39 55 48 40 55 46 43 54 45 43 54 48 42 54 48 42 54 51 40 54 52 40 54 53 39 54 56 38 54 68 45 63 74 47 66 79 50 70 87 55 76 95 60 82 101 66 88 108 68 92 106 73 94 109 86 106 103 89 106 104 90 107 104 91 108 103 92 108 102 94 109 99 95 109 98 98 110 93 95 107 90 97 107 88 98 107 86 99 107 83 100 107 82 101 107 82 101 107 85 99 108 89 96 112 92 95 114 92 95 114 92 95 114 92 95 114 92 95 114 92 95 114 92 95 114 98 101 120 98 101 120 98 101 120 98 101 120 98 101 120 98 101 120 98 101 120 99 101 116 107 101 113 108 101 109 108 101 109 108 101 109 108 101 109 108 101 109 108 101 109 108 101 109 79 72 80 79 72 80 79 72 80 79 72 80 79 72 80 79 72 80 79 72 80 81 71 79 91 74 84 94 74 83 96 76 85 99 79 88 101 81 90 104 84 93 106 86 95 107 87 96 113 93 102 111 91 100 109 89 98 106 86 95 102 82 91 99 79 88 97 77 86 96 75 84 90 64 77 93 65 79 95 67 81 98 70 84 102 74 88 105 77 91 107 79 93 109 81 95 115 87 101 113 85 99 111 83 97 108 80 94 104 76 90 101 73 87 99 71 85 101 67 83 105 60 81 106 57 79 104 55 77 98 53 74 94 49 70 89 47 67 85 46 65 80 46 63 63 32 48 60 33 48
73 58 63 69 54 59 66 51 56 64 49 54 63 46 52 66 42 55 68 42 55 68 42 55 68 42 55 68 42 55 68 42 55 68 42 55 68 42 55 75 49 62 75 49 62 75 49 62 75 49 62 75 49 62 75 49 62 75 49 62 73 49 62 55 35 46 53 36 46 53 36 46 53 36 46 53 36 46 53 36 46 53 36 46 53 36 46 49 32 42 49 32 42 49 32 42 49 32 42 49 32 42 49 32 42 49 32 42 46 33 43 39 31 42 36 33 44 36 33 44 36 33 44 36 33 44 36 33 44 36 33 44 36 33 44 34 31 42 34 31 42 34 31 42 34 31 42 34 31 42 34 31 42 34 31 42 33 31 44 46 44 58 45 44 60 45 44 60 45 44 60 45 44 60 45 44 60 45 44 60 45 44 60 40 39 55 40 39 55 40 39 55 40 39 55 40 39 55 40 39 55 40 39 55 44 38 52 47 31 44 54 32 44 59 37 49 66 44 56 74 52 64 81 59 71 86 64 76 89 67 79 86 64 76 85 63 75 82 60 72 78 56 68 74 52 64 70 48 60 67 45 57 63 45 57 50 36 51 48 37 53 48 37 53 48 37 53 48 37 53 48 37 53 48 37 53 48 37 53 50 39 55 50 39 55 50 39 55 50 39 55 50 39 55 50 39 55 50 39 55 48 40 55 46 43 54 45 43 54 48 42 54 48 42 54 51 40 54 52 40 54 53 39 54 56 38 54 70 47 65 76 49 68 82 53 73 91 59 80 100 65 87 107 72 94 116 76 100 115 82 103 114 93 112 109 95 112 108 94 111 107 94 111 103 95 110 101 95 109 98 96 109 95 97 109 92 96 107 89 98 107 86 99 107 85 100 107 83 100 107 82 101 107 82 101 107 83 100 108 89 96 112 92 95 114 92 95 114 92 95 114 92 95 114 92 95 114 92 95 114 92 95 114 98 101 120 98 101 120 98 101 120 98 101 120 98 101 120 98 101 120 98 101 120 99 101 116 107 101 113 108 101 109 108 101 109 108 101 109 108 101 109 108 101 109 108 101 109 108 101 109 77 70 78 77 70 78 77 70 78 77 70 78 77 70 78 77 70 78 77 70 78 79 69 77 85 68 78 89 69 78 92 72 81 96 76 85 100 80 89 103 83 92 106 86 95 108 88 97 115 95 104 114 94 103 111 91 100 108 88 97 105 85 94 101 81 90 99 79 88 99 78 87 90 64 77 93 65 79 95 67 81 98 70 84 102 74 88 105 77 91 107 79 93 109 81 95 115 87 101 113 85 99 111 83 97 108 80 94 104 76 90 101 73 87 99 71 85 101 67 83 105 60 81 106 57 79 104 55 77 98 53 74 94 49 70 89 47 67 85 46 65 80 46 63 63 32 48 60 33 48
71 59 63 69 54 59 64 52 56 64 49 54 63 46 52 66 43 53 68 42 55 68 42 55 68 42 55 68 42 55 68 42 55 68 42 55 68 42 55 75 49 62 75 49 62 75 49 62 75 49 62 75 49 62 75 49 62 75 49 62 73 49 62 55 35 46 53 36 46 53 36 46 53 36 46 53 36 46 53 36 46 53 36 46 53 36 46 49 32 42 49 32 42 49 32 42 49 32 42 49 32 42 49 32 42 49 32 42 46 33 43 39 31 44 36 33 44 36 32 46 36 33 44 36 32 46 36 33 44 36 32 46 36 33 44 34 30 44 34 31 42 34 30 44 34 31 42 34 30 44 34 31 42 34 30 44 34 30 44 48 46 60 47 46 60 47 46 60 47 46 60 47 46 60 47 46 60 47 46 60 47 46 60 40 39 53 40 39 53 40 39 53 40 39 53 40 39 53 40 39 53 40 39 53 42 38 52 43 30 40 49 32 40 57 37 48 63 46 54 73 53 64 79 62 70 87 67 78 88 71 79 87 67 78 83 66 74 82 62 73 75 58 66 73 53 64 66 49 57 65 45 56 60 44 54 53 39 54 51 40 54 52 39 56 51 40 54 52 39 56 51 40 54 52 39 56 51 40 54 51 38 55 50 39 53 51 38 55 50 39 53 51 38 55 50 39 53 51 38 55 50 39 53 48 42 54 46 43 52 48 42 52 49 41 52 49 41 52 51 41 52 52 40 52 55 39 52 68 50 64 74 51 67 81 57 73 90 63 80 98 71 88 107 78 96 115 84 102 115 88 107 114 97 115 110 97 114 109 98 114 107 96 112 104 96 111 100 96 110 98 96 109 96 96 108 93 95 107 92 96 107 89 98 107 88 98 107 86 99 107 86 99 107 85 100 107 88 98 108 90 96 110 92 95 112 93 94 112 92 95 112 93 94 112 92 95 112 93 94 112 92 95 112 99 100 118 98 101 118 99 100 118 98 101 118 99 100 118 98 101 118 99 100 118 101 100 114 107 101 111 110 100 108 110 100 109 110 100 108 110 100 109 110 100 108 110 100 109 110 100 108 77 67 76 77 67 75 77 67 76 77 67 75 77 67 76 77 67 75 77 67 76 78 67 75 82 65 73 86 66 75 91 70 79 94 74 83 100 79 88 103 83 92 108 87 96 108 88 97 117 96 105 115 95 104 114 93 102 109 89 98 107 86 95 103 83 92 101 80 89 100 79 88 88 64 77 90 66 79 94 68 81 97 71 84 101 75 88 104 78 91 107 79 93 109 81 95 117 86 101 115 84 99 114 82 97 111 79 94 107 75 90 104 72 87 103 69 85 104 65 83 105 60 81 105 57 79 103 55 77 97 54 74 93 50 70 87 48 67 84 47 65 79 46 63 61 33 48 58 34 48
77 67 68 74 62 64 70 60 61 69 57 59 69 54 59 71 50 59 74 48 61 74 48 61 74 48 61 74 48 61 74 48 61 74 48 61 74 48 61 70 44 57 70 44 57 70 44 57 70 44 57 70 44 57 70 44 57 70 44 57 68 44 57 52 32 41 50 33 41 50 33 41 50 33 41 50 33 41 50 33 41 50 33 41 50 33 41 41 24 32 41 24 32 41 24 32 41 24 32 41 24 32 41 24 32 41 24 32 38 25 35 44 36 49 43 37 51 43 36 52 43 37 51 43 36 52 43 37 51 43 36 52 43 37 51 47 40 56 47 41 55 47 40 56 47 41 55 47 40 56 47 41 55 47 40 56 45 41 55 48 46 59 46 46 58 46 46 58 44 44 56 43 43 55 42 42 54 41 41 53 40 40 52 60 60 72 59 59 71 57 57 69 55 55 67 53 53 65 51 51 63 50 50 62 51 48 57 51 41 49 54 43 47 60 47 54 66 55 59 73 60 67 79 68 72 85 72 79 86 75 79 90 77 84 88 77 81 86 73 80 82 71 75 80 67 74 75 64 68 74 61 68 72 61 67 58 44 57 57 45 57 58 44 59 57 45 57 58 44 59 57 45 57 58 44 59 57 45 57 48 34 49 47 35 47 48 34 49 47 35 47 48 34 49 47 35 47 48 34 49 47 35 47 57 50 58 57 52 59 60 53 61 64 57 65 67 60 68 70 63 71 75 65 74 76 66 75 84 72 82 85 73 83 88 75 85 92 79 89 95 82 92 98 85 95 103 87 98 102 88 101 100 89 105 99 90 107 100 91 108 101 92 109 101 94 110 103 96 112 101 97 112 102 98 113 98 94 109 97 95 109 97 95 109 96 95 109 96 95 109 96 95 109 96 95 109 96 95 109 97 96 110 95 97 110 97 96 110 95 97 110 97 96 110 95 97 110 97 96 110 95 97 110 101 100 114 99 101 114 101 100 114 99 101 114 101 100 114 99 101 114 101 100 114 102 100 113 112 102 111 111 100 106 109 98 106 106 95 101 102 91 99 99 88 94 97 86 94 95 84 90 85 74 82 84 73 79 81 70 78 78 67 73 75 64 72 71 60 66 69 58 66 71 56 63 87 67 76 88 67 76 89 66 76 88 67 76 89 66 76 88 67 76 89 66 76 88 67 76 100 77 87 100 79 88 104 81 91 106 85 94 110 87 97 113 92 101 116 93 103 116 95 104 108 91 101 108 91 101 110 90 101 111 89 101 111 89 101 112 88 101 114 88 101 117 86 101 117 85 100 118 81 98 117 78 96 116 75 93 112 71 89 110 67 86 109 64 84 107 62 82 114 69 90 111 67 90 106 62 85 96 57 78 90 51 72 80 45 65 74 41 60 69 40 58 49 25 41 49 28 43
77 67 68 73 63 64 70 60 61 68 58 59 69 54 59 71 50 59 74 48 61 74 48 61 74 48 61 74 48 61 74 48 61 74 48 61 74 48 61 70 44 57 70 44 57 70 44 57 70 44 57 70 44 57 70 44 57 70 44 57 68 44 57 52 32 41 50 33 41 50 33 41 50 33 41 50 33 41 50 33 41 50 33 41 50 33 41 43 26 34 43 26 34 43 26 34 43 26 34 43 26 34 43 26 34 43 26 34 40 27 36 48 37 53 45 38 54 45 38 54 45 38 54 45 38 54 45 38 54 45 38 54 45 38 54 47 40 56 47 40 56 47 40 56 47 40 56 47 40 56 47 40 56 47 40 56 45 41 55 49 47 60 48 48 58 47 47 57 47 47 57 46 46 56 45 45 55 45 45 55 45 45 55 63 63 73 62 62 72 60 60 70 57 57 67 54 54 64 52 52 62 50 50 60 50 49 57 49 43 47 53 44 47 58 49 52 65 56 59 71 62 65 78 69 72 83 74 77 85 76 79 89 80 83 88 79 82 86 77 80 82 73 76 79 70 73 76 67 70 73 64 67 72 63 68 58 45 55 58 44 57 58 44 57 58 44 57 58 44 57 58 44 57 58 44 57 58 44 57 50 36 49 50 36 49 50 36 49 50 36 49 50 36 49 50 36 49 50 36 49 49 37 47 60 50 59 59 52 59 62 55 62 65 58 65 68 61 68 72 65 72 74 67 74 75 68 75 82 75 82 83 76 83 86 79 86 89 82 89 92 85 92 96 89 96 98 91 98 99 92 100 98 92 106 98 91 107 98 91 107 99 92 108 100 93 109 100 93 109 101 94 110 101 94 110 100 93 109 100 93 109 100 93 109 100 93 109 100 93 109 100 93 109 100 93 109 98 94 109 98 96 109 97 97 109 97 97 109 97 97 109 97 97 109 97 97 109 97 97 109 97 97 109 101 101 113 101 101 113 101 101 113 101 101 113 101 101 113 101 101 113 101 101 113 103 100 111 112 102 110 112 99 106 110 97 104 107 94 101 103 90 97 100 87 94 98 85 92 96 83 90 87 74 81 86 73 80 84 71 78 80 67 74 77 64 71 74 61 68 71 58 65 72 57 64 88 67 76 89 66 76 89 66 76 89 66 76 89 66 76 89 66 76 89 66 76 89 66 76 99 76 86 100 77 87 102 79 89 106 83 93 109 86 96 112 89 99 115 92 102 115 94 103 107 91 101 105 92 101 108 91 101 108 91 101 111 89 101 112 88 101 114 88 101 117 86 101 118 84 100 119 80 98 119 78 96 117 74 93 116 69 89 113 66 86 114 62 84 110 61 82 114 69 92 110 68 90 105 63 85 95 57 78 89 51 72 79 46 65 73 42 60 68 41 58 48 25 41 47 29 43
77 67 68 73 63 64 70 60 61 68 58 59 69 54 59 71 50 59 74 48 61 74 48 61 74 48 61 74 48 61 74 48 61 74 48 61 74 48 61 70 44 57 70 44 57 70 44 57 70 44 57 70 44 57 70 44 57 70 44 57 68 44 57 52 32 41 50 33 41 50 33 41 50 33 41 50 33 41 50 33 41 50 33 41 50 33 41 45 28 36 45 28 36 45 28 36 45 28 36 45 28 36 45 28 36 45 28 36 42 29 38 53 42 58 50 43 59 50 43 59 50 43 59 50 43 59 50 43 59 50 43 59 50 43 59 47 40 56 47 40 56 47 40 56 47 40 56 47 40 56 47 40 56 47 40 56 45 41 55 50 48 61 50 50 60 50 50 60 51 51 61 52 52 62 52 52 62 53 53 63 53 53 63 69 69 79 67 67 77 64 64 74 60 60 70 56 56 66 52 52 62 49 49 59 49 48 56 49 43 47 53 44 47 58 49 52 65 56 59 71 62 65 78 69 72 83 74 77 85 76 79 92 83 86 90 81 84 88 79 82 85 76 79 81 72 75 78 69 72 76 67 70 74 65 70 58 45 55 58 44 57 58 44 57 58 44 57 58 44 57 58 44 57 58 44 57 58 44 57 55 41 54 55 41 54 55 41 54 55 41 54 55 41 54 55 41 54 55 41 54 54 42 52 62 52 61 62 55 62 64 57 64 67 60 67 71 64 71 74 67 74 76 69 76 78 71 78 84 77 84 86 79 86 88 81 88 91 84 91 95 88 95 98 91 98 100 93 100 102 95 103 99 93 107 98 91 107 98 91 107 97 90 106 97 90 106 96 89 105 95 88 104 95 88 104 100 93 109 100 93 109 100 93 109 100 93 109 100 93 109 100 93 109 100 93 109 98 94 109 98 96 109 97 97 109 97 97 109 97 97 109 97 97 109 97 97 109 97 97 109 97 97 109 101 101 113 101 101 113 101 101 113 101 101 113 101 101 113 101 101 113 101 101 113 103 100 111 112 102 110 112 99 106 110 97 104 107 94 101 103 90 97 100 87 94 98 85 92 96 83 90 90 77 84 88 75 82 86 73 80 83 70 77 79 66 73 76 63 70 74 61 68 74 59 66 88 67 76 89 66 76 89 66 76 89 66 76 89 66 76 89 66 76 89 66 76 89 66 76 96 73 83 98 75 85 100 77 87 103 80 90 107 84 94 110 87 97 112 89 99 113 92 101 107 91 101 105 92 101 108 91 101 108 91 101 111 89 101 112 88 101 114 88 101 117 86 101 118 84 100 119 80 98 119 78 96 117 74 93 116 69 89 113 66 86 114 62 84 110 61 82 114 69 92 110 68 90 105 63 85 95 57 78 89 51 72 79 46 65 73 42 60 68 41 58 48 25 41 47 29 43
77 67 68 73 63 64 70 60 61 68 58 59 69 54 59 71 50 59 74 48 61 74 48 61 74 48 61 74 48 61 74 48 61 74 48 61 74 48 61 70 44 57 70 44 57 70 44 57 70 44 57 70 44 57 70 44 57 70 44 57 68 44 57 52 32 41 50 33 41 50 33 41 50 33 41 50 33 41 50 33 41 50 33 41 50 33 41 48 31 39 48 31 39 48 31 39 48 31 39 48 31 39 48 31 39 48 31 39 45 32 41 60 49 65 57 50 66 57 50 66 57 50 66 57 50 66 57 50 66 57 50 66 57 50 66 47 40 56 47 40 56 47 40 56 47 40 56 47 40 56 47 40 56 47 40 56 45 41 55 52 50 63 52 52 62 54 54 64 56 56 66 59 59 69 61 61 71 63 63 73 64 64 74 76 76 86 74 74 84 70 70 80 64 64 74 58 58 68 53 53 63 49 49 59 47 46 54 49 43 47 53 44 47 58 49 52 65 56 59 71 62 65 78 69 72 83 74 77 85 76 79 95 86 89 94 85 88 91 82 85 88 79 82 85 76 79 81 72 75 79 70 73 78 69 74 58 45 55 58 44 57 58 44 57 58 44 57 58 44 57 58 44 57 58 44 57 58 44 57 62 48 61 62 48 61 62 48 61 62 48 61 62 48 61 62 48 61 62 48 61 61 49 59 66 56 65 65 58 65 67 60 67 71 64 71 74 67 74 77 70 77 80 73 80 81 74 81 88 81 88 89 82 89 91 84 91 95 88 95 98 91 98 101 94 101 104 97 104 105 98 106 100 94 108 99 92 108 97 90 106 95 88 104 92 85 101 90 83 99 88 81 97 87 80 96 100 93 109 100 93 109 100 93 109 100 93 109 100 93 109 100 93 109 100 93 109 98 94 109 98 96 109 97 97 109 97 97 109 97 97 109 97 97 109 97 97 109 97 97 109 97 97 109 101 101 113 101 101 113 101 101 113 101 101 113 101 101 113 101 101 113 101 101 113 103 100 111 112 102 110 112 99 106 110 97 104 107 94 101 103 90 97 100 87 94 98 85 92 96 83 90 93 80 87 92 79 86 89 76 83 86 73 80 83 70 77 79 66 73 77 64 71 78 63 70 88 67 76 89 66 76 89 66 76 89 66 76 89 66 76 89 66 76 89 66 76 89 66 76 93 70 80 94 71 81 97 74 84 100 77 87 103 80 90 107 84 94 109 86 96 109 88 97 107 91 101 105 92 101 108 91 101 108 91 101 111 89 101 112 88 101 114 88 101 117 86 101 118 84 100 119 80 98 119 78 96 117 74 93 116 69 89 113 66 86 114 62 84 110 61 82 114 69 92 110 68 90 105 63 85 95 57 78 89 51 72 79 46 65 73 42 60 68 41 58 48 25 41 47 29 43
77 67 68 73 63 64 70 60 61 68 58 59 69 54 59 71 50 59 74 48 61 74 48 61 74 48 61 74 48 61 74 48 61 74 48 61 74 48 61 70 44 57 70 44 57 70 44 57 70 44 57 70 44 57 70 44 57 70 44 57 68 44 57 52 32 41 50 33 41 50 33 41 50 33 41 50 33 41 50 33 41 50 33 41 50 33 41 52 35 43 52 35 43 52 35 43 52 35 43 52 35 43 52 35 43 52 35 43 49 36 45 66 55 71 63 56 72 63 56 72 63 56 72 63 56 72 63 56 72 63 56 72 63 56 72 47 40 56 47 40 56 47 40 56 47 40 56 47 40 56 47 40 56 47 40 56 45 41 55 54 52 65 55 55 65 58 58 68 62 62 72 67 67 77 71 71 81 74 74 84 75 75 85 84 84 94 81 81 91 76 76 86 69 69 79 61 61 71 54 54 64 48 48 58 46 45 53 49 43 47 53 44 47 58 49 52 65 56 59 71 62 65 78 69 72 83 74 77 85 76 79 98 89 92 97 88 91 95 86 89 91 82 85 88 79 82 85 76 79 82 73 76 81 72 77 58 45 55 58 44 57 58 44 57 58 44 57 58 44 57 58 44 57 58 44 57 58 44 57 68 54 67 68 54 67 68 54 67 68 54 67 68 54 67 68 54 67 68 54 67 67 55 65 69 59 68 68 61 68 71 64 71 74 67 74 77 70 77 81 74 81 83 76 83 84 77 84 91 84 91 92 85 92 95 88 95 98 91 98 101 94 101 105 98 105 107 100 107 108 101 109 101 95 109 100 93 109 97 90 106 92 85 101 88 81 97 84 77 93 81 74 90 79 72 88 100 93 109 100 93 109 100 93 109 100 93 109 100 93 109 100 93 109 100 93 109 98 94 109 98 96 109 97 97 109 97 97 109 97 97 109 97 97 109 97 97 109 97 97 109 97 97 109 101 101 113 101 101 113 101 101 113 101 101 113 101 101 113 101 101 113 101 101 113 103 100 111 112 102 110 112 99 106 110 97 104 107 94 101 103 90 97 100 87 94 98 85 92 96 83 90 96 83 90 95 82 89 93 80 87 89 76 83 86 73 80 83 70 77 80 67 74 81 66 73 88 67 76 89 66 76 89 66 76 89 66 76 89 66 76 89 66 76 89 66 76 89 66 76 90 67 77 91 68 78 93 70 80 97 74 84 100 77 87 103 80 90 106 83 93 106 85 94 107 91 101 105 92 101 108 91 101 108 91 101 111 89 101 112 88 101 114 88 101 117 86 101 118 84 100 119 80 98 119 78 96 117 74 93 116 69 89 113 66 86 114 62 84 110 61 82 114 69 92 110 68 90 105 63 85 95 57 78 89 51 72 79 46 65 73 42 60 68 41 58 48 25 41 47 29 43
77 67 68 73 63 64 70 60 61 68 58 59 69 54 59 71 50 59 74 48 61 74 48 61 74 48 61 74 48 61 74 48 61 74 48 61 74 48 61 70 44 57 70 44 57 70 44 57 70 44 57 70 44 57 70 44 57 70 44 57 68 44 57 52 32 41 50 33 41 50 33 41 50 33 41 50 33 41 50 33 41 50 33 41 50 33 41 55 38 46 55 38 46 55 38 46 55 38 46 55 38 46 55 38 46 55 38 46 52 39 48 73 62 78 70 63 79 70 63 79 70 63 79 70 63 79 70 63 79 70 63 79 70 63 79 47 40 56 47 40 56 47 40 56 47 40 56 47 40 56 47 40 56 47 40 56 45 41 55 56 54 67 58 58 68 62 62 72 68 68 78 74 74 84 80 80 90 84 84 94 86 86 96 92 92 102 88 88 98 82 82 92 73 73 83 63 63 73 54 54 64 47 47 57 45 44 52 49 43 47 53 44 47 58 49 52 65 56 59 71 62 65 78 69 72 83 74 77 85 76 79 102 93 96 100 91 94 98 89 92 95 86 89 91 82 85 88 79 82 86 77 80 84 75 80 58 45 55 58 44 57 58 44 57 58 44 57 58 44 57 58 44 57 58 44 57 58 44 57 75 61 74 75 61 74 75 61 74 75 61 74 75 61 74 75 61 74 75 61 74 74 62 72 72 62 71 72 65 72 74 67 74 77 70 77 81 74 81 84 77 84 86 79 86 88 81 88 94 87 94 96 89 96 98 91 98 101 94 101 105 98 105 108 101 108 110 103 110 112 105 113 103 97 111 100 93 109 96 89 105 90 83 99 84 77 93 78 71 87 74 67 83 72 65 81 100 93 109 100 93 109 100 93 109 100 93 109 100 93 109 100 93 109 100 93 109 98 94 109 98 96 109 97 97 109 97 97 109 97 97 109 97 97 109 97 97 109 97 97 109 97 97 109 101 101 113 101 101 113 101 101 113 101 101 113 101 101 113 101 101 113 101 101 113 103 100 111 112 102 110 112 99 106 110 97 104 107 94 101 103 90 97 100 87 94 98 85 92 96 83 90 100 87 94 98 85 92 96 83 90 93 80 87 89 76 83 86 73 80 84 71 78 84 69 76 88 67 76 89 66 76 89 66 76 89 66 76 89 66 76 89 66 76 89 66 76 89 66 76 86 63 73 88 65 75 90 67 77 93 70 80 97 74 84 100 77 87 102 79 89 103 82 91 107 91 101 105 92 101 108 91 101 108 91 101 111 89 101 112 88 101 114 88 101 117 86 101 118 84 100 119 80 98 119 78 96 117 74 93 116 69 89 113 66 86 114 62 84 110 61 82 114 69 92 110 68 90 105 63 85 95 57 78 89 51 72 79 46 65 73 42 60 68 41 58 48 25 41 47 29 43
77 67 68 73 63 64 70 60 61 68 58 59 69 54 59 71 50 59 74 48 61 74 48 61 74 48 61 74 48 61 74 48 61 74 48 61 74 48 61 70 44 57 70 44 57 70 44 57 70 44 57 70 44 57 70 44 57 70 44 57 68 44 57 52 32 41 50 33 41 50 33 41 50 33 41 50 33 41 50 33 41 50 33 41 50 33 41 57 40 48 57 40 48 57 40 48 57 40 48 57 40 48 57 40 48 57 40 48 54 41 50 78 67 83 75 68 84 75 68 84 75 68 84 75 68 84 75 68 84 75 68 84 75 68 84 47 40 56 47 40 56 47 40 56 47 40 56 47 40 56 47 40 56 47 40 56 45 41 55 58 56 69 60 60 70 65 65 75 72 72 82 79 79 89 86 86 96 92 92 102 95 95 105 98 98 108 94 94 104 86 86 96 76 76 86 65 65 75 55 55 65 47 47 57 44 43 51 49 43 47 53 44 47 58 49 52 65 56 59 71 62 65 78 69 72 83 74 77 85 76 79 104 95 98 103 94 97 100 91 94 97 88 91 94 85 88 90 81 84 88 79 82 87 78 83 58 45 55 58 44 57 58 44 57 58 44 57 58 44 57 58 44 57 58 44 57 58 44 57 80 66 79 80 66 79 80 66 79 80 66 79 80 66 79 80 66 79 80 66 79 79 67 77 75 65 74 74 67 74 76 69 76 80 73 80 83 76 83 86 79 86 89 82 89 90 83 90 97 90 97 98 91 98 100 93 100 104 97 104 107 100 107 110 103 110 113 106 113 114 107 115 104 98 112 101 94 110 95 88 104 88 81 97 81 74 90 74 67 83 69 62 78 66 59 75 100 93 109 100 93 109 100 93 109 100 93 109 100 93 109 100 93 109 100 93 109 98 94 109 98 96 109 97 97 109 97 97 109 97 97 109 97 97 109 97 97 109 97 97 109 97 97 109 101 101 113 101 101 113 101 101 113 101 101 113 101 101 113 101 101 113 101 101 113 103 100 111 112 102 110 112 99 106 110 97 104 107 94 101 103 90 97 100 87 94 98 85 92 96 83 90 102 89 96 101 88 95 98 85 92 95 82 89 92 79 86 88 75 82 86 73 80 87 72 79 88 67 76 89 66 76 89 66 76 89 66 76 89 66 76 89 66 76 89 66 76 89 66 76 84 61 71 85 62 72 88 65 75 91 68 78 94 71 81 98 75 85 100 77 87 100 79 88 107 91 101 105 92 101 108 91 101 108 91 101 111 89 101 112 88 101 114 88 101 117 86 101 118 84 100 119 80 98 119 78 96 117 74 93 116 69 89 113 66 86 114 62 84 110 61 82 114 69 92 110 68 90 105 63 85 95 57 78 89 51 72 79 46 65 73 42 60 68 41 58 48 25 41 47 29 43
77 67 68 73 63 64 70 60 61 68 58 59 69 54 59 71 50 59 74 48 61 74 48 61 74 48 61 74 48 61 74 48 61 74 48 61 74 48 61 70 44 57 70 44 57 70 44 57 70 44 57 70 44 57 70 44 57 70 44 57 68 44 57 52 32 41 50 33 41 50 33 41 50 33 41 50 33 41 50 33 41 50 33 41 50 33 41 59 42 50 59 42 50 59 42 50 59 42 50 59 42 50 59 42 50 59 42 50 56 43 52 80 69 85 77 70 86 77 70 86 77 70 86 77 70 86 77 70 86 77 70 86 77 70 86 47 40 56 47 40 56 47 40 56 47 40 56 47 40 56 47 40 56 47 40 56 45 41 55 59 57 70 61 61 71 67 67 77 74 74 84 82 82 92 90 90 100 96 96 106 99 99 109 101 101 111 97 97 107 88 88 98 77 77 87 66 66 76 55 55 65 47 47 57 43 42 50 49 43 47 53 44 47 58 49 52 65 56 59 71 62 65 78 69 72 83 74 77 85 76 79 105 96 99 104 95 98 102 93 96 98 89 92 95 86 89 92 83 86 89 80 83 88 79 84 58 45 55 58 44 57 58 44 57 58 44 57 58 44 57 58 44 57 58 44 57 58 44 57 82 68 81 82 68 81 82 68 81 82 68 81 82 68 81 82 68 81 82 68 81 81 69 79 76 66 75 75 68 75 78 71 78 81 74 81 84 77 84 88 81 88 90 83 90 91 84 91 98 91 98 99 92 99 102 95 102 105 98 105 108 101 108 112 105 112 114 107 114 115 108 116 104 98 112 101 94 110 95 88 104 87 80 96 79 72 88 72 65 81 66 59 75 63 56 72 100 93 109 100 93 109 100 93 109 100 93 109 100 93 109 100 93 109 100 93 109 98 94 109 98 96 109 97 97 109 97 97 109 97 97 109 97 97 109 97 97 109 97 97 109 97 97 109 101 101 113 101 101 113 101 101 113 101 101 113 101 101 113 101 101 113 101 101 113 103 100 111 112 102 110 112 99 106 110 97 104 107 94 101 103 90 97 100 87 94 98 85 92 96 83 90 103 90 97 102 89 96 100 87 94 96 83 90 93 80 87 90 77 84 87 74 81 88 73 80 88 67 76 89 66 76 89 66 76 89 66 76 89 66 76 89 66 76 89 66 76 89 66 76 83 60 70 84 61 71 86 63 73 90 67 77 93 70 80 96 73 83 99 76 86 99 78 87 107 91 101 105 92 101 108 91 101 108 91 101 111 89 101 112 88 101 114 88 101 117 86 101 118 84 100 119 80 98 119 78 96 117 74 93 116 69 89 113 66 86 114 62 84 110 61 82 114 69 92 110 68 90 105 63 85 95 57 78 89 51 72 79 46 65 73 42 60 68 41 58 48 25 41 47 29 43
86 76 77 82 72 73 79 69 70 77 67 68 78 63 68 75 54 63 78 52 65 78 52 65 78 52 65 78 52 65 78 52 65 78 52 65 78 52 65 79 53 66 77 51 64 75 49 62 72 46 59 68 42 55 65 39 52 63 37 50 59 35 48 61 41 50 59 42 50 58 41 49 57 40 48 55 38 46 54 37 45 53 36 44 53 36 44 52 35 43 53 36 44 56 39 47 59 42 50 62 45 53 66 49 57 68 51 59 66 53 62 74 63 79 69 62 78 67 60 76 64 57 73 60 53 69 57 50 66 55 48 64 53 46 62 48 41 57 49 42 58 50 43 59 52 45 61 54 47 63 56 49 65 58 51 67 57 53 67 79 77 90 80 80 90 82 82 92 85 85 95 89 89 99 92 92 102 94 94 104 96 96 106 91 91 101 94 94 104 97 97 107 96 96 106 89 89 99 77 77 87 64 64 74 57 56 64 36 30 34 41 32 35 47 38 41 55 46 49 63 54 57 70 61 64 76 67 70 79 70 73 107 98 101 104 95 98 98 89 92 90 81 84 82 73 76 75 66 69 69 60 63 66 57 62 59 46 56 59 45 58 59 45 58 59 45 58 59 45 58 59 45 58 59 45 58 59 45 58 87 73 86 87 73 86 87 73 86 87 73 86 87 73 86 87 73 86 87 73 86 86 74 84 79 69 78 78 71 78 80 73 80 84 77 84 87 80 87 90 83 90 93 86 93 94 87 94 105 98 105 105 98 105 105 98 105 105 98 105 105 98 105 105 98 105 105 98 105 105 98 106 105 99 113 97 90 106 84 77 93 72 65 81 65 58 74 64 57 73 67 60 76 70 63 79 84 77 93 86 79 95 88 81 97 91 84 100 95 88 104 98 91 107 100 93 109 100 96 111 100 98 111 99 99 111 99 99 111 99 99 111 99 99 111 99 99 111 99 99 111 99 99 111 101 101 113 101 101 113 101 101 113 101 101 113 101 101 113 101 101 113 101 101 113 103 100 111 109 99 107 110 97 104 108 95 102 104 91 98 101 88 95 98 85 92 95 82 89 94 81 88 96 83 90 97 84 91 100 87 94 103 90 97 106 93 100 110 97 104 112 99 106 115 100 107 106 85 94 107 84 94 107 84 94 107 84 94 107 84 94 107 84 94 107 84 94 107 84 94 92 69 79 92 69 79 92 69 79 92 69 79 92 69 79 92 69 79 92 69 79 91 70 79 106 90 100 104 91 100 107 90 100 107 90 100 110 88 100 111 87 100 113 87 100 116 85 100 107 73 89 110 71 89 112 71 89 113 70 89 116 69 89 116 69 89 119 67 89 117 68 89 111 66 89 107 65 87 102 60 82 92 54 75 86 48 69 76 43 62 70 39 57 65 38 55 50 27 43 49 31 45
86 76 77 82 72 73 79 69 70 77 67 68 78 63 68 75 54 63 78 52 65 78 52 65 78 52 65 78 52 65 78 52 65 78 52 65 78 52 65 79 53 66 77 51 64 75 49 62 72 46 59 68 42 55 65 39 52 63 37 50 59 35 48 60 40 49 57 40 48 57 40 48 56 39 47 56 39 47 55 38 46 55 38 46 54 37 45 55 38 46 56 39 47 58 41 49 62 45 53 65 48 56 68 51 59 71 54 62 69 56 65 74 63 79 69 62 78 67 60 76 64 57 73 60 53 69 57 50 66 55 48 64 53 46 62 48 41 57 49 42 58 51 44 60 53 46 62 56 49 65 59 52 68 61 54 70 60 56 70 79 77 90 80 80 90 82 82 92 85 85 95 89 89 99 92 92 102 94 94 104 96 96 106 91 91 101 94 94 104 97 97 107 96 96 106 89 89 99 77 77 87 64 64 74 57 56 64 36 30 34 41 32 35 47 38 41 54 45 48 61 52 55 68 59 62 73 64 67 76 67 70 103 94 97 100 91 94 94 85 88 87 78 81 80 71 74 73 64 67 68 59 62 65 56 61 59 46 56 59 45 58 59 45 58 59 45 58 59 45 58 59 45 58 59 45 58 59 45 58 85 71 84 85 71 84 85 71 84 85 71 84 85 71 84 85 71 84 85 71 84 84 72 82 80 70 79 79 72 79 82 75 82 85 78 85 88 81 88 92 85 92 94 87 94 95 88 95 105 98 105 105 98 105 105 98 105 105 98 105 105 98 105 105 98 105 105 98 105 105 98 106 105 99 113 97 90 106 84 77 93 72 65 81 65 58 74 64 57 73 67 60 76 70 63 79 84 77 93 86 79 95 88 81 97 91 84 100 95 88 104 98 91 107 100 93 109 100 96 111 100 98 111 99 99 111 99 99 111 99 99 111 99 99 111 99 99 111 99 99 111 99 99 111 101 101 113 101 101 113 101 101 113 101 101 113 101 101 113 101 101 113 101 101 113 103 100 111 104 94 102 104 91 98 102 89 96 99 86 93 95 82 89 92 79 86 90 77 84 88 75 82 95 82 89 96 83 90 98 85 92 102 89 96 105 92 99 108 95 102 111 98 105 114 99 106 108 87 96 109 86 96 109 86 96 109 86 96 109 86 96 109 86 96 109 86 96 109 86 96 94 71 81 94 71 81 94 71 81 94 71 81 94 71 81 94 71 81 94 71 81 93 72 81 106 90 100 104 91 100 107 90 100 107 90 100 110 88 100 111 87 100 113 87 100 116 85 100 107 73 89 110 71 89 112 71 89 113 70 89 116 69 89 116 69 89 119 67 89 117 68 89 111 66 89 107 65 87 102 60 82 92 54 75 86 48 69 76 43 62 70 39 57 65 38 55 50 27 43 49 31 45
86 76 77 82 72 73 79 69 70 77 67 68 78 63 68 75 54 63 78 52 65 78 52 65 78 52 65 78 52 65 78 52 65 78 52 65 78 52 65 79 53 66 77 51 64 75 49 62 72 46 59 68 42 55 65 39 52 63 37 50 59 35 48 56 36 45 54 37 45 55 38 46 56 39 47 56 39 47 57 40 48 58 41 49 58 41 49 60 43 51 61 44 52 63 46 54 66 49 57 70 53 61 73 56 64 76 59 67 74 61 70 74 63 79 69 62 78 67 60 76 64 57 73 60 53 69 57 50 66 55 48 64 53 46 62 47 40 56 48 41 57 51 44 60 55 48 64 59 52 68 63 56 72 66 59 75 66 62 76 79 77 90 80 80 90 82 82 92 85 85 95 89 89 99 92 92 102 94 94 104 96 96 106 91 91 101 94 94 104 97 97 107 96 96 106 89 89 99 77 77 87 64 64 74 57 56 64 37 31 35 42 33 36 46 37 40 52 43 46 58 49 52 64 55 58 68 59 62 70 61 64 94 85 88 92 83 86 88 79 82 82 73 76 76 67 70 70 61 64 66 57 60 63 54 59 59 46 56 59 45 58 59 45 58 59 45 58 59 45 58 59 45 58 59 45 58 59 45 58 83 69 82 83 69 82 83 69 82 83 69 82 83 69 82 83 69 82 83 69 82 82 70 80 82 72 81 82 75 82 84 77 84 87 80 87 91 84 91 94 87 94 96 89 96 98 91 98 105 98 105 105 98 105 105 98 105 105 98 105 105 98 105 105 98 105 105 98 105 105 98 106 105 99 113 97 90 106 84 77 93 72 65 81 65 58 74 64 57 73 67 60 76 70 63 79 84 77 93 86 79 95 88 81 97 91 84 100 95 88 104 98 91 107 100 93 109 100 96 111 100 98 111 99 99 111 99 99 111 99 99 111 99 99 111 99 99 111 99 99 111 99 99 111 101 101 113 101 101 113 101 101 113 101 101 113 101 101 113 101 101 113 101 101 113 103 100 111 96 86 94 96 83 90 94 81 88 91 78 85 87 74 81 84 71 78 82 69 76 80 67 74 92 79 86 94 81 88 96 83 90 99 86 93 103 90 97 106 93 100 108 95 102 112 97 104 110 89 98 111 88 98 111 88 98 111 88 98 111 88 98 111 88 98 111 88 98 111 88 98 96 73 83 96 73 83 96 73 83 96 73 83 96 73 83 96 73 83 96 73 83 95 74 83 106 90 100 104 91 100 107 90 100 107 90 100 110 88 100 111 87 100 113 87 100 116 85 100 107 73 89 110 71 89 112 71 89 113 70 89 116 69 89 116 69 89 119 67 89 117 68 89 111 66 89 107 65 87 102 60 82 92 54 75 86 48 69 76 43 62 70 39 57 65 38 55 50 27 43 49 31 45
86 76 77 82 72 73 79 69 70 77 67 68 78 63 68 75 54 63 78 52 65 78 52 65 78 52 65 78 52 65 78 52 65 78 52 65 78 52 65 79 53 66 77 51 64 75 49 62 72 46 59 68 42 55 65 39 52 63 37 50 59 35 48 52 32 41 51 34 42 52 35 43 55 38 46 57 40 48 60 43 51 61 44 52 62 45 53 66 49 57 67 50 58 70 53 61 73 56 64 76 59 67 79 62 70 82 65 73 80 67 76 74 63 79 69 62 78 67 60 76 64 57 73 60 53 69 57 50 66 55 48 64 53 46 62 45 38 54 48 41 57 52 45 61 57 50 66 63 56 72 69 62 78 73 66 82 73 69 83 79 77 90 80 80 90 82 82 92 85 85 95 89 89 99 92 92 102 94 94 104 96 96 106 91 91 101 94 94 104 97 97 107 96 96 106 89 89 99 77 77 87 64 64 74 57 56 64 39 33 37 42 33 36 45 36 39 50 41 44 54 45 48 58 49 52 61 52 55 63 54 57 83 74 77 82 73 76 79 70 73 75 66 69 70 61 64 66 57 60 63 54 57 61 52 57 59 46 56 59 45 58 59 45 58 59 45 58 59 45 58 59 45 58 59 45 58 59 45 58 80 66 79 80 66 79 80 66 79 80 66 79 80 66 79 80 66 79 80 66 79 79 67 77 86 76 85 85 78 85 87 80 87 91 84 91 94 87 94 97 90 97 100 93 100 101 94 101 105 98 105 105 98 105 105 98 105 105 98 105 105 98 105 105 98 105 105 98 105 105 98 106 105 99 113 97 90 106 84 77 93 72 65 81 65 58 74 64 57 73 67 60 76 70 63 79 84 77 93 86 79 95 88 81 97 91 84 100 95 88 104 98 91 107 100 93 109 100 96 111 100 98 111 99 99 111 99 99 111 99 99 111 99 99 111 99 99 111 99 99 111 99 99 111 101 101 113 101 101 113 101 101 113 101 101 113 101 101 113 101 101 113 101 101 113 103 100 111 90 80 88 91 78 85 88 75 82 85 72 79 82 69 76 78 65 72 76 63 70 75 62 69 89 76 83 90 77 84 93 80 87 96 83 90 99 86 93 103 90 97 105 92 99 108 93 100 113 92 101 114 91 101 114 91 101 114 91 101 114 91 101 114 91 101 114 91 101 114 91 101 99 76 86 99 76 86 99 76 86 99 76 86 99 76 86 99 76 86 99 76 86 98 77 86 106 90 100 104 91 100 107 90 100 107 90 100 110 88 100 111 87 100 113 87 100 116 85 100 107 73 89 110 71 89 112 71 89 113 70 89 116 69 89 116 69 89 119 67 89 117 68 89 111 66 89 107 65 87 102 60 82 92 54 75 86 48 69 76 43 62 70 39 57 65 38 55 50 27 43 49 31 45
86 76 77 82 72 73 79 69 70 77 67 68 78 63 68 75 54 63 78 52 65 78 52 65 78 52 65 78 52 65 78 52 65 78 52 65 78 52 65 79 53 66 77 51 64 75 49 62 72 46 59 68 42 55 65 39 52 63 37 50 59 35 48 47 27 36 47 30 38 50 33 41 54 37 45 58 41 49 62 45 53 65 48 56 67 50 58 73 56 64 74 57 65 77 60 68 80 63 71 83 66 74 86 69 77 89 72 80 87 74 83 74 63 79 69 62 78 67 60 76 64 57 73 60 53 69 57 50 66 55 48 64 53 46 62 44 37 53 47 40 56 53 46 62 60 53 69 68 61 77 75 68 84 80 73 89 81 77 91 79 77 90 80 80 90 82 82 92 85 85 95 89 89 99 92 92 102 94 94 104 96 96 106 91 91 101 94 94 104 97 97 107 96 96 106 89 89 99 77 77 87 64 64 74 57 56 64 40 34 38 43 34 37 45 36 39 47 38 41 50 41 44 52 43 46 54 45 48 55 46 49 72 63 66 71 62 65 69 60 63 67 58 61 64 55 58 62 53 56 60 51 54 59 50 55 59 46 56 59 45 58 59 45 58 59 45 58 59 45 58 59 45 58 59 45 58 59 45 58 76 62 75 76 62 75 76 62 75 76 62 75 76 62 75 76 62 75 76 62 75 75 63 73 89 79 88 88 81 88 91 84 91 94 87 94 97 90 97 101 94 101 103 96 103 104 97 104 105 98 105 105 98 105 105 98 105 105 98 105 105 98 105 105 98 105 105 98 105 105 98 106 105 99 113 97 90 106 84 77 93 72 65 81 65 58 74 64 57 73 67 60 76 70 63 79 84 77 93 86 79 95 88 81 97 91 84 100 95 88 104 98 91 107 100 93 109 100 96 111 100 98 111 99 99 111 99 99 111 99 99 111 99 99 111 99 99 111 99 99 111 99 99 111 101 101 113 101 101 113 101 101 113 101 101 113 101 101 113 101 101 113 101 101 113 103 100 111 90 80 88 91 78 85 88 75 82 85 72 79 82 69 76 78 65 72 76 63 70 75 62 69 86 73 80 87 74 81 89 76 83 93 80 87 96 83 90 99 86 93 102 89 96 105 90 97 117 96 105 118 95 105 118 95 105 118 95 105 118 95 105 118 95 105 118 95 105 118 95 105 103 80 90 103 80 90 103 80 90 103 80 90 103 80 90 103 80 90 103 80 90 102 81 90 106 90 100 104 91 100 107 90 100 107 90 100 110 88 100 111 87 100 113 87 100 116 85 100 107 73 89 110 71 89 112 71 89 113 70 89 116 69 89 116 69 89 119 67 89 117 68 89 111 66 89 107 65 87 102 60 82 92 54 75 86 48 69 76 43 62 70 39 57 65 38 55 50 27 43 49 31 45
86 76 77 82 72 73 79 69 70 77 67 68 78 63 68 75 54 63 78 52 65 78 52 65 78 52 65 78 52 65 78 52 65 78 52 65 78 52 65 79 53 66 77 51 64 75 49 62 72 46 59 68 42 55 65 39 52 63 37 50 59 35 48 43 23 32 43 26 34 47 30 38 53 36 44 59 42 50 65 48 56 69 52 60 71 54 62 79 62 70 80 63 71 83 66 74 86 69 77 90 73 81 93 76 84 95 78 86 93 80 89 74 63 79 69 62 78 67 60 76 64 57 73 60 53 69 57 50 66 55 48 64 53 46 62 43 36 52 46 39 55 53 46 62 62 55 71 72 65 81 81 74 90 87 80 96 89 85 99 79 77 90 80 80 90 82 82 92 85 85 95 89 89 99 92 92 102 94 94 104 96 96 106 91 91 101 94 94 104 97 97 107 96 96 106 89 89 99 77 77 87 64 64 74 57 56 64 41 35 39 44 35 38 44 35 38 45 36 39 45 36 39 46 37 40 47 38 41 47 38 41 61 52 55 61 52 55 60 51 54 60 51 54 59 50 53 58 49 52 58 49 52 57 48 53 59 46 56 59 45 58 59 45 58 59 45 58 59 45 58 59 45 58 59 45 58 59 45 58 73 59 72 73 59 72 73 59 72 73 59 72 73 59 72 73 59 72 73 59 72 72 60 70 92 82 91 92 85 92 94 87 94 97 90 97 101 94 101 104 97 104 106 99 106 108 101 108 105 98 105 105 98 105 105 98 105 105 98 105 105 98 105 105 98 105 105 98 105 105 98 106 105 99 113 97 90 106 84 77 93 72 65 81 65 58 74 64 57 73 67 60 76 70 63 79 84 77 93 86 79 95 88 81 97 91 84 100 95 88 104 98 91 107 100 93 109 100 96 111 100 98 111 99 99 111 99 99 111 99 99 111 99 99 111 99 99 111 99 99 111 99 99 111 101 101 113 101 101 113 101 101 113 101 101 113 101 101 113 101 101 113 101 101 113 103 100 111 96 86 94 96 83 90 94 81 88 91 78 85 87 74 81 84 71 78 82 69 76 80 67 74 82 69 76 84 71 78 86 73 80 89 76 83 93 80 87 96 83 90 98 85 92 102 87 94 120 99 108 121 98 108 121 98 108 121 98 108 121 98 108 121 98 108 121 98 108 121 98 108 106 83 93 106 83 93 106 83 93 106 83 93 106 83 93 106 83 93 106 83 93 105 84 93 106 90 100 104 91 100 107 90 100 107 90 100 110 88 100 111 87 100 113 87 100 116 85 100 107 73 89 110 71 89 112 71 89 113 70 89 116 69 89 116 69 89 119 67 89 117 68 89 111 66 89 107 65 87 102 60 82 92 54 75 86 48 69 76 43 62 70 39 57 65 38 55 50 27 43 49 31 45
86 76 77 82 72 73 79 69 70 77 67 68 78 63 68 75 54 63 78 52 65 78 52 65 78 52 65 78 52 65 78 52 65 78 52 65 78 52 65 79 53 66 77 51 64 75 49 62 72 46 59 68 42 55 65 39 52 63 37 50 59 35 48 39 19 28 40 23 31 45 28 36 52 35 43 60 43 51 67 50 58 72 55 63 75 58 66 84 67 75 85 68 76 88 71 79 91 74 82 94 77 85 98 81 89 100 83 91 98 85 94 74 63 79 69 62 78 67 60 76 64 57 73 60 53 69 57 50 66 55 48 64 53 46 62 42 35 51 46 39 55 54 47 63 64 57 73 75 68 84 85 78 94 93 86 102 95 91 105 79 77 90 80 80 90 82 82 92 85 85 95 89 89 99 92 92 102 94 94 104 96 96 106 91 91 101 94 94 104 97 97 107 96 96 106 89 89 99 77 77 87 64 64 74 57 56 64 42 36 40 44 35 38 44 35 38 43 34 37 42 33 36 42 33 36 41 32 35 41 32 35 53 44 47 53 44 47 53 44 47 54 45 48 55 46 49 55 46 49 56 47 50 56 47 52 59 46 56 59 45 58 59 45 58 59 45 58 59 45 58 59 45 58 59 45 58 59 45 58 71 57 70 71 57 70 71 57 70 71 57 70 71 57 70 71 57 70 71 57 70 70 58 68 95 85 94 94 87 94 96 89 96 100 93 100 103 96 103 106 99 106 109 102 109 110 103 110 105 98 105 105 98 105 105 98 105 105 98 105 105 98 105 105 98 105 105 98 105 105 98 106 105 99 113 97 90 106 84 77 93 72 65 81 65 58 74 64 57 73 67 60 76 70 63 79 84 77 93 86 79 95 88 81 97 91 84 100 95 88 104 98 91 107 100 93 109 100 96 111 100 98 111 99 99 111 99 99 111 99 99 111 99 99 111 99 99 111 99 99 111 99 99 111 101 101 113 101 101 113 101 101 113 101 101 113 101 101 113 101 101 113 101 101 113 103 100 111 104 94 102 104 91 98 102 89 96 99 86 93 95 82 89 92 79 86 90 77 84 88 75 82 80 67 74 81 68 75 84 71 78 87 74 81 90 77 84 94 81 88 96 83 90 99 84 91 122 101 110 123 100 110 123 100 110 123 100 110 123 100 110 123 100 110 123 100 110 123 100 110 108 85 95 108 85 95 108 85 95 108 85 95 108 85 95 108 85 95 108 85 95 107 86 95 106 90 100 104 91 100 107 90 100 107 90 100 110 88 100 111 87 100 113 87 100 116 85 100 107 73 89 110 71 89 112 71 89 113 70 89 116 69 89 116 69 89 119 67 89 117 68 89 111 66 89 107 65 87 102 60 82 92 54 75 86 48 69 76 43 62 70 39 57 65 38 55 50 27 43 49 31 45
86 76 77 82 72 73 79 69 70 77 67 68 76 64 68 74 54 63 76 52 65 76 52 65 76 52 65 76 52 65 76 52 65 76 52 65 76 52 65 77 53 66 75 51 64 73 49 62 70 46 59 66 42 55 63 39 52 61 37 50 58 36 48 37 17 26 38 21 29 44 27 35 52 35 43 60 43 51 68 51 59 74 57 65 77 60 68 87 70 78 88 71 79 90 73 81 94 77 85 97 80 88 100 83 91 103 86 94 103 87 97 74 63 77 70 62 77 68 60 75 65 57 72 61 53 68 58 50 65 56 48 63 54 46 61 42 34 49 47 39 54 55 47 62 66 58 73 77 69 84 88 80 95 97 89 104 100 94 108 79 77 88 80 80 90 83 81 92 85 85 95 90 88 99 92 92 102 95 93 104 96 96 106 92 90 101 94 94 104 98 96 107 96 96 106 90 88 99 77 77 87 65 63 74 57 56 64 42 37 44 41 36 42 41 34 42 39 34 40 39 32 40 36 31 37 37 30 38 35 30 36 46 39 47 46 41 47 48 41 49 48 43 49 50 43 51 51 46 52 52 45 53 53 46 54 57 47 58 57 46 60 58 46 60 57 46 60 58 46 60 57 46 60 58 46 60 57 46 60 68 56 70 67 56 70 68 56 70 67 56 70 68 56 70 67 56 70 68 56 70 67 57 68 93 88 95 92 90 95 97 92 99 98 96 101 103 98 105 105 103 108 109 104 111 108 106 111 104 99 106 102 100 105 104 99 106 102 100 105 104 99 106 102 100 105 104 99 106 104 99 106 106 98 113 100 89 105 87 76 93 75 64 80 68 57 74 67 56 72 70 59 76 73 62 78 87 76 93 89 78 94 91 80 97 94 83 99 98 87 104 101 90 106 103 92 109 103 95 110 101 98 109 100 99 107 100 98 109 100 99 107 100 98 109 100 99 107 100 98 109 100 99 107 102 100 111 102 101 109 102 100 111 102 101 109 102 100 111 102 101 109 102 100 111 105 100 107 110 99 107 110 98 102 110 95 102 104 92 96 103 88 95 98 86 90 97 82 89 94 82 86 81 66 73 80 68 72 84 69 76 86 74 78 91 76 83 92 80 84 97 82 89 98 83 90 123 103 112 124 103 112 124 103 112 124 103 112 124 103 112 124 103 112 124 103 112 124 103 112 109 88 97 109 88 97 109 88 97 109 88 97 109 88 97 109 88 97 109 88 97 109 88 97 109 89 100 107 89 101 109 89 101 110 88 101 111 87 101 113 86 101 114 86 101 116 85 101 107 73 90 109 72 90 110 71 90 112 70 90 113 70 90 113 70 90 114 69 90 113 70 90 107 68 89 102 67 87 96 63 82 89 56 75 82 51 69 73 44 62 67 40 57 62 39 55 49 28 43 49 31 45
93 84 85 93 84 85 93 84 85 93 84 85 94 83 87 83 66 74 83 63 72 81 61 70 78 58 67 74 54 63 71 51 60 69 49 58 67 47 56 74 54 63 72 52 61 70 50 59 67 47 56 63 43 52 60 40 49 58 38 47 56 36 45 56 36 45 58 38 47 63 43 52 70 50 59 76 56 65 83 63 72 88 68 77 90 70 79 105 85 94 105 85 94 105 85 94 105 85 94 105 85 94 105 85 94 105 85 94 103 86 96 86 74 84 84 74 83 82 72 81 78 68 77 75 65 74 72 62 71 69 59 68 68 58 67 61 51 60 64 54 63 70 60 69 77 67 76 85 75 84 93 83 92 99 89 98 100 92 103 93 90 101 92 90 101 93 90 101 92 90 101 93 90 101 92 90 101 93 90 101 92 90 101 105 102 113 101 99 110 96 93 104 87 85 96 80 77 88 71 69 80 66 63 74 62 60 73 38 36 50 37 36 50 38 35 52 37 36 50 38 35 52 37 36 50 38 35 52 37 36 50 44 41 58 43 42 56 44 41 58 43 42 56 44 41 58 43 42 56 44 41 58 44 42 56 48 44 59 48 44 59 50 43 59 48 44 59 50 43 59 48 44 59 50 43 59 48 44 59 56 49 65 57 53 68 64 57 73 68 64 79 77 70 86 81 77 92 88 81 97 89 85 99 97 97 105 95 98 103 97 97 105 95 98 103 97 97 105 95 98 103 97 97 105 95 98 103 108 108 116 105 108 113 105 105 113 99 102 107 98 98 106 93 96 101 92 92 100 93 90 99 86 74 88 87 70 86 84 67 85 79 62 78 75 58 76 70 53 69 67 50 68 65 48 64 88 71 89 90 73 89 92 75 93 95 78 94 99 82 100 102 85 101 104 87 105 104 90 103 105 98 106 104 99 103 104 99 105 104 99 103 104 99 105 104 99 103 104 99 105 104 99 103 108 103 109 106 101 105 104 99 105 101 96 100 97 92 98 94 89 93 92 87 93 91 85 89 106 94 98 108 93 96 109 92 98 108 93 96 109 92 98 108 93 96 109 92 98 108 93 96 90 73 79 89 74 77 90 73 79 89 74 77 90 73 79 89 74 77 90 73 79 90 73 79 112 95 103 114 94 103 114 94 103 114 94 103 114 94 103 114 94 103 114 94 103 114 94 103 103 83 92 105 85 94 107 87 96 110 90 99 114 94 103 117 97 106 119 99 108 122 100 112 116 92 106 116 89 106 114 87 104 112 83 101 108 79 97 105 76 94 105 74 92 103 72 90 107 74 93 107 74 93 107 74 93 108 73 93 108 73 93 108 73 93 108 73 93 107 74 93 98 74 90 88 68 80 75 55 67 63 43 55 56 36 48 53 35 47 56 38 50 58 42 53 58 42 53 58 42 53
93 84 85 93 84 85 93 84 85 93 84 85 94 84 85 82 67 74 81 64 72 79 62 70 76 59 67 72 55 63 69 52 60 67 50 58 65 48 56 72 55 63 70 53 61 68 51 59 65 48 56 61 44 52 58 41 49 56 39 47 54 37 45 56 36 45 58 38 47 63 43 52 70 50 59 76 56 65 83 63 72 88 68 77 90 70 79 105 85 94 105 85 94 105 85 94 105 85 94 105 85 94 105 85 94 105 85 94 103 86 94 86 73 82 84 73 81 81 70 78 78 67 75 75 64 72 71 60 68 69 58 66 68 57 65 61 50 58 64 53 61 69 58 66 76 65 73 83 72 80 90 79 87 96 85 93 98 88 97 97 91 101 95 92 103 95 92 103 95 92 103 95 92 103 95 92 103 95 92 103 95 92 103 99 96 107 96 93 104 91 88 99 84 81 92 76 73 84 69 66 77 64 61 72 60 58 71 37 36 54 35 36 56 35 36 56 35 36 56 35 36 56 35 36 56 35 36 56 35 36 56 41 42 62 41 42 62 41 42 62 41 42 62 41 42 62 41 42 62 41 42 62 41 42 60 47 44 63 47 44 61 47 44 61 47 44 61 47 44 61 47 44 61 47 44 61 47 44 61 54 51 68 57 54 71 62 59 76 68 65 82 75 72 89 81 78 95 86 83 100 88 87 101 95 98 107 94 99 105 95 98 105 94 99 105 95 98 105 94 99 105 95 98 105 94 99 105 105 108 115 103 108 114 101 104 111 97 102 108 95 98 105 90 95 101 89 92 99 91 90 98 85 71 86 89 68 85 86 65 82 82 61 78 78 57 74 74 53 70 71 50 67 70 49 66 91 70 87 93 72 89 95 74 91 98 77 94 102 81 98 105 84 101 107 86 103 106 90 103 108 97 103 105 99 101 105 99 101 105 99 101 105 99 101 105 99 101 105 99 101 105 99 101 109 103 105 107 101 103 105 99 101 102 96 98 98 92 94 95 89 91 93 87 89 93 84 87 106 91 94 107 91 94 107 91 94 107 91 94 107 91 94 107 91 94 107 91 94 107 91 94 92 76 79 92 76 79 92 76 79 92 76 79 92 76 79 92 76 79 92 76 79 92 76 79 110 93 101 110 93 101 110 93 101 110 93 101 110 93 101 110 93 101 110 93 101 110 93 101 101 84 92 103 86 94 105 88 96 108 91 99 112 95 103 115 98 106 117 100 108 121 101 112 119 90 108 119 87 108 117 85 106 114 82 103 110 78 99 107 75 96 105 73 94 103 71 92 106 74 95 106 74 95 106 74 95 106 74 95 106 74 95 106 74 95 106 74 95 103 76 93 94 76 90 83 70 80 70 57 67 58 45 55 51 38 48 50 37 47 53 40 50 56 43 53 56 43 53 56 43 53
93 84 85 93 84 85 93 84 85 93 84 85 94 84 85 82 67 74 81 64 72 79 62 70 76 59 67 72 55 63 69 52 60 67 50 58 65 48 56 72 55 63 70 53 61 68 51 59 65 48 56 61 44 52 58 41 49 56 39 47 54 37 45 56 36 45 58 38 47 63 43 52 70 50 59 76 56 65 83 63 72 88 68 77 90 70 79 105 85 94 105 85 94 105 85 94 105 85 94 105 85 94 105 85 94 105 85 94 103 86 94 84 71 80 81 70 78 79 68 76 76 65 73 72 61 69 69 58 66 67 56 64 65 54 62 59 48 56 62 51 59 66 55 63 72 61 69 78 67 75 84 73 81 88 77 85 89 79 88 98 92 102 96 93 104 96 93 104 96 93 104 96 93 104 96 93 104 96 93 104 96 93 104 88 85 96 86 83 94 81 78 89 76 73 84 70 67 78 64 61 72 60 57 68 56 54 67 37 36 54 35 36 56 35 36 56 35 36 56 35 36 56 35 36 56 35 36 56 35 36 56 41 42 62 41 42 62 41 42 62 41 42 62 41 42 62 41 42 62 41 42 62 41 42 60 47 44 63 47 44 61 47 44 61 47 44 61 47 44 61 47 44 61 47 44 61 47 44 61 57 54 71 59 56 73 64 61 78 71 68 85 78 75 92 84 81 98 89 86 103 91 89 103 97 97 107 95 98 105 97 97 105 95 98 105 97 97 105 95 98 105 97 97 105 95 98 105 105 105 113 101 104 111 101 101 109 96 99 106 94 94 102 89 92 99 89 89 97 89 86 95 82 68 83 86 65 82 84 63 80 81 60 77 79 58 75 76 55 72 74 53 70 73 52 69 91 70 87 93 72 89 95 74 91 98 77 94 102 81 98 105 84 101 107 86 103 106 90 103 108 97 103 105 99 101 105 99 101 105 99 101 105 99 101 105 99 101 105 99 101 105 99 101 109 103 105 107 101 103 105 99 101 102 96 98 98 92 94 95 89 91 93 87 89 93 84 87 104 89 92 105 89 92 105 89 92 105 89 92 105 89 92 105 89 92 105 89 92 105 89 92 94 78 81 94 78 81 94 78 81 94 78 81 94 78 81 94 78 81 94 78 81 94 78 81 108 91 99 108 91 99 108 91 99 108 91 99 108 91 99 108 91 99 108 91 99 108 91 99 101 84 92 103 86 94 105 88 96 108 91 99 112 95 103 115 98 106 117 100 108 121 101 112 119 90 108 119 87 108 117 85 106 114 82 103 110 78 99 107 75 96 105 73 94 103 71 92 106 74 95 106 74 95 106 74 95 106 74 95 106 74 95 106 74 95 106 74 95 103 76 93 94 76 90 83 70 80 70 57 67 58 45 55 51 38 48 50 37 47 53 40 50 56 43 53 56 43 53 56 43 53
93 84 85 93 84 85 93 84 85 93 84 85 94 84 85 82 67 74 81 64 72 79 62 70 76 59 67 72 55 63 69 52 60 67 50 58 65 48 56 72 55 63 70 53 61 68 51 59 65 48 56 61 44 52 58 41 49 56 39 47 54 37 45 56 36 45 58 38 47 63 43 52 70 50 59 76 56 65 83 63 72 88 68 77 90 70 79 105 85 94 105 85 94 105 85 94 105 85 94 105 85 94 105 85 94 105 85 94 103 86 94 80 67 76 78 67 75 76 65 73 72 61 69 69 58 66 66 55 63 63 52 60 62 51 59 57 46 54 59 48 56 62 51 59 66 55 63 71 60 68 75 64 72 78 67 75 78 68 77 94 88 98 92 89 100 92 89 100 92 89 100 92 89 100 92 89 100 92 89 100 92 89 100 74 71 82 73 70 81 69 66 77 65 62 73 61 58 69 57 54 65 54 51 62 51 49 62 37 36 54 35 36 56 35 36 56 35 36 56 35 36 56 35 36 56 35 36 56 35 36 56 41 42 62 41 42 62 41 42 62 41 42 62 41 42 62 41 42 62 41 42 62 41 42 60 47 44 63 47 44 61 47 44 61 47 44 61 47 44 61 47 44 61 47 44 61 47 44 61 60 57 74 63 60 77 67 64 81 74 71 88 81 78 95 87 84 101 92 89 106 95 93 107 98 96 107 97 97 105 98 97 105 97 97 105 98 97 105 97 97 105 98 97 105 97 97 105 102 101 109 100 100 108 99 98 106 94 94 102 92 91 99 88 88 96 86 85 93 88 82 92 79 62 78 82 61 78 81 60 77 80 59 76 80 59 76 79 58 75 78 57 74 78 57 74 91 70 87 93 72 89 95 74 91 98 77 94 102 81 98 105 84 101 107 86 103 106 90 103 108 97 103 105 99 101 105 99 101 105 99 101 105 99 101 105 99 101 105 99 101 105 99 101 109 103 105 107 101 103 105 99 101 102 96 98 98 92 94 95 89 91 93 87 89 93 84 87 101 86 89 102 86 89 102 86 89 102 86 89 102 86 89 102 86 89 102 86 89 102 86 89 97 81 84 97 81 84 97 81 84 97 81 84 97 81 84 97 81 84 97 81 84 97 81 84 105 88 96 105 88 96 105 88 96 105 88 96 105 88 96 105 88 96 105 88 96 105 88 96 101 84 92 103 86 94 105 88 96 108 91 99 112 95 103 115 98 106 117 100 108 121 101 112 119 90 108 119 87 108 117 85 106 114 82 103 110 78 99 107 75 96 105 73 94 103 71 92 106 74 95 106 74 95 106 74 95 106 74 95 106 74 95 106 74 95 106 74 95 103 76 93 94 76 90 83 70 80 70 57 67 58 45 55 51 38 48 50 37 47 53 40 50 56 43 53 56 43 53 56 43 53
93 84 85 93 84 85 93 84 85 93 84 85 94 84 85 82 67 74 81 64 72 79 62 70 76 59 67 72 55 63 69 52 60 67 50 58 65 48 56 72 55 63 70 53 61 68 51 59 65 48 56 61 44 52 58 41 49 56 39 47 54 37 45 56 36 45 58 38 47 63 43 52 70 50 59 76 56 65 83 63 72 88 68 77 90 70 79 105 85 94 105 85 94 105 85 94 105 85 94 105 85 94 105 85 94 105 85 94 103 86 94 77 64 73 75 64 72 72 61 69 69 58 66 66 55 63 62 51 59 60 49 57 59 48 56 55 44 52 56 45 53 58 47 55 60 49 57 63 52 60 65 54 62 67 56 64 67 57 66 83 77 87 81 78 89 81 78 89 81 78 89 81 78 89 81 78 89 81 78 89 81 78 89 59 56 67 58 55 66 56 53 64 54 51 62 52 49 60 49 46 57 47 44 55 46 44 57 37 36 54 35 36 56 35 36 56 35 36 56 35 36 56 35 36 56 35 36 56 35 36 56 41 42 62 41 42 62 41 42 62 41 42 62 41 42 62 41 42 62 41 42 62 41 42 60 47 44 63 47 44 61 47 44 61 47 44 61 47 44 61 47 44 61 47 44 61 47 44 61 63 60 77 66 63 80 71 68 85 77 74 91 84 81 98 91 88 105 95 92 109 98 96 110 98 96 107 98 97 105 99 96 105 98 97 105 99 96 105 98 97 105 99 96 105 98 97 105 100 97 106 98 97 105 96 93 102 92 91 99 90 87 96 85 84 92 84 81 90 86 78 89 75 58 74 78 57 74 79 58 75 80 59 76 80 59 76 81 60 77 82 61 78 82 61 78 91 70 87 93 72 89 95 74 91 98 77 94 102 81 98 105 84 101 107 86 103 106 90 103 108 97 103 105 99 101 105 99 101 105 99 101 105 99 101 105 99 101 105 99 101 105 99 101 109 103 105 107 101 103 105 99 101 102 96 98 98 92 94 95 89 91 93 87 89 93 84 87 97 82 85 98 82 85 98 82 85 98 82 85 98 82 85 98 82 85 98 82 85 98 82 85 101 85 88 101 85 88 101 85 88 101 85 88 101 85 88 101 85 88 101 85 88 101 85 88 101 84 92 101 84 92 101 84 92 101 84 92 101 84 92 101 84 92 101 84 92 101 84 92 101 84 92 103 86 94 105 88 96 108 91 99 112 95 103 115 98 106 117 100 108 121 101 112 119 90 108 119 87 108 117 85 106 114 82 103 110 78 99 107 75 96 105 73 94 103 71 92 106 74 95 106 74 95 106 74 95 106 74 95 106 74 95 106 74 95 106 74 95 103 76 93 94 76 90 83 70 80 70 57 67 58 45 55 51 38 48 50 37 47 53 40 50 56 43 53 56 43 53 56 43 53
93 84 85 93 84 85 93 84 85 93 84 85 94 84 85 82 67 74 81 64 72 79 62 70 76 59 67 72 55 63 69 52 60 67 50 58 65 48 56 72 55 63 70 53 61 68 51 59 65 48 56 61 44 52 58 41 49 56 39 47 54 37 45 56 36 45 58 38 47 63 43 52 70 50 59 76 56 65 83 63 72 88 68 77 90 70 79 105 85 94 105 85 94 105 85 94 105 85 94 105 85 94 105 85 94 105 85 94 103 86 94 74 61 70 71 60 68 69 58 66 66 55 63 62 51 59 59 48 56 57 46 54 55 44 52 53 42 50 54 43 51 54 43 51 55 44 52 56 45 53 56 45 53 57 46 54 56 46 55 68 62 72 66 63 74 66 63 74 66 63 74 66 63 74 66 63 74 66 63 74 66 63 74 45 42 53 45 42 53 44 41 52 44 41 52 43 40 51 42 39 50 42 39 50 40 38 51 37 36 54 35 36 56 35 36 56 35 36 56 35 36 56 35 36 56 35 36 56 35 36 56 41 42 62 41 42 62 41 42 62 41 42 62 41 42 62 41 42 62 41 42 62 41 42 60 47 44 63 47 44 61 47 44 61 47 44 61 47 44 61 47 44 61 47 44 61 47 44 61 67 64 81 69 66 83 74 71 88 80 77 94 87 84 101 94 91 108 99 96 113 101 99 113 99 96 107 101 95 105 101 95 105 101 95 105 101 95 105 101 95 105 101 95 105 101 95 105 99 93 103 97 91 101 95 89 99 92 86 96 88 82 92 85 79 89 83 77 87 84 74 85 70 53 69 74 53 70 76 55 72 79 58 75 81 60 77 84 63 80 86 65 82 87 66 83 91 70 87 93 72 89 95 74 91 98 77 94 102 81 98 105 84 101 107 86 103 106 90 103 108 97 103 105 99 101 105 99 101 105 99 101 105 99 101 105 99 101 105 99 101 105 99 101 109 103 105 107 101 103 105 99 101 102 96 98 98 92 94 95 89 91 93 87 89 93 84 87 94 79 82 95 79 82 95 79 82 95 79 82 95 79 82 95 79 82 95 79 82 95 79 82 104 88 91 104 88 91 104 88 91 104 88 91 104 88 91 104 88 91 104 88 91 104 88 91 98 81 89 98 81 89 98 81 89 98 81 89 98 81 89 98 81 89 98 81 89 98 81 89 101 84 92 103 86 94 105 88 96 108 91 99 112 95 103 115 98 106 117 100 108 121 101 112 119 90 108 119 87 108 117 85 106 114 82 103 110 78 99 107 75 96 105 73 94 103 71 92 106 74 95 106 74 95 106 74 95 106 74 95 106 74 95 106 74 95 106 74 95 103 76 93 94 76 90 83 70 80 70 57 67 58 45 55 51 38 48 50 37 47 53 40 50 56 43 53 56 43 53 56 43 53
93 84 85 93 84 85 93 84 85 93 84 85 94 84 85 82 67 74 81 64 72 79 62 70 76 59 67 72 55 63 69 52 60 67 50 58 65 48 56 72 55 63 70 53 61 68 51 59 65 48 56 61 44 52 58 41 49 56 39 47 54 37 45 56 36 45 58 38 47 63 43 52 70 50 59 76 56 65 83 63 72 88 68 77 90 70 79 105 85 94 105 85 94 105 85 94 105 85 94 105 85 94 105 85 94 105 85 94 103 86 94 71 58 67 69 58 66 67 56 64 63 52 60 60 49 57 57 46 54 54 43 51 53 42 50 52 41 49 52 41 49 51 40 48 51 40 48 50 39 47 49 38 46 49 38 46 48 38 47 53 47 57 51 48 59 51 48 59 51 48 59 51 48 59 51 48 59 51 48 59 51 48 59 34 31 42 35 32 43 35 32 43 36 33 44 36 33 44 37 34 45 37 34 45 36 34 47 37 36 54 35 36 56 35 36 56 35 36 56 35 36 56 35 36 56 35 36 56 35 36 56 41 42 62 41 42 62 41 42 62 41 42 62 41 42 62 41 42 62 41 42 62 41 42 60 47 44 63 47 44 61 47 44 61 47 44 61 47 44 61 47 44 61 47 44 61 47 44 61 69 66 83 72 69 86 77 74 91 83 80 97 90 87 104 96 93 110 101 98 115 105 101 116 101 95 107 102 94 105 102 94 105 102 94 105 102 94 105 102 94 105 102 94 105 102 94 105 97 89 100 96 88 99 94 86 97 90 82 93 87 79 90 84 76 87 81 73 84 83 71 83 68 50 66 71 50 67 74 53 70 78 57 74 82 61 78 86 65 82 89 68 85 90 69 86 91 70 87 93 72 89 95 74 91 98 77 94 102 81 98 105 84 101 107 86 103 106 90 103 108 97 103 105 99 101 105 99 101 105 99 101 105 99 101 105 99 101 105 99 101 105 99 101 109 103 105 107 101 103 105 99 101 102 96 98 98 92 94 95 89 91 93 87 89 93 84 87 92 77 80 93 77 80 93 77 80 93 77 80 93 77 80 93 77 80 93 77 80 93 77 80 106 90 93 106 90 93 106 90 93 106 90 93 106 90 93 106 90 93 106 90 93 106 90 93 96 79 87 96 79 87 96 79 87 96 79 87 96 79 87 96 79 87 96 79 87 96 79 87 101 84 92 103 86 94 105 88 96 108 91 99 112 95 103 115 98 106 117 100 108 121 101 112 119 90 108 119 87 108 117 85 106 114 82 103 110 78 99 107 75 96 105 73 94 103 71 92 106 74 95 106 74 95 106 74 95 106 74 95 106 74 95 106 74 95 106 74 95 103 76 93 94 76 90 83 70 80 70 57 67 58 45 55 51 38 48 50 37 47 53 40 50 56 43 53 56 43 53 56 43 53
93 84 85 93 84 85 93 84 85 93 84 85 94 84 85 82 67 74 81 64 72 79 62 70 76 59 67 72 55 63 69 52 60 67 50 58 65 48 56 72 55 63 70 53 61 68 51 59 65 48 56 61 44 52 58 41 49 56 39 47 54 37 45 56 36 45 58 38 47 63 43 52 70 50 59 76 56 65 83 63 72 88 68 77 90 70 79 105 85 94 105 85 94 105 85 94 105 85 94 105 85 94 105 85 94 105 85 94 103 86 94 70 57 66 68 57 65 65 54 62 62 51 59 59 48 56 55 44 52 53 42 50 52 41 49 51 40 48 50 39 47 50 39 47 48 37 45 47 36 44 46 35 43 45 34 42 43 33 42 43 37 47 41 38 49 41 38 49 41 38 49 41 38 49 41 38 49 41 38 49 41 38 49 29 26 37 29 26 37 30 27 38 31 28 39 33 30 41 34 31 42 35 32 43 34 32 45 37 36 54 35 36 56 35 36 56 35 36 56 35 36 56 35 36 56 35 36 56 35 36 56 41 42 62 41 42 62 41 42 62 41 42 62 41 42 62 41 42 62 41 42 62 41 42 60 47 44 63 47 44 61 47 44 61 47 44 61 47 44 61 47 44 61 47 44 61 47 44 61 70 67 84 73 70 87 78 75 92 84 81 98 91 88 105 97 94 111 102 99 116 106 102 117 104 93 107 105 93 105 105 93 105 105 93 105 105 93 105 105 93 105 105 93 105 105 93 105 99 87 99 98 86 98 95 83 95 92 80 92 89 77 89 85 73 85 83 71 83 83 69 82 66 48 64 70 49 66 73 52 69 78 57 74 82 61 78 87 66 83 90 69 86 92 71 88 91 70 87 93 72 89 95 74 91 98 77 94 102 81 98 105 84 101 107 86 103 106 90 103 108 97 103 105 99 101 105 99 101 105 99 101 105 99 101 105 99 101 105 99 101 105 99 101 109 103 105 107 101 103 105 99 101 102 96 98 98 92 94 95 89 91 93 87 89 93 84 87 90 75 78 91 75 78 91 75 78 91 75 78 91 75 78 91 75 78 91 75 78 91 75 78 108 92 95 108 92 95 108 92 95 108 92 95 108 92 95 108 92 95 108 92 95 108 92 95 94 77 85 94 77 85 94 77 85 94 77 85 94 77 85 94 77 85 94 77 85 94 77 85 101 84 92 103 86 94 105 88 96 108 91 99 112 95 103 115 98 106 117 100 108 121 101 112 119 90 108 119 87 108 117 85 106 114 82 103 110 78 99 107 75 96 105 73 94 103 71 92 106 74 95 106 74 95 106 74 95 106 74 95 106 74 95 106 74 95 106 74 95 103 76 93 94 76 90 83 70 80 70 57 67 58 45 55 51 38 48 50 37 47 53 40 50 56 43 53 56 43 53 56 43 53
103 94 95 104 95 96 105 96 97 106 97 98 108 98 99 89 74 81 89 72 80 86 69 77 83 66 74 80 63 71 76 59 67 74 57 65 73 56 64 59 42 50 59 42 50 59 42 50 59 42 50 59 42 50 59 42 50 59 42 50 59 42 50 56 36 45 58 38 47 63 43 52 70 50 59 76 56 65 83 63 72 88 68 77 90 70 79 101 81 90 101 81 90 101 81 90 101 81 90 101 81 90 101 81 90 101 81 90 99 82 90 64 51 60 61 50 58 59 48 56 56 45 53 52 41 49 49 38 46 47 36 44 45 34 42 44 33 41 44 33 41 44 33 41 44 33 41 44 33 41 44 33 41 44 33 41 43 33 42 40 34 44 38 35 46 38 35 46 38 35 46 38 35 46 38 35 46 38 35 46 38 35 46 36 33 44 36 33 44 36 33 44 36 33 44 36 33 44 36 33 44 36 33 44 35 33 46 39 38 56 37 38 58 37 38 58 37 38 58 37 38 58 37 38 58 37 38 58 37 38 58 39 40 60 39 40 60 39 40 60 39 40 60 39 40 60 39 40 60 39 40 60 39 40 58 44 41 60 44 41 58 44 41 58 44 41 58 44 41 58 44 41 58 44 41 58 44 41 58 63 60 77 70 67 84 81 78 95 90 87 104 93 90 107 91 88 105 85 82 99 84 77 93 81 69 83 84 68 81 84 68 81 84 68 81 84 68 81 84 68 81 84 68 81 84 68 81 67 51 64 67 51 64 67 51 64 67 51 64 67 51 64 67 51 64 67 51 64 67 51 64 78 57 74 80 59 76 82 61 78 85 64 81 89 68 85 92 71 88 94 73 90 96 75 92 110 89 106 110 89 106 110 89 106 110 89 106 110 89 106 110 89 106 110 89 106 107 91 104 105 94 100 102 96 98 102 96 98 102 96 98 102 96 98 102 96 98 102 96 98 102 96 98 99 93 95 99 93 95 99 93 95 99 93 95 99 93 95 99 93 95 99 93 95 101 92 95 94 79 82 95 79 82 95 79 82 95 79 82 95 79 82 95 79 82 95 79 82 95 79 82 96 80 83 97 81 84 100 84 87 103 87 90 106 90 93 110 94 97 112 96 99 113 97 100 115 98 106 113 96 104 110 93 101 105 88 96 101 84 92 96 79 87 93 76 84 91 74 82 113 96 104 113 96 104 113 96 104 113 96 104 113 96 104 113 96 104 113 96 104 115 95 106 111 82 100 113 81 102 113 81 102 113 81 102 113 81 102 113 81 102 113 81 102 113 81 102 119 87 108 119 87 108 119 87 108 119 87 108 119 87 108 119 87 108 119 87 108 116 89 106 101 83 97 88 75 85 73 60 70 58 45 55 47 34 44 43 30 40 44 31 41 46 33 43 47 34 44 53 40 50
100 91 92 101 92 93 102 93 94 102 93 94 103 93 94 86 71 78 86 69 77 84 67 75 80 63 71 77 60 68 74 57 65 71 54 62 70 53 61 59 42 50 59 42 50 59 42 50 59 42 50 59 42 50 59 42 50 59 42 50 59 42 50 56 36 45 58 38 47 63 43 52 70 50 59 76 56 65 83 63 72 88 68 77 90 70 79 101 81 90 101 81 90 101 81 90 101 81 90 101 81 90 101 81 90 101 81 90 99 82 90 64 51 60 61 50 58 59 48 56 56 45 53 52 41 49 49 38 46 47 36 44 45 34 42 44 33 41 44 33 41 44 33 41 44 33 41 44 33 41 44 33 41 44 33 41 43 33 42 40 34 44 38 35 46 38 35 46 38 35 46 38 35 46 38 35 46 38 35 46 38 35 46 36 33 44 36 33 44 36 33 44 36 33 44 36 33 44 36 33 44 36 33 44 35 33 46 39 38 56 37 38 58 37 38 58 37 38 58 37 38 58 37 38 58 37 38 58 37 38 58 39 40 60 39 40 60 39 40 60 39 40 60 39 40 60 39 40 60 39 40 60 39 40 58 44 41 60 44 41 58 44 41 58 44 41 58 44 41 58 44 41 58 44 41 58 44 41 58 66 63 80 73 70 87 84 81 98 93 90 107 96 93 110 94 91 108 88 85 102 87 80 96 82 65 81 85 64 79 85 64 79 85 64 79 85 64 79 85 64 79 85 64 79 85 64 79 70 49 64 70 49 64 70 49 64 70 49 64 70 49 64 70 49 64 70 49 64 70 49 64 78 57 74 80 59 76 82 61 78 85 64 81 89 68 85 92 71 88 94 73 90 96 75 92 110 89 106 110 89 106 110 89 106 110 89 106 110 89 106 110 89 106 110 89 106 107 91 104 105 94 100 102 96 98 102 96 98 102 96 98 102 96 98 102 96 98 102 96 98 102 96 98 99 93 95 99 93 95 99 93 95 99 93 95 99 93 95 99 93 95 99 93 95 101 92 95 94 79 82 95 79 82 95 79 82 95 79 82 95 79 82 95 79 82 95 79 82 95 79 82 95 79 82 96 80 83 98 82 85 102 86 89 105 89 92 108 92 95 111 95 98 112 96 99 113 96 104 112 95 103 109 92 100 105 88 96 101 84 92 97 80 88 94 77 85 93 76 84 113 96 104 113 96 104 113 96 104 113 96 104 113 96 104 113 96 104 113 96 104 115 95 106 111 82 100 113 81 102 113 81 102 113 81 102 113 81 102 113 81 102 113 81 102 113 81 102 119 87 108 119 87 108 119 87 108 119 87 108 119 87 108 119 87 108 119 87 108 116 89 106 101 83 97 88 75 85 73 60 70 58 45 55 47 34 44 43 30 40 44 31 41 46 33 43 47 34 44 53 40 50
96 87 88 95 86 87 95 86 87 94 85 86 95 85 86 81 66 73 81 64 72 79 62 70 76 59 67 72 55 63 69 52 60 66 49 57 65 48 56 59 42 50 59 42 50 59 42 50 59 42 50 59 42 50 59 42 50 59 42 50 59 42 50 56 36 45 58 38 47 63 43 52 70 50 59 76 56 65 83 63 72 88 68 77 90 70 79 101 81 90 101 81 90 101 81 90 101 81 90 101 81 90 101 81 90 101 81 90 99 82 90 64 51 60 61 50 58 59 48 56 56 45 53 52 41 49 49 38 46 47 36 44 45 34 42 44 33 41 44 33 41 44 33 41 44 33 41 44 33 41 44 33 41 44 33 41 43 33 42 40 34 44 38 35 46 38 35 46 38 35 46 38 35 46 38 35 46 38 35 46 38 35 46 36 33 44 36 33 44 36 33 44 36 33 44 36 33 44 36 33 44 36 33 44 35 33 46 39 38 56 37 38 58 37 38 58 37 38 58 37 38 58 37 38 58 37 38 58 37 38 58 39 40 60 39 40 60 39 40 60 39 40 60 39 40 60 39 40 60 39 40 60 39 40 58 44 41 60 44 41 58 44 41 58 44 41 58 44 41 58 44 41 58 44 41 58 44 41 58 70 67 84 76 73 90 87 84 101 96 93 110 99 96 113 97 94 111 91 88 105 91 82 99 81 63 79 84 61 77 84 61 77 84 61 77 84 61 77 84 61 77 84 61 77 84 61 77 71 48 64 71 48 64 71 48 64 71 48 64 71 48 64 71 48 64 71 48 64 71 48 64 78 57 74 80 59 76 82 61 78 85 64 81 89 68 85 92 71 88 94 73 90 96 75 92 110 89 106 110 89 106 110 89 106 110 89 106 110 89 106 110 89 106 110 89 106 107 91 104 105 94 100 102 96 98 102 96 98 102 96 98 102 96 98 102 96 98 102 96 98 102 96 98 99 93 95 99 93 95 99 93 95 99 93 95 99 93 95 99 93 95 99 93 95 101 92 95 94 79 82 95 79 82 95 79 82 95 79 82 95 79 82 95 79 82 95 79 82 95 79 82 92 76 79 94 78 81 96 80 83 99 83 86 103 87 90 106 90 93 108 92 95 110 94 97 110 93 101 109 92 100 107 90 98 104 87 95 102 85 93 99 82 90 97 80 88 96 79 87 113 96 104 113 96 104 113 96 104 113 96 104 113 96 104 113 96 104 113 96 104 115 95 106 111 82 100 113 81 102 113 81 102 113 81 102 113 81 102 113 81 102 113 81 102 113 81 102 119 87 108 119 87 108 119 87 108 119 87 108 119 87 108 119 87 108 119 87 108 116 89 106 101 83 97 88 75 85 73 60 70 58 45 55 47 34 44 43 30 40 44 31 41 46 33 43 47 34 44 53 40 50
91 82 83 88 79 80 86 77 78 84 75 76 84 74 75 75 60 67 75 58 66 72 55 63 69 52 60 66 49 57 63 46 54 60 43 51 59 42 50 59 42 50 59 42 50 59 42 50 59 42 50 59 42 50 59 42 50 59 42 50 59 42 50 56 36 45 58 38 47 63 43 52 70 50 59 76 56 65 83 63 72 88 68 77 90 70 79 101 81 90 101 81 90 101 81 90 101 81 90 101 81 90 101 81 90 101 81 90 99 82 90 64 51 60 61 50 58 59 48 56 56 45 53 52 41 49 49 38 46 47 36 44 45 34 42 44 33 41 44 33 41 44 33 41 44 33 41 44 33 41 44 33 41 44 33 41 43 33 42 40 34 44 38 35 46 38 35 46 38 35 46 38 35 46 38 35 46 38 35 46 38 35 46 36 33 44 36 33 44 36 33 44 36 33 44 36 33 44 36 33 44 36 33 44 35 33 46 39 38 56 37 38 58 37 38 58 37 38 58 37 38 58 37 38 58 37 38 58 37 38 58 39 40 60 39 40 60 39 40 60 39 40 60 39 40 60 39 40 60 39 40 60 39 40 58 44 41 60 44 41 58 44 41 58 44 41 58 44 41 58 44 41 58 44 41 58 44 41 58 69 66 83 76 73 90 86 83 100 95 92 109 98 95 112 96 93 110 90 87 104 90 81 98 80 59 76 82 58 74 84 57 74 82 58 74 84 57 74 82 58 74 84 57 74 82 58 74 74 47 64 72 48 64 74 47 64 72 48 64 74 47 64 72 48 64 74 47 64 72 48 64 79 56 74 80 59 76 82 61 78 85 64 81 89 68 85 92 71 88 94 73 90 96 75 92 110 89 106 110 89 106 110 89 106 110 89 106 110 89 106 110 89 106 110 89 106 107 91 104 105 94 100 102 96 98 102 96 98 102 96 98 102 96 98 102 96 98 102 96 98 102 96 98 99 93 95 99 93 95 99 93 95 99 93 95 99 93 95 99 93 95 99 93 95 101 92 95 94 79 82 95 79 82 95 79 82 95 79 82 95 79 82 95 79 82 95 79 82 95 79 82 89 73 76 90 74 77 93 77 80 96 80 83 99 83 86 103 87 90 105 89 92 106 90 93 105 88 96 105 88 96 104 87 95 103 86 94 103 86 94 102 85 93 101 84 92 101 84 92 113 96 104 113 96 104 113 96 104 113 96 104 113 96 104 113 96 104 113 96 104 115 95 106 111 82 100 113 81 102 113 81 102 113 81 102 113 81 102 113 81 102 113 81 102 113 81 102 119 87 108 119 87 108 119 87 108 119 87 108 119 87 108 119 87 108 119 87 108 116 89 106 101 83 97 88 75 85 73 60 70 58 45 55 47 34 44 43 30 40 44 31 41 46 33 43 47 34 44 53 40 50
85 76 77 80 71 72 76 67 68 73 64 65 73 63 64 68 53 60 68 51 59 65 48 56 62 45 53 59 42 50 56 39 47 53 36 44 52 35 43 59 42 50 59 42 50 59 42 50 59 42 50 59 42 50 59 42 50 59 42 50 59 42 50 56 36 45 58 38 47 63 43 52 70 50 59 76 56 65 83 63 72 88 68 77 90 70 79 101 81 90 101 81 90 101 81 90 101 81 90 101 81 90 101 81 90 101 81 90 99 82 90 64 51 60 61 50 58 59 48 56 56 45 53 52 41 49 49 38 46 47 36 44 45 34 42 44 33 41 44 33 41 44 33 41 44 33 41 44 33 41 44 33 41 44 33 41 43 33 42 40 34 44 38 35 46 38 35 46 38 35 46 38 35 46 38 35 46 38 35 46 38 35 46 36 33 44 36 33 44 36 33 44 36 33 44 36 33 44 36 33 44 36 33 44 35 33 46 39 38 56 37 38 58 37 38 58 37 38 58 37 38 58 37 38 58 37 38 58 37 38 58 39 40 60 39 40 60 39 40 60 39 40 60 39 40 60 39 40 60 39 40 60 39 40 58 44 41 60 44 41 58 44 41 58 44 41 58 44 41 58 44 41 58 44 41 58 44 41 58 62 59 76 69 66 83 79 76 93 88 85 102 92 89 106 89 86 103 84 81 98 83 74 91 76 55 72 80 53 70 81 52 70 80 53 70 81 52 70 80 53 70 81 52 70 80 53 70 75 46 64 74 47 64 75 46 64 74 47 64 75 46 64 74 47 64 75 46 64 74 47 64 79 56 74 80 59 76 82 61 78 85 64 81 89 68 85 92 71 88 94 73 90 96 75 92 110 89 106 110 89 106 110 89 106 110 89 106 110 89 106 110 89 106 110 89 106 107 91 104 105 94 100 102 96 98 102 96 98 102 96 98 102 96 98 102 96 98 102 96 98 102 96 98 99 93 95 99 93 95 99 93 95 99 93 95 99 93 95 99 93 95 99 93 95 101 92 95 94 79 82 95 79 82 95 79 82 95 79 82 95 79 82 95 79 82 95 79 82 95 79 82 86 70 73 87 71 74 89 73 76 93 77 80 96 80 83 99 83 86 102 86 89 103 87 90 101 84 92 101 84 92 102 85 93 103 86 94 103 86 94 104 87 95 105 88 96 105 88 96 113 96 104 113 96 104 113 96 104 113 96 104 113 96 104 113 96 104 113 96 104 115 95 106 111 82 100 113 81 102 113 81 102 113 81 102 113 81 102 113 81 102 113 81 102 113 81 102 119 87 108 119 87 108 119 87 108 119 87 108 119 87 108 119 87 108 119 87 108 116 89 106 101 83 97 88 75 85 73 60 70 58 45 55 47 34 44 43 30 40 44 31 41 46 33 43 47 34 44 53 40 50
79 70 71 73 64 65 67 58 59 63 54 55 62 52 53 62 47 54 62 45 53 59 42 50 56 39 47 52 35 43 49 32 40 47 30 38 46 29 37 59 42 50 59 42 50 59 42 50 59 42 50 59 42 50 59 42 50 59 42 50 59 42 50 56 36 45 58 38 47 63 43 52 70 50 59 76 56 65 83 63 72 88 68 77 90 70 79 101 81 90 101 81 90 101 81 90 101 81 90 101 81 90 101 81 90 101 81 90 99 82 90 64 51 60 61 50 58 59 48 56 56 45 53 52 41 49 49 38 46 47 36 44 45 34 42 44 33 41 44 33 41 44 33 41 44 33 41 44 33 41 44 33 41 44 33 41 43 33 42 40 34 44 38 35 46 38 35 46 38 35 46 38 35 46 38 35 46 38 35 46 38 35 46 36 33 44 36 33 44 36 33 44 36 33 44 36 33 44 36 33 44 36 33 44 35 33 46 39 38 56 37 38 58 37 38 58 37 38 58 37 38 58 37 38 58 37 38 58 37 38 58 39 40 60 39 40 60 39 40 60 39 40 60 39 40 60 39 40 60 39 40 60 39 40 58 44 41 60 44 41 58 44 41 58 44 41 58 44 41 58 44 41 58 44 41 58 44 41 58 50 47 64 57 54 71 67 64 81 76 73 90 80 77 94 77 74 91 72 69 86 71 62 79 74 51 69 78 49 67 80 49 67 78 49 67 80 49 67 78 49 67 80 49 67 78 49 67 77 46 64 75 46 64 77 46 64 75 46 64 77 46 64 75 46 64 77 46 64 74 47 64 79 56 74 80 59 76 82 61 78 85 64 81 89 68 85 92 71 88 94 73 90 96 75 92 110 89 106 110 89 106 110 89 106 110 89 106 110 89 106 110 89 106 110 89 106 107 91 104 105 94 100 102 96 98 102 96 98 102 96 98 102 96 98 102 96 98 102 96 98 102 96 98 99 93 95 99 93 95 99 93 95 99 93 95 99 93 95 99 93 95 99 93 95 101 92 95 94 79 82 95 79 82 95 79 82 95 79 82 95 79 82 95 79 82 95 79 82 95 79 82 82 66 69 84 68 71 86 70 73 89 73 76 93 77 80 96 80 83 98 82 85 100 84 87 96 79 87 97 80 88 99 82 90 102 85 93 104 87 95 107 90 98 109 92 100 110 93 101 113 96 104 113 96 104 113 96 104 113 96 104 113 96 104 113 96 104 113 96 104 115 95 106 111 82 100 113 81 102 113 81 102 113 81 102 113 81 102 113 81 102 113 81 102 113 81 102 119 87 108 119 87 108 119 87 108 119 87 108 119 87 108 119 87 108 119 87 108 116 89 106 101 83 97 88 75 85 73 60 70 58 45 55 47 34 44 43 30 40 44 31 41 46 33 43 47 34 44 53 40 50
75 66 67 68 59 60 61 52 53 55 46 47 53 43 44 57 42 49 57 40 48 54 37 45 51 34 42 48 31 39 44 27 35 42 25 33 41 24 32 59 42 50 59 42 50 59 42 50 59 42 50 59 42 50 59 42 50 59 42 50 59 42 50 56 36 45 58 38 47 63 43 52 70 50 59 76 56 65 83 63 72 88 68 77 90 70 79 101 81 90 101 81 90 101 81 90 101 81 90 101 81 90 101 81 90 101 81 90 99 82 90 64 51 60 61 50 58 59 48 56 56 45 53 52 41 49 49 38 46 47 36 44 45 34 42 44 33 41 44 33 41 44 33 41 44 33 41 44 33 41 44 33 41 44 33 41 43 33 42 40 34 44 38 35 46 38 35 46 38 35 46 38 35 46 38 35 46 38 35 46 38 35 46 36 33 44 36 33 44 36 33 44 36 33 44 36 33 44 36 33 44 36 33 44 35 33 46 39 38 56 37 38 58 37 38 58 37 38 58 37 38 58 37 38 58 37 38 58 37 38 58 39 40 60 39 40 60 39 40 60 39 40 60 39 40 60 39 40 60 39 40 60 39 40 58 44 41 60 44 41 58 44 41 58 44 41 58 44 41 58 44 41 58 44 41 58 44 41 58 37 34 51 44 41 58 54 51 68 63 60 77 67 64 81 64 61 78 59 56 73 60 49 66 73 48 67 78 47 65 79 46 65 78 47 65 79 46 65 78 47 65 79 46 65 78 47 65 78 45 64 77 46 64 78 45 64 77 46 64 78 45 64 77 46 64 78 45 64 75 46 64 79 56 74 80 59 76 82 61 78 85 64 81 89 68 85 92 71 88 94 73 90 96 75 92 110 89 106 110 89 106 110 89 106 110 89 106 110 89 106 110 89 106 110 89 106 107 91 104 105 94 100 102 96 98 102 96 98 102 96 98 102 96 98 102 96 98 102 96 98 102 96 98 99 93 95 99 93 95 99 93 95 99 93 95 99 93 95 99 93 95 99 93 95 101 92 95 94 79 82 95 79 82 95 79 82 95 79 82 95 79 82 95 79 82 95 79 82 95 79 82 80 64 67 81 65 68 84 68 71 87 71 74 90 74 77 94 78 81 96 80 83 97 81 84 93 76 84 94 77 85 97 80 88 101 84 92 105 88 96 109 92 100 112 95 103 113 96 104 113 96 104 113 96 104 113 96 104 113 96 104 113 96 104 113 96 104 113 96 104 115 95 106 111 82 100 113 81 102 113 81 102 113 81 102 113 81 102 113 81 102 113 81 102 113 81 102 119 87 108 119 87 108 119 87 108 119 87 108 119 87 108 119 87 108 119 87 108 116 89 106 101 83 97 88 75 85 73 60 70 58 45 55 47 34 44 43 30 40 44 31 41 46 33 43 47 34 44 53 40 50
73 64 65 65 56 59 57 48 49 51 42 45 49 38 42 52 39 46 53 37 47 51 35 45 47 31 41 44 28 38 41 25 35 38 22 32 37 21 31 58 42 52 58 42 52 58 42 52 58 42 52 58 42 52 58 42 52 58 42 52 58 42 52 54 37 47 56 39 47 61 44 54 68 51 59 74 57 67 81 64 72 86 69 79 88 71 79 99 82 92 99 82 90 99 82 92 99 82 90 99 82 92 99 82 90 99 82 92 99 82 92 66 50 61 62 49 59 62 46 57 57 44 54 55 39 50 50 37 47 50 34 45 46 33 43 47 31 42 45 32 42 47 31 42 45 32 42 47 31 42 45 32 42 47 31 42 44 32 44 40 34 46 38 34 48 38 34 48 38 34 48 38 34 48 38 34 48 38 34 48 38 34 48 36 32 46 36 32 46 36 32 46 36 32 46 36 32 46 36 32 46 36 32 46 35 33 47 37 39 54 36 39 56 37 38 56 36 39 56 37 38 56 36 39 56 37 38 56 36 39 56 39 40 58 38 41 58 39 40 58 38 41 58 39 40 58 38 41 58 39 40 58 39 40 58 45 41 58 45 41 56 47 40 58 45 41 56 47 40 58 45 41 56 47 40 58 45 41 56 32 25 43 37 33 48 49 42 60 56 52 67 61 54 72 57 53 68 53 46 64 53 40 58 71 46 65 76 45 63 77 44 63 76 45 63 77 44 63 76 45 63 77 44 63 76 45 63 78 45 64 77 46 64 78 45 64 77 46 64 78 45 64 77 46 64 78 45 64 75 46 64 79 56 74 78 60 76 80 62 78 83 65 81 87 69 85 90 72 88 92 74 90 94 76 92 108 90 106 108 90 106 108 90 106 108 90 106 108 90 106 108 90 106 108 90 106 107 91 104 104 95 100 102 96 96 102 96 96 102 96 96 102 96 96 102 96 96 102 96 96 102 96 96 99 93 93 99 93 93 99 93 93 99 93 93 99 93 93 99 93 93 99 93 93 101 92 93 92 80 82 94 79 82 95 79 82 94 79 82 95 79 82 94 79 82 95 79 82 94 79 82 79 63 66 79 64 67 82 66 69 85 70 73 89 73 76 91 76 79 95 79 82 96 80 83 91 74 82 95 75 84 98 78 87 103 83 92 107 87 96 112 92 101 115 95 104 117 97 106 115 95 104 115 95 104 115 95 104 115 95 104 115 95 104 115 95 104 115 95 104 116 94 106 111 82 100 114 81 102 114 81 102 114 81 102 114 81 102 114 81 102 114 81 102 114 81 102 120 87 108 120 87 108 120 87 108 120 87 108 120 87 108 120 87 108 120 87 108 116 89 108 101 83 97 87 75 85 72 60 72 57 45 55 46 34 46 42 30 40 43 31 43 45 33 43 46 34 46 52 40 50
58 49 52 54 45 50 51 42 45 49 40 45 47 38 43 44 34 43 44 34 45 44 34 45 44 34 45 44 34 45 44 34 45 44 34 45 44 34 45 46 36 47 46 36 47 46 36 47 46 36 47 46 36 47 46 36 47 46 36 47 47 35 47 48 35 45 50 37 46 55 42 52 62 49 58 68 55 65 75 62 71 80 67 77 82 69 78 101 88 98 100 87 96 98 85 95 94 81 90 91 78 88 88 75 84 85 72 82 86 70 81 66 45 62 64 43 62 63 40 60 59 38 57 56 33 53 52 31 50 51 28 48 48 27 46 54 31 51 53 32 51 54 31 51 53 32 51 54 31 51 53 32 51 54 31 51 50 33 51 47 38 55 44 40 55 44 40 55 44 40 55 44 40 55 44 40 55 44 40 55 44 40 55 38 34 49 38 34 49 38 34 49 38 34 49 38 34 49 38 34 49 38 34 49 37 35 49 37 39 52 34 40 52 36 40 52 34 40 52 36 40 52 34 40 52 36 40 52 34 40 52 36 40 52 34 40 52 36 40 52 34 40 52 36 40 52 34 40 52 36 40 52 37 39 52 44 35 52 46 35 51 47 34 52 46 35 51 47 34 52 46 35 51 47 34 52 46 35 51 49 36 54 48 37 53 49 36 54 48 37 53 49 36 54 48 37 53 49 36 54 52 35 53 63 39 55 66 38 53 68 37 53 66 38 53 68 37 53 66 38 53 68 37 53 66 38 53 70 39 55 70 42 57 74 43 59 75 47 62 81 50 66 82 54 69 86 55 71 85 58 75 84 66 82 82 68 85 86 72 89 90 76 93 95 81 98 99 85 102 103 89 106 105 91 108 107 93 110 107 93 110 107 93 110 107 93 110 107 93 110 107 93 110 107 93 110 106 94 106 98 92 92 97 94 89 97 94 89 97 94 89 97 94 89 97 94 89 97 94 89 97 94 89 98 95 90 99 96 91 101 98 93 105 102 97 108 105 100 111 108 103 114 111 106 116 111 107 107 97 98 106 94 96 106 91 94 101 89 91 99 84 87 94 82 84 94 79 82 90 78 80 86 71 74 84 72 74 86 71 74 84 72 74 86 71 74 84 72 74 86 71 74 86 71 74 100 80 89 103 82 91 105 84 93 108 87 96 112 91 100 115 94 103 117 96 105 119 98 107 115 94 103 113 92 101 111 90 99 108 87 96 104 83 92 101 80 89 99 78 87 100 74 87 108 75 94 111 73 96 111 73 96 111 73 96 111 73 96 111 73 96 111 73 96 111 73 96 126 88 111 126 88 111 126 88 111 126 88 111 126 88 111 126 88 111 126 88 111 120 91 111 73 56 72 60 52 63 50 42 55 41 33 44 38 30 43 40 32 43 46 38 51 50 42 53 57 49 62 55 47 58
58 49 54 54 45 50 51 42 47 49 40 45 47 37 45 42 34 45 42 34 47 42 34 47 42 34 47 42 34 47 42 34 47 42 34 47 42 34 47 44 36 49 44 36 49 44 36 49 44 36 49 44 36 49 44 36 49 44 36 49 44 36 47 47 35 47 49 37 47 54 42 52 61 49 59 67 55 65 74 62 72 79 67 77 81 69 79 99 87 97 98 86 96 95 83 93 92 80 90 89 77 87 85 73 83 83 71 81 83 69 82 66 45 64 65 41 63 64 39 61 60 36 58 57 32 54 53 29 51 52 27 49 49 25 47 55 30 52 54 30 52 55 30 52 54 30 52 55 30 52 54 30 52 55 30 52 51 32 52 47 38 57 44 40 57 44 40 57 44 40 57 44 40 57 44 40 57 44 40 57 44 40 57 38 34 51 38 34 51 38 34 51 38 34 51 38 34 51 38 34 51 38 34 51 37 35 49 37 39 52 34 41 51 36 40 51 34 41 51 36 40 51 34 41 51 36 40 51 34 41 51 36 40 51 34 41 51 36 40 51 34 41 51 36 40 51 34 41 51 36 40 51 39 39 51 46 35 51 48 34 51 48 34 51 48 34 51 48 34 51 48 34 51 48 34 51 48 34 51 50 36 53 50 36 53 50 36 53 50 36 53 50 36 53 50 36 53 50 36 53 53 35 51 63 39 55 66 38 53 66 38 53 66 38 53 66 38 53 66 38 53 66 38 53 66 38 53 68 40 55 70 42 57 72 44 59 75 47 62 79 51 66 82 54 69 84 56 71 83 59 75 83 66 82 82 69 86 85 72 89 88 75 92 92 79 96 96 83 100 99 86 103 101 88 105 102 89 106 102 89 106 102 89 106 102 89 106 102 89 106 102 89 106 102 89 106 101 91 102 96 90 90 95 92 85 95 92 87 95 92 85 95 92 87 95 92 85 95 92 87 95 92 85 95 92 87 96 93 86 99 96 91 102 99 92 105 102 97 109 106 99 111 108 103 113 108 104 107 97 96 106 94 96 104 92 94 101 89 91 97 85 87 94 82 84 92 80 82 90 78 80 86 74 76 86 74 76 86 74 76 86 74 76 86 74 76 86 74 76 86 74 76 88 73 76 101 80 89 104 81 91 106 83 93 109 86 96 113 90 100 116 93 103 118 95 105 120 97 107 116 93 103 114 91 101 112 89 99 109 86 96 105 82 92 102 79 89 100 77 87 101 73 87 109 74 94 112 72 96 112 72 96 112 72 96 112 72 96 112 72 96 112 72 96 112 72 96 125 85 109 125 85 109 125 85 109 125 85 109 125 85 109 125 85 109 125 85 109 120 88 109 71 57 72 59 53 65 49 43 55 40 34 46 37 31 43 39 33 45 45 39 51 49 43 55 56 50 62 54 48 60
58 49 54 54 45 50 51 42 47 49 40 45 47 37 45 42 34 45 42 34 47 42 34 47 42 34 47 42 34 47 42 34 47 42 34 47 42 34 47 44 36 49 44 36 49 44 36 49 44 36 49 44 36 49 44 36 49 44 36 49 44 36 47 47 35 47 49 37 47 54 42 52 61 49 59 67 55 65 74 62 72 79 67 77 81 69 79 97 85 95 95 83 93 93 81 91 90 78 88 86 74 84 83 71 81 81 69 79 80 66 79 64 45 64 64 42 63 63 39 61 59 37 58 56 32 54 52 30 51 51 27 49 48 26 47 54 30 52 53 31 52 54 30 52 53 31 52 54 30 52 53 31 52 54 30 52 50 33 52 47 38 57 44 40 57 44 40 57 44 40 57 44 40 57 44 40 57 44 40 57 44 40 57 38 34 51 38 34 51 38 34 51 38 34 51 38 34 51 38 34 51 38 34 51 37 35 49 37 39 52 36 40 51 37 39 51 36 40 51 37 39 51 36 40 51 37 39 51 36 40 51 37 39 51 36 40 51 37 39 51 36 40 51 37 39 51 36 40 51 37 39 51 40 38 51 46 35 51 48 34 51 48 34 51 48 34 51 48 34 51 48 34 51 48 34 51 48 34 51 50 36 53 50 36 53 50 36 53 50 36 53 50 36 53 50 36 53 50 36 53 53 35 51 63 39 55 66 38 53 66 38 53 66 38 53 66 38 53 66 38 53 66 38 53 66 38 53 68 40 55 70 42 57 72 44 59 75 47 62 79 51 66 82 54 69 84 56 71 83 59 75 84 67 83 82 69 86 84 71 88 87 74 91 89 76 93 92 79 96 94 81 98 95 82 99 95 82 99 95 82 99 95 82 99 95 82 99 95 82 99 95 82 99 95 82 99 94 84 95 91 85 87 90 87 82 90 86 83 90 87 82 90 86 83 90 87 82 90 86 83 90 87 82 90 86 83 91 88 83 94 90 87 97 94 89 101 97 94 104 101 96 106 102 99 108 103 100 107 97 98 106 94 96 104 92 94 101 89 91 97 85 87 94 82 84 92 80 82 90 78 80 88 76 78 88 76 78 88 76 78 88 76 78 88 76 78 88 76 78 88 76 78 90 75 78 101 80 89 104 81 91 106 83 93 109 86 96 113 90 100 116 93 103 118 95 105 120 97 107 116 93 103 114 91 101 112 89 99 109 86 96 105 82 92 102 79 89 100 77 87 101 73 87 109 74 94 112 72 96 112 72 96 112 72 96 112 72 96 112 72 96 112 72 96 112 72 96 123 83 107 123 83 107 123 83 107 123 83 107 123 83 107 123 83 107 123 83 107 118 86 107 71 57 72 59 53 65 49 43 55 40 34 46 37 31 43 39 33 45 45 39 51 49 43 55 56 50 62 54 48 60
58 49 54 54 45 50 51 42 47 49 40 45 47 37 45 42 34 45 42 34 47 42 34 47 42 34 47 42 34 47 42 34 47 42 34 47 42 34 47 44 36 49 44 36 49 44 36 49 44 36 49 44 36 49 44 36 49 44 36 49 44 36 47 47 35 47 49 37 47 54 42 52 61 49 59 67 55 65 74 62 72 79 67 77 81 69 79 93 81 91 92 80 90 90 78 88 86 74 84 83 71 81 80 68 78 77 65 75 77 63 76 64 45 64 62 43 63 62 40 61 57 38 58 55 33 54 50 31 51 50 28 49 46 27 47 53 31 52 51 32 52 53 31 52 51 32 52 53 31 52 51 32 52 53 31 52 50 33 52 47 38 57 44 40 57 44 40 57 44 40 57 44 40 57 44 40 57 44 40 57 44 40 57 38 34 51 38 34 51 38 34 51 38 34 51 38 34 51 38 34 51 38 34 51 37 35 49 39 38 52 37 39 51 39 39 51 37 39 51 39 39 51 37 39 51 39 39 51 37 39 51 39 39 51 37 39 51 39 39 51 37 39 51 39 39 51 37 39 51 39 39 51 40 38 51 46 35 51 48 34 51 48 34 51 48 34 51 48 34 51 48 34 51 48 34 51 48 34 51 50 36 53 50 36 53 50 36 53 50 36 53 50 36 53 50 36 53 50 36 53 53 35 51 63 39 55 66 38 53 66 38 53 66 38 53 66 38 53 66 38 53 66 38 53 66 38 53 68 40 55 70 42 57 72 44 59 75 47 62 79 51 66 82 54 69 84 56 71 83 59 75 85 68 84 83 70 87 83 70 87 84 71 88 85 72 89 86 73 90 87 74 91 87 74 91 85 72 89 85 72 89 85 72 89 85 72 89 85 72 89 85 72 89 85 72 89 84 74 85 84 78 80 83 79 76 83 79 78 83 79 76 83 79 78 83 79 76 83 79 78 83 79 76 84 80 79 85 81 78 88 84 83 91 87 84 94 90 89 97 93 90 100 96 95 102 96 96 107 97 98 106 94 96 104 92 94 101 89 91 97 85 87 94 82 84 92 80 82 90 78 80 91 79 81 91 79 81 91 79 81 91 79 81 91 79 81 91 79 81 91 79 81 93 78 81 101 80 89 104 81 91 106 83 93 109 86 96 113 90 100 116 93 103 118 95 105 120 97 107 116 93 103 114 91 101 112 89 99 109 86 96 105 82 92 102 79 89 100 77 87 101 73 87 109 74 94 112 72 96 112 72 96 112 72 96 112 72 96 112 72 96 112 72 96 112 72 96 120 80 104 120 80 104 120 80 104 120 80 104 120 80 104 120 80 104 120 80 104 115 83 104 71 57 72 59 53 65 49 43 55 40 34 46 37 31 43 39 33 45 45 39 51 49 43 55 56 50 62 54 48 60
58 49 54 54 45 50 51 42 47 49 40 45 47 37 45 42 34 45 42 34 47 42 34 47 42 34 47 42 34 47 42 34 47 42 34 47 42 34 47 44 36 49 44 36 49 44 36 49 44 36 49 44 36 49 44 36 49 44 36 49 44 36 47 47 35 47 49 37 47 54 42 52 61 49 59 67 55 65 74 62 72 79 67 77 81 69 79 90 78 88 89 77 87 86 74 84 83 71 81 80 68 78 76 64 74 74 62 72 74 60 73 63 46 64 61 44 63 60 41 61 56 39 58 53 34 54 49 32 51 48 29 49 45 28 47 51 32 52 50 33 52 51 32 52 50 33 52 51 32 52 50 33 52 51 32 52 48 33 52 47 38 57 44 40 57 44 40 57 44 40 57 44 40 57 44 40 57 44 40 57 44 40 57 38 34 51 38 34 51 38 34 51 38 34 51 38 34 51 38 34 51 38 34 51 38 34 49 40 38 52 39 39 51 40 38 51 39 39 51 40 38 51 39 39 51 40 38 51 39 39 51 40 38 51 39 39 51 40 38 51 39 39 51 40 38 51 39 39 51 40 38 51 41 37 51 46 35 51 48 34 51 48 34 51 48 34 51 48 34 51 48 34 51 48 34 51 48 34 51 50 36 53 50 36 53 50 36 53 50 36 53 50 36 53 50 36 53 50 36 53 53 35 51 63 39 55 66 38 53 66 38 53 66 38 53 66 38 53 66 38 53 66 38 53 66 38 53 68 40 55 70 42 57 72 44 59 75 47 62 79 51 66 82 54 69 84 56 71 83 59 75 87 70 86 83 70 87 83 70 87 82 69 86 81 68 85 80 67 84 79 66 83 79 66 83 75 62 79 75 62 79 75 62 79 75 62 79 75 62 79 75 62 79 75 62 79 74 64 75 78 72 76 77 73 72 77 73 74 77 73 72 77 73 74 77 73 72 77 73 74 77 73 72 77 73 74 78 74 73 81 77 78 84 80 79 87 83 84 90 86 85 93 89 90 95 89 89 107 97 98 106 94 96 104 92 94 101 89 91 97 85 87 94 82 84 92 80 82 90 78 80 95 83 85 95 83 85 95 83 85 95 83 85 95 83 85 95 83 85 95 83 85 97 82 85 101 80 89 104 81 91 106 83 93 109 86 96 113 90 100 116 93 103 118 95 105 120 97 107 116 93 103 114 91 101 112 89 99 109 86 96 105 82 92 102 79 89 100 77 87 101 73 87 109 74 94 112 72 96 112 72 96 112 72 96 112 72 96 112 72 96 112 72 96 112 72 96 116 76 100 116 76 100 116 76 100 116 76 100 116 76 100 116 76 100 116 76 100 111 79 100 71 57 72 59 53 65 49 43 55 40 34 46 37 31 43 39 33 45 45 39 51 49 43 55 56 50 62 54 48 60
58 49 54 54 45 50 51 42 47 49 40 45 47 37 45 42 34 45 42 34 47 42 34 47 42 34 47 42 34 47 42 34 47 42 34 47 42 34 47 44 36 49 44 36 49 44 36 49 44 36 49 44 36 49 44 36 49 44 36 49 44 36 47 47 35 47 49 37 47 54 42 52 61 49 59 67 55 65 74 62 72 79 67 77 81 69 79 87 75 85 85 73 83 83 71 81 80 68 78 76 64 74 73 61 71 71 59 69 69 57 69 61 47 64 59 44 63 57 42 61 54 39 58 50 35 54 47 32 51 45 30 49 43 28 47 48 33 52 48 33 52 48 33 52 48 33 52 48 33 52 48 33 52 48 33 52 47 34 52 46 39 57 44 40 57 44 40 57 44 40 57 44 40 57 44 40 57 44 40 57 44 40 57 38 34 51 38 34 51 38 34 51 38 34 51 38 34 51 38 34 51 38 34 51 38 34 49 41 37 52 41 37 51 41 37 51 41 37 51 41 37 51 41 37 51 41 37 51 41 37 51 41 37 51 41 37 51 41 37 51 41 37 51 41 37 51 41 37 51 41 37 51 43 37 51 47 34 51 48 34 51 48 34 51 48 34 51 48 34 51 48 34 51 48 34 51 48 34 51 50 36 53 50 36 53 50 36 53 50 36 53 50 36 53 50 36 53 50 36 53 53 35 51 63 39 55 66 38 53 66 38 53 66 38 53 66 38 53 66 38 53 66 38 53 66 38 53 68 40 55 70 42 57 72 44 59 75 47 62 79 51 66 82 54 69 84 56 71 83 59 75 88 71 87 84 71 88 82 69 86 79 66 83 77 64 81 74 61 78 72 59 76 71 58 75 65 52 69 65 52 69 65 52 69 65 52 69 65 52 69 65 52 69 65 52 69 64 53 67 71 64 71 70 65 69 70 65 69 70 65 69 70 65 69 70 65 69 70 65 69 70 65 69 71 66 70 72 67 71 74 69 73 77 72 76 81 76 80 84 79 83 87 82 86 89 83 85 107 97 98 106 94 96 104 92 94 101 89 91 97 85 87 94 82 84 92 80 82 90 78 80 98 86 88 98 86 88 98 86 88 98 86 88 98 86 88 98 86 88 98 86 88 100 85 88 101 80 89 104 81 91 106 83 93 109 86 96 113 90 100 116 93 103 118 95 105 120 97 107 116 93 103 114 91 101 112 89 99 109 86 96 105 82 92 102 79 89 100 77 87 101 73 87 109 74 94 112 72 96 112 72 96 112 72 96 112 72 96 112 72 96 112 72 96 112 72 96 113 73 97 113 73 97 113 73 97 113 73 97 113 73 97 113 73 97 113 73 97 108 76 97 71 57 72 59 53 65 49 43 55 40 34 46 37 31 43 39 33 45 45 39 51 49 43 55 56 50 62 54 48 60
58 49 54 54 45 50 51 42 47 49 40 45 47 37 45 42 34 45 42 34 47 42 34 47 42 34 47 42 34 47 42 34 47 42 34 47 42 34 47 44 36 49 44 36 49 44 36 49 44 36 49 44 36 49 44 36 49 44 36 49 44 36 47 47 35 47 49 37 47 54 42 52 61 49 59 67 55 65 74 62 72 79 67 77 81 69 79 84 72 82 83 71 81 81 69 79 77 65 75 74 62 72 71 59 69 68 56 66 67 55 67 60 47 64 58 45 63 56 43 61 53 40 58 49 36 54 46 33 51 44 31 49 42 29 47 47 34 52 47 34 52 47 34 52 47 34 52 47 34 52 47 34 52 47 34 52 46 35 52 46 39 57 44 40 57 44 40 57 44 40 57 44 40 57 44 40 57 44 40 57 44 40 57 38 34 51 38 34 51 38 34 51 38 34 51 38 34 51 38 34 51 38 34 51 38 34 49 43 36 52 43 37 51 43 37 51 43 37 51 43 37 51 43 37 51 43 37 51 43 37 51 43 37 51 43 37 51 43 37 51 43 37 51 43 37 51 43 37 51 43 37 51 44 36 51 47 34 51 48 34 51 48 34 51 48 34 51 48 34 51 48 34 51 48 34 51 48 34 51 50 36 53 50 36 53 50 36 53 50 36 53 50 36 53 50 36 53 50 36 53 53 35 51 63 39 55 66 38 53 66 38 53 66 38 53 66 38 53 66 38 53 66 38 53 66 38 53 68 40 55 70 42 57 72 44 59 75 47 62 79 51 66 82 54 69 84 56 71 83 59 75 89 72 88 84 71 88 81 68 85 78 65 82 74 61 78 70 57 74 67 54 71 65 52 69 58 45 62 58 45 62 58 45 62 58 45 62 58 45 62 58 45 62 58 45 62 57 46 60 66 59 67 65 60 66 65 60 66 65 60 66 65 60 66 65 60 66 65 60 66 65 60 66 66 61 67 67 62 68 69 64 70 73 68 74 76 71 77 79 74 80 82 77 83 84 78 82 107 96 100 106 94 96 104 92 94 101 89 91 97 85 87 94 82 84 92 80 82 90 78 80 100 88 90 100 88 90 100 88 90 100 88 90 100 88 90 100 88 90 100 88 90 102 87 90 101 80 89 104 81 91 106 83 93 109 86 96 113 90 100 116 93 103 118 95 105 120 97 107 116 93 103 114 91 101 112 89 99 109 86 96 105 82 92 102 79 89 100 77 87 101 73 87 109 74 94 112 72 96 112 72 96 112 72 96 112 72 96 112 72 96 112 72 96 112 72 96 111 71 95 111 71 95 111 71 95 111 71 95 111 71 95 111 71 95 111 71 95 106 74 95 71 57 72 59 53 65 49 43 55 40 34 46 37 31 43 39 33 45 45 39 51 49 43 55 56 50 62 54 48 60
58 49 54 54 45 50 51 42 47 49 40 45 47 37 45 42 34 45 42 34 47 42 34 47 42 34 47 42 34 47 42 34 47 42 34 47 42 34 47 44 36 49 44 36 49 44 36 49 44 36 49 44 36 49 44 36 49 44 36 49 44 36 47 47 35 47 49 37 47 54 42 52 61 49 59 67 55 65 74 62 72 79 67 77 81 69 79 83 71 81 82 70 80 79 67 77 76 64 74 73 61 71 69 57 67 67 55 65 65 55 66 59 48 64 55 46 63 53 44 61 50 41 58 46 37 54 43 34 51 41 32 49 39 30 47 44 35 52 44 35 52 44 35 52 44 35 52 44 35 52 44 35 52 44 35 52 43 36 52 46 39 57 44 40 57 44 40 57 44 40 57 44 40 57 44 40 57 44 40 57 44 40 57 38 34 51 38 34 51 38 34 51 38 34 51 38 34 51 38 34 51 38 34 51 40 33 49 44 35 52 46 35 51 46 35 51 46 35 51 46 35 51 46 35 51 46 35 51 46 35 51 46 35 51 46 35 51 46 35 51 46 35 51 46 35 51 46 35 51 46 35 51 46 35 51 48 34 51 48 34 51 48 34 51 48 34 51 48 34 51 48 34 51 48 34 51 48 34 51 50 36 53 50 36 53 50 36 53 50 36 53 50 36 53 50 36 53 50 36 53 53 35 51 63 39 55 66 38 53 66 38 53 66 38 53 66 38 53 66 38 53 66 38 53 66 38 53 68 40 55 70 42 57 72 44 59 75 47 62 79 51 66 82 54 69 84 56 71 83 59 75 89 72 88 85 72 89 81 68 85 77 64 81 72 59 76 68 55 72 64 51 68 62 49 66 54 41 58 54 41 58 54 41 58 54 41 58 54 41 58 54 41 58 54 41 58 53 42 56 64 56 69 63 57 67 63 57 67 63 57 67 63 57 67 63 57 67 63 57 67 63 57 67 63 57 67 64 58 68 67 61 71 70 64 74 73 67 77 77 71 81 79 73 83 81 74 82 107 96 100 106 94 96 104 92 94 101 89 91 97 85 87 94 82 84 92 80 82 90 78 80 102 90 92 102 90 92 102 90 92 102 90 92 102 90 92 102 90 92 102 90 92 104 89 92 101 80 89 104 81 91 106 83 93 109 86 96 113 90 100 116 93 103 118 95 105 120 97 107 116 93 103 114 91 101 112 89 99 109 86 96 105 82 92 102 79 89 100 77 87 101 73 87 109 74 94 112 72 96 112 72 96 112 72 96 112 72 96 112 72 96 112 72 96 112 72 96 109 69 93 109 69 93 109 69 93 109 69 93 109 69 93 109 69 93 109 69 93 104 72 93 71 57 72 59 53 65 49 43 55 40 34 46 37 31 43 39 33 45 45 39 51 49 43 55 56 50 62 54 48 60
79 70 75 79 70 75 79 70 75 79 70 75 79 69 77 55 47 58 54 46 59 52 44 57 48 40 53 45 37 50 42 34 47 39 31 44 38 30 43 46 38 51 46 38 51 46 38 51 46 38 51 46 38 51 46 38 51 46 38 51 46 38 49 63 51 63 63 51 61 63 51 61 63 51 61 63 51 61 63 51 61 63 51 61 63 51 61 62 50 60 62 50 60 62 50 60 62 50 60 62 50 60 62 50 60 62 50 60 61 51 62 43 37 51 41 37 52 41 37 52 41 37 52 41 37 52 41 37 52 41 37 52 41 37 52 42 38 53 42 38 53 42 38 53 42 38 53 42 38 53 42 38 53 42 38 53 42 38 53 51 47 64 51 47 64 51 47 64 51 47 64 51 47 64 51 47 64 51 47 64 51 47 64 49 45 62 49 45 62 49 45 62 49 45 62 49 45 62 49 45 62 49 45 62 51 44 60 51 38 56 52 38 55 52 38 55 52 38 55 52 38 55 52 38 55 52 38 55 52 38 55 53 39 56 53 39 56 53 39 56 53 39 56 53 39 56 53 39 56 53 39 56 53 39 56 49 35 52 49 35 52 49 35 52 49 35 52 49 35 52 49 35 52 49 35 52 49 35 52 43 29 46 45 31 48 47 33 50 50 36 53 54 40 57 57 43 60 59 45 62 64 46 62 63 39 55 67 39 54 69 41 56 73 45 60 76 48 63 79 51 66 82 54 69 83 55 70 92 64 79 92 64 79 93 65 80 94 66 81 96 68 83 97 69 84 98 70 85 95 71 87 73 56 72 69 56 73 67 54 71 63 50 67 60 47 64 57 44 61 54 41 58 53 40 57 44 31 48 46 33 50 48 35 52 51 38 55 55 42 59 58 45 62 60 47 64 61 50 66 53 45 60 52 46 60 52 46 60 52 46 60 52 46 60 52 46 60 52 46 60 52 46 60 50 44 58 51 45 59 53 47 61 57 51 65 60 54 68 63 57 71 66 60 74 68 60 71 93 82 88 94 82 84 94 82 84 94 82 84 94 82 84 94 82 84 94 82 84 94 82 84 97 85 87 97 85 87 97 85 87 97 85 87 97 85 87 97 85 87 97 85 87 99 84 87 108 87 96 109 86 96 109 86 96 109 86 96 109 86 96 109 86 96 109 86 96 109 86 96 107 84 94 107 84 94 107 84 94 107 84 94 107 84 94 107 84 94 107 84 94 110 82 96 100 65 85 103 63 87 103 63 87 103 63 87 103 63 87 103 63 87 103 63 87 103 63 87 110 70 94 108 68 92 106 66 90 103 63 87 99 59 83 96 56 80 94 54 78 87 55 76 52 38 53 47 41 53 47 41 53 47 41 53 47 41 53 47 41 53 47 41 53 47 41 53 60 54 66 58 52 64
79 70 75 79 70 75 79 70 75 79 70 75 79 69 77 58 50 61 57 49 62 54 46 59 51 43 56 48 40 53 44 36 49 42 34 47 41 33 46 46 38 51 46 38 51 46 38 51 46 38 51 46 38 51 46 38 51 46 38 51 46 38 49 61 49 61 61 49 59 61 49 59 61 49 59 61 49 59 61 49 59 61 49 59 61 49 59 60 48 58 60 48 58 60 48 58 60 48 58 60 48 58 60 48 58 60 48 58 59 49 60 41 37 51 39 38 52 39 38 52 39 38 52 39 38 52 39 38 52 39 38 52 39 38 52 40 39 53 40 39 53 40 39 53 40 39 53 40 39 53 40 39 53 40 39 53 41 39 53 51 47 64 51 47 64 51 47 64 51 47 64 51 47 64 51 47 64 51 47 64 51 47 64 49 45 62 49 45 62 49 45 62 49 45 62 49 45 62 49 45 62 49 45 62 52 43 60 52 37 56 55 36 55 55 36 55 55 36 55 55 36 55 55 36 55 55 36 55 55 36 55 56 37 56 56 37 56 56 37 56 56 37 56 56 37 56 56 37 56 56 37 56 55 38 56 49 35 52 49 35 52 49 35 52 49 35 52 49 35 52 49 35 52 49 35 52 49 35 52 43 29 46 45 31 48 47 33 50 50 36 53 54 40 57 57 43 60 59 45 62 64 46 62 64 40 56 68 40 55 71 43 58 74 46 61 77 49 64 81 53 68 83 55 70 84 56 71 93 65 80 94 66 81 94 66 81 95 67 82 95 67 82 96 68 83 96 68 83 94 70 86 72 55 71 68 55 72 65 52 69 62 49 66 59 46 63 55 42 59 53 40 57 52 39 56 44 31 48 46 33 50 48 35 52 51 38 55 55 42 59 58 45 62 60 47 64 61 50 66 53 44 61 52 45 63 52 45 63 52 45 63 52 45 63 52 45 63 52 45 63 52 45 63 51 44 62 52 45 63 55 48 66 58 51 69 61 54 72 65 58 76 67 60 78 69 61 76 93 82 88 94 82 84 94 82 84 94 82 84 94 82 84 94 82 84 94 82 84 94 82 84 97 85 87 97 85 87 97 85 87 97 85 87 97 85 87 97 85 87 97 85 87 99 84 87 108 87 96 109 86 96 109 86 96 109 86 96 109 86 96 109 86 96 109 86 96 109 86 96 105 82 92 105 82 92 105 82 92 105 82 92 105 82 92 105 82 92 105 82 92 108 80 94 100 65 85 103 63 87 103 63 87 103 63 87 103 63 87 103 63 87 103 63 87 103 63 87 110 70 94 108 68 92 106 66 90 103 63 87 99 59 83 96 56 80 94 54 78 87 55 76 52 38 53 47 41 53 47 41 53 47 41 53 47 41 53 47 41 53 47 41 53 47 41 53 60 54 66 58 52 64
79 70 75 79 70 75 79 70 75 79 70 75 79 69 77 63 55 66 62 54 67 59 51 64 56 48 61 52 44 57 49 41 54 47 39 52 46 38 51 46 38 51 46 38 51 46 38 51 46 38 51 46 38 51 46 38 51 46 38 51 46 38 49 59 47 59 59 47 57 59 47 57 59 47 57 59 47 57 59 47 57 59 47 57 59 47 57 58 46 56 58 46 56 58 46 56 58 46 56 58 46 56 58 46 56 58 46 56 55 47 58 40 38 51 37 39 52 37 39 52 37 39 52 37 39 52 37 39 52 37 39 52 37 39 52 38 40 53 38 40 53 38 40 53 38 40 53 38 40 53 38 40 53 38 40 53 40 39 53 50 47 64 51 47 64 51 47 64 51 47 64 51 47 64 51 47 64 51 47 64 51 47 64 49 45 62 49 45 62 49 45 62 49 45 62 49 45 62 49 45 62 49 45 62 52 43 60 54 37 56 57 36 55 57 36 55 57 36 55 57 36 55 57 36 55 57 36 55 57 36 55 58 37 56 58 37 56 58 37 56 58 37 56 58 37 56 58 37 56 58 37 56 56 37 56 51 34 52 49 35 52 49 35 52 49 35 52 49 35 52 49 35 52 49 35 52 49 35 52 43 29 46 45 31 48 47 33 50 50 36 53 54 40 57 57 43 60 59 45 62 64 46 62 66 42 58 71 43 58 73 45 60 76 48 63 80 52 67 83 55 70 85 57 72 87 59 74 97 69 84 97 69 84 96 68 83 95 67 82 95 67 82 94 66 81 93 65 80 90 66 82 70 53 69 65 52 69 63 50 67 60 47 64 56 43 60 53 40 57 51 38 55 49 36 53 44 31 48 46 33 50 48 35 52 51 38 55 55 42 59 58 45 62 60 47 64 61 50 67 53 44 63 52 44 65 52 44 65 52 44 65 52 44 65 52 44 65 52 44 65 52 44 65 53 45 66 55 47 68 57 49 70 60 52 73 64 56 77 67 59 80 69 61 82 72 63 80 93 82 90 94 82 84 94 82 84 94 82 84 94 82 84 94 82 84 94 82 84 94 82 84 97 85 87 97 85 87 97 85 87 97 85 87 97 85 87 97 85 87 97 85 87 99 84 87 108 87 96 109 86 96 109 86 96 109 86 96 109 86 96 109 86 96 109 86 96 109 86 96 103 80 90 103 80 90 103 80 90 103 80 90 103 80 90 103 80 90 103 80 90 106 78 92 100 65 85 103 63 87 103 63 87 103 63 87 103 63 87 103 63 87 103 63 87 103 63 87 110 70 94 108 68 92 106 66 90 103 63 87 99 59 83 96 56 80 94 54 78 87 55 76 52 38 53 47 41 53 47 41 53 47 41 53 47 41 53 47 41 53 47 41 53 47 41 53 60 54 66 58 52 64
79 70 75 79 70 75 79 70 75 79 70 75 79 69 77 69 61 72 68 60 73 65 57 70 62 54 67 59 51 64 56 48 61 53 45 58 52 44 57 46 38 51 46 38 51 46 38 51 46 38 51 46 38 51 46 38 51 46 38 51 46 38 49 56 44 56 56 44 54 56 44 54 56 44 54 56 44 54 56 44 54 56 44 54 56 44 54 55 43 53 55 43 53 55 43 53 55 43 53 55 43 53 55 43 53 55 43 53 52 44 55 39 39 51 34 40 52 36 40 52 34 40 52 36 40 52 34 40 52 36 40 52 34 40 52 37 41 53 35 41 53 37 41 53 35 41 53 37 41 53 35 41 53 37 41 53 38 40 53 50 47 64 51 47 64 51 47 64 51 47 64 51 47 64 51 47 64 51 47 64 51 47 64 49 45 62 49 45 62 49 45 62 49 45 62 49 45 62 49 45 62 49 45 62 52 43 60 55 36 56 58 35 55 59 34 55 58 35 55 59 34 55 58 35 55 59 34 55 58 35 55 60 35 56 59 36 56 60 35 56 59 36 56 60 35 56 59 36 56 60 35 56 58 37 56 51 34 52 49 35 52 49 35 52 49 35 52 49 35 52 49 35 52 49 35 52 49 35 52 43 29 46 45 31 48 47 33 50 50 36 53 54 40 57 57 43 60 59 45 62 64 46 62 70 46 62 74 46 61 76 48 63 80 52 67 83 55 70 86 58 73 89 61 76 90 62 77 101 73 88 100 72 87 99 71 86 96 68 83 94 66 81 91 63 78 90 62 77 86 62 78 66 49 65 62 49 66 60 47 64 56 43 60 53 40 57 50 37 54 47 34 51 46 33 50 44 31 48 46 33 50 48 35 52 51 38 55 55 42 59 58 45 62 60 47 64 61 50 67 53 44 65 52 44 67 52 44 68 52 44 67 52 44 68 52 44 67 52 44 68 52 44 67 57 49 73 58 50 73 60 52 76 64 56 79 67 59 83 70 62 85 73 65 89 75 66 85 93 82 90 94 82 84 94 82 84 94 82 84 94 82 84 94 82 84 94 82 84 94 82 84 97 85 87 97 85 87 97 85 87 97 85 87 97 85 87 97 85 87 97 85 87 99 84 87 108 87 96 109 86 96 109 86 96 109 86 96 109 86 96 109 86 96 109 86 96 109 86 96 100 77 87 100 77 87 100 77 87 100 77 87 100 77 87 100 77 87 100 77 87 103 75 89 100 65 85 103 63 87 103 63 87 103 63 87 103 63 87 103 63 87 103 63 87 103 63 87 110 70 94 108 68 92 106 66 90 103 63 87 99 59 83 96 56 80 94 54 78 87 55 76 52 38 53 47 41 53 47 41 53 47 41 53 47 41 53 47 41 53 47 41 53 47 41 53 60 54 66 58 52 64
79 70 75 79 70 75 79 70 75 79 70 75 79 69 77 76 68 79 75 67 80 72 64 77 69 61 74 66 58 71 63 55 68 60 52 65 59 51 64 46 38 51 46 38 51 46 38 51 46 38 51 46 38 51 46 38 51 46 38 51 46 38 49 52 40 52 52 40 50 52 40 50 52 40 50 52 40 50 52 40 50 52 40 50 52 40 50 51 39 49 51 39 49 51 39 49 51 39 49 51 39 49 51 39 49 51 39 49 48 40 51 37 39 51 33 41 52 34 40 52 33 41 52 34 40 52 33 41 52 34 40 52 33 41 52 35 41 53 34 42 53 35 41 53 34 42 53 35 41 53 34 42 53 35 41 53 37 41 53 50 47 64 51 47 64 51 47 64 51 47 64 51 47 64 51 47 64 51 47 64 51 47 64 49 45 62 49 45 62 49 45 62 49 45 62 49 45 62 49 45 62 49 45 62 54 43 60 57 35 56 59 34 55 61 33 55 59 34 55 61 33 55 59 34 55 61 33 55 59 34 55 62 34 56 60 35 56 62 34 56 60 35 56 62 34 56 60 35 56 62 34 56 59 36 56 51 34 52 49 35 52 49 35 52 49 35 52 49 35 52 49 35 52 49 35 52 49 35 52 43 29 46 45 31 48 47 33 50 50 36 53 54 40 57 57 43 60 59 45 62 64 46 62 73 49 65 77 49 64 80 52 67 83 55 70 86 58 73 90 62 77 92 64 79 93 65 80 106 78 93 104 76 91 101 73 88 97 69 84 93 65 80 89 61 76 86 58 73 81 57 73 63 46 62 59 46 63 56 43 60 53 40 57 50 37 54 46 33 50 44 31 48 43 30 47 44 31 48 46 33 50 48 35 52 51 38 55 55 42 59 58 45 62 60 47 64 61 50 67 53 43 67 52 44 68 52 43 70 52 44 68 52 43 70 52 44 68 52 43 70 52 44 68 60 51 78 61 53 77 64 55 82 67 59 83 70 61 88 74 66 90 76 67 94 78 69 88 93 82 90 94 82 84 94 82 84 94 82 84 94 82 84 94 82 84 94 82 84 94 82 84 97 85 87 97 85 87 97 85 87 97 85 87 97 85 87 97 85 87 97 85 87 99 84 87 108 87 96 109 86 96 109 86 96 109 86 96 109 86 96 109 86 96 109 86 96 109 86 96 96 73 83 96 73 83 96 73 83 96 73 83 96 73 83 96 73 83 96 73 83 99 71 85 100 65 85 103 63 87 103 63 87 103 63 87 103 63 87 103 63 87 103 63 87 103 63 87 110 70 94 108 68 92 106 66 90 103 63 87 99 59 83 96 56 80 94 54 78 87 55 76 52 38 53 47 41 53 47 41 53 47 41 53 47 41 53 47 41 53 47 41 53 47 41 53 60 54 66 58 52 64
79 70 75 79 70 75 79 70 75 79 70 75 79 69 77 82 74 85 81 73 86 79 71 84 76 68 81 72 64 77 69 61 74 66 58 71 65 57 70 46 38 51 46 38 51 46 38 51 46 38 51 46 38 51 46 38 51 46 38 51 46 38 49 49 37 49 49 37 47 49 37 47 49 37 47 49 37 47 49 37 47 49 37 47 49 37 47 48 36 46 48 36 46 48 36 46 48 36 46 48 36 46 48 36 46 48 36 46 44 38 48 36 40 51 32 42 52 33 41 52 32 42 52 33 41 52 32 42 52 33 41 52 32 42 52 34 42 53 33 43 53 34 42 53 33 43 53 34 42 53 33 43 53 34 42 53 35 41 53 49 48 64 51 47 64 51 47 64 51 47 64 51 47 64 51 47 64 51 47 64 51 47 64 49 45 62 49 45 62 49 45 62 49 45 62 49 45 62 49 45 62 49 45 62 54 43 60 58 34 56 61 33 55 62 33 55 61 33 55 62 33 55 61 33 55 62 33 55 61 33 55 63 34 56 62 34 56 63 34 56 62 34 56 63 34 56 62 34 56 63 34 56 60 35 56 52 33 52 49 35 52 49 35 52 49 35 52 49 35 52 49 35 52 49 35 52 49 35 52 43 29 46 45 31 48 47 33 50 50 36 53 54 40 57 57 43 60 59 45 62 64 46 62 76 52 68 81 53 68 83 55 70 86 58 73 90 62 77 93 65 80 95 67 82 97 69 84 110 82 97 108 80 95 104 76 91 98 70 85 92 64 79 86 58 73 82 54 69 77 53 69 60 43 59 55 42 59 53 40 57 50 37 54 46 33 50 43 30 47 41 28 45 39 26 43 44 31 48 46 33 50 48 35 52 51 38 55 55 42 59 58 45 62 60 47 64 61 49 69 53 43 68 52 43 70 52 43 72 52 43 70 52 43 72 52 43 70 52 43 72 52 43 70 63 54 83 65 56 83 67 58 87 70 61 88 74 65 94 77 68 95 79 70 99 82 73 94 93 82 90 94 82 84 94 82 84 94 82 84 94 82 84 94 82 84 94 82 84 94 82 84 97 85 87 97 85 87 97 85 87 97 85 87 97 85 87 97 85 87 97 85 87 99 84 87 108 87 96 109 86 96 109 86 96 109 86 96 109 86 96 109 86 96 109 86 96 109 86 96 93 70 80 93 70 80 93 70 80 93 70 80 93 70 80 93 70 80 93 70 80 96 68 82 100 65 85 103 63 87 103 63 87 103 63 87 103 63 87 103 63 87 103 63 87 103 63 87 110 70 94 108 68 92 106 66 90 103 63 87 99 59 83 96 56 80 94 54 78 87 55 76 52 38 53 47 41 53 47 41 53 47 41 53 47 41 53 47 41 53 47 41 53 47 41 53 60 54 66 58 52 64
79 70 75 79 70 75 79 70 75 79 70 75 79 69 77 87 79 90 86 78 91 84 76 89 80 72 85 77 69 82 74 66 79 71 63 76 70 62 75 46 38 51 46 38 51 46 38 51 46 38 51 46 38 51 46 38 51 46 38 51 46 38 49 47 35 47 47 35 45 47 35 45 47 35 45 47 35 45 47 35 45 47 35 45 47 35 45 46 34 44 46 34 44 46 34 44 46 34 44 46 34 44 46 34 44 46 34 44 42 36 46 34 41 51 30 43 52 32 42 52 30 43 52 32 42 52 30 43 52 32 42 52 30 43 52 33 43 53 31 44 53 33 43 53 31 44 53 33 43 53 31 44 53 33 43 53 34 42 53 49 48 64 51 47 64 51 47 64 51 47 64 51 47 64 51 47 64 51 47 64 51 47 64 49 45 62 49 45 62 49 45 62 49 45 62 49 45 62 49 45 62 49 45 62 54 43 60 58 34 56 62 33 55 64 32 55 62 33 55 64 32 55 62 33 55 64 32 55 62 33 55 65 33 56 63 34 56 65 33 56 63 34 56 65 33 56 63 34 56 65 33 56 62 34 56 52 33 52 49 35 52 49 35 52 49 35 52 49 35 52 49 35 52 49 35 52 49 35 52 43 29 46 45 31 48 47 33 50 50 36 53 54 40 57 57 43 60 59 45 62 64 46 62 79 55 71 83 55 70 85 57 72 89 61 76 92 64 79 95 67 82 98 70 85 99 71 86 114 86 101 111 83 98 106 78 93 99 71 86 91 63 78 84 56 71 79 51 66 73 49 65 57 40 56 53 40 57 51 38 55 47 34 51 44 31 48 41 28 45 38 25 42 37 24 41 44 31 48 46 33 50 48 35 52 51 38 55 55 42 59 58 45 62 60 47 64 61 49 69 53 43 70 52 43 72 52 43 74 52 43 72 52 43 74 52 43 72 52 43 74 52 43 72 66 57 88 67 58 87 69 60 91 73 64 93 76 67 98 79 70 99 82 73 104 84 74 98 93 81 91 94 82 84 94 82 84 94 82 84 94 82 84 94 82 84 94 82 84 94 82 84 97 85 87 97 85 87 97 85 87 97 85 87 97 85 87 97 85 87 97 85 87 99 84 87 108 87 96 109 86 96 109 86 96 109 86 96 109 86 96 109 86 96 109 86 96 109 86 96 91 68 78 91 68 78 91 68 78 91 68 78 91 68 78 91 68 78 91 68 78 94 66 80 100 65 85 103 63 87 103 63 87 103 63 87 103 63 87 103 63 87 103 63 87 103 63 87 110 70 94 108 68 92 106 66 90 103 63 87 99 59 83 96 56 80 94 54 78 87 55 76 52 38 53 47 41 53 47 41 53 47 41 53 47 41 53 47 41 53 47 41 53 47 41 53 60 54 66 58 52 64
79 70 75 79 70 75 79 70 75 79 70 75 77 70 77 90 82 93 88 82 92 86 78 91 82 76 86 80 72 85 75 69 79 74 66 79 72 66 76 46 38 51 45 39 49 46 38 51 45 39 49 46 38 51 45 39 49 46 38 51 46 38 51 42 34 47 42 34 47 42 34 47 42 34 47 42 34 47 42 34 47 42 34 47 42 34 47 41 33 46 41 33 46 41 33 46 41 33 46 41 33 46 41 33 46 41 33 46 38 35 46 34 40 52 32 42 52 32 42 52 32 42 52 32 42 52 32 42 52 32 42 52 32 42 52 33 43 53 33 43 53 33 43 53 33 43 53 33 43 53 33 43 53 33 43 53 35 41 53 49 48 62 51 47 62 51 47 64 51 47 62 51 47 64 51 47 62 51 47 64 51 47 62 49 45 62 49 45 60 49 45 62 49 45 60 49 45 62 49 45 60 49 45 62 54 43 60 57 36 55 61 34 53 61 33 55 61 34 53 61 33 55 61 34 53 61 33 55 61 34 53 62 34 56 62 35 54 62 34 56 62 35 54 62 34 56 62 35 54 62 34 56 59 36 56 49 35 52 47 36 52 47 36 53 47 36 52 47 36 53 47 36 52 47 36 53 47 36 52 41 30 47 43 32 48 45 34 51 48 37 53 52 41 58 55 44 60 57 46 63 61 47 64 78 57 72 81 57 71 84 60 76 87 63 77 90 66 82 94 70 84 96 72 88 97 73 87 113 89 105 110 86 100 104 80 96 96 72 86 88 64 80 80 56 70 74 50 66 69 48 63 53 40 58 48 41 57 46 37 56 42 35 51 40 31 50 35 28 44 34 25 44 32 25 41 41 32 51 42 35 51 45 36 55 47 40 56 52 43 62 54 47 63 57 48 67 58 50 71 52 44 68 52 43 70 52 43 70 52 43 70 52 43 70 52 43 70 52 43 70 52 43 70 67 58 85 68 59 86 71 62 89 74 65 92 77 68 95 81 72 99 83 74 101 85 76 97 93 82 90 94 82 84 94 82 84 94 82 84 94 82 84 94 82 84 94 82 84 94 82 84 97 85 87 97 85 87 97 85 87 97 85 87 97 85 87 97 85 87 97 85 87 99 84 89 108 87 96 109 86 96 111 85 98 109 86 96 111 85 98 109 86 96 111 85 98 109 86 96 91 65 78 89 66 76 91 65 78 89 66 76 91 65 78 89 66 76 91 65 78 92 64 78 100 65 85 103 63 87 103 63 87 103 63 87 103 63 87 103 63 87 103 63 87 103 63 87 110 70 94 108 68 92 106 66 90 103 63 87 99 59 83 96 56 80 94 54 78 87 55 76 51 39 53 45 42 53 45 42 53 45 42 53 45 42 53 45 42 53 45 42 53 45 42 53 58 55 66 56 53 64
80 74 78 80 74 78 80 74 78 80 74 78 80 73 80 82 77 84 80 77 84 82 76 86 80 77 84 82 76 86 80 77 84 82 76 86 80 77 84 66 60 70 61 58 65 58 52 62 50 47 54 45 39 49 37 34 41 34 28 38 29 26 37 41 39 53 41 38 55 41 38 55 41 38 55 41 38 55 41 38 55 41 38 55 41 38 55 38 35 52 38 35 52 38 35 52 38 35 52 38 35 52 38 35 52 38 35 52 37 36 52 36 39 54 34 40 54 34 40 54 34 40 54 34 40 54 34 40 54 34 40 54 34 40 54 42 48 62 42 48 62 42 48 62 42 48 62 42 48 62 42 48 62 42 48 62 44 48 60 58 56 70 61 55 69 61 54 70 61 55 69 61 54 70 61 55 69 61 54 70 61 55 69 57 50 66 57 51 65 57 50 66 57 51 65 57 50 66 57 51 65 57 50 66 58 50 65 51 37 52 53 37 50 53 36 52 53 37 50 53 36 52 53 37 50 53 36 52 53 37 50 61 44 60 61 45 58 61 44 60 61 45 58 61 44 60 61 45 58 61 44 60 59 45 60 50 43 59 48 44 59 48 44 61 48 44 59 48 44 61 48 44 59 48 44 61 48 44 59 48 44 61 48 44 59 48 44 61 48 44 59 48 44 61 48 44 59 48 44 61 50 43 59 67 55 69 71 55 68 74 57 73 77 61 74 80 63 79 84 68 81 86 69 85 87 71 84 91 74 90 88 72 85 83 66 82 77 61 74 70 53 69 64 48 61 59 42 58 53 40 57 36 33 52 32 35 54 33 34 55 32 35 54 33 34 55 32 35 54 33 34 55 32 35 54 44 45 66 43 46 65 44 45 66 43 46 65 44 45 66 43 46 65 44 45 66 46 44 65 55 51 68 60 51 68 62 53 70 65 56 73 69 60 77 72 63 80 74 65 82 76 67 84 82 73 90 82 73 90 82 73 90 82 73 90 82 73 90 82 73 90 82 73 90 82 74 87 91 80 88 91 80 84 91 80 84 91 80 84 91 80 84 91 80 84 91 80 84 91 80 84 100 89 93 100 89 93 100 89 93 100 89 93 100 89 93 100 89 93 100 89 93 103 88 93 99 75 88 101 75 88 102 74 89 101 75 88 102 74 89 101 75 88 102 74 89 101 75 88 93 65 80 92 66 79 93 65 80 92 66 79 93 65 80 92 66 79 93 65 80 95 64 80 94 56 77 95 55 79 95 55 79 95 55 79 95 55 79 95 55 79 95 55 79 95 55 79 89 49 73 93 53 77 99 59 83 101 61 85 98 58 82 89 49 73 79 39 63 65 36 56 49 39 50 42 42 50 42 42 50 42 42 50 42 42 50 42 42 50 42 42 50 42 42 50 42 42 50 40 40 48
80 74 78 80 74 78 80 74 78 80 74 78 79 74 78 82 77 84 80 77 84 80 77 84 80 77 84 80 77 84 80 77 84 80 77 84 80 77 84 65 62 69 62 59 66 57 54 61 51 48 55 44 41 48 38 35 42 33 30 37 29 27 38 40 39 55 38 39 59 38 39 59 38 39 59 38 39 59 38 39 59 38 39 59 38 39 59 35 36 56 35 36 56 35 36 56 35 36 56 35 36 56 35 36 56 35 36 56 35 36 54 36 39 56 36 39 54 36 39 54 36 39 54 36 39 54 36 39 54 36 39 54 36 39 54 44 47 62 44 47 62 44 47 62 44 47 62 44 47 62 44 47 62 44 47 62 45 47 60 59 55 70 61 55 69 61 55 69 61 55 69 61 55 69 61 55 69 61 55 69 61 55 69 59 53 67 59 53 67 59 53 67 59 53 67 59 53 67 59 53 67 59 53 67 60 52 65 51 40 54 52 40 52 52 40 52 52 40 52 52 40 52 52 40 52 52 40 52 52 40 52 58 46 58 58 46 58 58 46 58 58 46 58 58 46 58 58 46 58 58 46 58 55 47 60 48 44 59 46 45 61 46 45 61 46 45 61 46 45 61 46 45 61 46 45 61 46 45 61 46 45 61 46 45 61 46 45 61 46 45 61 46 45 61 46 45 61 46 45 61 47 45 59 65 54 70 67 55 69 69 57 71 73 61 75 76 64 78 79 67 81 82 70 84 83 71 85 87 75 89 84 72 86 79 67 81 73 61 75 66 54 68 60 48 62 55 43 57 48 41 57 33 34 54 29 35 57 29 35 57 29 35 57 29 35 57 29 35 57 29 35 57 29 35 57 40 46 68 40 46 68 40 46 68 40 46 68 40 46 68 40 46 68 40 46 68 43 46 65 55 51 66 60 52 65 62 54 67 65 57 70 69 61 74 72 64 77 74 66 79 76 68 81 82 74 87 82 74 87 82 74 87 82 74 87 82 74 87 82 74 87 82 74 87 82 74 85 91 80 86 91 80 84 91 80 84 91 80 84 91 80 84 91 80 84 91 80 84 91 80 84 100 89 93 100 89 93 100 89 93 100 89 93 100 89 93 100 89 93 100 89 93 103 88 95 99 75 88 102 74 89 102 74 89 102 74 89 102 74 89 102 74 89 102 74 89 102 74 89 93 65 80 93 65 80 93 65 80 93 65 80 93 65 80 93 65 80 93 65 80 95 64 80 94 56 79 95 55 79 95 55 79 95 55 79 95 55 79 95 55 79 95 55 79 95 55 79 89 49 73 93 53 77 99 59 83 101 61 85 98 58 82 89 49 73 79 39 63 65 36 56 47 39 50 40 43 50 40 43 50 40 43 50 40 43 50 40 43 50 40 43 50 40 43 50 40 43 50 38 41 48
80 74 78 80 74 78 80 74 78 80 74 78 79 74 78 82 77 84 80 77 84 80 77 84 80 77 84 80 77 84 80 77 84 80 77 84 80 77 84 67 64 71 65 62 69 60 57 64 54 51 58 47 44 51 40 37 44 35 32 39 32 30 41 40 39 55 38 39 59 38 39 59 38 39 59 38 39 59 38 39 59 38 39 59 38 39 59 35 36 56 35 36 56 35 36 56 35 36 56 35 36 56 35 36 56 35 36 56 35 36 54 36 39 56 36 39 54 36 39 54 36 39 54 36 39 54 36 39 54 36 39 54 36 39 54 44 47 62 44 47 62 44 47 62 44 47 62 44 47 62 44 47 62 44 47 62 45 47 60 59 55 70 61 55 69 61 55 69 61 55 69 61 55 69 61 55 69 61 55 69 61 55 69 61 55 69 61 55 69 61 55 69 61 55 69 61 55 69 61 55 69 61 55 69 62 54 67 56 45 59 57 45 57 57 45 57 57 45 57 57 45 57 57 45 57 57 45 57 57 45 57 58 46 58 58 46 58 58 46 58 58 46 58 58 46 58 58 46 58 58 46 58 55 47 60 48 44 59 46 45 61 46 45 61 46 45 61 46 45 61 46 45 61 46 45 61 46 45 61 46 45 61 46 45 61 46 45 61 46 45 61 46 45 61 46 45 61 46 45 61 47 45 59 62 51 67 65 53 67 67 55 69 70 58 72 74 62 76 77 65 79 79 67 81 81 69 83 84 72 86 82 70 84 77 65 79 70 58 72 63 51 65 57 45 59 52 40 54 46 39 55 33 34 54 29 35 57 29 35 57 29 35 57 29 35 57 29 35 57 29 35 57 29 35 57 40 46 68 40 46 68 40 46 68 40 46 68 40 46 68 40 46 68 40 46 68 43 46 65 55 51 66 60 52 65 62 54 67 65 57 70 69 61 74 72 64 77 74 66 79 76 68 81 82 74 87 82 74 87 82 74 87 82 74 87 82 74 87 82 74 87 82 74 87 82 74 85 91 80 86 91 80 84 91 80 84 91 80 84 91 80 84 91 80 84 91 80 84 91 80 84 100 89 93 100 89 93 100 89 93 100 89 93 100 89 93 100 89 93 100 89 93 103 88 95 99 75 88 102 74 89 102 74 89 102 74 89 102 74 89 102 74 89 102 74 89 102 74 89 93 65 80 93 65 80 93 65 80 93 65 80 93 65 80 93 65 80 93 65 80 95 64 80 94 56 79 95 55 79 95 55 79 95 55 79 95 55 79 95 55 79 95 55 79 95 55 79 89 49 73 93 53 77 99 59 83 101 61 85 98 58 82 89 49 73 79 39 63 65 36 56 47 39 50 40 43 50 40 43 50 40 43 50 40 43 50 40 43 50 40 43 50 40 43 50 40 43 50 38 41 48
80 74 78 80 74 78 80 74 78 80 74 78 79 74 78 82 77 84 80 77 84 80 77 84 80 77 84 80 77 84 80 77 84 80 77 84 80 77 84 71 68 75 68 65 72 63 60 67 57 54 61 50 47 54 43 40 47 39 36 43 35 33 44 40 39 55 38 39 59 38 39 59 38 39 59 38 39 59 38 39 59 38 39 59 38 39 59 35 36 56 35 36 56 35 36 56 35 36 56 35 36 56 35 36 56 35 36 56 35 36 54 36 39 56 36 39 54 36 39 54 36 39 54 36 39 54 36 39 54 36 39 54 36 39 54 44 47 62 44 47 62 44 47 62 44 47 62 44 47 62 44 47 62 44 47 62 45 47 60 59 55 70 61 55 69 61 55 69 61 55 69 61 55 69 61 55 69 61 55 69 61 55 69 64 58 72 64 58 72 64 58 72 64 58 72 64 58 72 64 58 72 64 58 72 65 57 70 63 52 66 64 52 64 64 52 64 64 52 64 64 52 64 64 52 64 64 52 64 64 52 64 58 46 58 58 46 58 58 46 58 58 46 58 58 46 58 58 46 58 58 46 58 55 47 60 48 44 59 46 45 61 46 45 61 46 45 61 46 45 61 46 45 61 46 45 61 46 45 61 46 45 61 46 45 61 46 45 61 46 45 61 46 45 61 46 45 61 46 45 61 47 45 59 59 48 64 61 49 63 64 52 66 67 55 69 70 58 72 74 62 76 76 64 78 77 65 79 81 69 83 78 66 80 74 62 76 67 55 69 60 48 62 54 42 56 49 37 51 42 35 51 33 34 54 29 35 57 29 35 57 29 35 57 29 35 57 29 35 57 29 35 57 29 35 57 40 46 68 40 46 68 40 46 68 40 46 68 40 46 68 40 46 68 40 46 68 43 46 65 55 51 66 60 52 65 62 54 67 65 57 70 69 61 74 72 64 77 74 66 79 76 68 81 82 74 87 82 74 87 82 74 87 82 74 87 82 74 87 82 74 87 82 74 87 82 74 85 91 80 86 91 80 84 91 80 84 91 80 84 91 80 84 91 80 84 91 80 84 91 80 84 100 89 93 100 89 93 100 89 93 100 89 93 100 89 93 100 89 93 100 89 93 103 88 95 99 75 88 102 74 89 102 74 89 102 74 89 102 74 89 102 74 89 102 74 89 102 74 89 93 65 80 93 65 80 93 65 80 93 65 80 93 65 80 93 65 80 93 65 80 95 64 80 94 56 79 95 55 79 95 55 79 95 55 79 95 55 79 95 55 79 95 55 79 95 55 79 89 49 73 93 53 77 99 59 83 101 61 85 98 58 82 89 49 73 79 39 63 65 36 56 47 39 50 40 43 50 40 43 50 40 43 50 40 43 50 40 43 50 40 43 50 40 43 50 40 43 50 38 41 48
80 74 78 80 74 78 80 74 78 80 74 78 79 74 78 82 77 84 80 77 84 80 77 84 80 77 84 80 77 84 80 77 84 80 77 84 80 77 84 74 71 78 71 68 75 67 64 71 60 57 64 53 50 57 47 44 51 42 39 46 38 36 47 40 39 55 38 39 59 38 39 59 38 39 59 38 39 59 38 39 59 38 39 59 38 39 59 35 36 56 35 36 56 35 36 56 35 36 56 35 36 56 35 36 56 35 36 56 35 36 54 36 39 56 36 39 54 36 39 54 36 39 54 36 39 54 36 39 54 36 39 54 36 39 54 44 47 62 44 47 62 44 47 62 44 47 62 44 47 62 44 47 62 44 47 62 45 47 60 59 55 70 61 55 69 61 55 69 61 55 69 61 55 69 61 55 69 61 55 69 61 55 69 68 62 76 68 62 76 68 62 76 68 62 76 68 62 76 68 62 76 68 62 76 69 61 74 69 58 72 70 58 70 70 58 70 70 58 70 70 58 70 70 58 70 70 58 70 70 58 70 58 46 58 58 46 58 58 46 58 58 46 58 58 46 58 58 46 58 58 46 58 55 47 60 48 44 59 46 45 61 46 45 61 46 45 61 46 45 61 46 45 61 46 45 61 46 45 61 46 45 61 46 45 61 46 45 61 46 45 61 46 45 61 46 45 61 46 45 61 47 45 59 56 45 61 58 46 60 60 48 62 64 52 66 67 55 69 70 58 72 73 61 75 74 62 76 78 66 80 75 63 77 70 58 72 64 52 66 57 45 59 50 38 52 46 34 48 39 32 48 33 34 54 29 35 57 29 35 57 29 35 57 29 35 57 29 35 57 29 35 57 29 35 57 40 46 68 40 46 68 40 46 68 40 46 68 40 46 68 40 46 68 40 46 68 43 46 65 55 51 66 60 52 65 62 54 67 65 57 70 69 61 74 72 64 77 74 66 79 76 68 81 82 74 87 82 74 87 82 74 87 82 74 87 82 74 87 82 74 87 82 74 87 82 74 85 91 80 86 91 80 84 91 80 84 91 80 84 91 80 84 91 80 84 91 80 84 91 80 84 100 89 93 100 89 93 100 89 93 100 89 93 100 89 93 100 89 93 100 89 93 103 88 95 99 75 88 102 74 89 102 74 89 102 74 89 102 74 89 102 74 89 102 74 89 102 74 89 93 65 80 93 65 80 93 65 80 93 65 80 93 65 80 93 65 80 93 65 80 95 64 80 94 56 79 95 55 79 95 55 79 95 55 79 95 55 79 95 55 79 95 55 79 95 55 79 89 49 73 93 53 77 99 59 83 101 61 85 98 58 82 89 49 73 79 39 63 65 36 56 47 39 50 40 43 50 40 43 50 40 43 50 40 43 50 40 43 50 40 43 50 40 43 50 40 43 50 38 41 48
80 74 78 80 74 78 80 74 78 80 74 78 79 74 78 82 77 84 80 77 84 80 77 84 80 77 84 80 77 84 80 77 84 80 77 84 80 77 84 77 74 81 75 72 79 70 67 74 63 60 67 56 53 60 50 47 54 45 42 49 42 40 51 40 39 55 38 39 59 38 39 59 38 39 59 38 39 59 38 39 59 38 39 59 38 39 59 35 36 56 35 36 56 35 36 56 35 36 56 35 36 56 35 36 56 35 36 56 35 36 54 36 39 56 36 39 54 36 39 54 36 39 54 36 39 54 36 39 54 36 39 54 36 39 54 44 47 62 44 47 62 44 47 62 44 47 62 44 47 62 44 47 62 44 47 62 45 47 60 59 55 70 61 55 69 61 55 69 61 55 69 61 55 69 61 55 69 61 55 69 61 55 69 71 65 79 71 65 79 71 65 79 71 65 79 71 65 79 71 65 79 71 65 79 72 64 77 76 65 79 77 65 77 77 65 77 77 65 77 77 65 77 77 65 77 77 65 77 77 65 77 58 46 58 58 46 58 58 46 58 58 46 58 58 46 58 58 46 58 58 46 58 55 47 60 48 44 59 46 45 61 46 45 61 46 45 61 46 45 61 46 45 61 46 45 61 46 45 61 46 45 61 46 45 61 46 45 61 46 45 61 46 45 61 46 45 61 46 45 61 47 45 59 52 41 57 55 43 57 57 45 59 60 48 62 64 52 66 67 55 69 69 57 71 71 59 73 74 62 76 72 60 74 67 55 69 61 49 63 54 42 56 47 35 49 42 30 44 36 29 45 33 34 54 29 35 57 29 35 57 29 35 57 29 35 57 29 35 57 29 35 57 29 35 57 40 46 68 40 46 68 40 46 68 40 46 68 40 46 68 40 46 68 40 46 68 43 46 65 55 51 66 60 52 65 62 54 67 65 57 70 69 61 74 72 64 77 74 66 79 76 68 81 82 74 87 82 74 87 82 74 87 82 74 87 82 74 87 82 74 87 82 74 87 82 74 85 91 80 86 91 80 84 91 80 84 91 80 84 91 80 84 91 80 84 91 80 84 91 80 84 100 89 93 100 89 93 100 89 93 100 89 93 100 89 93 100 89 93 100 89 93 103 88 95 99 75 88 102 74 89 102 74 89 102 74 89 102 74 89 102 74 89 102 74 89 102 74 89 93 65 80 93 65 80 93 65 80 93 65 80 93 65 80 93 65 80 93 65 80 95 64 80 94 56 79 95 55 79 95 55 79 95 55 79 95 55 79 95 55 79 95 55 79 95 55 79 89 49 73 93 53 77 99 59 83 101 61 85 98 58 82 89 49 73 79 39 63 65 36 56 47 39 50 40 43 50 40 43 50 40 43 50 40 43 50 40 43 50 40 43 50 40 43 50 40 43 50 38 41 48
80 74 78 80 74 78 80 74 78 80 74 78 79 74 78 82 77 84 80 77 84 80 77 84 80 77 84 80 77 84 80 77 84 80 77 84 80 77 84 80 77 84 77 74 81 72 69 76 66 63 70 59 56 63 53 50 57 48 45 52 44 42 53 40 39 55 38 39 59 38 39 59 38 39 59 38 39 59 38 39 59 38 39 59 38 39 59 35 36 56 35 36 56 35 36 56 35 36 56 35 36 56 35 36 56 35 36 56 35 36 54 36 39 56 36 39 54 36 39 54 36 39 54 36 39 54 36 39 54 36 39 54 36 39 54 44 47 62 44 47 62 44 47 62 44 47 62 44 47 62 44 47 62 44 47 62 45 47 60 59 55 70 61 55 69 61 55 69 61 55 69 61 55 69 61 55 69 61 55 69 61 55 69 73 67 81 73 67 81 73 67 81 73 67 81 73 67 81 73 67 81 73 67 81 74 66 79 81 70 84 82 70 82 82 70 82 82 70 82 82 70 82 82 70 82 82 70 82 82 70 82 58 46 58 58 46 58 58 46 58 58 46 58 58 46 58 58 46 58 58 46 58 55 47 60 48 44 59 46 45 61 46 45 61 46 45 61 46 45 61 46 45 61 46 45 61 46 45 61 46 45 61 46 45 61 46 45 61 46 45 61 46 45 61 46 45 61 46 45 61 47 45 59 50 39 55 52 40 54 55 43 57 58 46 60 61 49 63 65 53 67 67 55 69 68 56 70 72 60 74 69 57 71 64 52 66 58 46 60 51 39 53 45 33 47 40 28 42 33 26 42 33 34 54 29 35 57 29 35 57 29 35 57 29 35 57 29 35 57 29 35 57 29 35 57 40 46 68 40 46 68 40 46 68 40 46 68 40 46 68 40 46 68 40 46 68 43 46 65 55 51 66 60 52 65 62 54 67 65 57 70 69 61 74 72 64 77 74 66 79 76 68 81 82 74 87 82 74 87 82 74 87 82 74 87 82 74 87 82 74 87 82 74 87 82 74 85 91 80 86 91 80 84 91 80 84 91 80 84 91 80 84 91 80 84 91 80 84 91 80 84 100 89 93 100 89 93 100 89 93 100 89 93 100 89 93 100 89 93 100 89 93 103 88 95 99 75 88 102 74 89 102 74 89 102 74 89 102 74 89 102 74 89 102 74 89 102 74 89 93 65 80 93 65 80 93 65 80 93 65 80 93 65 80 93 65 80 93 65 80 95 64 80 94 56 79 95 55 79 95 55 79 95 55 79 95 55 79 95 55 79 95 55 79 95 55 79 89 49 73 93 53 77 99 59 83 101 61 85 98 58 82 89 49 73 79 39 63 65 36 56 47 39 50 40 43 50 40 43 50 40 43 50 40 43 50 40 43 50 40 43 50 40 43 50 40 43 50 38 41 48
80 74 78 80 74 78 80 74 78 80 74 78 79 74 78 82 77 84 80 77 84 80 77 84 80 77 84 80 77 84 80 77 84 80 77 84 80 77 84 81 78 85 78 75 82 73 70 77 67 64 71 60 57 64 54 51 58 49 46 53 45 43 54 40 39 55 38 39 59 38 39 59 38 39 59 38 39 59 38 39 59 38 39 59 38 39 59 35 36 56 35 36 56 35 36 56 35 36 56 35 36 56 35 36 56 35 36 56 35 36 54 36 39 56 36 39 54 36 39 54 36 39 54 36 39 54 36 39 54 36 39 54 36 39 54 44 47 62 44 47 62 44 47 62 44 47 62 44 47 62 44 47 62 44 47 62 45 47 60 59 55 70 61 55 69 61 55 69 61 55 69 61 55 69 61 55 69 61 55 69 61 55 69 75 69 83 75 69 83 75 69 83 75 69 83 75 69 83 75 69 83 75 69 83 76 68 81 83 72 86 84 72 84 84 72 84 84 72 84 84 72 84 84 72 84 84 72 84 84 72 84 58 46 58 58 46 58 58 46 58 58 46 58 58 46 58 58 46 58 58 46 58 55 47 60 48 44 59 46 45 61 46 45 61 46 45 61 46 45 61 46 45 61 46 45 61 46 45 61 46 45 61 46 45 61 46 45 61 46 45 61 46 45 61 46 45 61 46 45 61 47 45 59 49 38 54 51 39 53 53 41 55 57 45 59 60 48 62 63 51 65 66 54 68 67 55 69 71 59 73 68 56 70 63 51 65 57 45 59 50 38 52 44 32 46 39 27 41 32 25 41 33 34 54 29 35 57 29 35 57 29 35 57 29 35 57 29 35 57 29 35 57 29 35 57 40 46 68 40 46 68 40 46 68 40 46 68 40 46 68 40 46 68 40 46 68 43 46 65 55 51 66 60 52 65 62 54 67 65 57 70 69 61 74 72 64 77 74 66 79 76 68 81 82 74 87 82 74 87 82 74 87 82 74 87 82 74 87 82 74 87 82 74 87 82 74 85 91 80 86 91 80 84 91 80 84 91 80 84 91 80 84 91 80 84 91 80 84 91 80 84 100 89 93 100 89 93 100 89 93 100 89 93 100 89 93 100 89 93 100 89 93 103 88 95 99 75 88 102 74 89 102 74 89 102 74 89 102 74 89 102 74 89 102 74 89 102 74 89 93 65 80 93 65 80 93 65 80 93 65 80 93 65 80 93 65 80 93 65 80 95 64 80 94 56 79 95 55 79 95 55 79 95 55 79 95 55 79 95 55 79 95 55 79 95 55 79 89 49 73 93 53 77 99 59 83 101 61 85 98 58 82 89 49 73 79 39 63 65 36 56 47 39 50 40 43 50 40 43 50 40 43 50 40 43 50 40 43 50 40 43 50 40 43 50 40 43 50 38 41 48
83 77 81 83 77 81 83 77 81 83 77 81 82 77 81 65 60 67 63 60 67 64 61 68 65 62 69 67 64 71 68 65 72 69 66 73 69 66 73 71 68 75 71 68 75 71 68 75 71 68 75 71 68 75 71 68 75 71 68 75 70 68 79 63 62 78 60 61 81 56 57 77 52 53 73 47 48 68 43 44 64 39 40 60 37 38 58 40 41 61 40 41 61 40 41 61 40 41 61 40 41 61 40 41 61 40 41 61 40 41 59 42 45 62 43 46 61 43 46 61 45 48 63 46 49 64 47 50 65 48 51 66 49 52 67 55 58 73 55 58 73 55 58 73 55 58 73 55 58 73 55 58 73 55 58 73 56 58 71 54 50 65 57 51 65 59 53 67 63 57 71 66 60 74 69 63 77 72 66 80 73 67 81 84 78 92 84 78 92 84 78 92 84 78 92 84 78 92 84 78 92 84 78 92 85 77 90 88 77 91 89 77 89 89 77 89 89 77 89 89 77 89 89 77 89 89 77 89 89 77 89 87 75 87 85 73 85 80 68 80 73 61 73 67 55 67 60 48 60 55 43 55 50 42 55 46 42 57 44 43 59 44 43 59 44 43 59 44 43 59 44 43 59 44 43 59 44 43 59 41 40 56 41 40 56 41 40 56 41 40 56 41 40 56 41 40 56 41 40 56 42 40 54 50 39 55 51 39 53 51 39 53 51 39 53 51 39 53 51 39 53 51 39 53 51 39 53 49 37 51 49 37 51 49 37 51 49 37 51 49 37 51 49 37 51 49 37 51 45 38 54 35 36 56 31 37 59 31 37 59 31 37 59 31 37 59 31 37 59 31 37 59 31 37 59 25 31 53 26 32 54 28 34 56 32 38 60 35 41 63 38 44 66 41 47 69 45 48 67 73 69 84 76 68 81 76 68 81 76 68 81 76 68 81 76 68 81 76 68 81 76 68 81 70 62 75 72 64 77 74 66 79 77 69 82 81 73 86 84 76 89 86 78 91 88 80 91 96 85 91 96 85 89 96 85 89 96 85 89 96 85 89 96 85 89 96 85 89 96 85 89 95 84 88 95 84 88 95 84 88 95 84 88 95 84 88 95 84 88 95 84 88 98 83 90 96 72 85 99 71 86 99 71 86 99 71 86 99 71 86 99 71 86 99 71 86 99 71 86 98 70 85 98 70 85 98 70 85 98 70 85 98 70 85 98 70 85 98 70 85 100 69 85 92 54 77 93 53 77 93 53 77 93 53 77 93 53 77 93 53 77 93 53 77 93 53 77 90 50 74 88 48 72 86 46 70 83 43 67 79 39 63 76 36 60 74 34 58 65 36 56 38 30 41 33 36 43 35 38 45 38 41 48 42 45 52 45 48 55 47 50 57 49 52 59 35 38 45 33 36 43
83 77 81 83 77 81 83 77 81 83 77 81 82 77 81 66 61 68 65 62 69 65 62 69 66 63 70 66 63 70 67 64 71 67 64 71 68 65 72 69 66 73 69 66 73 69 66 73 69 66 73 69 66 73 69 66 73 69 66 73 68 66 77 63 62 78 59 60 80 56 57 77 53 54 74 49 50 70 45 46 66 42 43 63 40 41 61 44 45 65 44 45 65 44 45 65 44 45 65 44 45 65 44 45 65 44 45 65 44 45 63 45 48 65 45 48 63 46 49 64 46 49 64 47 50 65 48 51 66 48 51 66 48 51 66 55 58 73 55 58 73 55 58 73 55 58 73 55 58 73 55 58 73 55 58 73 56 58 71 55 51 66 58 52 66 61 55 69 64 58 72 67 61 75 71 65 79 73 67 81 74 68 82 84 78 92 84 78 92 84 78 92 84 78 92 84 78 92 84 78 92 84 78 92 85 77 90 88 77 91 89 77 89 89 77 89 89 77 89 89 77 89 89 77 89 89 77 89 89 77 89 87 75 87 85 73 85 80 68 80 73 61 73 67 55 67 60 48 60 55 43 55 50 42 55 46 42 57 44 43 59 44 43 59 44 43 59 44 43 59 44 43 59 44 43 59 44 43 59 41 40 56 41 40 56 41 40 56 41 40 56 41 40 56 41 40 56 41 40 56 42 40 54 50 39 55 51 39 53 51 39 53 51 39 53 51 39 53 51 39 53 51 39 53 51 39 53 49 37 51 49 37 51 49 37 51 49 37 51 49 37 51 49 37 51 49 37 51 45 38 54 35 36 56 31 37 59 31 37 59 31 37 59 31 37 59 31 37 59 31 37 59 31 37 59 26 32 54 27 33 55 30 36 58 33 39 61 36 42 64 40 46 68 42 48 70 46 49 68 73 69 84 76 68 81 76 68 81 76 68 81 76 68 81 76 68 81 76 68 81 76 68 81 70 62 75 72 64 77 74 66 79 77 69 82 81 73 86 84 76 89 86 78 91 88 80 91 96 85 91 96 85 89 96 85 89 96 85 89 96 85 89 96 85 89 96 85 89 96 85 89 95 84 88 95 84 88 95 84 88 95 84 88 95 84 88 95 84 88 95 84 88 98 83 90 96 72 85 99 71 86 99 71 86 99 71 86 99 71 86 99 71 86 99 71 86 99 71 86 98 70 85 98 70 85 98 70 85 98 70 85 98 70 85 98 70 85 98 70 85 100 69 85 92 54 77 93 53 77 93 53 77 93 53 77 93 53 77 93 53 77 93 53 77 93 53 77 90 50 74 88 48 72 86 46 70 83 43 67 79 39 63 76 36 60 74 34 58 65 36 56 38 30 41 33 36 43 35 38 45 38 41 48 42 45 52 45 48 55 47 50 57 49 52 59 35 38 45 33 36 43
83 77 81 83 77 81 83 77 81 83 77 81 82 77 81 70 65 72 68 65 72 67 64 71 66 63 70 66 63 70 65 62 69 64 61 68 64 61 68 67 64 71 67 64 71 67 64 71 67 64 71 67 64 71 67 64 71 67 64 71 66 64 75 62 61 77 59 60 80 57 58 78 54 55 75 52 53 73 49 50 70 47 48 68 46 47 67 51 52 72 51 52 72 51 52 72 51 52 72 51 52 72 51 52 72 51 52 72 51 52 70 51 54 71 51 54 69 50 53 68 49 52 67 49 52 67 48 51 66 48 51 66 47 50 65 55 58 73 55 58 73 55 58 73 55 58 73 55 58 73 55 58 73 55 58 73 56 58 71 57 53 68 61 55 69 63 57 71 66 60 74 70 64 78 73 67 81 75 69 83 77 71 85 84 78 92 84 78 92 84 78 92 84 78 92 84 78 92 84 78 92 84 78 92 85 77 90 88 77 91 89 77 89 89 77 89 89 77 89 89 77 89 89 77 89 89 77 89 89 77 89 87 75 87 85 73 85 80 68 80 73 61 73 67 55 67 60 48 60 55 43 55 50 42 55 46 42 57 44 43 59 44 43 59 44 43 59 44 43 59 44 43 59 44 43 59 44 43 59 41 40 56 41 40 56 41 40 56 41 40 56 41 40 56 41 40 56 41 40 56 42 40 54 50 39 55 51 39 53 51 39 53 51 39 53 51 39 53 51 39 53 51 39 53 51 39 53 49 37 51 49 37 51 49 37 51 49 37 51 49 37 51 49 37 51 49 37 51 45 38 54 35 36 56 31 37 59 31 37 59 31 37 59 31 37 59 31 37 59 31 37 59 31 37 59 28 34 56 30 36 58 32 38 60 35 41 63 39 45 67 42 48 70 44 50 72 49 52 71 73 69 84 76 68 81 76 68 81 76 68 81 76 68 81 76 68 81 76 68 81 76 68 81 70 62 75 72 64 77 74 66 79 77 69 82 81 73 86 84 76 89 86 78 91 88 80 91 96 85 91 96 85 89 96 85 89 96 85 89 96 85 89 96 85 89 96 85 89 96 85 89 95 84 88 95 84 88 95 84 88 95 84 88 95 84 88 95 84 88 95 84 88 98 83 90 96 72 85 99 71 86 99 71 86 99 71 86 99 71 86 99 71 86 99 71 86 99 71 86 98 70 85 98 70 85 98 70 85 98 70 85 98 70 85 98 70 85 98 70 85 100 69 85 92 54 77 93 53 77 93 53 77 93 53 77 93 53 77 93 53 77 93 53 77 93 53 77 90 50 74 88 48 72 86 46 70 83 43 67 79 39 63 76 36 60 74 34 58 65 36 56 38 30 41 33 36 43 35 38 45 38 41 48 42 45 52 45 48 55 47 50 57 49 52 59 35 38 45 33 36 43
83 77 81 83 77 81 83 77 81 83 77 81 82 77 81 74 69 76 71 68 75 70 67 74 67 64 71 65 62 69 62 59 66 61 58 65 60 57 64 64 61 68 64 61 68 64 61 68 64 61 68 64 61 68 64 61 68 64 61 68 63 61 72 61 60 76 58 59 79 58 59 79 57 58 78 56 57 77 55 56 76 54 55 75 54 55 75 61 62 82 61 62 82 61 62 82 61 62 82 61 62 82 61 62 82 61 62 82 61 62 80 59 62 79 58 61 76 56 59 74 54 57 72 51 54 69 49 52 67 47 50 65 46 49 64 55 58 73 55 58 73 55 58 73 55 58 73 55 58 73 55 58 73 55 58 73 56 58 71 61 57 72 64 58 72 66 60 74 70 64 78 73 67 81 76 70 84 79 73 87 80 74 88 84 78 92 84 78 92 84 78 92 84 78 92 84 78 92 84 78 92 84 78 92 85 77 90 88 77 91 89 77 89 89 77 89 89 77 89 89 77 89 89 77 89 89 77 89 89 77 89 87 75 87 85 73 85 80 68 80 73 61 73 67 55 67 60 48 60 55 43 55 50 42 55 46 42 57 44 43 59 44 43 59 44 43 59 44 43 59 44 43 59 44 43 59 44 43 59 41 40 56 41 40 56 41 40 56 41 40 56 41 40 56 41 40 56 41 40 56 42 40 54 50 39 55 51 39 53 51 39 53 51 39 53 51 39 53 51 39 53 51 39 53 51 39 53 49 37 51 49 37 51 49 37 51 49 37 51 49 37 51 49 37 51 49 37 51 45 38 54 35 36 56 31 37 59 31 37 59 31 37 59 31 37 59 31 37 59 31 37 59 31 37 59 32 38 60 33 39 61 35 41 63 39 45 67 42 48 70 45 51 73 48 54 76 52 55 74 73 69 84 76 68 81 76 68 81 76 68 81 76 68 81 76 68 81 76 68 81 76 68 81 70 62 75 72 64 77 74 66 79 77 69 82 81 73 86 84 76 89 86 78 91 88 80 91 96 85 91 96 85 89 96 85 89 96 85 89 96 85 89 96 85 89 96 85 89 96 85 89 95 84 88 95 84 88 95 84 88 95 84 88 95 84 88 95 84 88 95 84 88 98 83 90 96 72 85 99 71 86 99 71 86 99 71 86 99 71 86 99 71 86 99 71 86 99 71 86 98 70 85 98 70 85 98 70 85 98 70 85 98 70 85 98 70 85 98 70 85 100 69 85 92 54 77 93 53 77 93 53 77 93 53 77 93 53 77 93 53 77 93 53 77 93 53 77 90 50 74 88 48 72 86 46 70 83 43 67 79 39 63 76 36 60 74 34 58 65 36 56 38 30 41 33 36 43 35 38 45 38 41 48 42 45 52 45 48 55 47 50 57 49 52 59 35 38 45 33 36 43
83 77 81 83 77 81 83 77 81 83 77 81 82 77 81 79 74 81 75 72 79 72 69 76 68 65 72 64 61 68 60 57 64 57 54 61 55 52 59 60 57 64 60 57 64 60 57 64 60 57 64 60 57 64 60 57 64 60 57 64 59 57 68 59 58 74 58 59 79 58 59 79 59 60 80 60 61 81 61 62 82 62 63 83 62 63 83 71 72 92 71 72 92 71 72 92 71 72 92 71 72 92 71 72 92 71 72 92 71 72 90 67 70 87 65 68 83 62 65 80 58 61 76 54 57 72 49 52 67 46 49 64 45 48 63 55 58 73 55 58 73 55 58 73 55 58 73 55 58 73 55 58 73 55 58 73 56 58 71 64 60 75 67 61 75 70 64 78 73 67 81 76 70 84 80 74 88 82 76 90 83 77 91 84 78 92 84 78 92 84 78 92 84 78 92 84 78 92 84 78 92 84 78 92 85 77 90 88 77 91 89 77 89 89 77 89 89 77 89 89 77 89 89 77 89 89 77 89 89 77 89 87 75 87 85 73 85 80 68 80 73 61 73 67 55 67 60 48 60 55 43 55 50 42 55 46 42 57 44 43 59 44 43 59 44 43 59 44 43 59 44 43 59 44 43 59 44 43 59 41 40 56 41 40 56 41 40 56 41 40 56 41 40 56 41 40 56 41 40 56 42 40 54 50 39 55 51 39 53 51 39 53 51 39 53 51 39 53 51 39 53 51 39 53 51 39 53 49 37 51 49 37 51 49 37 51 49 37 51 49 37 51 49 37 51 49 37 51 45 38 54 35 36 56 31 37 59 31 37 59 31 37 59 31 37 59 31 37 59 31 37 59 31 37 59 35 41 63 36 42 64 39 45 67 42 48 70 45 51 73 49 55 77 51 57 79 55 58 77 73 69 84 76 68 81 76 68 81 76 68 81 76 68 81 76 68 81 76 68 81 76 68 81 70 62 75 72 64 77 74 66 79 77 69 82 81 73 86 84 76 89 86 78 91 88 80 91 96 85 91 96 85 89 96 85 89 96 85 89 96 85 89 96 85 89 96 85 89 96 85 89 95 84 88 95 84 88 95 84 88 95 84 88 95 84 88 95 84 88 95 84 88 98 83 90 96 72 85 99 71 86 99 71 86 99 71 86 99 71 86 99 71 86 99 71 86 99 71 86 98 70 85 98 70 85 98 70 85 98 70 85 98 70 85 98 70 85 98 70 85 100 69 85 92 54 77 93 53 77 93 53 77 93 53 77 93 53 77 93 53 77 93 53 77 93 53 77 90 50 74 88 48 72 86 46 70 83 43 67 79 39 63 76 36 60 74 34 58 65 36 56 38 30 41 33 36 43 35 38 45 38 41 48 42 45 52 45 48 55 47 50 57 49 52 59 35 38 45 33 36 43
83 77 81 83 77 81 83 77 81 83 77 81 82 77 81 83 78 85 79 76 83 75 72 79 69 66 73 63 60 67 57 54 61 53 50 57 51 48 55 57 54 61 57 54 61 57 54 61 57 54 61 57 54 61 57 54 61 57 54 61 56 54 65 58 57 73 57 58 78 59 60 80 62 63 83 64 65 85 67 68 88 69 70 90 70 71 91 81 82 102 81 82 102 81 82 102 81 82 102 81 82 102 81 82 102 81 82 102 81 82 100 74 77 94 72 75 90 68 71 86 62 65 80 56 59 74 50 53 68 46 49 64 43 46 61 55 58 73 55 58 73 55 58 73 55 58 73 55 58 73 55 58 73 55 58 73 56 58 71 67 63 78 71 65 79 73 67 81 76 70 84 80 74 88 83 77 91 85 79 93 87 81 95 84 78 92 84 78 92 84 78 92 84 78 92 84 78 92 84 78 92 84 78 92 85 77 90 88 77 91 89 77 89 89 77 89 89 77 89 89 77 89 89 77 89 89 77 89 89 77 89 87 75 87 85 73 85 80 68 80 73 61 73 67 55 67 60 48 60 55 43 55 50 42 55 46 42 57 44 43 59 44 43 59 44 43 59 44 43 59 44 43 59 44 43 59 44 43 59 41 40 56 41 40 56 41 40 56 41 40 56 41 40 56 41 40 56 41 40 56 42 40 54 50 39 55 51 39 53 51 39 53 51 39 53 51 39 53 51 39 53 51 39 53 51 39 53 49 37 51 49 37 51 49 37 51 49 37 51 49 37 51 49 37 51 49 37 51 45 38 54 35 36 56 31 37 59 31 37 59 31 37 59 31 37 59 31 37 59 31 37 59 31 37 59 38 44 66 40 46 68 42 48 70 45 51 73 49 55 77 52 58 80 54 60 82 59 62 81 73 69 84 76 68 81 76 68 81 76 68 81 76 68 81 76 68 81 76 68 81 76 68 81 70 62 75 72 64 77 74 66 79 77 69 82 81 73 86 84 76 89 86 78 91 88 80 91 96 85 91 96 85 89 96 85 89 96 85 89 96 85 89 96 85 89 96 85 89 96 85 89 95 84 88 95 84 88 95 84 88 95 84 88 95 84 88 95 84 88 95 84 88 98 83 90 96 72 85 99 71 86 99 71 86 99 71 86 99 71 86 99 71 86 99 71 86 99 71 86 98 70 85 98 70 85 98 70 85 98 70 85 98 70 85 98 70 85 98 70 85 100 69 85 92 54 77 93 53 77 93 53 77 93 53 77 93 53 77 93 53 77 93 53 77 93 53 77 90 50 74 88 48 72 86 46 70 83 43 67 79 39 63 76 36 60 74 34 58 65 36 56 38 30 41 33 36 43 35 38 45 38 41 48 42 45 52 45 48 55 47 50 57 49 52 59 35 38 45 33 36 43
83 77 81 83 77 81 83 77 81 83 77 81 82 77 81 87 82 89 82 79 86 77 74 81 70 67 74 62 59 66 55 52 59 50 47 54 47 44 51 55 52 59 55 52 59 55 52 59 55 52 59 55 52 59 55 52 59 55 52 59 54 52 63 57 56 72 57 58 78 60 61 81 63 64 84 67 68 88 71 72 92 74 75 95 76 77 97 88 89 109 88 89 109 88 89 109 88 89 109 88 89 109 88 89 109 88 89 109 88 89 107 80 83 100 77 80 95 72 75 90 65 68 83 58 61 76 51 54 69 45 48 63 42 45 60 55 58 73 55 58 73 55 58 73 55 58 73 55 58 73 55 58 73 55 58 73 56 58 71 70 66 81 73 67 81 75 69 83 79 73 87 82 76 90 85 79 93 88 82 96 89 83 97 84 78 92 84 78 92 84 78 92 84 78 92 84 78 92 84 78 92 84 78 92 85 77 90 88 77 91 89 77 89 89 77 89 89 77 89 89 77 89 89 77 89 89 77 89 89 77 89 87 75 87 85 73 85 80 68 80 73 61 73 67 55 67 60 48 60 55 43 55 50 42 55 46 42 57 44 43 59 44 43 59 44 43 59 44 43 59 44 43 59 44 43 59 44 43 59 41 40 56 41 40 56 41 40 56 41 40 56 41 40 56 41 40 56 41 40 56 42 40 54 50 39 55 51 39 53 51 39 53 51 39 53 51 39 53 51 39 53 51 39 53 51 39 53 49 37 51 49 37 51 49 37 51 49 37 51 49 37 51 49 37 51 49 37 51 45 38 54 35 36 56 31 37 59 31 37 59 31 37 59 31 37 59 31 37 59 31 37 59 31 37 59 41 47 69 42 48 70 44 50 72 48 54 76 51 57 79 54 60 82 57 63 85 61 64 83 73 69 84 76 68 81 76 68 81 76 68 81 76 68 81 76 68 81 76 68 81 76 68 81 70 62 75 72 64 77 74 66 79 77 69 82 81 73 86 84 76 89 86 78 91 88 80 91 96 85 91 96 85 89 96 85 89 96 85 89 96 85 89 96 85 89 96 85 89 96 85 89 95 84 88 95 84 88 95 84 88 95 84 88 95 84 88 95 84 88 95 84 88 98 83 90 96 72 85 99 71 86 99 71 86 99 71 86 99 71 86 99 71 86 99 71 86 99 71 86 98 70 85 98 70 85 98 70 85 98 70 85 98 70 85 98 70 85 98 70 85 100 69 85 92 54 77 93 53 77 93 53 77 93 53 77 93 53 77 93 53 77 93 53 77 93 53 77 90 50 74 88 48 72 86 46 70 83 43 67 79 39 63 76 36 60 74 34 58 65 36 56 38 30 41 33 36 43 35 38 45 38 41 48 42 45 52 45 48 55 47 50 57 49 52 59 35 38 45 33 36 43
83 77 81 83 77 81 83 77 81 83 77 81 82 77 83 89 84 91 84 81 88 78 75 82 70 67 74 62 59 66 54 51 58 48 45 52 45 42 49 53 50 57 53 50 57 53 50 57 53 50 57 53 50 57 53 50 57 53 50 57 53 50 59 58 56 70 58 57 73 63 60 79 66 65 81 72 69 88 75 74 90 80 77 96 81 80 96 95 92 111 94 93 109 95 92 111 94 93 109 95 92 111 94 93 109 95 92 111 94 93 109 86 85 99 83 83 95 77 77 89 70 70 82 62 62 74 54 54 66 48 48 60 45 45 57 58 58 70 58 58 70 58 58 70 58 58 70 58 58 70 58 58 70 58 58 70 59 57 70 73 67 79 75 67 80 78 70 83 81 73 86 84 76 89 88 80 93 90 82 95 91 83 96 85 77 90 85 77 90 85 77 90 85 77 90 85 77 90 85 77 90 85 77 90 85 77 88 89 77 89 89 77 87 89 77 89 89 77 87 89 77 89 89 77 87 89 77 89 89 77 87 87 75 87 85 73 83 80 68 80 73 61 71 67 55 67 60 48 58 55 43 55 50 42 55 45 43 57 44 43 59 44 43 59 44 43 59 44 43 59 44 43 59 44 43 59 44 43 59 41 40 56 41 40 56 41 40 56 41 40 56 41 40 56 41 40 56 41 40 56 42 39 56 47 40 56 48 40 55 48 40 55 48 40 55 48 40 55 48 40 55 48 40 55 48 40 55 46 38 53 46 38 53 46 38 53 46 38 53 46 38 53 46 38 53 46 38 53 43 39 54 35 36 56 32 37 57 32 37 57 32 37 57 32 37 57 32 37 57 32 37 57 32 37 57 43 48 68 44 49 69 47 52 72 50 55 75 53 58 78 57 62 82 59 64 84 63 64 82 75 69 83 76 68 79 78 68 79 76 68 79 78 68 79 76 68 79 78 68 79 76 68 79 72 62 73 72 64 75 76 66 77 77 69 80 83 73 84 84 76 87 88 78 89 90 80 89 97 84 91 99 84 89 99 84 91 99 84 89 99 84 91 99 84 89 99 84 91 99 84 89 98 83 90 98 83 88 98 83 90 98 83 88 98 83 90 98 83 88 98 83 90 99 82 90 98 71 86 99 71 86 99 71 86 99 71 86 99 71 86 99 71 86 99 71 86 99 71 86 98 70 85 98 70 85 98 70 85 98 70 85 98 70 85 98 70 85 98 70 85 101 68 87 93 54 75 96 52 77 95 53 77 95 53 77 95 53 77 95 53 77 93 53 77 93 53 77 89 51 74 87 49 72 83 48 70 80 45 67 76 41 63 73 38 60 70 37 58 62 37 56 38 30 41 33 36 43 35 38 45 38 41 48 42 45 52 45 48 55 47 50 57 49 52 59 35 38 45 33 36 43
86 81 87 86 81 87 86 81 87 86 81 87 86 81 87 83 78 85 81 76 83 79 74 81 76 71 78 72 67 74 69 64 71 67 62 69 65 60 67 56 51 58 56 51 58 56 51 58 56 51 58 56 51 58 56 51 58 56 51 58 56 50 60 57 51 63 59 53 65 62 54 69 64 58 70 69 61 76 71 65 77 74 66 81 75 69 81 97 89 104 95 89 101 94 86 101 89 83 95 87 79 94 83 77 89 81 73 88 80 72 85 61 54 62 61 54 62 61 54 62 61 54 62 61 54 62 61 54 62 61 54 62 61 54 62 65 58 66 67 60 68 69 62 70 72 65 73 76 69 77 79 72 80 81 74 82 83 76 84 88 77 85 88 77 85 88 77 85 88 77 85 88 77 85 88 77 85 88 77 85 88 77 85 79 68 76 81 70 78 83 72 80 86 75 83 90 79 87 93 82 90 95 84 92 97 86 94 86 75 83 84 73 81 82 70 80 79 68 76 75 63 73 72 61 69 70 58 68 68 57 65 65 53 63 71 60 68 79 67 77 85 74 82 85 73 83 79 68 76 71 59 69 62 54 65 44 42 56 41 42 60 41 42 60 41 42 60 41 42 60 41 42 60 41 42 60 41 42 60 41 42 60 41 42 60 41 42 60 41 42 60 41 42 60 41 42 60 41 42 60 43 42 60 48 47 63 49 46 63 49 46 63 49 46 63 49 46 63 49 46 63 49 46 63 49 46 63 39 36 53 39 36 53 39 36 53 39 36 53 39 36 53 39 36 53 39 36 53 38 37 53 41 42 60 40 43 62 40 43 62 40 43 62 40 43 62 40 43 62 40 43 62 40 43 62 52 55 74 54 57 76 56 59 78 59 62 81 63 66 85 66 69 88 68 71 90 73 72 88 95 87 98 95 85 93 93 82 90 87 77 85 84 73 81 78 68 76 76 65 73 73 63 71 92 81 89 91 81 89 92 81 89 91 81 89 92 81 89 91 81 89 92 81 89 93 80 89 96 76 87 97 76 85 97 75 87 97 76 85 97 75 87 97 76 85 97 75 87 97 76 85 94 72 84 94 73 82 94 72 84 94 73 82 94 72 84 94 73 82 94 72 84 95 71 84 95 67 82 97 66 84 97 66 84 97 66 84 97 66 84 97 66 84 97 66 84 97 66 84 99 68 86 99 68 86 99 68 86 99 68 86 99 68 86 99 68 86 99 68 86 101 66 86 99 54 77 102 52 77 101 53 77 99 54 77 99 54 77 98 54 77 97 55 77 94 56 77 89 54 74 85 54 72 78 49 67 70 43 60 64 37 54 55 31 47 49 26 42 43 27 40 36 30 42 34 34 44 36 36 46 39 39 49 43 43 53 46 46 56 48 48 58 50 50 60 35 35 45 33 33 43
86 81 87 86 81 87 86 81 87 86 81 87 86 81 87 83 78 85 81 76 83 79 74 81 76 71 78 72 67 74 69 64 71 67 62 69 65 60 67 56 51 58 56 51 58 56 51 58 56 51 58 56 51 58 56 51 58 56 51 58 56 51 58 60 50 61 62 52 63 64 54 65 67 57 68 71 61 72 74 64 75 76 66 77 78 68 79 98 88 99 97 87 98 94 84 95 91 81 92 88 78 89 84 74 85 82 72 83 81 71 80 64 53 61 64 53 59 64 53 59 64 53 59 64 53 59 64 53 59 64 53 59 64 53 59 68 57 63 70 59 65 72 61 67 75 64 70 79 68 74 82 71 77 84 73 79 86 75 81 87 74 81 87 74 81 87 74 81 87 74 81 87 74 81 87 74 81 87 74 81 87 74 81 80 67 74 82 69 76 84 71 78 87 74 81 91 78 85 94 81 88 96 83 90 98 85 92 86 75 83 84 73 81 82 71 79 79 68 76 75 64 72 72 61 69 70 59 67 68 57 65 65 54 62 71 60 68 79 68 76 85 74 82 85 74 82 79 68 76 71 60 68 62 54 65 44 42 56 41 42 60 41 42 60 41 42 60 41 42 60 41 42 60 41 42 60 41 42 60 41 42 60 41 42 60 41 42 60 41 42 60 41 42 60 41 42 60 41 42 60 41 42 60 46 47 65 46 47 65 46 47 65 46 47 65 46 47 65 46 47 65 46 47 65 46 47 65 36 37 55 36 37 55 36 37 55 36 37 55 36 37 55 36 37 55 36 37 55 36 37 55 41 42 60 41 42 60 41 42 60 41 42 60 41 42 60 41 42 60 41 42 60 41 42 60 53 54 72 55 56 74 57 58 76 60 61 79 64 65 83 67 68 86 69 70 88 74 72 86 93 86 94 95 84 90 92 81 87 88 77 83 84 73 79 80 69 75 77 66 72 76 65 71 92 81 87 92 81 87 92 81 87 92 81 87 92 81 87 92 81 87 92 81 87 95 80 87 97 75 87 100 74 87 100 74 87 100 74 87 100 74 87 100 74 87 100 74 87 100 74 87 97 71 84 97 71 84 97 71 84 97 71 84 97 71 84 97 71 84 97 71 84 97 71 84 97 66 84 97 66 84 97 66 84 97 66 84 97 66 84 97 66 84 97 66 84 97 66 84 99 68 86 99 68 86 99 68 86 99 68 86 99 68 86 99 68 86 99 68 86 103 65 86 101 53 77 104 51 77 104 51 77 101 53 77 101 53 77 98 54 77 97 55 77 94 56 77 88 55 74 83 54 72 77 50 67 67 44 60 61 38 54 51 33 47 46 28 42 40 28 40 34 31 42 34 34 44 36 36 46 39 39 49 43 43 53 46 46 56 48 48 58 50 50 60 35 35 45 33 33 43
86 81 87 86 81 87 86 81 87 86 81 87 86 81 87 83 78 85 81 76 83 79 74 81 76 71 78 72 67 74 69 64 71 67 62 69 65 60 67 56 51 58 56 51 58 56 51 58 56 51 58 56 51 58 56 51 58 56 51 58 56 51 58 60 50 61 62 52 63 64 54 65 67 57 68 71 61 72 74 64 75 76 66 77 78 68 79 96 86 97 94 84 95 92 82 93 89 79 90 85 75 86 82 72 83 80 70 81 78 68 77 64 53 61 64 53 59 64 53 59 64 53 59 64 53 59 64 53 59 64 53 59 64 53 59 68 57 63 70 59 65 72 61 67 75 64 70 79 68 74 82 71 77 84 73 79 86 75 81 85 72 79 85 72 79 85 72 79 85 72 79 85 72 79 85 72 79 85 72 79 85 72 79 80 67 74 82 69 76 84 71 78 87 74 81 91 78 85 94 81 88 96 83 90 98 85 92 86 75 83 84 73 81 82 71 79 79 68 76 75 64 72 72 61 69 70 59 67 68 57 65 65 54 62 71 60 68 79 68 76 85 74 82 85 74 82 79 68 76 71 60 68 62 54 65 44 42 56 41 42 60 41 42 60 41 42 60 41 42 60 41 42 60 41 42 60 41 42 60 41 42 60 41 42 60 41 42 60 41 42 60 41 42 60 41 42 60 41 42 60 41 42 60 46 47 65 46 47 65 46 47 65 46 47 65 46 47 65 46 47 65 46 47 65 46 47 65 36 37 55 36 37 55 36 37 55 36 37 55 36 37 55 36 37 55 36 37 55 36 37 55 41 42 60 41 42 60 41 42 60 41 42 60 41 42 60 41 42 60 41 42 60 41 42 60 53 54 72 55 56 74 57 58 76 60 61 79 64 65 83 67 68 86 69 70 88 74 72 86 90 83 91 92 81 87 90 79 85 87 76 82 85 74 80 82 71 77 80 69 75 79 68 74 92 81 87 92 81 87 92 81 87 92 81 87 92 81 87 92 81 87 92 81 87 95 80 87 97 75 87 100 74 87 100 74 87 100 74 87 100 74 87 100 74 87 100 74 87 100 74 87 97 71 84 97 71 84 97 71 84 97 71 84 97 71 84 97 71 84 97 71 84 97 71 84 97 66 84 97 66 84 97 66 84 97 66 84 97 66 84 97 66 84 97 66 84 97 66 84 99 68 86 99 68 86 99 68 86 99 68 86 99 68 86 99 68 86 99 68 86 103 65 86 101 53 77 104 51 77 104 51 77 101 53 77 101 53 77 98 54 77 97 55 77 94 56 77 88 55 74 83 54 72 77 50 67 67 44 60 61 38 54 51 33 47 46 28 42 40 28 40 34 31 42 34 34 44 36 36 46 39 39 49 43 43 53 46 46 56 48 48 58 50 50 60 35 35 45 33 33 43
86 81 87 86 81 87 86 81 87 86 81 87 86 81 87 83 78 85 81 76 83 79 74 81 76 71 78 72 67 74 69 64 71 67 62 69 65 60 67 56 51 58 56 51 58 56 51 58 56 51 58 56 51 58 56 51 58 56 51 58 56 51 58 60 50 61 62 52 63 64 54 65 67 57 68 71 61 72 74 64 75 76 66 77 78 68 79 92 82 93 91 81 92 89 79 90 85 75 86 82 72 83 79 69 80 76 66 77 75 65 74 64 53 61 64 53 59 64 53 59 64 53 59 64 53 59 64 53 59 64 53 59 64 53 59 68 57 63 70 59 65 72 61 67 75 64 70 79 68 74 82 71 77 84 73 79 86 75 81 82 69 76 82 69 76 82 69 76 82 69 76 82 69 76 82 69 76 82 69 76 82 69 76 80 67 74 82 69 76 84 71 78 87 74 81 91 78 85 94 81 88 96 83 90 98 85 92 86 75 83 84 73 81 82 71 79 79 68 76 75 64 72 72 61 69 70 59 67 68 57 65 65 54 62 71 60 68 79 68 76 85 74 82 85 74 82 79 68 76 71 60 68 62 54 65 44 42 56 41 42 60 41 42 60 41 42 60 41 42 60 41 42 60 41 42 60 41 42 60 41 42 60 41 42 60 41 42 60 41 42 60 41 42 60 41 42 60 41 42 60 41 42 60 46 47 65 46 47 65 46 47 65 46 47 65 46 47 65 46 47 65 46 47 65 46 47 65 36 37 55 36 37 55 36 37 55 36 37 55 36 37 55 36 37 55 36 37 55 36 37 55 41 42 60 41 42 60 41 42 60 41 42 60 41 42 60 41 42 60 41 42 60 41 42 60 53 54 72 55 56 74 57 58 76 60 61 79 64 65 83 67 68 86 69 70 88 74 72 86 85 78 86 88 77 83 87 76 82 86 75 81 86 75 81 85 74 80 84 73 79 84 73 79 92 81 87 92 81 87 92 81 87 92 81 87 92 81 87 92 81 87 92 81 87 95 80 87 97 75 87 100 74 87 100 74 87 100 74 87 100 74 87 100 74 87 100 74 87 100 74 87 97 71 84 97 71 84 97 71 84 97 71 84 97 71 84 97 71 84 97 71 84 97 71 84 97 66 84 97 66 84 97 66 84 97 66 84 97 66 84 97 66 84 97 66 84 97 66 84 99 68 86 99 68 86 99 68 86 99 68 86 99 68 86 99 68 86 99 68 86 103 65 86 101 53 77 104 51 77 104 51 77 101 53 77 101 53 77 98 54 77 97 55 77 94 56 77 88 55 74 83 54 72 77 50 67 67 44 60 61 38 54 51 33 47 46 28 42 40 28 40 34 31 42 34 34 44 36 36 46 39 39 49 43 43 53 46 46 56 48 48 58 50 50 60 35 35 45 33 33 43
86 81 87 86 81 87 86 81 87 86 81 87 86 81 87 83 78 85 81 76 83 79 74 81 76 71 78 72 67 74 69 64 71 67 62 69 65 60 67 56 51 58 56 51 58 56 51 58 56 51 58 56 51 58 56 51 58 56 51 58 56 51 58 60 50 61 62 52 63 64 54 65 67 57 68 71 61 72 74 64 75 76 66 77 78 68 79 89 79 90 88 78 89 85 75 86 82 72 83 79 69 80 75 65 76 73 63 74 72 62 71 64 53 61 64 53 59 64 53 59 64 53 59 64 53 59 64 53 59 64 53 59 64 53 59 68 57 63 70 59 65 72 61 67 75 64 70 79 68 74 82 71 77 84 73 79 86 75 81 78 65 72 78 65 72 78 65 72 78 65 72 78 65 72 78 65 72 78 65 72 78 65 72 80 67 74 82 69 76 84 71 78 87 74 81 91 78 85 94 81 88 96 83 90 98 85 92 86 75 83 84 73 81 82 71 79 79 68 76 75 64 72 72 61 69 70 59 67 68 57 65 65 54 62 71 60 68 79 68 76 85 74 82 85 74 82 79 68 76 71 60 68 62 54 65 44 42 56 41 42 60 41 42 60 41 42 60 41 42 60 41 42 60 41 42 60 41 42 60 41 42 60 41 42 60 41 42 60 41 42 60 41 42 60 41 42 60 41 42 60 41 42 60 46 47 65 46 47 65 46 47 65 46 47 65 46 47 65 46 47 65 46 47 65 46 47 65 36 37 55 36 37 55 36 37 55 36 37 55 36 37 55 36 37 55 36 37 55 36 37 55 41 42 60 41 42 60 41 42 60 41 42 60 41 42 60 41 42 60 41 42 60 41 42 60 53 54 72 55 56 74 57 58 76 60 61 79 64 65 83 67 68 86 69 70 88 74 72 86 81 74 82 84 73 79 85 74 80 86 75 81 86 75 81 87 76 82 88 77 83 88 77 83 92 81 87 92 81 87 92 81 87 92 81 87 92 81 87 92 81 87 92 81 87 95 80 87 97 75 87 100 74 87 100 74 87 100 74 87 100 74 87 100 74 87 100 74 87 100 74 87 97 71 84 97 71 84 97 71 84 97 71 84 97 71 84 97 71 84 97 71 84 97 71 84 97 66 84 97 66 84 97 66 84 97 66 84 97 66 84 97 66 84 97 66 84 97 66 84 99 68 86 99 68 86 99 68 86 99 68 86 99 68 86 99 68 86 99 68 86 103 65 86 101 53 77 104 51 77 104 51 77 101 53 77 101 53 77 98 54 77 97 55 77 94 56 77 88 55 74 83 54 72 77 50 67 67 44 60 61 38 54 51 33 47 46 28 42 40 28 40 34 31 42 34 34 44 36 36 46 39 39 49 43 43 53 46 46 56 48 48 58 50 50 60 35 35 45 33 33 43
86 81 87 86 81 87 86 81 87 86 81 87 86 81 87 83 78 85 81 76 83 79 74 81 76 71 78 72 67 74 69 64 71 67 62 69 65 60 67 56 51 58 56 51 58 56 51 58 56 51 58 56 51 58 56 51 58 56 51 58 56 51 58 60 50 61 62 52 63 64 54 65 67 57 68 71 61 72 74 64 75 76 66 77 78 68 79 86 76 87 84 74 85 82 72 83 79 69 80 75 65 76 72 62 73 70 60 71 68 58 67 64 53 61 64 53 59 64 53 59 64 53 59 64 53 59 64 53 59 64 53 59 64 53 59 68 57 63 70 59 65 72 61 67 75 64 70 79 68 74 82 71 77 84 73 79 86 75 81 75 62 69 75 62 69 75 62 69 75 62 69 75 62 69 75 62 69 75 62 69 75 62 69 80 67 74 82 69 76 84 71 78 87 74 81 91 78 85 94 81 88 96 83 90 98 85 92 86 75 83 84 73 81 82 71 79 79 68 76 75 64 72 72 61 69 70 59 67 68 57 65 65 54 62 71 60 68 79 68 76 85 74 82 85 74 82 79 68 76 71 60 68 62 54 65 44 42 56 41 42 60 41 42 60 41 42 60 41 42 60 41 42 60 41 42 60 41 42 60 41 42 60 41 42 60 41 42 60 41 42 60 41 42 60 41 42 60 41 42 60 41 42 60 46 47 65 46 47 65 46 47 65 46 47 65 46 47 65 46 47 65 46 47 65 46 47 65 36 37 55 36 37 55 36 37 55 36 37 55 36 37 55 36 37 55 36 37 55 36 37 55 41 42 60 41 42 60 41 42 60 41 42 60 41 42 60 41 42 60 41 42 60 41 42 60 53 54 72 55 56 74 57 58 76 60 61 79 64 65 83 67 68 86 69 70 88 74 72 86 76 69 77 80 69 75 82 71 77 85 74 80 87 76 82 90 79 85 92 81 87 93 82 88 92 81 87 92 81 87 92 81 87 92 81 87 92 81 87 92 81 87 92 81 87 95 80 87 97 75 87 100 74 87 100 74 87 100 74 87 100 74 87 100 74 87 100 74 87 100 74 87 97 71 84 97 71 84 97 71 84 97 71 84 97 71 84 97 71 84 97 71 84 97 71 84 97 66 84 97 66 84 97 66 84 97 66 84 97 66 84 97 66 84 97 66 84 97 66 84 99 68 86 99 68 86 99 68 86 99 68 86 99 68 86 99 68 86 99 68 86 103 65 86 101 53 77 104 51 77 104 51 77 101 53 77 101 53 77 98 54 77 97 55 77 94 56 77 88 55 74 83 54 72 77 50 67 67 44 60 61 38 54 51 33 47 46 28 42 40 28 40 34 31 42 34 34 44 36 36 46 39 39 49 43 43 53 46 46 56 48 48 58 50 50 60 35 35 45 33 33 43
86 81 87 86 81 87 86 81 87 86 81 87 86 81 87 83 78 85 81 76 83 79 74 81 76 71 78 72 67 74 69 64 71 67 62 69 65 60 67 56 51 58 56 51 58 56 51 58 56 51 58 56 51 58 56 51 58 56 51 58 56 51 58 60 50 61 62 52 63 64 54 65 67 57 68 71 61 72 74 64 75 76 66 77 78 68 79 83 73 84 82 72 83 80 70 81 76 66 77 73 63 74 70 60 71 67 57 68 66 56 65 64 53 61 64 53 59 64 53 59 64 53 59 64 53 59 64 53 59 64 53 59 64 53 59 68 57 63 70 59 65 72 61 67 75 64 70 79 68 74 82 71 77 84 73 79 86 75 81 73 60 67 73 60 67 73 60 67 73 60 67 73 60 67 73 60 67 73 60 67 73 60 67 80 67 74 82 69 76 84 71 78 87 74 81 91 78 85 94 81 88 96 83 90 98 85 92 86 75 83 84 73 81 82 71 79 79 68 76 75 64 72 72 61 69 70 59 67 68 57 65 65 54 62 71 60 68 79 68 76 85 74 82 85 74 82 79 68 76 71 60 68 62 54 65 44 42 56 41 42 60 41 42 60 41 42 60 41 42 60 41 42 60 41 42 60 41 42 60 41 42 60 41 42 60 41 42 60 41 42 60 41 42 60 41 42 60 41 42 60 41 42 60 46 47 65 46 47 65 46 47 65 46 47 65 46 47 65 46 47 65 46 47 65 46 47 65 36 37 55 36 37 55 36 37 55 36 37 55 36 37 55 36 37 55 36 37 55 36 37 55 41 42 60 41 42 60 41 42 60 41 42 60 41 42 60 41 42 60 41 42 60 41 42 60 53 54 72 55 56 74 57 58 76 60 61 79 64 65 83 67 68 86 69 70 88 74 72 86 73 66 74 77 66 72 80 69 75 84 73 79 88 77 83 92 81 87 95 84 90 96 85 91 92 81 87 92 81 87 92 81 87 92 81 87 92 81 87 92 81 87 92 81 87 95 80 87 97 75 87 100 74 87 100 74 87 100 74 87 100 74 87 100 74 87 100 74 87 100 74 87 97 71 84 97 71 84 97 71 84 97 71 84 97 71 84 97 71 84 97 71 84 97 71 84 97 66 84 97 66 84 97 66 84 97 66 84 97 66 84 97 66 84 97 66 84 97 66 84 99 68 86 99 68 86 99 68 86 99 68 86 99 68 86 99 68 86 99 68 86 103 65 86 101 53 77 104 51 77 104 51 77 101 53 77 101 53 77 98 54 77 97 55 77 94 56 77 88 55 74 83 54 72 77 50 67 67 44 60 61 38 54 51 33 47 46 28 42 40 28 40 34 31 42 34 34 44 36 36 46 39 39 49 43 43 53 46 46 56 48 48 58 50 50 60 35 35 45 33 33 43
86 81 87 86 81 87 86 81 87 86 81 87 86 81 87 83 78 85 81 76 83 79 74 81 76 71 78 72 67 74 69 64 71 67 62 69 65 60 67 56 51 58 56 51 58 56 51 58 56 51 58 56 51 58 56 51 58 56 51 58 56 51 58 60 50 61 62 52 63 64 54 65 67 57 68 71 61 72 74 64 75 76 66 77 78 68 79 82 72 83 81 71 82 78 68 79 75 65 76 72 62 73 68 58 69 66 56 67 65 55 64 64 53 61 64 53 59 64 53 59 64 53 59 64 53 59 64 53 59 64 53 59 64 53 59 68 57 63 70 59 65 72 61 67 75 64 70 79 68 74 82 71 77 84 73 79 86 75 81 71 58 65 71 58 65 71 58 65 71 58 65 71 58 65 71 58 65 71 58 65 71 58 65 80 67 74 82 69 76 84 71 78 87 74 81 91 78 85 94 81 88 96 83 90 98 85 92 86 75 83 84 73 81 82 71 79 79 68 76 75 64 72 72 61 69 70 59 67 68 57 65 65 54 62 71 60 68 79 68 76 85 74 82 85 74 82 79 68 76 71 60 68 62 54 65 44 42 56 41 42 60 41 42 60 41 42 60 41 42 60 41 42 60 41 42 60 41 42 60 41 42 60 41 42 60 41 42 60 41 42 60 41 42 60 41 42 60 41 42 60 41 42 60 46 47 65 46 47 65 46 47 65 46 47 65 46 47 65 46 47 65 46 47 65 46 47 65 36 37 55 36 37 55 36 37 55 36 37 55 36 37 55 36 37 55 36 37 55 36 37 55 41 42 60 41 42 60 41 42 60 41 42 60 41 42 60 41 42 60 41 42 60 41 42 60 53 54 72 55 56 74 57 58 76 60 61 79 64 65 83 67 68 86 69 70 88 74 72 86 71 64 72 76 65 71 79 68 74 84 73 79 88 77 83 93 82 88 96 85 91 98 87 93 92 81 87 92 81 87 92 81 87 92 81 87 92 81 87 92 81 87 92 81 87 95 80 87 97 75 87 100 74 87 100 74 87 100 74 87 100 74 87 100 74 87 100 74 87 100 74 87 97 71 84 97 71 84 97 71 84 97 71 84 97 71 84 97 71 84 97 71 84 97 71 84 97 66 84 97 66 84 97 66 84 97 66 84 97 66 84 97 66 84 97 66 84 97 66 84 99 68 86 99 68 86 99 68 86 99 68 86 99 68 86 99 68 86 99 68 86 103 65 86 101 53 77 104 51 77 104 51 77 101 53 77 101 53 77 98 54 77 97 55 77 94 56 77 88 55 74 83 54 72 77 50 67 67 44 60 61 38 54 51 33 47 46 28 42 40 28 40 34 31 42 34 34 44 36 36 46 39 39 49 43 43 53 46 46 56 48 48 58 50 50 60 35 35 45 33 33 43
66 61 67 66 61 67 66 61 67 66 61 67 66 61 67 64 59 66 64 59 66 64 59 66 64 59 66 64 59 66 64 59 66 64 59 66 64 59 66 58 53 60 58 53 60 58 53 60 58 53 60 58 53 60 58 53 60 58 53 60 58 53 60 59 49 60 59 49 60 59 49 60 59 49 60 59 49 60 59 49 60 59 49 60 59 49 60 59 49 60 59 49 60 59 49 60 59 49 60 59 49 60 59 49 60 59 49 60 59 49 58 67 56 64 67 56 62 67 56 62 67 56 62 67 56 62 67 56 62 67 56 62 67 56 62 77 66 72 77 66 72 77 66 72 77 66 72 77 66 72 77 66 72 77 66 72 77 66 72 69 56 63 69 56 63 69 56 63 69 56 63 69 56 63 69 56 63 69 56 63 69 56 63 76 63 70 78 65 72 80 67 74 83 70 77 87 74 81 90 77 84 92 79 86 94 81 88 86 75 83 84 73 81 82 71 79 79 68 76 75 64 72 72 61 69 70 59 67 68 57 65 70 59 67 70 59 67 70 59 67 70 59 67 70 59 67 70 59 67 70 59 67 67 59 70 41 39 53 39 40 58 41 42 60 45 46 64 48 49 67 51 52 70 54 55 73 55 56 74 60 61 79 60 61 79 60 61 79 60 61 79 60 61 79 60 61 79 60 61 79 60 61 79 58 59 77 56 57 75 54 55 73 51 52 70 47 48 66 44 45 63 42 43 61 40 41 59 31 32 50 33 34 52 35 36 54 38 39 57 42 43 61 45 46 64 47 48 66 49 50 68 48 49 67 48 49 67 48 49 67 48 49 67 48 49 67 48 49 67 48 49 67 48 49 67 57 58 76 58 59 77 60 61 79 64 65 83 67 68 86 70 71 89 73 74 92 77 75 89 93 86 94 96 85 91 96 85 91 96 85 91 96 85 91 96 85 91 96 85 91 96 85 91 91 80 86 91 80 86 91 80 86 91 80 86 91 80 86 91 80 86 91 80 86 94 79 86 95 73 85 98 72 85 98 72 85 98 72 85 98 72 85 98 72 85 98 72 85 98 72 85 94 68 81 94 68 81 94 68 81 94 68 81 94 68 81 94 68 81 94 68 81 94 68 81 94 63 81 94 63 81 94 63 81 94 63 81 94 63 81 94 63 81 94 63 81 94 63 81 97 66 84 97 66 84 97 66 84 97 66 84 97 66 84 97 66 84 97 66 84 101 63 84 102 54 78 105 52 78 105 52 78 102 54 78 102 54 78 99 55 78 98 56 78 95 57 78 78 45 64 73 44 62 70 43 60 64 41 57 60 37 53 54 36 50 52 34 48 46 34 46 44 41 52 42 42 52 42 42 52 42 42 52 42 42 52 42 42 52 42 42 52 42 42 52 25 25 35 25 25 35
66 61 67 66 61 67 66 61 67 66 61 67 66 61 67 64 59 66 64 59 66 64 59 66 64 59 66 64 59 66 64 59 66 64 59 66 64 59 66 58 53 60 58 53 60 58 53 60 58 53 60 58 53 60 58 53 60 58 53 60 58 53 60 59 49 60 59 49 60 59 49 60 59 49 60 59 49 60 59 49 60 59 49 60 59 49 60 59 49 60 59 49 60 59 49 60 59 49 60 59 49 60 59 49 60 59 49 60 59 49 58 67 56 64 67 56 62 67 56 62 67 56 62 67 56 62 67 56 62 67 56 62 67 56 62 77 66 72 77 66 72 77 66 72 77 66 72 77 66 72 77 66 72 77 66 72 77 66 72 69 56 63 69 56 63 69 56 63 69 56 63 69 56 63 69 56 63 69 56 63 69 56 63 76 63 70 78 65 72 80 67 74 83 70 77 87 74 81 90 77 84 92 79 86 94 81 88 86 75 83 84 73 81 82 71 79 79 68 76 75 64 72 72 61 69 70 59 67 68 57 65 70 59 67 70 59 67 70 59 67 70 59 67 70 59 67 70 59 67 70 59 67 67 59 70 42 40 54 40 41 59 43 44 62 46 47 65 49 50 68 53 54 72 55 56 74 56 57 75 60 61 79 60 61 79 60 61 79 60 61 79 60 61 79 60 61 79 60 61 79 60 61 79 58 59 77 56 57 75 54 55 73 51 52 70 47 48 66 44 45 63 42 43 61 40 41 59 31 32 50 33 34 52 35 36 54 38 39 57 42 43 61 45 46 64 47 48 66 49 50 68 48 49 67 48 49 67 48 49 67 48 49 67 48 49 67 48 49 67 48 49 67 48 49 67 58 59 77 59 60 78 62 63 81 65 66 84 68 69 87 72 73 91 74 75 93 78 76 90 93 86 94 96 85 91 96 85 91 96 85 91 96 85 91 96 85 91 96 85 91 96 85 91 91 80 86 91 80 86 91 80 86 91 80 86 91 80 86 91 80 86 91 80 86 94 79 86 95 73 85 98 72 85 98 72 85 98 72 85 98 72 85 98 72 85 98 72 85 98 72 85 94 68 81 94 68 81 94 68 81 94 68 81 94 68 81 94 68 81 94 68 81 94 68 81 94 63 81 94 63 81 94 63 81 94 63 81 94 63 81 94 63 81 94 63 81 94 63 81 97 66 84 97 66 84 97 66 84 97 66 84 97 66 84 97 66 84 97 66 84 101 63 84 102 54 78 105 52 78 105 52 78 102 54 78 102 54 78 99 55 78 98 56 78 95 57 78 78 45 64 73 44 62 70 43 60 64 41 57 60 37 53 54 36 50 52 34 48 46 34 46 44 41 52 42 42 52 42 42 52 42 42 52 42 42 52 42 42 52 42 42 52 42 42 52 25 25 35 25 25 35
66 61 67 66 61 67 66 61 67 66 61 67 66 61 67 64 59 66 64 59 66 64 59 66 64 59 66 64 59 66 64 59 66 64 59 66 64 59 66 58 53 60 58 53 60 58 53 60 58 53 60 58 53 60 58 53 60 58 53 60 58 53 60 59 49 60 59 49 60 59 49 60 59 49 60 59 49 60 59 49 60 59 49 60 59 49 60 59 49 60 59 49 60 59 49 60 59 49 60 59 49 60 59 49 60 59 49 60 59 49 58 67 56 64 67 56 62 67 56 62 67 56 62 67 56 62 67 56 62 67 56 62 67 56 62 77 66 72 77 66 72 77 66 72 77 66 72 77 66 72 77 66 72 77 66 72 77 66 72 69 56 63 69 56 63 69 56 63 69 56 63 69 56 63 69 56 63 69 56 63 69 56 63 76 63 70 78 65 72 80 67 74 83 70 77 87 74 81 90 77 84 92 79 86 94 81 88 86 75 83 84 73 81 82 71 79 79 68 76 75 64 72 72 61 69 70 59 67 68 57 65 70 59 67 70 59 67 70 59 67 70 59 67 70 59 67 70 59 67 70 59 67 67 59 70 44 42 56 43 44 62 45 46 64 48 49 67 52 53 71 55 56 74 57 58 76 59 60 78 60 61 79 60 61 79 60 61 79 60 61 79 60 61 79 60 61 79 60 61 79 60 61 79 58 59 77 56 57 75 54 55 73 51 52 70 47 48 66 44 45 63 42 43 61 40 41 59 31 32 50 33 34 52 35 36 54 38 39 57 42 43 61 45 46 64 47 48 66 49 50 68 48 49 67 48 49 67 48 49 67 48 49 67 48 49 67 48 49 67 48 49 67 48 49 67 60 61 79 62 63 81 64 65 83 67 68 86 71 72 90 74 75 93 76 77 95 81 79 93 93 86 94 96 85 91 96 85 91 96 85 91 96 85 91 96 85 91 96 85 91 96 85 91 91 80 86 91 80 86 91 80 86 91 80 86 91 80 86 91 80 86 91 80 86 94 79 86 95 73 85 98 72 85 98 72 85 98 72 85 98 72 85 98 72 85 98 72 85 98 72 85 94 68 81 94 68 81 94 68 81 94 68 81 94 68 81 94 68 81 94 68 81 94 68 81 94 63 81 94 63 81 94 63 81 94 63 81 94 63 81 94 63 81 94 63 81 94 63 81 97 66 84 97 66 84 97 66 84 97 66 84 97 66 84 97 66 84 97 66 84 101 63 84 102 54 78 105 52 78 105 52 78 102 54 78 102 54 78 99 55 78 98 56 78 95 57 78 78 45 64 73 44 62 70 43 60 64 41 57 60 37 53 54 36 50 52 34 48 46 34 46 44 41 52 42 42 52 42 42 52 42 42 52 42 42 52 42 42 52 42 42 52 42 42 52 25 25 35 25 25 35
66 61 67 66 61 67 66 61 67 66 61 67 66 61 67 64 59 66 64 59 66 64 59 66 64 59 66 64 59 66 64 59 66 64 59 66 64 59 66 58 53 60 58 53 60 58 53 60 58 53 60 58 53 60 58 53 60 58 53 60 58 53 60 59 49 60 59 49 60 59 49 60 59 49 60 59 49 60 59 49 60 59 49 60 59 49 60 59 49 60 59 49 60 59 49 60 59 49 60 59 49 60 59 49 60 59 49 60 59 49 58 67 56 64 67 56 62 67 56 62 67 56 62 67 56 62 67 56 62 67 56 62 67 56 62 77 66 72 77 66 72 77 66 72 77 66 72 77 66 72 77 66 72 77 66 72 77 66 72 69 56 63 69 56 63 69 56 63 69 56 63 69 56 63 69 56 63 69 56 63 69 56 63 76 63 70 78 65 72 80 67 74 83 70 77 87 74 81 90 77 84 92 79 86 94 81 88 86 75 83 84 73 81 82 71 79 79 68 76 75 64 72 72 61 69 70 59 67 68 57 65 70 59 67 70 59 67 70 59 67 70 59 67 70 59 67 70 59 67 70 59 67 67 59 70 48 46 60 46 47 65 48 49 67 52 53 71 55 56 74 58 59 77 61 62 80 62 63 81 60 61 79 60 61 79 60 61 79 60 61 79 60 61 79 60 61 79 60 61 79 60 61 79 58 59 77 56 57 75 54 55 73 51 52 70 47 48 66 44 45 63 42 43 61 40 41 59 31 32 50 33 34 52 35 36 54 38 39 57 42 43 61 45 46 64 47 48 66 49 50 68 48 49 67 48 49 67 48 49 67 48 49 67 48 49 67 48 49 67 48 49 67 48 49 67 64 65 83 65 66 84 67 68 86 71 72 90 74 75 93 77 78 96 80 81 99 84 82 96 93 86 94 96 85 91 96 85 91 96 85 91 96 85 91 96 85 91 96 85 91 96 85 91 91 80 86 91 80 86 91 80 86 91 80 86 91 80 86 91 80 86 91 80 86 94 79 86 95 73 85 98 72 85 98 72 85 98 72 85 98 72 85 98 72 85 98 72 85 98 72 85 94 68 81 94 68 81 94 68 81 94 68 81 94 68 81 94 68 81 94 68 81 94 68 81 94 63 81 94 63 81 94 63 81 94 63 81 94 63 81 94 63 81 94 63 81 94 63 81 97 66 84 97 66 84 97 66 84 97 66 84 97 66 84 97 66 84 97 66 84 101 63 84 102 54 78 105 52 78 105 52 78 102 54 78 102 54 78 99 55 78 98 56 78 95 57 78 78 45 64 73 44 62 70 43 60 64 41 57 60 37 53 54 36 50 52 34 48 46 34 46 44 41 52 42 42 52 42 42 52 42 42 52 42 42 52 42 42 52 42 42 52 42 42 52 25 25 35 25 25 35
66 61 67 66 61 67 66 61 67 66 61 67 66 61 67 64 59 66 64 59 66 64 59 66 64 59 66 64 59 66 64 59 66 64 59 66 64 59 66 58 53 60 58 53 60 58 53 60 58 53 60 58 53 60 58 53 60 58 53 60 58 53 60 59 49 60 59 49 60 59 49 60 59 49 60 59 49 60 59 49 60 59 49 60 59 49 60 59 49 60 59 49 60 59 49 60 59 49 60 59 49 60 59 49 60 59 49 60 59 49 58 67 56 64 67 56 62 67 56 62 67 56 62 67 56 62 67 56 62 67 56 62 67 56 62 77 66 72 77 66 72 77 66 72 77 66 72 77 66 72 77 66 72 77 66 72 77 66 72 69 56 63 69 56 63 69 56 63 69 56 63 69 56 63 69 56 63 69 56 63 69 56 63 76 63 70 78 65 72 80 67 74 83 70 77 87 74 81 90 77 84 92 79 86 94 81 88 86 75 83 84 73 81 82 71 79 79 68 76 75 64 72 72 61 69 70 59 67 68 57 65 70 59 67 70 59 67 70 59 67 70 59 67 70 59 67 70 59 67 70 59 67 67 59 70 51 49 63 49 50 68 52 53 71 55 56 74 58 59 77 62 63 81 64 65 83 65 66 84 60 61 79 60 61 79 60 61 79 60 61 79 60 61 79 60 61 79 60 61 79 60 61 79 58 59 77 56 57 75 54 55 73 51 52 70 47 48 66 44 45 63 42 43 61 40 41 59 31 32 50 33 34 52 35 36 54 38 39 57 42 43 61 45 46 64 47 48 66 49 50 68 48 49 67 48 49 67 48 49 67 48 49 67 48 49 67 48 49 67 48 49 67 48 49 67 67 68 86 68 69 87 71 72 90 74 75 93 77 78 96 81 82 100 83 84 102 87 85 99 93 86 94 96 85 91 96 85 91 96 85 91 96 85 91 96 85 91 96 85 91 96 85 91 91 80 86 91 80 86 91 80 86 91 80 86 91 80 86 91 80 86 91 80 86 94 79 86 95 73 85 98 72 85 98 72 85 98 72 85 98 72 85 98 72 85 98 72 85 98 72 85 94 68 81 94 68 81 94 68 81 94 68 81 94 68 81 94 68 81 94 68 81 94 68 81 94 63 81 94 63 81 94 63 81 94 63 81 94 63 81 94 63 81 94 63 81 94 63 81 97 66 84 97 66 84 97 66 84 97 66 84 97 66 84 97 66 84 97 66 84 101 63 84 102 54 78 105 52 78 105 52 78 102 54 78 102 54 78 99 55 78 98 56 78 95 57 78 78 45 64 73 44 62 70 43 60 64 41 57 60 37 53 54 36 50 52 34 48 46 34 46 44 41 52 42 42 52 42 42 52 42 42 52 42 42 52 42 42 52 42 42 52 42 42 52 25 25 35 25 25 35
66 61 67 66 61 67 66 61 67 66 61 67 66 61 67 64 59 66 64 59 66 64 59 66 64 59 66 64 59 66 64 59 66 64 59 66 64 59 66 58 53 60 58 53 60 58 53 60 58 53 60 58 53 60 58 53 60 58 53 60 58 53 60 59 49 60 59 49 60 59 49 60 59 49 60 59 49 60 59 49 60 59 49 60 59 49 60 59 49 60 59 49 60 59 49 60 59 49 60 59 49 60 59 49 60 59 49 60 59 49 58 67 56 64 67 56 62 67 56 62 67 56 62 67 56 62 67 56 62 67 56 62 67 56 62 77 66 72 77 66 72 77 66 72 77 66 72 77 66 72 77 66 72 77 66 72 77 66 72 69 56 63 69 56 63 69 56 63 69 56 63 69 56 63 69 56 63 69 56 63 69 56 63 76 63 70 78 65 72 80 67 74 83 70 77 87 74 81 90 77 84 92 79 86 94 81 88 86 75 83 84 73 81 82 71 79 79 68 76 75 64 72 72 61 69 70 59 67 68 57 65 70 59 67 70 59 67 70 59 67 70 59 67 70 59 67 70 59 67 70 59 67 67 59 70 54 52 66 53 54 72 55 56 74 58 59 77 62 63 81 65 66 84 67 68 86 69 70 88 60 61 79 60 61 79 60 61 79 60 61 79 60 61 79 60 61 79 60 61 79 60 61 79 58 59 77 56 57 75 54 55 73 51 52 70 47 48 66 44 45 63 42 43 61 40 41 59 31 32 50 33 34 52 35 36 54 38 39 57 42 43 61 45 46 64 47 48 66 49 50 68 48 49 67 48 49 67 48 49 67 48 49 67 48 49 67 48 49 67 48 49 67 48 49 67 70 71 89 72 73 91 74 75 93 77 78 96 81 82 100 84 85 103 86 87 105 91 89 103 93 86 94 96 85 91 96 85 91 96 85 91 96 85 91 96 85 91 96 85 91 96 85 91 91 80 86 91 80 86 91 80 86 91 80 86 91 80 86 91 80 86 91 80 86 94 79 86 95 73 85 98 72 85 98 72 85 98 72 85 98 72 85 98 72 85 98 72 85 98 72 85 94 68 81 94 68 81 94 68 81 94 68 81 94 68 81 94 68 81 94 68 81 94 68 81 94 63 81 94 63 81 94 63 81 94 63 81 94 63 81 94 63 81 94 63 81 94 63 81 97 66 84 97 66 84 97 66 84 97 66 84 97 66 84 97 66 84 97 66 84 101 63 84 102 54 78 105 52 78 105 52 78 102 54 78 102 54 78 99 55 78 98 56 78 95 57 78 78 45 64 73 44 62 70 43 60 64 41 57 60 37 53 54 36 50 52 34 48 46 34 46 44 41 52 42 42 52 42 42 52 42 42 52 42 42 52 42 42 52 42 42 52 42 42 52 25 25 35 25 25 35
66 61 67 66 61 67 66 61 67 66 61 67 66 61 67 64 59 66 64 59 66 64 59 66 64 59 66 64 59 66 64 59 66 64 59 66 64 59 66 58 53 60 58 53 60 58 53 60 58 53 60 58 53 60 58 53 60 58 53 60 58 53 60 59 49 60 59 49 60 59 49 60 59 49 60 59 49 60 59 49 60 59 49 60 59 49 60 59 49 60 59 49 60 59 49 60 59 49 60 59 49 60 59 49 60 59 49 60 59 49 58 67 56 64 67 56 62 67 56 62 67 56 62 67 56 62 67 56 62 67 56 62 67 56 62 77 66 72 77 66 72 77 66 72 77 66 72 77 66 72 77 66 72 77 66 72 77 66 72 69 56 63 69 56 63 69 56 63 69 56 63 69 56 63 69 56 63 69 56 63 69 56 63 76 63 70 78 65 72 80 67 74 83 70 77 87 74 81 90 77 84 92 79 86 94 81 88 86 75 83 84 73 81 82 71 79 79 68 76 75 64 72 72 61 69 70 59 67 68 57 65 70 59 67 70 59 67 70 59 67 70 59 67 70 59 67 70 59 67 70 59 67 67 59 70 57 55 69 55 56 74 57 58 76 61 62 80 64 65 83 67 68 86 70 71 89 71 72 90 60 61 79 60 61 79 60 61 79 60 61 79 60 61 79 60 61 79 60 61 79 60 61 79 58 59 77 56 57 75 54 55 73 51 52 70 47 48 66 44 45 63 42 43 61 40 41 59 31 32 50 33 34 52 35 36 54 38 39 57 42 43 61 45 46 64 47 48 66 49 50 68 48 49 67 48 49 67 48 49 67 48 49 67 48 49 67 48 49 67 48 49 67 48 49 67 73 74 92 74 75 93 76 77 95 80 81 99 83 84 102 86 87 105 89 90 108 93 91 105 93 86 94 96 85 91 96 85 91 96 85 91 96 85 91 96 85 91 96 85 91 96 85 91 91 80 86 91 80 86 91 80 86 91 80 86 91 80 86 91 80 86 91 80 86 94 79 86 95 73 85 98 72 85 98 72 85 98 72 85 98 72 85 98 72 85 98 72 85 98 72 85 94 68 81 94 68 81 94 68 81 94 68 81 94 68 81 94 68 81 94 68 81 94 68 81 94 63 81 94 63 81 94 63 81 94 63 81 94 63 81 94 63 81 94 63 81 94 63 81 97 66 84 97 66 84 97 66 84 97 66 84 97 66 84 97 66 84 97 66 84 101 63 84 102 54 78 105 52 78 105 52 78 102 54 78 102 54 78 99 55 78 98 56 78 95 57 78 78 45 64 73 44 62 70 43 60 64 41 57 60 37 53 54 36 50 52 34 48 46 34 46 44 41 52 42 42 52 42 42 52 42 42 52 42 42 52 42 42 52 42 42 52 42 42 52 25 25 35 25 25 35
66 61 67 66 61 67 66 61 67 66 61 67 66 61 67 64 59 66 64 59 66 64 59 66 64 59 66 64 59 66 64 59 66 64 59 66 64 59 66 58 53 60 58 53 60 58 53 60 58 53 60 58 53 60 58 53 60 58 53 60 58 53 60 57 49 60 57 49 60 59 49 60 57 49 60 59 49 60 57 49 60 59 49 60 57 49 60 59 49 60 57 49 60 59 49 60 57 49 60 59 49 60 57 49 60 59 49 60 59 49 58 66 56 64 67 56 62 67 56 62 67 56 62 67 56 62 67 56 62 67 56 62 67 56 62 77 66 72 77 66 72 77 66 72 77 66 72 77 66 72 77 66 72 77 66 72 77 66 72 68 57 65 68 57 65 68 57 65 68 57 65 68 57 65 68 57 65 68 57 65 68 57 65 75 64 72 77 66 74 79 68 76 82 71 79 86 75 83 89 78 86 91 80 88 93 82 90 85 75 83 83 73 81 81 71 79 78 68 76 74 64 72 71 61 69 69 59 67 67 57 65 69 59 67 69 59 67 69 59 67 69 59 67 69 59 67 69 59 67 69 59 67 67 59 70 58 56 69 58 57 71 61 60 76 64 63 77 67 66 82 71 70 84 73 72 88 74 73 87 62 61 77 62 61 75 62 61 77 62 61 75 62 61 77 62 61 75 62 61 77 62 61 77 60 59 75 58 57 73 57 54 71 53 52 68 50 47 64 46 45 61 45 42 59 42 41 57 34 31 48 35 34 50 38 35 52 40 39 55 45 42 59 47 46 62 50 47 64 51 50 66 50 49 67 50 49 67 50 49 67 50 49 67 50 49 67 50 49 67 50 49 67 50 49 67 76 75 93 77 76 94 80 79 97 83 82 100 86 85 103 90 89 107 92 91 109 94 92 106 93 86 94 96 85 91 96 85 93 96 85 91 96 85 93 96 85 91 96 85 93 96 85 91 91 80 88 91 80 86 91 80 88 91 80 86 91 80 88 91 80 86 91 80 88 94 78 88 95 73 85 96 72 85 96 72 85 96 72 85 96 72 85 96 72 85 96 72 85 96 72 85 92 68 81 92 68 81 92 68 81 92 68 81 92 68 81 92 68 81 92 68 81 94 68 81 92 64 79 92 64 79 92 63 81 92 64 79 92 63 81 92 64 79 92 63 81 92 64 79 95 66 84 95 67 82 95 66 84 95 67 82 95 66 84 95 67 82 95 66 84 99 64 84 100 55 78 103 53 78 102 54 78 100 55 78 99 55 78 98 56 78 96 57 78 93 58 78 77 46 64 72 45 62 68 44 60 63 42 57 57 39 53 53 37 50 49 35 48 45 35 46 43 41 52 40 43 52 42 42 52 40 43 52 42 42 52 40 43 52 42 42 52 40 43 52 25 25 35 23 26 35
64 61 68 64 61 68 64 61 68 64 61 68 64 61 68 72 69 76 72 69 76 72 69 76 72 69 76 72 69 76 72 69 76 72 69 76 72 69 76 61 58 65 61 58 65 61 58 65 61 58 65 61 58 65 61 58 65 61 58 65 63 58 65 58 52 62 58 52 62 59 51 62 58 52 62 59 51 62 58 52 62 59 51 62 58 52 62 57 49 60 58 52 62 61 53 64 63 57 67 68 60 71 70 64 74 73 65 76 75 68 76 70 60 68 70 60 68 70 60 68 70 60 68 70 60 68 70 60 68 70 60 68 70 60 68 59 49 57 61 51 59 64 54 62 69 59 67 73 63 71 78 68 76 81 71 79 83 73 81 69 62 70 69 62 70 69 62 70 69 62 70 69 62 70 69 62 70 69 62 70 69 62 70 69 62 70 70 63 71 73 66 74 76 69 77 79 72 80 83 76 84 85 78 86 86 79 87 80 73 81 78 71 79 76 69 77 73 66 74 69 62 70 66 59 67 64 57 65 62 55 63 66 59 67 66 59 67 66 59 67 66 59 67 66 59 67 66 59 67 66 59 67 65 60 67 66 63 72 67 64 73 70 67 78 73 70 79 76 73 84 80 77 86 82 79 90 83 80 89 64 61 72 64 61 70 64 61 72 64 61 70 64 61 72 64 61 70 64 61 72 64 61 72 65 59 73 65 59 73 66 58 73 65 59 73 66 58 73 65 59 73 66 58 73 65 59 73 53 45 60 52 46 60 53 45 60 52 46 60 53 45 60 52 46 60 53 45 60 52 45 61 42 38 55 44 41 58 50 47 64 58 55 72 66 63 80 74 71 88 80 77 94 83 80 97 90 87 104 90 87 104 90 87 104 90 87 104 90 87 104 90 87 104 90 87 104 91 87 102 93 83 94 94 83 91 94 82 92 94 83 91 94 82 92 94 83 91 94 82 92 94 83 91 94 82 92 94 83 91 94 82 92 94 83 91 94 82 92 94 83 91 94 82 92 95 82 91 88 68 79 89 67 79 89 67 79 89 67 79 89 67 79 89 67 79 89 67 79 89 67 79 74 52 64 74 52 64 74 52 64 74 52 64 74 52 64 74 52 64 74 52 64 74 52 64 77 53 66 79 53 66 79 52 67 79 53 66 79 52 67 79 53 66 79 52 67 79 53 66 94 67 82 94 68 81 94 67 82 94 68 81 94 67 82 94 68 81 94 67 82 97 66 82 102 60 82 104 58 84 103 59 84 102 60 84 100 60 84 97 62 84 96 63 84 93 64 84 70 45 64 66 45 62 62 44 60 58 41 57 52 38 53 48 36 50 45 34 48 40 34 46 42 42 52 39 43 52 40 43 52 39 43 52 40 43 52 39 43 52 40 43 52 39 43 52 23 26 35 22 26 35
64 61 68 64 61 68 64 61 68 64 61 68 64 61 68 72 69 76 72 69 76 72 69 76 72 69 76 72 69 76 72 69 76 72 69 76 72 69 76 61 58 65 61 58 65 61 58 65 61 58 65 61 58 65 61 58 65 61 58 65 61 58 65 58 52 62 58 52 62 58 52 62 58 52 62 58 52 62 58 52 62 58 52 62 58 52 62 56 50 60 58 52 62 60 54 64 63 57 67 67 61 71 70 64 74 72 66 76 74 69 76 70 60 69 70 60 68 70 60 68 70 60 68 70 60 68 70 60 68 70 60 68 70 60 68 61 51 59 62 52 60 65 55 63 69 59 67 73 63 71 77 67 75 80 70 78 79 72 79 67 59 70 66 60 70 66 60 70 66 60 70 66 60 70 66 60 70 66 60 70 66 60 70 67 61 71 68 62 72 70 64 74 74 68 78 77 71 81 80 74 84 83 77 87 84 78 88 79 74 81 77 72 79 75 70 77 72 67 74 68 63 70 65 60 67 63 58 65 61 56 63 65 60 67 65 60 67 65 60 67 65 60 67 65 60 67 65 60 67 65 60 67 65 60 67 67 62 69 68 63 70 70 65 72 74 69 76 77 72 79 80 75 82 83 78 85 84 79 86 66 61 68 66 61 68 66 61 68 66 61 68 66 61 68 66 61 68 66 61 68 66 61 68 68 57 71 68 57 71 68 57 71 68 57 71 68 57 71 68 57 71 68 57 71 68 57 71 57 46 60 57 46 60 57 46 60 57 46 60 57 46 60 57 46 60 57 46 60 55 47 62 46 39 55 47 43 60 52 48 65 59 55 72 67 63 80 74 70 87 79 75 92 82 78 95 94 90 107 94 90 107 94 90 107 94 90 107 94 90 107 94 90 107 94 90 107 96 89 105 91 81 92 92 80 90 92 80 90 92 80 90 92 80 90 92 80 90 92 80 90 92 80 90 92 80 90 92 80 90 92 80 90 92 80 90 92 80 90 92 80 90 92 80 90 93 80 90 84 67 77 86 66 77 86 66 77 86 66 77 86 66 77 86 66 77 86 66 77 86 66 77 73 53 64 73 53 64 73 53 64 73 53 64 73 53 64 73 53 64 73 53 64 73 53 64 77 53 66 77 53 66 77 53 66 77 53 66 77 53 66 77 53 66 77 53 66 77 53 66 92 68 81 92 68 81 92 68 81 92 68 81 92 68 81 92 68 81 92 68 81 95 67 82 100 61 82 102 60 84 102 60 84 99 61 84 99 61 84 96 63 84 95 63 84 92 65 84 69 46 64 64 46 62 61 44 60 55 43 57 51 39 53 45 37 50 43 35 48 38 35 46 40 43 52 39 43 52 39 43 52 39 43 52 39 43 52 39 43 52 39 43 52 39 43 52 22 26 35 22 26 35
64 61 68 64 61 68 64 61 68 64 61 68 64 61 68 72 69 76 72 69 76 72 69 76 72 69 76 72 69 76 72 69 76 72 69 76 72 69 76 61 58 65 61 58 65 61 58 65 61 58 65 61 58 65 61 58 65 61 58 65 61 58 65 58 52 62 58 52 62 58 52 62 58 52 62 58 52 62 58 52 62 58 52 62 58 52 62 56 50 60 58 52 62 60 54 64 63 57 67 67 61 71 70 64 74 72 66 76 74 69 76 70 60 69 70 60 68 70 60 68 70 60 68 70 60 68 70 60 68 70 60 68 70 60 68 64 54 62 65 55 63 67 57 65 70 60 68 72 62 70 75 65 73 77 67 75 76 69 76 65 57 68 64 58 68 64 58 68 64 58 68 64 58 68 64 58 68 64 58 68 64 58 68 64 58 68 66 60 70 68 62 72 71 65 75 75 69 79 78 72 82 80 74 84 82 76 86 79 74 81 77 72 79 75 70 77 72 67 74 68 63 70 65 60 67 63 58 65 61 56 63 65 60 67 65 60 67 65 60 67 65 60 67 65 60 67 65 60 67 65 60 67 65 60 67 64 59 66 66 61 68 68 63 70 71 66 73 75 70 77 78 73 80 80 75 82 82 77 84 66 61 68 66 61 68 66 61 68 66 61 68 66 61 68 66 61 68 66 61 68 66 61 68 68 57 71 68 57 71 68 57 71 68 57 71 68 57 71 68 57 71 68 57 71 68 57 71 59 48 62 59 48 62 59 48 62 59 48 62 59 48 62 59 48 62 59 48 62 57 49 64 50 43 59 50 46 63 54 50 67 60 56 73 66 62 79 72 68 85 76 72 89 78 74 91 97 93 110 97 93 110 97 93 110 97 93 110 97 93 110 97 93 110 97 93 110 99 92 108 89 79 90 90 78 88 90 78 88 90 78 88 90 78 88 90 78 88 90 78 88 90 78 88 90 78 88 90 78 88 90 78 88 90 78 88 90 78 88 90 78 88 90 78 88 91 78 88 82 65 75 84 64 75 84 64 75 84 64 75 84 64 75 84 64 75 84 64 75 84 64 75 73 53 64 73 53 64 73 53 64 73 53 64 73 53 64 73 53 64 73 53 64 73 53 64 77 53 66 77 53 66 77 53 66 77 53 66 77 53 66 77 53 66 77 53 66 77 53 66 92 68 81 92 68 81 92 68 81 92 68 81 92 68 81 92 68 81 92 68 81 95 67 82 100 61 82 102 60 84 102 60 84 99 61 84 99 61 84 96 63 84 95 63 84 92 65 84 69 46 64 64 46 62 61 44 60 55 43 57 51 39 53 45 37 50 43 35 48 38 35 46 40 43 52 39 43 52 39 43 52 39 43 52 39 43 52 39 43 52 39 43 52 39 43 52 22 26 35 22 26 35
64 61 68 64 61 68 64 61 68 64 61 68 64 61 68 72 69 76 72 69 76 72 69 76 72 69 76 72 69 76 72 69 76 72 69 76 72 69 76 61 58 65 61 58 65 61 58 65 61 58 65 61 58 65 61 58 65 61 58 65 61 58 65 58 52 62 58 52 62 58 52 62 58 52 62 58 52 62 58 52 62 58 52 62 58 52 62 56 50 60 58 52 62 60 54 64 63 57 67 67 61 71 70 64 74 72 66 76 74 69 76 70 60 69 70 60 68 70 60 68 70 60 68 70 60 68 70 60 68 70 60 68 70 60 68 69 59 67 69 59 67 70 60 68 71 61 69 71 61 69 72 62 70 73 63 71 71 64 71 62 54 65 61 55 65 61 55 65 61 55 65 61 55 65 61 55 65 61 55 65 61 55 65 61 55 65 62 56 66 65 59 69 68 62 72 71 65 75 75 69 79 77 71 81 78 72 82 79 74 81 77 72 79 75 70 77 72 67 74 68 63 70 65 60 67 63 58 65 61 56 63 65 60 67 65 60 67 65 60 67 65 60 67 65 60 67 65 60 67 65 60 67 65 60 67 61 56 63 62 57 64 65 60 67 68 63 70 71 66 73 75 70 77 77 72 79 78 73 80 66 61 68 66 61 68 66 61 68 66 61 68 66 61 68 66 61 68 66 61 68 66 61 68 68 57 71 68 57 71 68 57 71 68 57 71 68 57 71 68 57 71 68 57 71 68 57 71 62 51 65 62 51 65 62 51 65 62 51 65 62 51 65 62 51 65 62 51 65 60 52 67 54 47 63 54 50 67 57 53 70 61 57 74 65 61 78 69 65 82 72 68 85 74 70 87 96 92 109 96 92 109 96 92 109 96 92 109 96 92 109 96 92 109 96 92 109 98 91 107 86 76 87 87 75 85 87 75 85 87 75 85 87 75 85 87 75 85 87 75 85 87 75 85 87 75 85 87 75 85 87 75 85 87 75 85 87 75 85 87 75 85 87 75 85 88 75 85 79 62 72 81 61 72 81 61 72 81 61 72 81 61 72 81 61 72 81 61 72 81 61 72 73 53 64 73 53 64 73 53 64 73 53 64 73 53 64 73 53 64 73 53 64 73 53 64 77 53 66 77 53 66 77 53 66 77 53 66 77 53 66 77 53 66 77 53 66 77 53 66 92 68 81 92 68 81 92 68 81 92 68 81 92 68 81 92 68 81 92 68 81 95 67 82 100 61 82 102 60 84 102 60 84 99 61 84 99 61 84 96 63 84 95 63 84 92 65 84 69 46 64 64 46 62 61 44 60 55 43 57 51 39 53 45 37 50 43 35 48 38 35 46 40 43 52 39 43 52 39 43 52 39 43 52 39 43 52 39 43 52 39 43 52 39 43 52 22 26 35 22 26 35
64 61 68 64 61 68 64 61 68 64 61 68 64 61 68 72 69 76 72 69 76 72 69 76 72 69 76 72 69 76 72 69 76 72 69 76 72 69 76 61 58 65 61 58 65 61 58 65 61 58 65 61 58 65 61 58 65 61 58 65 61 58 65 58 52 62 58 52 62 58 52 62 58 52 62 58 52 62 58 52 62 58 52 62 58 52 62 56 50 60 58 52 62 60 54 64 63 57 67 67 61 71 70 64 74 72 66 76 74 69 76 70 60 69 70 60 68 70 60 68 70 60 68 70 60 68 70 60 68 70 60 68 70 60 68 73 63 71 73 63 71 72 62 70 71 61 69 71 61 69 70 60 68 69 59 67 67 60 67 58 50 61 57 51 61 57 51 61 57 51 61 57 51 61 57 51 61 57 51 61 57 51 61 58 52 62 59 53 63 61 55 65 65 59 69 68 62 72 71 65 75 74 68 78 75 69 79 79 74 81 77 72 79 75 70 77 72 67 74 68 63 70 65 60 67 63 58 65 61 56 63 65 60 67 65 60 67 65 60 67 65 60 67 65 60 67 65 60 67 65 60 67 65 60 67 58 53 60 59 54 61 61 56 63 65 60 67 68 63 70 71 66 73 74 69 76 75 70 77 66 61 68 66 61 68 66 61 68 66 61 68 66 61 68 66 61 68 66 61 68 66 61 68 68 57 71 68 57 71 68 57 71 68 57 71 68 57 71 68 57 71 68 57 71 68 57 71 66 55 69 66 55 69 66 55 69 66 55 69 66 55 69 66 55 69 66 55 69 64 56 71 59 52 68 58 54 71 59 55 72 62 58 75 64 60 77 67 63 80 68 64 81 69 65 82 89 85 102 89 85 102 89 85 102 89 85 102 89 85 102 89 85 102 89 85 102 91 84 100 82 72 83 83 71 81 83 71 81 83 71 81 83 71 81 83 71 81 83 71 81 83 71 81 83 71 81 83 71 81 83 71 81 83 71 81 83 71 81 83 71 81 83 71 81 84 71 81 75 58 68 77 57 68 77 57 68 77 57 68 77 57 68 77 57 68 77 57 68 77 57 68 73 53 64 73 53 64 73 53 64 73 53 64 73 53 64 73 53 64 73 53 64 73 53 64 77 53 66 77 53 66 77 53 66 77 53 66 77 53 66 77 53 66 77 53 66 77 53 66 92 68 81 92 68 81 92 68 81 92 68 81 92 68 81 92 68 81 92 68 81 95 67 82 100 61 82 102 60 84 102 60 84 99 61 84 99 61 84 96 63 84 95 63 84 92 65 84 69 46 64 64 46 62 61 44 60 55 43 57 51 39 53 45 37 50 43 35 48 38 35 46 40 43 52 39 43 52 39 43 52 39 43 52 39 43 52 39 43 52 39 43 52 39 43 52 22 26 35 22 26 35
64 61 68 64 61 68 64 61 68 64 61 68 64 61 68 72 69 76 72 69 76 72 69 76 72 69 76 72 69 76 72 69 76 72 69 76 72 69 76 61 58 65 61 58 65 61 58 65 61 58 65 61 58 65 61 58 65 61 58 65 61 58 65 58 52 62 58 52 62 58 52 62 58 52 62 58 52 62 58 52 62 58 52 62 58 52 62 56 50 60 58 52 62 60 54 64 63 57 67 67 61 71 70 64 74 72 66 76 74 69 76 70 60 69 70 60 68 70 60 68 70 60 68 70 60 68 70 60 68 70 60 68 70 60 68 78 68 76 77 67 75 75 65 73 72 62 70 70 60 68 67 57 65 65 55 63 62 55 62 55 47 58 54 48 58 54 48 58 54 48 58 54 48 58 54 48 58 54 48 58 54 48 58 54 48 58 56 50 60 58 52 62 61 55 65 65 59 69 68 62 72 70 64 74 72 66 76 79 74 81 77 72 79 75 70 77 72 67 74 68 63 70 65 60 67 63 58 65 61 56 63 65 60 67 65 60 67 65 60 67 65 60 67 65 60 67 65 60 67 65 60 67 65 60 67 54 49 56 56 51 58 58 53 60 61 56 63 65 60 67 68 63 70 70 65 72 72 67 74 66 61 68 66 61 68 66 61 68 66 61 68 66 61 68 66 61 68 66 61 68 66 61 68 68 57 71 68 57 71 68 57 71 68 57 71 68 57 71 68 57 71 68 57 71 68 57 71 69 58 72 69 58 72 69 58 72 69 58 72 69 58 72 69 58 72 69 58 72 67 59 74 63 56 72 61 57 74 62 58 75 63 59 76 63 59 76 64 60 77 65 61 78 65 61 78 77 73 90 77 73 90 77 73 90 77 73 90 77 73 90 77 73 90 77 73 90 79 72 88 79 69 80 80 68 78 80 68 78 80 68 78 80 68 78 80 68 78 80 68 78 80 68 78 80 68 78 80 68 78 80 68 78 80 68 78 80 68 78 80 68 78 80 68 78 81 68 78 72 55 65 74 54 65 74 54 65 74 54 65 74 54 65 74 54 65 74 54 65 74 54 65 73 53 64 73 53 64 73 53 64 73 53 64 73 53 64 73 53 64 73 53 64 73 53 64 77 53 66 77 53 66 77 53 66 77 53 66 77 53 66 77 53 66 77 53 66 77 53 66 92 68 81 92 68 81 92 68 81 92 68 81 92 68 81 92 68 81 92 68 81 95 67 82 100 61 82 102 60 84 102 60 84 99 61 84 99 61 84 96 63 84 95 63 84 92 65 84 69 46 64 64 46 62 61 44 60 55 43 57 51 39 53 45 37 50 43 35 48 38 35 46 40 43 52 39 43 52 39 43 52 39 43 52 39 43 52 39 43 52 39 43 52 39 43 52 22 26 35 22 26 35
64 61 68 64 61 68 64 61 68 64 61 68 64 61 68 72 69 76 72 69 76 72 69 76 72 69 76 72 69 76 72 69 76 72 69 76 72 69 76 61 58 65 61 58 65 61 58 65 61 58 65 61 58 65 61 58 65 61 58 65 61 58 65 58 52 62 58 52 62 58 52 62 58 52 62 58 52 62 58 52 62 58 52 62 58 52 62 56 50 60 58 52 62 60 54 64 63 57 67 67 61 71 70 64 74 72 66 76 74 69 76 70 60 69 70 60 68 70 60 68 70 60 68 70 60 68 70 60 68 70 60 68 70 60 68 81 71 79 80 70 78 77 67 75 73 63 71 69 59 67 65 55 63 62 52 60 59 52 59 53 45 56 52 46 56 52 46 56 52 46 56 52 46 56 52 46 56 52 46 56 52 46 56 52 46 56 53 47 57 56 50 60 59 53 63 62 56 66 66 60 70 68 62 72 69 63 73 79 74 81 77 72 79 75 70 77 72 67 74 68 63 70 65 60 67 63 58 65 61 56 63 65 60 67 65 60 67 65 60 67 65 60 67 65 60 67 65 60 67 65 60 67 65 60 67 52 47 54 53 48 55 56 51 58 59 54 61 62 57 64 66 61 68 68 63 70 69 64 71 66 61 68 66 61 68 66 61 68 66 61 68 66 61 68 66 61 68 66 61 68 66 61 68 68 57 71 68 57 71 68 57 71 68 57 71 68 57 71 68 57 71 68 57 71 68 57 71 71 60 74 71 60 74 71 60 74 71 60 74 71 60 74 71 60 74 71 60 74 69 61 76 67 60 76 64 60 77 64 60 77 63 59 76 63 59 76 62 58 75 62 58 75 61 57 74 64 60 77 64 60 77 64 60 77 64 60 77 64 60 77 64 60 77 64 60 77 66 59 75 77 67 78 78 66 76 78 66 76 78 66 76 78 66 76 78 66 76 78 66 76 78 66 76 78 66 76 78 66 76 78 66 76 78 66 76 78 66 76 78 66 76 78 66 76 79 66 76 70 53 63 72 52 63 72 52 63 72 52 63 72 52 63 72 52 63 72 52 63 72 52 63 73 53 64 73 53 64 73 53 64 73 53 64 73 53 64 73 53 64 73 53 64 73 53 64 77 53 66 77 53 66 77 53 66 77 53 66 77 53 66 77 53 66 77 53 66 77 53 66 92 68 81 92 68 81 92 68 81 92 68 81 92 68 81 92 68 81 92 68 81 95 67 82 100 61 82 102 60 84 102 60 84 99 61 84 99 61 84 96 63 84 95 63 84 92 65 84 69 46 64 64 46 62 61 44 60 55 43 57 51 39 53 45 37 50 43 35 48 38 35 46 40 43 52 39 43 52 39 43 52 39 43 52 39 43 52 39 43 52 39 43 52 39 43 52 22 26 35 22 26 35
64 61 68 64 61 68 64 61 68 64 61 68 64 61 68 72 69 76 72 69 76 72 69 76 72 69 76 72 69 76 72 69 76 72 69 76 72 69 76 61 58 65 61 58 65 61 58 65 61 58 65 61 58 65 61 58 65 61 58 65 61 58 65 58 52 62 58 52 62 58 52 62 58 52 62 58 52 62 58 52 62 58 52 62 58 52 62 56 50 60 58 52 62 60 54 64 63 57 67 67 61 71 70 64 74 72 66 76 74 69 76 70 60 69 70 60 68 70 60 68 70 60 68 70 60 68 70 60 68 70 60 68 70 60 68 83 73 81 81 71 79 78 68 76 73 63 71 69 59 67 64 54 62 61 51 59 57 50 57 51 43 54 50 44 54 50 44 54 50 44 54 50 44 54 50 44 54 50 44 54 50 44 54 51 45 55 52 46 56 54 48 58 58 52 62 61 55 65 64 58 68 67 61 71 68 62 72 79 74 81 77 72 79 75 70 77 72 67 74 68 63 70 65 60 67 63 58 65 61 56 63 65 60 67 65 60 67 65 60 67 65 60 67 65 60 67 65 60 67 65 60 67 65 60 67 51 46 53 52 47 54 54 49 56 58 53 60 61 56 63 64 59 66 67 62 69 68 63 70 66 61 68 66 61 68 66 61 68 66 61 68 66 61 68 66 61 68 66 61 68 66 61 68 68 57 71 68 57 71 68 57 71 68 57 71 68 57 71 68 57 71 68 57 71 68 57 71 73 62 76 73 62 76 73 62 76 73 62 76 73 62 76 73 62 76 73 62 76 71 63 78 68 61 77 66 62 79 65 61 78 64 60 77 62 58 75 61 57 74 60 56 73 60 56 73 56 52 69 56 52 69 56 52 69 56 52 69 56 52 69 56 52 69 56 52 69 58 51 67 75 65 76 76 64 74 76 64 74 76 64 74 76 64 74 76 64 74 76 64 74 76 64 74 76 64 74 76 64 74 76 64 74 76 64 74 76 64 74 76 64 74 76 64 74 77 64 74 68 51 61 70 50 61 70 50 61 70 50 61 70 50 61 70 50 61 70 50 61 70 50 61 73 53 64 73 53 64 73 53 64 73 53 64 73 53 64 73 53 64 73 53 64 73 53 64 77 53 66 77 53 66 77 53 66 77 53 66 77 53 66 77 53 66 77 53 66 77 53 66 92 68 81 92 68 81 92 68 81 92 68 81 92 68 81 92 68 81 92 68 81 95 67 82 100 61 82 102 60 84 102 60 84 99 61 84 99 61 84 96 63 84 95 63 84 92 65 84 69 46 64 64 46 62 61 44 60 55 43 57 51 39 53 45 37 50 43 35 48 38 35 46 40 43 52 39 43 52 39 43 52 39 43 52 39 43 52 39 43 52 39 43 52 39 43 52 22 26 35 22 26 35
73 70 77 70 67 74 66 63 70 64 61 68 63 60 67 73 70 77 73 70 77 73 70 77 73 70 77 73 70 77 73 70 77 73 70 77 73 70 77 82 79 86 80 77 84 78 75 82 75 72 79 71 68 75 68 65 72 66 63 70 64 61 68 61 55 65 61 55 65 61 55 65 61 55 65 61 55 65 61 55 65 61 55 65 61 55 65 68 62 72 68 62 72 68 62 72 68 62 72 68 62 72 68 62 72 68 62 72 68 63 70 68 58 67 70 60 68 72 62 70 75 65 73 79 69 77 82 72 80 84 74 82 86 76 84 67 57 65 67 57 65 67 57 65 67 57 65 67 57 65 67 57 65 67 57 65 65 58 65 49 41 52 49 43 53 49 43 53 51 45 55 52 46 56 53 47 57 54 48 58 55 49 59 50 44 54 50 44 54 50 44 54 50 44 54 50 44 54 50 44 54 50 44 54 50 44 54 51 46 53 53 48 55 55 50 57 58 53 60 62 57 64 65 60 67 67 62 69 69 64 71 74 69 76 72 67 74 70 65 72 67 62 69 63 58 65 60 55 62 58 53 60 56 51 58 53 48 55 53 48 55 53 48 55 53 48 55 53 48 55 53 48 55 53 48 55 53 48 55 60 55 62 62 57 64 64 59 66 67 62 69 71 66 73 74 69 76 76 71 78 78 73 80 78 67 81 78 67 81 78 67 81 78 67 81 78 67 81 78 67 81 78 67 81 78 67 81 79 68 82 77 66 80 75 64 78 72 61 75 68 57 71 65 54 68 63 52 66 59 51 66 54 47 63 52 48 65 52 48 65 52 48 65 52 48 65 52 48 65 52 48 65 52 48 65 44 40 57 44 40 57 44 40 57 44 40 57 44 40 57 44 40 57 44 40 57 46 39 55 62 52 63 63 51 61 63 51 61 63 51 61 63 51 61 63 51 61 63 51 61 63 51 61 65 53 63 65 53 63 65 53 63 65 53 63 65 53 63 65 53 63 65 53 63 66 53 63 60 43 53 62 42 53 62 42 53 62 42 53 62 42 53 62 42 53 62 42 53 62 42 53 65 45 56 65 45 56 65 45 56 65 45 56 65 45 56 65 45 56 65 45 56 65 45 56 81 57 70 81 57 70 81 57 70 81 57 70 81 57 70 81 57 70 81 57 70 81 57 70 77 53 66 79 55 68 81 57 70 84 60 73 88 64 77 91 67 80 93 69 82 98 70 85 101 62 83 103 61 85 103 61 85 100 62 85 100 62 85 97 64 85 96 64 85 93 66 85 69 46 64 64 46 62 61 44 60 55 43 57 51 39 53 45 37 50 43 35 48 38 35 46 48 51 60 45 49 58 43 47 56 40 44 53 36 40 49 33 37 46 31 35 44 29 33 42 23 27 36 23 27 36
74 71 78 71 68 75 68 65 72 65 62 69 64 61 68 73 70 77 73 70 77 73 70 77 73 70 77 73 70 77 73 70 77 73 70 77 73 70 77 82 79 86 80 77 84 78 75 82 75 72 79 71 68 75 68 65 72 66 63 70 64 61 68 61 55 65 61 55 65 61 55 65 61 55 65 61 55 65 61 55 65 61 55 65 61 55 65 68 62 72 68 62 72 68 62 72 68 62 72 68 62 72 68 62 72 68 62 72 68 63 70 68 58 67 70 60 68 72 62 70 75 65 73 79 69 77 82 72 80 84 74 82 86 76 84 69 59 67 69 59 67 69 59 67 69 59 67 69 59 67 69 59 67 69 59 67 67 60 67 52 44 55 51 45 55 52 46 56 52 46 56 53 47 57 54 48 58 54 48 58 54 48 58 50 44 54 50 44 54 50 44 54 50 44 54 50 44 54 50 44 54 50 44 54 50 44 54 51 46 53 53 48 55 55 50 57 58 53 60 62 57 64 65 60 67 67 62 69 69 64 71 74 69 76 72 67 74 70 65 72 67 62 69 63 58 65 60 55 62 58 53 60 56 51 58 53 48 55 53 48 55 53 48 55 53 48 55 53 48 55 53 48 55 53 48 55 53 48 55 60 55 62 62 57 64 64 59 66 67 62 69 71 66 73 74 69 76 76 71 78 78 73 80 78 67 81 78 67 81 78 67 81 78 67 81 78 67 81 78 67 81 78 67 81 78 67 81 79 68 82 77 66 80 75 64 78 72 61 75 68 57 71 65 54 68 63 52 66 59 51 66 54 47 63 52 48 65 52 48 65 52 48 65 52 48 65 52 48 65 52 48 65 52 48 65 44 40 57 44 40 57 44 40 57 44 40 57 44 40 57 44 40 57 44 40 57 46 39 55 62 52 63 63 51 61 63 51 61 63 51 61 63 51 61 63 51 61 63 51 61 63 51 61 65 53 63 65 53 63 65 53 63 65 53 63 65 53 63 65 53 63 65 53 63 66 53 63 62 45 55 64 44 55 64 44 55 64 44 55 64 44 55 64 44 55 64 44 55 64 44 55 67 47 58 67 47 58 67 47 58 67 47 58 67 47 58 67 47 58 67 47 58 67 47 58 81 57 70 81 57 70 81 57 70 81 57 70 81 57 70 81 57 70 81 57 70 81 57 70 77 53 66 79 55 68 81 57 70 84 60 73 88 64 77 91 67 80 93 69 82 98 70 85 101 62 83 103 61 85 103 61 85 100 62 85 100 62 85 97 64 85 96 64 85 93 66 85 69 46 64 64 46 62 61 44 60 55 43 57 51 39 53 45 37 50 43 35 48 38 35 46 48 51 60 45 49 58 43 47 56 40 44 53 36 40 49 33 37 46 31 35 44 29 33 42 23 27 36 23 27 36
77 74 81 73 70 77 70 67 74 68 65 72 66 63 70 73 70 77 73 70 77 73 70 77 73 70 77 73 70 77 73 70 77 73 70 77 73 70 77 82 79 86 80 77 84 78 75 82 75 72 79 71 68 75 68 65 72 66 63 70 64 61 68 61 55 65 61 55 65 61 55 65 61 55 65 61 55 65 61 55 65 61 55 65 61 55 65 68 62 72 68 62 72 68 62 72 68 62 72 68 62 72 68 62 72 68 62 72 68 63 70 68 58 67 70 60 68 72 62 70 75 65 73 79 69 77 82 72 80 84 74 82 86 76 84 74 64 72 74 64 72 74 64 72 74 64 72 74 64 72 74 64 72 74 64 72 72 65 72 58 50 61 57 51 61 56 50 60 55 49 59 55 49 59 54 48 58 54 48 58 53 47 57 50 44 54 50 44 54 50 44 54 50 44 54 50 44 54 50 44 54 50 44 54 50 44 54 51 46 53 53 48 55 55 50 57 58 53 60 62 57 64 65 60 67 67 62 69 69 64 71 74 69 76 72 67 74 70 65 72 67 62 69 63 58 65 60 55 62 58 53 60 56 51 58 53 48 55 53 48 55 53 48 55 53 48 55 53 48 55 53 48 55 53 48 55 53 48 55 60 55 62 62 57 64 64 59 66 67 62 69 71 66 73 74 69 76 76 71 78 78 73 80 78 67 81 78 67 81 78 67 81 78 67 81 78 67 81 78 67 81 78 67 81 78 67 81 79 68 82 77 66 80 75 64 78 72 61 75 68 57 71 65 54 68 63 52 66 59 51 66 54 47 63 52 48 65 52 48 65 52 48 65 52 48 65 52 48 65 52 48 65 52 48 65 44 40 57 44 40 57 44 40 57 44 40 57 44 40 57 44 40 57 44 40 57 46 39 55 62 52 63 63 51 61 63 51 61 63 51 61 63 51 61 63 51 61 63 51 61 63 51 61 65 53 63 65 53 63 65 53 63 65 53 63 65 53 63 65 53 63 65 53 63 66 53 63 64 47 57 66 46 57 66 46 57 66 46 57 66 46 57 66 46 57 66 46 57 66 46 57 69 49 60 69 49 60 69 49 60 69 49 60 69 49 60 69 49 60 69 49 60 69 49 60 81 57 70 81 57 70 81 57 70 81 57 70 81 57 70 81 57 70 81 57 70 81 57 70 77 53 66 79 55 68 81 57 70 84 60 73 88 64 77 91 67 80 93 69 82 98 70 85 101 62 83 103 61 85 103 61 85 100 62 85 100 62 85 97 64 85 96 64 85 93 66 85 69 46 64 64 46 62 61 44 60 55 43 57 51 39 53 45 37 50 43 35 48 38 35 46 48 51 60 45 49 58 43 47 56 40 44 53 36 40 49 33 37 46 31 35 44 29 33 42 23 27 36 23 27 36
80 77 84 77 74 81 73 70 77 71 68 75 70 67 74 73 70 77 73 70 77 73 70 77 73 70 77 73 70 77 73 70 77 73 70 77 73 70 77 82 79 86 80 77 84 78 75 82 75 72 79 71 68 75 68 65 72 66 63 70 64 61 68 61 55 65 61 55 65 61 55 65 61 55 65 61 55 65 61 55 65 61 55 65 61 55 65 68 62 72 68 62 72 68 62 72 68 62 72 68 62 72 68 62 72 68 62 72 68 63 70 68 58 67 70 60 68 72 62 70 75 65 73 79 69 77 82 72 80 84 74 82 86 76 84 81 71 79 81 71 79 81 71 79 81 71 79 81 71 79 81 71 79 81 71 79 79 72 79 66 58 69 64 58 68 62 56 66 60 54 64 57 51 61 55 49 59 53 47 57 52 46 56 50 44 54 50 44 54 50 44 54 50 44 54 50 44 54 50 44 54 50 44 54 50 44 54 51 46 53 53 48 55 55 50 57 58 53 60 62 57 64 65 60 67 67 62 69 69 64 71 74 69 76 72 67 74 70 65 72 67 62 69 63 58 65 60 55 62 58 53 60 56 51 58 53 48 55 53 48 55 53 48 55 53 48 55 53 48 55 53 48 55 53 48 55 53 48 55 60 55 62 62 57 64 64 59 66 67 62 69 71 66 73 74 69 76 76 71 78 78 73 80 78 67 81 78 67 81 78 67 81 78 67 81 78 67 81 78 67 81 78 67 81 78 67 81 79 68 82 77 66 80 75 64 78 72 61 75 68 57 71 65 54 68 63 52 66 59 51 66 54 47 63 52 48 65 52 48 65 52 48 65 52 48 65 52 48 65 52 48 65 52 48 65 44 40 57 44 40 57 44 40 57 44 40 57 44 40 57 44 40 57 44 40 57 46 39 55 62 52 63 63 51 61 63 51 61 63 51 61 63 51 61 63 51 61 63 51 61 63 51 61 65 53 63 65 53 63 65 53 63 65 53 63 65 53 63 65 53 63 65 53 63 66 53 63 67 50 60 69 49 60 69 49 60 69 49 60 69 49 60 69 49 60 69 49 60 69 49 60 72 52 63 72 52 63 72 52 63 72 52 63 72 52 63 72 52 63 72 52 63 72 52 63 81 57 70 81 57 70 81 57 70 81 57 70 81 57 70 81 57 70 81 57 70 81 57 70 77 53 66 79 55 68 81 57 70 84 60 73 88 64 77 91 67 80 93 69 82 98 70 85 101 62 83 103 61 85 103 61 85 100 62 85 100 62 85 97 64 85 96 64 85 93 66 85 69 46 64 64 46 62 61 44 60 55 43 57 51 39 53 45 37 50 43 35 48 38 35 46 48 51 60 45 49 58 43 47 56 40 44 53 36 40 49 33 37 46 31 35 44 29 33 42 23 27 36 23 27 36
83 80 87 80 77 84 77 74 81 74 71 78 73 70 77 73 70 77 73 70 77 73 70 77 73 70 77 73 70 77 73 70 77 73 70 77 73 70 77 82 79 86 80 77 84 78 75 82 75 72 79 71 68 75 68 65 72 66 63 70 64 61 68 61 55 65 61 55 65 61 55 65 61 55 65 61 55 65 61 55 65 61 55 65 61 55 65 68 62 72 68 62 72 68 62 72 68 62 72 68 62 72 68 62 72 68 62 72 68 63 70 68 58 67 70 60 68 72 62 70 75 65 73 79 69 77 82 72 80 84 74 82 86 76 84 87 77 85 87 77 85 87 77 85 87 77 85 87 77 85 87 77 85 87 77 85 85 78 85 74 66 77 71 65 75 68 62 72 64 58 68 60 54 64 55 49 59 52 46 56 51 45 55 50 44 54 50 44 54 50 44 54 50 44 54 50 44 54 50 44 54 50 44 54 50 44 54 51 46 53 53 48 55 55 50 57 58 53 60 62 57 64 65 60 67 67 62 69 69 64 71 74 69 76 72 67 74 70 65 72 67 62 69 63 58 65 60 55 62 58 53 60 56 51 58 53 48 55 53 48 55 53 48 55 53 48 55 53 48 55 53 48 55 53 48 55 53 48 55 60 55 62 62 57 64 64 59 66 67 62 69 71 66 73 74 69 76 76 71 78 78 73 80 78 67 81 78 67 81 78 67 81 78 67 81 78 67 81 78 67 81 78 67 81 78 67 81 79 68 82 77 66 80 75 64 78 72 61 75 68 57 71 65 54 68 63 52 66 59 51 66 54 47 63 52 48 65 52 48 65 52 48 65 52 48 65 52 48 65 52 48 65 52 48 65 44 40 57 44 40 57 44 40 57 44 40 57 44 40 57 44 40 57 44 40 57 46 39 55 62 52 63 63 51 61 63 51 61 63 51 61 63 51 61 63 51 61 63 51 61 63 51 61 65 53 63 65 53 63 65 53 63 65 53 63 65 53 63 65 53 63 65 53 63 66 53 63 71 54 64 73 53 64 73 53 64 73 53 64 73 53 64 73 53 64 73 53 64 73 53 64 76 56 67 76 56 67 76 56 67 76 56 67 76 56 67 76 56 67 76 56 67 76 56 67 81 57 70 81 57 70 81 57 70 81 57 70 81 57 70 81 57 70 81 57 70 81 57 70 77 53 66 79 55 68 81 57 70 84 60 73 88 64 77 91 67 80 93 69 82 98 70 85 101 62 83 103 61 85 103 61 85 100 62 85 100 62 85 97 64 85 96 64 85 93 66 85 69 46 64 64 46 62 61 44 60 55 43 57 51 39 53 45 37 50 43 35 48 38 35 46 48 51 60 45 49 58 43 47 56 40 44 53 36 40 49 33 37 46 31 35 44 29 33 42 23 27 36 23 27 36
87 84 91 83 80 87 80 77 84 78 75 82 76 73 80 73 70 77 73 70 77 73 70 77 73 70 77 73 70 77 73 70 77 73 70 77 73 70 77 82 79 86 80 77 84 78 75 82 75 72 79 71 68 75 68 65 72 66 63 70 64 61 68 61 55 65 61 55 65 61 55 65 61 55 65 61 55 65 61 55 65 61 55 65 61 55 65 68 62 72 68 62 72 68 62 72 68 62 72 68 62 72 68 62 72 68 62 72 68 63 70 68 58 67 70 60 68 72 62 70 75 65 73 79 69 77 82 72 80 84 74 82 86 76 84 94 84 92 94 84 92 94 84 92 94 84 92 94 84 92 94 84 92 94 84 92 92 85 92 81 73 84 78 72 82 74 68 78 68 62 72 62 56 66 56 50 60 52 46 56 49 43 53 50 44 54 50 44 54 50 44 54 50 44 54 50 44 54 50 44 54 50 44 54 50 44 54 51 46 53 53 48 55 55 50 57 58 53 60 62 57 64 65 60 67 67 62 69 69 64 71 74 69 76 72 67 74 70 65 72 67 62 69 63 58 65 60 55 62 58 53 60 56 51 58 53 48 55 53 48 55 53 48 55 53 48 55 53 48 55 53 48 55 53 48 55 53 48 55 60 55 62 62 57 64 64 59 66 67 62 69 71 66 73 74 69 76 76 71 78 78 73 80 78 67 81 78 67 81 78 67 81 78 67 81 78 67 81 78 67 81 78 67 81 78 67 81 79 68 82 77 66 80 75 64 78 72 61 75 68 57 71 65 54 68 63 52 66 59 51 66 54 47 63 52 48 65 52 48 65 52 48 65 52 48 65 52 48 65 52 48 65 52 48 65 44 40 57 44 40 57 44 40 57 44 40 57 44 40 57 44 40 57 44 40 57 46 39 55 62 52 63 63 51 61 63 51 61 63 51 61 63 51 61 63 51 61 63 51 61 63 51 61 65 53 63 65 53 63 65 53 63 65 53 63 65 53 63 65 53 63 65 53 63 66 53 63 74 57 67 76 56 67 76 56 67 76 56 67 76 56 67 76 56 67 76 56 67 76 56 67 79 59 70 79 59 70 79 59 70 79 59 70 79 59 70 79 59 70 79 59 70 79 59 70 81 57 70 81 57 70 81 57 70 81 57 70 81 57 70 81 57 70 81 57 70 81 57 70 77 53 66 79 55 68 81 57 70 84 60 73 88 64 77 91 67 80 93 69 82 98 70 85 101 62 83 103 61 85 103 61 85 100 62 85 100 62 85 97 64 85 96 64 85 93 66 85 69 46 64 64 46 62 61 44 60 55 43 57 51 39 53 45 37 50 43 35 48 38 35 46 48 51 60 45 49 58 43 47 56 40 44 53 36 40 49 33 37 46 31 35 44 29 33 42 23 27 36 23 27 36
89 86 93 86 83 90 82 79 86 80 77 84 79 76 83 73 70 77 73 70 77 73 70 77 73 70 77 73 70 77 73 70 77 73 70 77 73 70 77 82 79 86 80 77 84 78 75 82 75 72 79 71 68 75 68 65 72 66 63 70 64 61 68 61 55 65 61 55 65 61 55 65 61 55 65 61 55 65 61 55 65 61 55 65 61 55 65 68 62 72 68 62 72 68 62 72 68 62 72 68 62 72 68 62 72 68 62 72 68 63 70 68 58 67 70 60 68 72 62 70 75 65 73 79 69 77 82 72 80 84 74 82 86 76 84 99 89 97 99 89 97 99 89 97 99 89 97 99 89 97 99 89 97 99 89 97 97 90 97 87 79 90 83 77 87 78 72 82 71 65 75 64 58 68 57 51 61 51 45 55 48 42 52 50 44 54 50 44 54 50 44 54 50 44 54 50 44 54 50 44 54 50 44 54 50 44 54 51 46 53 53 48 55 55 50 57 58 53 60 62 57 64 65 60 67 67 62 69 69 64 71 74 69 76 72 67 74 70 65 72 67 62 69 63 58 65 60 55 62 58 53 60 56 51 58 53 48 55 53 48 55 53 48 55 53 48 55 53 48 55 53 48 55 53 48 55 53 48 55 60 55 62 62 57 64 64 59 66 67 62 69 71 66 73 74 69 76 76 71 78 78 73 80 78 67 81 78 67 81 78 67 81 78 67 81 78 67 81 78 67 81 78 67 81 78 67 81 79 68 82 77 66 80 75 64 78 72 61 75 68 57 71 65 54 68 63 52 66 59 51 66 54 47 63 52 48 65 52 48 65 52 48 65 52 48 65 52 48 65 52 48 65 52 48 65 44 40 57 44 40 57 44 40 57 44 40 57 44 40 57 44 40 57 44 40 57 46 39 55 62 52 63 63 51 61 63 51 61 63 51 61 63 51 61 63 51 61 63 51 61 63 51 61 65 53 63 65 53 63 65 53 63 65 53 63 65 53 63 65 53 63 65 53 63 66 53 63 76 59 69 78 58 69 78 58 69 78 58 69 78 58 69 78 58 69 78 58 69 78 58 69 81 61 72 81 61 72 81 61 72 81 61 72 81 61 72 81 61 72 81 61 72 81 61 72 81 57 70 81 57 70 81 57 70 81 57 70 81 57 70 81 57 70 81 57 70 81 57 70 77 53 66 79 55 68 81 57 70 84 60 73 88 64 77 91 67 80 93 69 82 98 70 85 101 62 83 103 61 85 103 61 85 100 62 85 100 62 85 97 64 85 96 64 85 93 66 85 69 46 64 64 46 62 61 44 60 55 43 57 51 39 53 45 37 50 43 35 48 38 35 46 48 51 60 45 49 58 43 47 56 40 44 53 36 40 49 33 37 46 31 35 44 29 33 42 23 27 36 23 27 36
89 88 93 86 85 90 83 82 87 80 79 84 79 78 84 72 71 79 72 71 79 73 70 79 72 71 79 73 70 79 72 71 79 73 70 79 72 71 79 82 79 88 79 78 86 78 75 84 74 73 81 71 68 77 67 66 74 66 63 72 64 61 70 61 55 65 61 55 65 61 55 67 61 55 65 61 55 67 61 55 65 61 55 67 61 55 65 68 62 74 68 62 72 68 62 74 68 62 72 68 62 74 68 62 72 68 62 74 68 62 72 66 59 67 70 60 69 72 62 71 75 65 74 79 69 78 82 72 81 84 74 83 86 76 85 101 91 100 101 91 100 101 91 100 101 91 100 101 91 100 101 91 100 101 91 100 99 92 100 89 83 93 86 80 90 80 74 84 73 67 77 65 59 69 57 51 61 51 45 55 48 42 52 50 44 54 50 44 54 50 44 54 50 44 54 50 44 54 50 44 54 50 44 54 50 44 54 51 45 55 53 48 55 55 50 57 58 53 60 62 57 64 65 60 67 67 62 69 69 64 71 74 69 76 72 67 74 70 65 72 67 62 69 63 58 65 60 55 62 58 53 60 56 51 58 53 48 55 53 48 55 53 48 55 53 48 55 53 48 55 53 48 55 53 48 55 53 48 55 60 55 62 62 57 64 64 59 66 67 62 69 71 66 73 74 69 76 76 71 78 78 72 82 76 68 81 76 68 81 78 67 81 76 68 81 78 67 81 76 68 81 78 67 81 76 68 81 79 68 82 75 67 80 75 64 78 70 62 75 68 57 71 63 55 68 63 52 66 59 51 66 52 48 63 52 48 65 52 48 65 52 48 65 52 48 65 52 48 65 52 48 65 52 48 65 44 40 57 44 40 57 44 40 57 44 40 57 44 40 57 44 40 57 44 40 57 46 39 55 62 52 63 63 51 61 63 51 61 63 51 61 63 51 61 63 51 61 63 51 61 63 51 61 65 53 63 65 53 63 65 53 63 65 53 63 65 53 63 65 53 63 65 53 63 65 53 63 77 61 71 78 61 71 78 61 71 78 61 71 78 61 71 78 61 71 78 61 71 78 61 71 81 64 74 81 64 74 81 64 74 81 64 74 81 64 74 81 64 74 81 64 74 81 64 74 79 59 70 80 58 70 80 58 70 80 58 70 80 58 70 80 58 70 80 58 70 80 58 70 76 54 66 78 56 68 80 58 70 83 61 73 87 65 77 90 68 80 92 70 82 97 70 85 100 62 83 101 61 85 100 62 85 98 63 85 97 64 85 96 64 85 94 65 85 91 66 85 68 47 64 63 46 62 59 45 60 54 43 57 48 40 53 44 38 50 40 37 48 37 35 46 48 51 60 43 50 58 43 47 58 38 45 53 36 40 51 31 38 46 31 35 46 27 34 42 23 27 38 21 28 36
96 97 99 96 97 99 96 97 99 96 97 99 96 97 101 74 74 84 74 73 87 75 73 87 74 73 87 75 73 87 74 73 87 75 73 87 74 73 87 73 71 85 72 71 85 73 71 85 72 71 85 73 71 85 72 71 85 73 71 85 73 71 84 63 59 73 65 59 71 65 59 73 65 59 71 65 59 73 65 59 71 65 59 73 65 59 71 69 63 77 69 63 75 69 63 77 69 63 75 69 63 77 69 63 75 69 63 77 69 63 75 75 67 80 77 69 80 79 71 82 82 74 85 86 78 89 89 81 92 91 83 94 93 85 96 94 86 97 94 86 97 94 86 97 94 86 97 94 86 97 94 86 97 94 86 97 94 86 97 88 82 94 84 81 92 82 79 90 79 76 87 75 72 83 72 69 80 70 67 78 68 65 76 52 49 60 52 49 60 52 49 60 52 49 60 52 49 60 52 49 60 52 49 60 52 49 58 69 63 73 69 63 73 69 63 73 69 63 73 69 63 73 69 63 73 69 63 73 69 63 73 72 66 76 70 64 74 68 62 72 65 59 69 61 55 65 58 52 62 56 50 60 54 48 58 52 46 56 54 48 58 56 50 60 59 53 63 63 57 67 66 60 70 68 62 72 70 64 74 75 69 79 75 69 79 75 69 79 75 69 79 75 69 79 75 69 79 75 69 79 75 69 79 82 76 88 82 76 88 83 75 88 82 76 88 83 75 88 82 76 88 83 75 88 82 76 88 78 70 83 77 71 83 78 70 83 77 71 83 78 70 83 77 71 83 78 70 83 77 71 85 52 48 63 51 49 63 51 49 63 51 49 63 51 49 63 51 49 63 51 49 63 51 49 63 44 42 56 44 42 56 44 42 56 44 42 56 44 42 56 44 42 56 44 42 56 45 41 55 69 61 74 71 61 72 71 61 72 71 61 72 71 61 72 71 61 72 71 61 72 71 61 72 63 53 64 63 53 64 63 53 64 63 53 64 63 53 64 63 53 64 63 53 64 63 53 62 74 63 71 74 63 69 74 63 69 74 63 69 74 63 69 74 63 69 74 63 69 74 63 69 79 68 74 79 68 74 79 68 74 79 68 74 79 68 74 79 68 74 79 68 74 80 67 74 82 66 76 83 66 76 83 66 76 83 66 76 83 66 76 83 66 76 83 66 76 83 66 76 82 65 75 82 65 75 82 65 75 82 65 75 82 65 75 82 65 75 82 65 75 85 63 76 98 66 87 98 63 87 95 61 85 91 59 82 85 56 78 79 54 75 76 53 73 71 52 71 53 39 56 51 40 56 49 41 56 48 42 56 46 42 56 45 43 56 44 44 56 42 44 56 44 51 61 41 50 59 40 46 58 36 45 54 33 39 51 29 38 47 28 34 46 25 34 43 22 28 40 21 30 39
92 96 95 92 96 97 92 96 95 92 96 97 92 96 99 74 74 86 74 73 89 74 73 89 74 73 89 74 73 89 74 73 89 74 73 89 74 73 89 72 71 87 72 71 87 72 71 87 72 71 87 72 71 87 72 71 87 72 71 87 73 71 85 63 59 74 65 59 73 65 59 73 65 59 73 65 59 73 65 59 73 65 59 73 65 59 73 69 63 77 69 63 77 69 63 77 69 63 77 69 63 77 69 63 77 69 63 77 69 63 77 75 67 80 77 69 82 79 71 84 82 74 87 86 78 91 89 81 94 91 83 96 93 85 98 94 86 99 94 86 99 94 86 99 94 86 99 94 86 99 94 86 99 94 86 99 93 87 99 88 82 94 84 81 92 82 79 90 79 76 87 75 72 83 72 69 80 70 67 78 68 65 76 52 49 60 52 49 60 52 49 60 52 49 60 52 49 60 52 49 60 52 49 60 52 49 60 69 63 73 69 63 73 69 63 73 69 63 73 69 63 73 69 63 73 69 63 73 69 63 73 72 66 76 70 64 74 68 62 72 65 59 69 61 55 65 58 52 62 56 50 60 54 48 58 52 46 56 54 48 58 56 50 60 59 53 63 63 57 67 66 60 70 68 62 72 70 64 74 75 69 79 75 69 79 75 69 79 75 69 79 75 69 79 75 69 79 75 69 79 75 69 79 82 76 88 82 76 88 82 76 88 82 76 88 82 76 88 82 76 88 82 76 88 82 76 88 77 71 83 77 71 83 77 71 83 77 71 83 77 71 83 77 71 83 77 71 83 75 72 83 54 50 65 53 51 65 53 51 65 53 51 65 53 51 65 53 51 65 53 51 65 53 51 65 46 44 58 46 44 58 46 44 58 46 44 58 46 44 58 46 44 58 46 44 58 47 43 57 69 61 74 71 61 72 71 61 72 71 61 72 71 61 72 71 61 72 71 61 72 71 61 72 63 53 64 63 53 64 63 53 64 63 53 64 63 53 64 63 53 64 63 53 64 63 53 62 73 63 71 73 64 69 73 64 69 73 64 69 73 64 69 73 64 69 73 64 69 73 64 69 78 69 74 78 69 74 78 69 74 78 69 74 78 69 74 78 69 74 78 69 74 79 68 74 80 67 76 82 66 76 82 66 76 82 66 76 82 66 76 82 66 76 82 66 76 82 66 76 81 65 75 81 65 75 81 65 75 81 65 75 81 65 75 81 65 75 81 65 75 84 64 76 96 67 87 96 64 87 94 62 85 88 60 82 84 56 78 78 55 75 75 54 73 70 53 71 52 39 56 49 41 56 48 42 56 45 43 56 45 43 56 42 44 56 42 44 56 39 46 56 44 50 62 41 49 60 39 47 58 36 44 55 32 40 51 29 37 48 27 35 46 25 33 44 21 29 40 21 29 40
90 94 95 90 94 97 90 94 95 90 94 97 90 93 98 74 74 86 74 73 89 74 73 89 74 73 89 74 73 89 74 73 89 74 73 89 74 73 89 72 71 87 72 71 87 72 71 87 72 71 87 72 71 87 72 71 87 72 71 87 73 71 85 63 59 74 65 59 73 65 59 73 65 59 73 65 59 73 65 59 73 65 59 73 65 59 73 69 63 77 69 63 77 69 63 77 69 63 77 69 63 77 69 63 77 69 63 77 69 63 77 75 67 80 77 69 82 79 71 84 82 74 87 86 78 91 89 81 94 91 83 96 93 85 98 94 86 99 94 86 99 94 86 99 94 86 99 94 86 99 94 86 99 94 86 99 93 87 99 88 82 94 84 81 92 82 79 90 79 76 87 75 72 83 72 69 80 70 67 78 68 65 76 52 49 60 52 49 60 52 49 60 52 49 60 52 49 60 52 49 60 52 49 60 52 49 60 69 63 73 69 63 73 69 63 73 69 63 73 69 63 73 69 63 73 69 63 73 69 63 73 72 66 76 70 64 74 68 62 72 65 59 69 61 55 65 58 52 62 56 50 60 54 48 58 52 46 56 54 48 58 56 50 60 59 53 63 63 57 67 66 60 70 68 62 72 70 64 74 75 69 79 75 69 79 75 69 79 75 69 79 75 69 79 75 69 79 75 69 79 75 69 79 82 76 88 82 76 88 82 76 88 82 76 88 82 76 88 82 76 88 82 76 88 82 76 88 77 71 83 77 71 83 77 71 83 77 71 83 77 71 83 77 71 83 77 71 83 75 72 83 56 52 67 55 53 67 55 53 67 55 53 67 55 53 67 55 53 67 55 53 67 55 53 67 48 46 60 48 46 60 48 46 60 48 46 60 48 46 60 48 46 60 48 46 60 49 45 59 69 61 74 71 61 72 71 61 72 71 61 72 71 61 72 71 61 72 71 61 72 71 61 72 63 53 64 63 53 64 63 53 64 63 53 64 63 53 64 63 53 64 63 53 64 63 53 62 73 63 71 73 64 69 73 64 69 73 64 69 73 64 69 73 64 69 73 64 69 73 64 69 78 69 74 78 69 74 78 69 74 78 69 74 78 69 74 78 69 74 78 69 74 79 68 74 80 67 76 82 66 76 82 66 76 82 66 76 82 66 76 82 66 76 82 66 76 82 66 76 81 65 75 81 65 75 81 65 75 81 65 75 81 65 75 81 65 75 81 65 75 84 64 76 96 67 87 96 64 87 94 62 85 88 60 82 84 56 78 78 55 75 75 54 73 70 53 71 52 39 56 49 41 56 48 42 56 45 43 56 45 43 56 42 44 56 42 44 56 39 46 56 44 50 62 41 49 60 39 47 58 36 44 55 32 40 51 29 37 48 27 35 46 25 33 44 21 29 40 21 29 40
87 91 94 87 90 95 87 91 94 87 90 95 87 90 97 74 73 87 74 73 89 74 73 89 74 73 89 74 73 89 74 73 89 74 73 89 74 73 89 72 71 87 72 71 87 72 71 87 72 71 87 72 71 87 72 71 87 72 71 87 73 71 85 63 59 74 65 59 73 65 59 73 65 59 73 65 59 73 65 59 73 65 59 73 65 59 73 69 63 77 69 63 77 69 63 77 69 63 77 69 63 77 69 63 77 69 63 77 69 63 77 75 67 80 77 69 82 79 71 84 82 74 87 86 78 91 89 81 94 91 83 96 93 85 98 94 86 99 94 86 99 94 86 99 94 86 99 94 86 99 94 86 99 94 86 99 93 87 99 88 82 94 84 81 92 82 79 90 79 76 87 75 72 83 72 69 80 70 67 78 68 65 76 52 49 60 52 49 60 52 49 60 52 49 60 52 49 60 52 49 60 52 49 60 52 49 60 69 63 73 69 63 73 69 63 73 69 63 73 69 63 73 69 63 73 69 63 73 69 63 73 72 66 76 70 64 74 68 62 72 65 59 69 61 55 65 58 52 62 56 50 60 54 48 58 52 46 56 54 48 58 56 50 60 59 53 63 63 57 67 66 60 70 68 62 72 70 64 74 75 69 79 75 69 79 75 69 79 75 69 79 75 69 79 75 69 79 75 69 79 75 69 79 82 76 88 82 76 88 82 76 88 82 76 88 82 76 88 82 76 88 82 76 88 82 76 88 77 71 83 77 71 83 77 71 83 77 71 83 77 71 83 77 71 83 77 71 83 75 72 83 59 55 70 58 56 70 58 56 70 58 56 70 58 56 70 58 56 70 58 56 70 58 56 70 51 49 63 51 49 63 51 49 63 51 49 63 51 49 63 51 49 63 51 49 63 52 48 62 69 61 74 71 61 72 71 61 72 71 61 72 71 61 72 71 61 72 71 61 72 71 61 72 63 53 64 63 53 64 63 53 64 63 53 64 63 53 64 63 53 64 63 53 64 63 53 62 73 63 71 73 64 69 73 64 69 73 64 69 73 64 69 73 64 69 73 64 69 73 64 69 78 69 74 78 69 74 78 69 74 78 69 74 78 69 74 78 69 74 78 69 74 79 68 74 80 67 76 82 66 76 82 66 76 82 66 76 82 66 76 82 66 76 82 66 76 82 66 76 81 65 75 81 65 75 81 65 75 81 65 75 81 65 75 81 65 75 81 65 75 84 64 76 96 67 87 96 64 87 94 62 85 88 60 82 84 56 78 78 55 75 75 54 73 70 53 71 52 39 56 49 41 56 48 42 56 45 43 56 45 43 56 42 44 56 42 44 56 39 46 56 44 50 62 41 49 60 39 47 58 36 44 55 32 40 51 29 37 48 27 35 46 25 33 44 21 29 40 21 29 40
83 86 91 83 86 93 83 86 91 83 86 93 83 86 95 74 73 87 74 73 89 74 73 89 74 73 89 74 73 89 74 73 89 74 73 89 74 73 89 72 71 87 72 71 87 72 71 87 72 71 87 72 71 87 72 71 87 72 71 87 73 71 85 63 59 74 65 59 73 65 59 73 65 59 73 65 59 73 65 59 73 65 59 73 65 59 73 69 63 77 69 63 77 69 63 77 69 63 77 69 63 77 69 63 77 69 63 77 69 63 77 75 67 80 77 69 82 79 71 84 82 74 87 86 78 91 89 81 94 91 83 96 93 85 98 94 86 99 94 86 99 94 86 99 94 86 99 94 86 99 94 86 99 94 86 99 93 87 99 88 82 94 84 81 92 82 79 90 79 76 87 75 72 83 72 69 80 70 67 78 68 65 76 52 49 60 52 49 60 52 49 60 52 49 60 52 49 60 52 49 60 52 49 60 52 49 60 69 63 73 69 63 73 69 63 73 69 63 73 69 63 73 69 63 73 69 63 73 69 63 73 72 66 76 70 64 74 68 62 72 65 59 69 61 55 65 58 52 62 56 50 60 54 48 58 52 46 56 54 48 58 56 50 60 59 53 63 63 57 67 66 60 70 68 62 72 70 64 74 75 69 79 75 69 79 75 69 79 75 69 79 75 69 79 75 69 79 75 69 79 75 69 79 82 76 88 82 76 88 82 76 88 82 76 88 82 76 88 82 76 88 82 76 88 82 76 88 77 71 83 77 71 83 77 71 83 77 71 83 77 71 83 77 71 83 77 71 83 75 72 83 63 59 74 62 60 74 62 60 74 62 60 74 62 60 74 62 60 74 62 60 74 62 60 74 55 53 67 55 53 67 55 53 67 55 53 67 55 53 67 55 53 67 55 53 67 56 52 66 69 61 74 71 61 72 71 61 72 71 61 72 71 61 72 71 61 72 71 61 72 71 61 72 63 53 64 63 53 64 63 53 64 63 53 64 63 53 64 63 53 64 63 53 64 63 53 62 73 63 71 73 64 69 73 64 69 73 64 69 73 64 69 73 64 69 73 64 69 73 64 69 78 69 74 78 69 74 78 69 74 78 69 74 78 69 74 78 69 74 78 69 74 79 68 74 80 67 76 82 66 76 82 66 76 82 66 76 82 66 76 82 66 76 82 66 76 82 66 76 81 65 75 81 65 75 81 65 75 81 65 75 81 65 75 81 65 75 81 65 75 84 64 76 96 67 87 96 64 87 94 62 85 88 60 82 84 56 78 78 55 75 75 54 73 70 53 71 52 39 56 49 41 56 48 42 56 45 43 56 45 43 56 42 44 56 42 44 56 39 46 56 44 50 62 41 49 60 39 47 58 36 44 55 32 40 51 29 37 48 27 35 46 25 33 44 21 29 40 21 29 40
80 83 92 80 83 92 80 83 92 80 83 92 80 82 94 74 73 87 74 73 89 74 73 89 74 73 89 74 73 89 74 73 89 74 73 89 74 73 89 72 71 87 72 71 87 72 71 87 72 71 87 72 71 87 72 71 87 72 71 87 73 71 85 63 59 74 65 59 73 65 59 73 65 59 73 65 59 73 65 59 73 65 59 73 65 59 73 69 63 77 69 63 77 69 63 77 69 63 77 69 63 77 69 63 77 69 63 77 69 63 77 75 67 80 77 69 82 79 71 84 82 74 87 86 78 91 89 81 94 91 83 96 93 85 98 94 86 99 94 86 99 94 86 99 94 86 99 94 86 99 94 86 99 94 86 99 93 87 99 88 82 94 84 81 92 82 79 90 79 76 87 75 72 83 72 69 80 70 67 78 68 65 76 52 49 60 52 49 60 52 49 60 52 49 60 52 49 60 52 49 60 52 49 60 52 49 60 69 63 73 69 63 73 69 63 73 69 63 73 69 63 73 69 63 73 69 63 73 69 63 73 72 66 76 70 64 74 68 62 72 65 59 69 61 55 65 58 52 62 56 50 60 54 48 58 52 46 56 54 48 58 56 50 60 59 53 63 63 57 67 66 60 70 68 62 72 70 64 74 75 69 79 75 69 79 75 69 79 75 69 79 75 69 79 75 69 79 75 69 79 75 69 79 82 76 88 82 76 88 82 76 88 82 76 88 82 76 88 82 76 88 82 76 88 82 76 88 77 71 83 77 71 83 77 71 83 77 71 83 77 71 83 77 71 83 77 71 83 75 72 83 66 62 77 65 63 77 65 63 77 65 63 77 65 63 77 65 63 77 65 63 77 65 63 77 58 56 70 58 56 70 58 56 70 58 56 70 58 56 70 58 56 70 58 56 70 59 55 69 69 61 74 71 61 72 71 61 72 71 61 72 71 61 72 71 61 72 71 61 72 71 61 72 63 53 64 63 53 64 63 53 64 63 53 64 63 53 64 63 53 64 63 53 64 63 53 62 73 63 71 73 64 69 73 64 69 73 64 69 73 64 69 73 64 69 73 64 69 73 64 69 78 69 74 78 69 74 78 69 74 78 69 74 78 69 74 78 69 74 78 69 74 79 68 74 80 67 76 82 66 76 82 66 76 82 66 76 82 66 76 82 66 76 82 66 76 82 66 76 81 65 75 81 65 75 81 65 75 81 65 75 81 65 75 81 65 75 81 65 75 84 64 76 96 67 87 96 64 87 94 62 85 88 60 82 84 56 78 78 55 75 75 54 73 70 53 71 52 39 56 49 41 56 48 42 56 45 43 56 45 43 56 42 44 56 42 44 56 39 46 56 44 50 62 41 49 60 39 47 58 36 44 55 32 40 51 29 37 48 27 35 46 25 33 44 21 29 40 21 29 40
78 80 92 78 80 92 78 80 92 78 80 92 78 80 93 74 73 89 74 73 89 74 73 89 74 73 89 74 73 89 74 73 89 74 73 89 74 73 89 72 71 87 72 71 87 72 71 87 72 71 87 72 71 87 72 71 87 72 71 87 73 71 85 63 59 74 65 59 73 65 59 73 65 59 73 65 59 73 65 59 73 65 59 73 65 59 73 69 63 77 69 63 77 69 63 77 69 63 77 69 63 77 69 63 77 69 63 77 69 63 77 75 67 80 77 69 82 79 71 84 82 74 87 86 78 91 89 81 94 91 83 96 93 85 98 94 86 99 94 86 99 94 86 99 94 86 99 94 86 99 94 86 99 94 86 99 93 87 99 88 82 94 84 81 92 82 79 90 79 76 87 75 72 83 72 69 80 70 67 78 68 65 76 52 49 60 52 49 60 52 49 60 52 49 60 52 49 60 52 49 60 52 49 60 52 49 60 69 63 73 69 63 73 69 63 73 69 63 73 69 63 73 69 63 73 69 63 73 69 63 73 72 66 76 70 64 74 68 62 72 65 59 69 61 55 65 58 52 62 56 50 60 54 48 58 52 46 56 54 48 58 56 50 60 59 53 63 63 57 67 66 60 70 68 62 72 70 64 74 75 69 79 75 69 79 75 69 79 75 69 79 75 69 79 75 69 79 75 69 79 75 69 79 82 76 88 82 76 88 82 76 88 82 76 88 82 76 88 82 76 88 82 76 88 82 76 88 77 71 83 77 71 83 77 71 83 77 71 83 77 71 83 77 71 83 77 71 83 75 72 83 68 64 79 67 65 79 67 65 79 67 65 79 67 65 79 67 65 79 67 65 79 67 65 79 60 58 72 60 58 72 60 58 72 60 58 72 60 58 72 60 58 72 60 58 72 61 57 71 69 61 74 71 61 72 71 61 72 71 61 72 71 61 72 71 61 72 71 61 72 71 61 72 63 53 64 63 53 64 63 53 64 63 53 64 63 53 64 63 53 64 63 53 64 63 53 62 73 63 71 73 64 69 73 64 69 73 64 69 73 64 69 73 64 69 73 64 69 73 64 69 78 69 74 78 69 74 78 69 74 78 69 74 78 69 74 78 69 74 78 69 74 79 68 74 80 67 76 82 66 76 82 66 76 82 66 76 82 66 76 82 66 76 82 66 76 82 66 76 81 65 75 81 65 75 81 65 75 81 65 75 81 65 75 81 65 75 81 65 75 84 64 76 96 67 87 96 64 87 94 62 85 88 60 82 84 56 78 78 55 75 75 54 73 70 53 71 52 39 56 49 41 56 48 42 56 45 43 56 45 43 56 42 44 56 42 44 56 39 46 56 44 50 62 41 49 60 39 47 58 36 44 55 32 40 51 29 37 48 27 35 46 25 33 44 21 29 40 21 29 40
76 78 93 76 78 93 76 78 93 76 78 93 76 78 93 74 73 89 74 73 89 74 73 89 74 73 89 74 73 89 74 73 89 74 73 89 74 73 89 72 71 87 72 71 87 72 71 87 72 71 87 72 71 87 72 71 87 72 71 87 73 71 85 63 59 74 65 59 73 65 59 73 65 59 73 65 59 73 65 59 73 65 59 73 65 59 73 69 63 77 69 63 77 69 63 77 69 63 77 69 63 77 69 63 77 69 63 77 69 63 77 75 67 80 77 69 82 79 71 84 82 74 87 86 78 91 89 81 94 91 83 96 93 85 98 94 86 99 94 86 99 94 86 99 94 86 99 94 86 99 94 86 99 94 86 99 93 87 99 88 82 94 84 81 92 82 79 90 79 76 87 75 72 83 72 69 80 70 67 78 68 65 76 52 49 60 52 49 60 52 49 60 52 49 60 52 49 60 52 49 60 52 49 60 52 49 60 69 63 73 69 63 73 69 63 73 69 63 73 69 63 73 69 63 73 69 63 73 69 63 73 72 66 76 70 64 74 68 62 72 65 59 69 61 55 65 58 52 62 56 50 60 54 48 58 52 46 56 54 48 58 56 50 60 59 53 63 63 57 67 66 60 70 68 62 72 70 64 74 75 69 79 75 69 79 75 69 79 75 69 79 75 69 79 75 69 79 75 69 79 75 69 79 82 76 88 82 76 88 82 76 88 82 76 88 82 76 88 82 76 88 82 76 88 82 76 88 77 71 83 77 71 83 77 71 83 77 71 83 77 71 83 77 71 83 77 71 83 75 72 83 70 66 81 69 67 81 69 67 81 69 67 81 69 67 81 69 67 81 69 67 81 69 67 81 62 60 74 62 60 74 62 60 74 62 60 74 62 60 74 62 60 74 62 60 74 63 59 73 69 61 74 71 61 72 71 61 72 71 61 72 71 61 72 71 61 72 71 61 72 71 61 72 63 53 64 63 53 64 63 53 64 63 53 64 63 53 64 63 53 64 63 53 64 63 53 62 73 63 71 73 64 69 73 64 69 73 64 69 73 64 69 73 64 69 73 64 69 73 64 69 78 69 74 78 69 74 78 69 74 78 69 74 78 69 74 78 69 74 78 69 74 79 68 74 80 67 76 82 66 76 82 66 76 82 66 76 82 66 76 82 66 76 82 66 76 82 66 76 81 65 75 81 65 75 81 65 75 81 65 75 81 65 75 81 65 75 81 65 75 84 64 76 96 67 87 96 64 87 94 62 85 88 60 82 84 56 78 78 55 75 75 54 73 70 53 71 52 39 56 49 41 56 48 42 56 45 43 56 45 43 56 42 44 56 42 44 56 39 46 56 44 50 62 41 49 60 39 47 58 36 44 55 32 40 51 29 37 48 27 35 46 25 33 44 21 29 40 21 29 40
60 61 81 60 61 81 60 61 81 60 61 81 60 61 79 61 60 78 61 60 76 61 60 76 61 60 76 61 60 76 61 60 76 61 60 76 61 60 76 69 68 84 69 68 84 69 68 84 69 68 84 69 68 84 69 68 84 69 68 84 70 68 82 70 66 81 72 66 80 72 66 80 72 66 80 72 66 80 72 66 80 72 66 80 72 66 80 68 62 76 68 62 76 68 62 76 68 62 76 68 62 76 68 62 76 68 62 76 68 62 76 75 67 80 75 67 80 75 67 80 75 67 80 75 67 80 75 67 80 75 67 80 75 67 80 80 72 85 80 72 85 80 72 85 80 72 85 80 72 85 80 72 85 80 72 85 79 73 85 83 77 89 81 78 89 81 78 89 81 78 89 81 78 89 81 78 89 81 78 89 81 78 89 48 45 56 49 46 57 51 48 59 55 52 63 58 55 66 61 58 69 64 61 72 65 62 73 78 72 82 76 70 80 74 68 78 71 65 75 67 61 71 64 58 68 62 56 66 60 54 64 45 39 49 45 39 49 45 39 49 45 39 49 45 39 49 45 39 49 45 39 49 45 39 49 63 57 67 63 57 67 63 57 67 63 57 67 63 57 67 63 57 67 63 57 67 63 57 67 71 65 75 71 65 75 71 65 75 71 65 75 71 65 75 71 65 75 71 65 75 71 65 75 86 80 92 86 80 92 86 80 92 86 80 92 86 80 92 86 80 92 86 80 92 86 80 92 85 79 91 85 79 91 85 79 91 85 79 91 85 79 91 85 79 91 85 79 91 83 80 91 80 76 91 79 77 91 79 77 91 79 77 91 79 77 91 79 77 91 79 77 91 79 77 91 72 70 84 72 70 84 72 70 84 72 70 84 72 70 84 72 70 84 72 70 84 73 69 83 77 69 82 79 69 80 79 69 80 79 69 80 79 69 80 79 69 80 79 69 80 79 69 80 72 62 73 72 62 73 72 62 73 72 62 73 72 62 73 72 62 73 72 62 73 72 62 71 80 70 78 80 71 76 80 71 76 80 71 76 80 71 76 80 71 76 80 71 76 80 71 76 76 67 72 76 67 72 76 67 72 76 67 72 76 67 72 76 67 72 76 67 72 77 66 72 87 74 83 89 73 83 89 73 83 89 73 83 89 73 83 89 73 83 89 73 83 89 73 83 80 64 74 80 64 74 80 64 74 80 64 74 80 64 74 80 64 74 80 64 74 83 63 75 90 61 81 90 58 81 88 56 79 82 54 76 78 50 72 72 49 69 69 48 67 64 47 65 52 39 56 49 41 56 48 42 56 45 43 56 45 43 56 42 44 56 42 44 56 39 46 56 42 48 60 39 47 58 37 45 56 34 42 53 30 38 49 27 35 46 25 33 44 23 31 42 22 30 41 22 30 41
60 60 84 60 60 84 60 60 84 60 60 84 60 61 82 61 60 78 61 60 76 61 60 76 61 60 76 61 60 76 61 60 76 61 60 76 61 60 76 69 68 84 69 68 84 69 68 84 69 68 84 69 68 84 69 68 84 69 68 84 70 68 82 70 66 81 72 66 80 72 66 80 72 66 80 72 66 80 72 66 80 72 66 80 72 66 80 68 62 76 68 62 76 68 62 76 68 62 76 68 62 76 68 62 76 68 62 76 68 62 76 75 67 80 75 67 80 75 67 80 75 67 80 75 67 80 75 67 80 75 67 80 75 67 80 80 72 85 80 72 85 80 72 85 80 72 85 80 72 85 80 72 85 80 72 85 79 73 85 81 75 87 79 76 87 79 76 87 79 76 87 79 76 87 79 76 87 79 76 87 79 76 87 49 46 57 50 47 58 53 50 61 56 53 64 59 56 67 63 60 71 65 62 73 66 63 74 78 72 82 76 70 80 74 68 78 71 65 75 67 61 71 64 58 68 62 56 66 60 54 64 47 41 51 47 41 51 47 41 51 47 41 51 47 41 51 47 41 51 47 41 51 47 41 51 59 53 63 59 53 63 59 53 63 59 53 63 59 53 63 59 53 63 59 53 63 59 53 63 65 59 69 65 59 69 65 59 69 65 59 69 65 59 69 65 59 69 65 59 69 65 59 69 84 78 90 84 78 90 84 78 90 84 78 90 84 78 90 84 78 90 84 78 90 84 78 90 83 77 89 83 77 89 83 77 89 83 77 89 83 77 89 83 77 89 83 77 89 81 78 89 78 74 89 77 75 89 77 75 89 77 75 89 77 75 89 77 75 89 77 75 89 77 75 89 72 70 84 72 70 84 72 70 84 72 70 84 72 70 84 72 70 84 72 70 84 73 69 83 77 69 82 79 69 80 79 69 80 79 69 80 79 69 80 79 69 80 79 69 80 79 69 80 72 62 73 72 62 73 72 62 73 72 62 73 72 62 73 72 62 73 72 62 73 72 62 71 80 70 78 80 71 76 80 71 76 80 71 76 80 71 76 80 71 76 80 71 76 80 71 76 78 69 74 78 69 74 78 69 74 78 69 74 78 69 74 78 69 74 78 69 74 79 68 74 87 74 83 89 73 83 89 73 83 89 73 83 89 73 83 89 73 83 89 73 83 89 73 83 80 64 74 80 64 74 80 64 74 80 64 74 80 64 74 80 64 74 80 64 74 83 63 75 90 61 81 90 58 81 88 56 79 82 54 76 78 50 72 72 49 69 69 48 67 64 47 65 52 39 56 49 41 56 48 42 56 45 43 56 45 43 56 42 44 56 42 44 56 39 46 56 42 48 60 39 47 58 37 45 56 34 42 53 30 38 49 27 35 46 25 33 44 23 31 42 22 30 41 22 30 41
60 60 86 60 60 86 60 60 86 60 60 86 60 60 84 61 60 78 61 60 76 61 60 76 61 60 76 61 60 76 61 60 76 61 60 76 61 60 76 69 68 84 69 68 84 69 68 84 69 68 84 69 68 84 69 68 84 69 68 84 70 68 82 70 66 81 72 66 80 72 66 80 72 66 80 72 66 80 72 66 80 72 66 80 72 66 80 68 62 76 68 62 76 68 62 76 68 62 76 68 62 76 68 62 76 68 62 76 68 62 76 75 67 80 75 67 80 75 67 80 75 67 80 75 67 80 75 67 80 75 67 80 75 67 80 80 72 85 80 72 85 80 72 85 80 72 85 80 72 85 80 72 85 80 72 85 79 73 85 79 73 85 77 74 85 77 74 85 77 74 85 77 74 85 77 74 85 77 74 85 77 74 85 51 48 59 53 50 61 55 52 63 58 55 66 62 59 70 65 62 73 67 64 75 69 66 77 78 72 82 76 70 80 74 68 78 71 65 75 67 61 71 64 58 68 62 56 66 60 54 64 52 46 56 52 46 56 52 46 56 52 46 56 52 46 56 52 46 56 52 46 56 52 46 56 53 47 57 53 47 57 53 47 57 53 47 57 53 47 57 53 47 57 53 47 57 53 47 57 57 51 61 57 51 61 57 51 61 57 51 61 57 51 61 57 51 61 57 51 61 57 51 61 79 73 85 79 73 85 79 73 85 79 73 85 79 73 85 79 73 85 79 73 85 79 73 85 78 72 84 78 72 84 78 72 84 78 72 84 78 72 84 78 72 84 78 72 84 76 73 84 76 72 87 75 73 87 75 73 87 75 73 87 75 73 87 75 73 87 75 73 87 75 73 87 72 70 84 72 70 84 72 70 84 72 70 84 72 70 84 72 70 84 72 70 84 73 69 83 77 69 82 79 69 80 79 69 80 79 69 80 79 69 80 79 69 80 79 69 80 79 69 80 72 62 73 72 62 73 72 62 73 72 62 73 72 62 73 72 62 73 72 62 73 72 62 71 80 70 78 80 71 76 80 71 76 80 71 76 80 71 76 80 71 76 80 71 76 80 71 76 80 71 76 80 71 76 80 71 76 80 71 76 80 71 76 80 71 76 80 71 76 81 70 76 87 74 83 89 73 83 89 73 83 89 73 83 89 73 83 89 73 83 89 73 83 89 73 83 80 64 74 80 64 74 80 64 74 80 64 74 80 64 74 80 64 74 80 64 74 83 63 75 90 61 81 90 58 81 88 56 79 82 54 76 78 50 72 72 49 69 69 48 67 64 47 65 52 39 56 49 41 56 48 42 56 45 43 56 45 43 56 42 44 56 42 44 56 39 46 56 42 48 60 39 47 58 37 45 56 34 42 53 30 38 49 27 35 46 25 33 44 23 31 42 22 30 41 22 30 41
60 60 88 60 59 90 60 60 88 60 59 90 60 60 86 61 59 80 61 60 76 61 60 76 61 60 76 61 60 76 61 60 76 61 60 76 61 60 76 69 68 84 69 68 84 69 68 84 69 68 84 69 68 84 69 68 84 69 68 84 70 68 82 70 66 81 72 66 80 72 66 80 72 66 80 72 66 80 72 66 80 72 66 80 72 66 80 68 62 76 68 62 76 68 62 76 68 62 76 68 62 76 68 62 76 68 62 76 68 62 76 75 67 80 75 67 80 75 67 80 75 67 80 75 67 80 75 67 80 75 67 80 75 67 80 80 72 85 80 72 85 80 72 85 80 72 85 80 72 85 80 72 85 80 72 85 79 73 85 76 70 82 74 71 82 74 71 82 74 71 82 74 71 82 74 71 82 74 71 82 74 71 82 55 52 63 56 53 64 58 55 66 62 59 70 65 62 73 68 65 76 71 68 79 72 69 80 78 72 82 76 70 80 74 68 78 71 65 75 67 61 71 64 58 68 62 56 66 60 54 64 59 53 63 59 53 63 59 53 63 59 53 63 59 53 63 59 53 63 59 53 63 59 53 63 51 45 55 51 45 55 51 45 55 51 45 55 51 45 55 51 45 55 51 45 55 51 45 55 51 45 55 51 45 55 51 45 55 51 45 55 51 45 55 51 45 55 51 45 55 51 45 55 72 66 78 72 66 78 72 66 78 72 66 78 72 66 78 72 66 78 72 66 78 72 66 78 71 65 77 71 65 77 71 65 77 71 65 77 71 65 77 71 65 77 71 65 77 69 66 77 73 69 84 72 70 84 72 70 84 72 70 84 72 70 84 72 70 84 72 70 84 72 70 84 72 70 84 72 70 84 72 70 84 72 70 84 72 70 84 72 70 84 72 70 84 73 69 83 77 69 82 79 69 80 79 69 80 79 69 80 79 69 80 79 69 80 79 69 80 79 69 80 72 62 73 72 62 73 72 62 73 72 62 73 72 62 73 72 62 73 72 62 73 72 62 71 80 70 78 80 71 76 80 71 76 80 71 76 80 71 76 80 71 76 80 71 76 80 71 76 83 74 79 83 74 79 83 74 79 83 74 79 83 74 79 83 74 79 83 74 79 84 73 79 87 74 83 89 73 83 89 73 83 89 73 83 89 73 83 89 73 83 89 73 83 89 73 83 80 64 74 80 64 74 80 64 74 80 64 74 80 64 74 80 64 74 80 64 74 83 63 75 90 61 81 90 58 81 88 56 79 82 54 76 78 50 72 72 49 69 69 48 67 64 47 65 52 39 56 49 41 56 48 42 56 45 43 56 45 43 56 42 44 56 42 44 56 39 46 56 42 48 60 39 47 58 37 45 56 34 42 53 30 38 49 27 35 46 25 33 44 23 31 42 22 30 41 22 30 41
60 59 90 60 59 91 60 59 90 60 59 91 60 60 88 61 59 80 61 60 76 61 60 76 61 60 76 61 60 76 61 60 76 61 60 76 61 60 76 69 68 84 69 68 84 69 68 84 69 68 84 69 68 84 69 68 84 69 68 84 70 68 82 70 66 81 72 66 80 72 66 80 72 66 80 72 66 80 72 66 80 72 66 80 72 66 80 68 62 76 68 62 76 68 62 76 68 62 76 68 62 76 68 62 76 68 62 76 68 62 76 75 67 80 75 67 80 75 67 80 75 67 80 75 67 80 75 67 80 75 67 80 75 67 80 80 72 85 80 72 85 80 72 85 80 72 85 80 72 85 80 72 85 80 72 85 79 73 85 72 66 78 70 67 78 70 67 78 70 67 78 70 67 78 70 67 78 70 67 78 70 67 78 58 55 66 59 56 67 62 59 70 65 62 73 68 65 76 72 69 80 74 71 82 75 72 83 78 72 82 76 70 80 74 68 78 71 65 75 67 61 71 64 58 68 62 56 66 60 54 64 65 59 69 65 59 69 65 59 69 65 59 69 65 59 69 65 59 69 65 59 69 65 59 69 54 48 58 54 48 58 54 48 58 54 48 58 54 48 58 54 48 58 54 48 58 54 48 58 51 45 55 51 45 55 51 45 55 51 45 55 51 45 55 51 45 55 51 45 55 51 45 55 66 60 72 66 60 72 66 60 72 66 60 72 66 60 72 66 60 72 66 60 72 66 60 72 65 59 71 65 59 71 65 59 71 65 59 71 65 59 71 65 59 71 65 59 71 63 60 71 69 65 80 68 66 80 68 66 80 68 66 80 68 66 80 68 66 80 68 66 80 68 66 80 72 70 84 72 70 84 72 70 84 72 70 84 72 70 84 72 70 84 72 70 84 73 69 83 77 69 82 79 69 80 79 69 80 79 69 80 79 69 80 79 69 80 79 69 80 79 69 80 72 62 73 72 62 73 72 62 73 72 62 73 72 62 73 72 62 73 72 62 73 72 62 71 80 70 78 80 71 76 80 71 76 80 71 76 80 71 76 80 71 76 80 71 76 80 71 76 87 78 83 87 78 83 87 78 83 87 78 83 87 78 83 87 78 83 87 78 83 88 77 83 87 74 83 89 73 83 89 73 83 89 73 83 89 73 83 89 73 83 89 73 83 89 73 83 80 64 74 80 64 74 80 64 74 80 64 74 80 64 74 80 64 74 80 64 74 83 63 75 90 61 81 90 58 81 88 56 79 82 54 76 78 50 72 72 49 69 69 48 67 64 47 65 52 39 56 49 41 56 48 42 56 45 43 56 45 43 56 42 44 56 42 44 56 39 46 56 42 48 60 39 47 58 37 45 56 34 42 53 30 38 49 27 35 46 25 33 44 23 31 42 22 30 41 22 30 41
60 59 91 60 59 93 60 59 91 60 59 93 60 60 88 61 59 80 61 60 76 61 60 76 61 60 76 61 60 76 61 60 76 61 60 76 61 60 76 69 68 84 69 68 84 69 68 84 69 68 84 69 68 84 69 68 84 69 68 84 70 68 82 70 66 81 72 66 80 72 66 80 72 66 80 72 66 80 72 66 80 72 66 80 72 66 80 68 62 76 68 62 76 68 62 76 68 62 76 68 62 76 68 62 76 68 62 76 68 62 76 75 67 80 75 67 80 75 67 80 75 67 80 75 67 80 75 67 80 75 67 80 75 67 80 80 72 85 80 72 85 80 72 85 80 72 85 80 72 85 80 72 85 80 72 85 79 73 85 69 63 75 67 64 75 67 64 75 67 64 75 67 64 75 67 64 75 67 64 75 67 64 75 61 58 69 63 60 71 65 62 73 68 65 76 72 69 80 75 72 83 77 74 85 79 76 87 78 72 82 76 70 80 74 68 78 71 65 75 67 61 71 64 58 68 62 56 66 60 54 64 72 66 76 72 66 76 72 66 76 72 66 76 72 66 76 72 66 76 72 66 76 72 66 76 63 57 67 63 57 67 63 57 67 63 57 67 63 57 67 63 57 67 63 57 67 63 57 67 57 51 61 57 51 61 57 51 61 57 51 61 57 51 61 57 51 61 57 51 61 57 51 61 59 53 65 59 53 65 59 53 65 59 53 65 59 53 65 59 53 65 59 53 65 59 53 65 58 52 64 58 52 64 58 52 64 58 52 64 58 52 64 58 52 64 58 52 64 56 53 64 66 62 77 65 63 77 65 63 77 65 63 77 65 63 77 65 63 77 65 63 77 65 63 77 72 70 84 72 70 84 72 70 84 72 70 84 72 70 84 72 70 84 72 70 84 73 69 83 77 69 82 79 69 80 79 69 80 79 69 80 79 69 80 79 69 80 79 69 80 79 69 80 72 62 73 72 62 73 72 62 73 72 62 73 72 62 73 72 62 73 72 62 73 72 62 71 80 70 78 80 71 76 80 71 76 80 71 76 80 71 76 80 71 76 80 71 76 80 71 76 90 81 86 90 81 86 90 81 86 90 81 86 90 81 86 90 81 86 90 81 86 91 80 86 87 74 83 89 73 83 89 73 83 89 73 83 89 73 83 89 73 83 89 73 83 89 73 83 80 64 74 80 64 74 80 64 74 80 64 74 80 64 74 80 64 74 80 64 74 83 63 75 90 61 81 90 58 81 88 56 79 82 54 76 78 50 72 72 49 69 69 48 67 64 47 65 52 39 56 49 41 56 48 42 56 45 43 56 45 43 56 42 44 56 42 44 56 39 46 56 42 48 60 39 47 58 37 45 56 34 42 53 30 38 49 27 35 46 25 33 44 23 31 42 22 30 41 22 30 41
60 59 93 60 58 95 60 59 93 60 58 95 60 59 90 61 59 80 61 60 76 61 60 76 61 60 76 61 60 76 61 60 76 61 60 76 61 60 76 69 68 84 69 68 84 69 68 84 69 68 84 69 68 84 69 68 84 69 68 84 70 68 82 70 66 81 72 66 80 72 66 80 72 66 80 72 66 80 72 66 80 72 66 80 72 66 80 68 62 76 68 62 76 68 62 76 68 62 76 68 62 76 68 62 76 68 62 76 68 62 76 75 67 80 75 67 80 75 67 80 75 67 80 75 67 80 75 67 80 75 67 80 75 67 80 80 72 85 80 72 85 80 72 85 80 72 85 80 72 85 80 72 85 80 72 85 79 73 85 67 61 73 65 62 73 65 62 73 65 62 73 65 62 73 65 62 73 65 62 73 65 62 73 64 61 72 65 62 73 67 64 75 71 68 79 74 71 82 77 74 85 80 77 88 81 78 89 78 72 82 76 70 80 74 68 78 71 65 75 67 61 71 64 58 68 62 56 66 60 54 64 77 71 81 77 71 81 77 71 81 77 71 81 77 71 81 77 71 81 77 71 81 77 71 81 73 67 77 73 67 77 73 67 77 73 67 77 73 67 77 73 67 77 73 67 77 73 67 77 65 59 69 65 59 69 65 59 69 65 59 69 65 59 69 65 59 69 65 59 69 65 59 69 54 48 60 54 48 60 54 48 60 54 48 60 54 48 60 54 48 60 54 48 60 54 48 60 53 47 59 53 47 59 53 47 59 53 47 59 53 47 59 53 47 59 53 47 59 51 48 59 64 60 75 63 61 75 63 61 75 63 61 75 63 61 75 63 61 75 63 61 75 63 61 75 72 70 84 72 70 84 72 70 84 72 70 84 72 70 84 72 70 84 72 70 84 73 69 83 77 69 82 79 69 80 79 69 80 79 69 80 79 69 80 79 69 80 79 69 80 79 69 80 72 62 73 72 62 73 72 62 73 72 62 73 72 62 73 72 62 73 72 62 73 72 62 71 80 70 78 80 71 76 80 71 76 80 71 76 80 71 76 80 71 76 80 71 76 80 71 76 92 83 88 92 83 88 92 83 88 92 83 88 92 83 88 92 83 88 92 83 88 93 82 88 87 74 83 89 73 83 89 73 83 89 73 83 89 73 83 89 73 83 89 73 83 89 73 83 80 64 74 80 64 74 80 64 74 80 64 74 80 64 74 80 64 74 80 64 74 83 63 75 90 61 81 90 58 81 88 56 79 82 54 76 78 50 72 72 49 69 69 48 67 64 47 65 52 39 56 49 41 56 48 42 56 45 43 56 45 43 56 42 44 56 42 44 56 39 46 56 42 48 60 39 47 58 37 45 56 34 42 53 30 38 49 27 35 46 25 33 44 23 31 42 22 30 41 22 30 41
57 60 95 57 59 97 57 60 95 57 59 97 57 60 91 58 60 85 58 61 80 58 60 81 58 61 80 58 60 81 58 61 80 58 60 81 58 61 80 66 68 89 66 69 88 66 68 89 66 69 88 66 68 89 66 69 88 66 68 89 67 68 88 69 66 85 69 66 83 69 66 83 69 66 83 69 66 83 69 66 83 69 66 83 69 66 83 65 62 79 65 62 79 65 62 79 65 62 79 65 62 79 65 62 79 65 62 79 66 62 79 72 68 83 72 68 83 74 67 83 72 68 83 74 67 83 72 68 83 74 67 83 72 68 83 79 72 88 77 73 88 79 72 88 77 73 88 79 72 88 77 73 88 79 72 88 77 73 87 63 59 73 62 60 73 62 60 73 62 60 73 62 60 73 62 60 73 62 60 73 62 60 73 64 62 75 65 63 76 68 66 79 71 69 82 74 72 85 78 76 89 80 78 91 82 79 90 78 72 84 77 69 80 75 67 80 72 64 75 68 60 73 65 57 68 63 55 68 61 53 64 80 72 85 80 72 83 80 72 85 80 72 83 80 72 85 80 72 83 80 72 85 80 72 83 81 73 86 81 73 84 81 73 86 81 73 84 81 73 86 81 73 84 81 73 86 81 73 84 72 64 77 72 64 75 72 64 77 72 64 75 72 64 77 72 64 75 72 64 77 72 64 77 53 45 58 53 45 58 53 45 58 53 45 58 53 45 58 53 45 58 53 45 58 53 45 58 52 44 57 52 44 57 52 44 57 52 44 57 52 44 57 52 44 57 52 44 57 52 44 59 64 58 72 64 58 72 64 57 73 64 58 72 64 57 73 64 58 72 64 57 73 64 58 72 75 68 84 75 69 83 75 68 84 75 69 83 75 68 84 75 69 83 75 68 84 76 68 83 79 68 82 80 68 80 80 68 80 80 68 80 80 68 80 80 68 80 80 68 80 80 68 80 73 61 73 73 61 73 73 61 73 73 61 73 73 61 73 73 61 73 73 61 73 72 62 71 78 71 78 77 72 78 78 71 78 77 72 78 78 71 78 77 72 78 78 71 78 77 72 78 92 85 92 91 86 92 92 85 92 91 86 92 92 85 92 91 86 92 92 85 92 94 84 92 87 74 83 89 73 83 89 73 84 89 73 83 89 73 84 89 73 83 89 73 84 89 73 83 80 64 75 80 64 74 80 64 75 80 64 74 80 64 75 80 64 74 80 64 75 81 63 75 87 62 81 87 59 81 83 58 79 79 56 76 75 52 72 71 50 69 67 48 67 62 48 65 52 39 56 49 41 56 48 42 56 46 42 56 46 42 56 45 43 56 44 44 56 42 44 56 42 48 60 39 47 58 38 44 56 34 42 53 31 37 49 27 35 46 26 32 44 23 31 42 23 29 41 22 30 41
49 62 96 49 62 97 49 62 96 49 62 97 51 62 94 52 61 92 54 61 89 54 61 90 54 61 89 54 61 90 54 61 89 54 61 90 54 61 89 56 63 92 56 63 91 56 63 92 56 63 91 56 63 92 56 63 91 56 63 92 56 63 91 58 62 87 60 62 87 60 62 87 60 62 87 60 62 87 60 62 87 60 62 87 60 62 87 62 64 89 62 64 89 62 64 89 62 64 89 62 64 89 62 64 89 62 64 89 62 64 87 69 70 91 69 70 90 71 69 90 69 70 90 71 69 90 69 70 90 71 69 90 69 70 90 77 75 96 75 76 96 77 75 96 75 76 96 77 75 96 75 76 96 77 75 96 77 76 94 63 62 78 63 62 76 63 62 76 63 62 76 63 62 76 63 62 76 63 62 76 63 62 76 77 76 90 77 76 90 77 76 90 77 76 90 77 76 90 77 76 90 77 76 90 78 76 90 83 75 90 80 68 82 72 59 76 66 54 68 66 53 70 72 60 74 80 67 84 86 74 88 85 72 89 83 71 85 81 68 85 78 66 80 74 61 78 71 59 73 69 56 73 67 55 69 79 65 82 79 65 80 79 65 82 79 65 80 79 65 82 79 65 80 79 65 82 79 65 80 80 66 83 80 66 81 80 66 83 80 66 81 80 66 83 80 66 81 80 66 83 80 66 83 83 70 87 83 70 87 83 70 87 83 70 87 83 70 87 83 70 87 83 70 87 83 70 87 63 50 67 63 50 67 63 50 67 63 50 67 63 50 67 63 50 67 63 50 67 63 50 67 56 42 59 56 42 57 56 42 59 56 42 57 56 42 59 56 42 57 56 42 59 56 42 57 54 40 57 54 40 55 54 40 57 54 40 55 54 40 57 54 40 55 54 40 57 54 40 55 61 47 60 61 47 60 61 47 60 61 47 60 61 47 60 61 47 60 61 47 60 61 47 60 67 53 66 67 53 66 67 53 66 67 53 66 67 53 66 67 53 66 67 53 66 66 54 66 57 54 61 56 57 62 61 60 66 64 65 70 70 69 75 73 74 79 78 77 83 79 80 85 81 80 86 80 81 86 81 80 86 80 81 86 81 80 86 80 81 86 81 80 86 82 79 86 89 77 87 92 76 87 92 76 89 92 76 87 92 76 89 92 76 87 92 76 89 92 76 87 84 68 81 84 68 79 84 68 81 84 68 79 84 68 81 84 68 79 84 68 81 84 68 81 80 63 79 78 61 79 74 60 77 71 57 74 67 53 70 64 50 67 61 48 65 59 46 63 52 41 57 52 41 57 50 42 57 50 42 57 50 42 57 50 42 57 49 43 57 47 43 57 45 47 60 40 46 60 40 43 58 35 41 55 33 36 51 28 34 48 28 31 46 24 30 44 25 28 43 23 29 43
47 63 97 47 63 97 47 63 97 47 63 97 48 63 96 49 62 96 51 62 94 51 62 94 51 62 94 51 62 94 51 62 94 51 62 94 51 62 94 53 64 96 53 64 96 53 64 96 53 64 96 53 64 96 53 64 96 53 64 96 54 63 94 56 63 92 57 62 91 57 62 91 57 62 91 57 62 91 57 62 91 57 62 91 57 62 91 59 64 93 59 64 93 59 64 93 59 64 93 59 64 93 59 64 93 59 64 93 59 65 91 68 70 95 68 70 93 68 70 93 68 70 93 68 70 93 68 70 93 68 70 93 68 70 93 74 76 99 74 76 99 74 76 99 74 76 99 74 76 99 74 76 99 74 76 99 74 76 97 61 62 80 61 63 78 61 63 78 61 63 78 61 63 78 61 63 78 61 63 78 61 63 78 75 77 92 75 77 92 75 77 92 75 77 92 75 77 92 75 77 92 75 77 92 78 76 90 85 74 91 81 67 84 73 59 76 67 53 70 67 53 70 73 59 76 81 67 84 87 73 90 86 72 89 84 70 87 82 68 85 79 65 82 75 61 78 72 58 75 70 56 73 68 54 71 79 62 80 79 62 80 79 62 80 79 62 80 79 62 80 79 62 80 79 62 80 79 62 80 80 63 81 80 63 81 80 63 81 80 63 81 80 63 81 80 63 81 80 63 81 80 63 81 82 68 85 82 68 85 82 68 85 82 68 85 82 68 85 82 68 85 82 68 85 82 68 85 70 56 73 70 56 73 70 56 73 70 56 73 70 56 73 70 56 73 70 56 73 70 56 73 66 48 64 66 48 64 66 48 64 66 48 64 66 48 64 66 48 64 66 48 64 66 48 64 59 41 57 59 41 57 59 41 57 59 41 57 59 41 57 59 41 57 59 41 57 59 41 57 60 44 57 60 44 57 60 44 57 60 44 57 60 44 57 60 44 57 60 44 57 60 44 57 65 49 62 65 49 62 65 49 62 65 49 62 65 49 62 65 49 62 65 49 62 62 50 62 57 54 63 55 58 65 60 60 68 61 64 71 67 67 75 69 72 79 74 74 82 74 77 84 78 78 86 76 79 86 78 78 86 76 79 86 78 78 86 76 79 86 78 78 86 80 77 86 87 75 87 90 74 87 90 74 87 90 74 87 90 74 87 90 74 87 90 74 87 90 74 87 82 66 79 82 66 79 82 66 79 82 66 79 82 66 79 82 66 79 82 66 79 80 66 79 77 64 81 74 63 79 72 61 77 69 58 74 65 54 70 62 51 67 60 49 65 58 47 63 52 41 57 52 41 57 52 41 57 52 41 57 52 41 57 52 41 57 52 41 57 49 43 57 47 46 62 42 45 60 40 43 58 37 40 55 33 36 51 30 33 48 28 31 46 26 29 44 25 28 43 25 28 43
47 63 97 47 63 97 47 63 97 47 63 97 48 63 96 49 62 96 51 62 94 51 62 94 51 62 94 51 62 94 51 62 94 51 62 94 51 62 94 53 64 96 53 64 96 53 64 96 53 64 96 53 64 96 53 64 96 53 64 96 54 63 94 56 63 92 57 62 91 57 62 91 57 62 91 57 62 91 57 62 91 57 62 91 57 62 91 59 64 93 59 64 93 59 64 93 59 64 93 59 64 93 59 64 93 59 64 93 59 65 91 68 70 95 68 70 93 68 70 93 68 70 93 68 70 93 68 70 93 68 70 93 68 70 93 74 76 99 74 76 99 74 76 99 74 76 99 74 76 99 74 76 99 74 76 99 74 76 97 61 62 80 61 63 78 61 63 78 61 63 78 61 63 78 61 63 78 61 63 78 61 63 78 75 77 92 75 77 92 75 77 92 75 77 92 75 77 92 75 77 92 75 77 92 78 76 90 85 74 91 81 67 84 73 59 76 67 53 70 67 53 70 73 59 76 81 67 84 87 73 90 86 72 89 84 70 87 82 68 85 79 65 82 75 61 78 72 58 75 70 56 73 68 54 71 77 60 78 77 60 78 77 60 78 77 60 78 77 60 78 77 60 78 77 60 78 77 60 78 78 61 79 78 61 79 78 61 79 78 61 79 78 61 79 78 61 79 78 61 79 78 61 79 80 66 83 80 66 83 80 66 83 80 66 83 80 66 83 80 66 83 80 66 83 80 66 83 78 64 81 78 64 81 78 64 81 78 64 81 78 64 81 78 64 81 78 64 81 78 64 81 76 58 74 76 58 74 76 58 74 76 58 74 76 58 74 76 58 74 76 58 74 76 58 74 64 46 62 64 46 62 64 46 62 64 46 62 64 46 62 64 46 62 64 46 62 64 46 62 57 41 54 57 41 54 57 41 54 57 41 54 57 41 54 57 41 54 57 41 54 57 41 54 59 43 56 59 43 56 59 43 56 59 43 56 59 43 56 59 43 56 59 43 56 56 44 56 58 55 64 57 57 65 60 59 67 62 62 70 65 64 72 67 67 75 70 69 77 70 70 78 74 73 81 73 73 81 74 73 81 73 73 81 74 73 81 73 73 81 74 73 81 75 72 81 82 70 82 85 69 82 85 69 82 85 69 82 85 69 82 85 69 82 85 69 82 85 69 82 80 64 77 80 64 77 80 64 77 80 64 77 80 64 77 80 64 77 80 64 77 78 64 77 77 64 81 74 63 79 72 61 77 69 58 74 65 54 70 62 51 67 60 49 65 58 47 63 52 41 57 52 41 57 52 41 57 52 41 57 52 41 57 52 41 57 52 41 57 49 43 57 47 46 62 42 45 60 40 43 58 37 40 55 33 36 51 30 33 48 28 31 46 26 29 44 25 28 43 25 28 43
47 63 97 47 63 97 47 63 97 47 63 97 48 63 96 49 62 96 51 62 94 51 62 94 51 62 94 51 62 94 51 62 94 51 62 94 51 62 94 53 64 96 53 64 96 53 64 96 53 64 96 53 64 96 53 64 96 53 64 96 54 63 94 56 63 92 57 62 91 57 62 91 57 62 91 57 62 91 57 62 91 57 62 91 57 62 91 59 64 93 59 64 93 59 64 93 59 64 93 59 64 93 59 64 93 59 64 93 59 65 91 68 70 95 68 70 93 68 70 93 68 70 93 68 70 93 68 70 93 68 70 93 68 70 93 74 76 99 74 76 99 74 76 99 74 76 99 74 76 99 74 76 99 74 76 99 74 76 97 61 62 80 61 63 78 61 63 78 61 63 78 61 63 78 61 63 78 61 63 78 61 63 78 75 77 92 75 77 92 75 77 92 75 77 92 75 77 92 75 77 92 75 77 92 78 76 90 85 74 91 81 67 84 73 59 76 67 53 70 67 53 70 73 59 76 81 67 84 87 73 90 86 72 89 84 70 87 82 68 85 79 65 82 75 61 78 72 58 75 70 56 73 68 54 71 74 57 75 74 57 75 74 57 75 74 57 75 74 57 75 74 57 75 74 57 75 74 57 75 75 58 76 75 58 76 75 58 76 75 58 76 75 58 76 75 58 76 75 58 76 75 58 76 77 63 80 77 63 80 77 63 80 77 63 80 77 63 80 77 63 80 77 63 80 77 63 80 84 70 87 84 70 87 84 70 87 84 70 87 84 70 87 84 70 87 84 70 87 84 70 87 85 67 83 85 67 83 85 67 83 85 67 83 85 67 83 85 67 83 85 67 83 85 67 83 71 53 69 71 53 69 71 53 69 71 53 69 71 53 69 71 53 69 71 53 69 71 53 69 58 42 55 58 42 55 58 42 55 58 42 55 58 42 55 58 42 55 58 42 55 58 42 55 57 41 54 57 41 54 57 41 54 57 41 54 57 41 54 57 41 54 57 41 54 54 42 54 61 55 65 59 58 66 60 57 66 60 59 67 62 59 68 62 61 69 64 61 70 63 62 70 68 65 74 67 66 74 68 65 74 67 66 74 68 65 74 67 66 74 68 65 74 70 64 74 75 63 75 78 62 75 78 62 75 78 62 75 78 62 75 78 62 75 78 62 75 78 62 75 77 61 74 77 61 74 77 61 74 77 61 74 77 61 74 77 61 74 77 61 74 75 61 74 77 64 81 74 63 79 72 61 77 69 58 74 65 54 70 62 51 67 60 49 65 58 47 63 52 41 57 52 41 57 52 41 57 52 41 57 52 41 57 52 41 57 52 41 57 49 43 57 47 46 62 42 45 60 40 43 58 37 40 55 33 36 51 30 33 48 28 31 46 26 29 44 25 28 43 25 28 43
47 63 97 47 63 97 47 63 97 47 63 97 48 63 96 49 62 96 51 62 94 51 62 94 51 62 94 51 62 94 51 62 94 51 62 94 51 62 94 53 64 96 53 64 96 53 64 96 53 64 96 53 64 96 53 64 96 53 64 96 54 63 94 56 63 92 57 62 91 57 62 91 57 62 91 57 62 91 57 62 91 57 62 91 57 62 91 59 64 93 59 64 93 59 64 93 59 64 93 59 64 93 59 64 93 59 64 93 59 65 91 68 70 95 68 70 93 68 70 93 68 70 93 68 70 93 68 70 93 68 70 93 68 70 93 74 76 99 74 76 99 74 76 99 74 76 99 74 76 99 74 76 99 74 76 99 74 76 97 61 62 80 61 63 78 61 63 78 61 63 78 61 63 78 61 63 78 61 63 78 61 63 78 75 77 92 75 77 92 75 77 92 75 77 92 75 77 92 75 77 92 75 77 92 78 76 90 85 74 91 81 67 84 73 59 76 67 53 70 67 53 70 73 59 76 81 67 84 87 73 90 86 72 89 84 70 87 82 68 85 79 65 82 75 61 78 72 58 75 70 56 73 68 54 71 70 53 71 70 53 71 70 53 71 70 53 71 70 53 71 70 53 71 70 53 71 70 53 71 71 54 72 71 54 72 71 54 72 71 54 72 71 54 72 71 54 72 71 54 72 71 54 72 73 59 76 73 59 76 73 59 76 73 59 76 73 59 76 73 59 76 73 59 76 73 59 76 84 70 87 84 70 87 84 70 87 84 70 87 84 70 87 84 70 87 84 70 87 84 70 87 88 70 86 88 70 86 88 70 86 88 70 86 88 70 86 88 70 86 88 70 86 88 70 86 77 59 75 77 59 75 77 59 75 77 59 75 77 59 75 77 59 75 77 59 75 77 59 75 65 49 62 65 49 62 65 49 62 65 49 62 65 49 62 65 49 62 65 49 62 65 49 62 60 44 57 60 44 57 60 44 57 60 44 57 60 44 57 60 44 57 60 44 57 58 44 57 64 56 67 60 57 66 62 56 66 59 56 65 60 54 64 57 54 63 58 52 62 56 53 62 64 58 68 62 59 68 64 58 68 62 59 68 64 58 68 62 59 68 64 58 68 65 57 68 70 56 69 72 56 69 72 56 69 72 56 69 72 56 69 72 56 69 72 56 69 72 56 69 73 57 70 73 57 70 73 57 70 73 57 70 73 57 70 73 57 70 73 57 70 71 57 70 77 64 81 74 63 79 72 61 77 69 58 74 65 54 70 62 51 67 60 49 65 58 47 63 52 41 57 52 41 57 52 41 57 52 41 57 52 41 57 52 41 57 52 41 57 49 43 57 47 46 62 42 45 60 40 43 58 37 40 55 33 36 51 30 33 48 28 31 46 26 29 44 25 28 43 25 28 43
47 63 97 47 63 97 47 63 97 47 63 97 48 63 96 49 62 96 51 62 94 51 62 94 51 62 94 51 62 94 51 62 94 51 62 94 51 62 94 53 64 96 53 64 96 53 64 96 53 64 96 53 64 96 53 64 96 53 64 96 54 63 94 56 63 92 57 62 91 57 62 91 57 62 91 57 62 91 57 62 91 57 62 91 57 62 91 59 64 93 59 64 93 59 64 93 59 64 93 59 64 93 59 64 93 59 64 93 59 65 91 68 70 95 68 70 93 68 70 93 68 70 93 68 70 93 68 70 93 68 70 93 68 70 93 74 76 99 74 76 99 74 76 99 74 76 99 74 76 99 74 76 99 74 76 99 74 76 97 61 62 80 61 63 78 61 63 78 61 63 78 61 63 78 61 63 78 61 63 78 61 63 78 75 77 92 75 77 92 75 77 92 75 77 92 75 77 92 75 77 92 75 77 92 78 76 90 85 74 91 81 67 84 73 59 76 67 53 70 67 53 70 73 59 76 81 67 84 87 73 90 86 72 89 84 70 87 82 68 85 79 65 82 75 61 78 72 58 75 70 56 73 68 54 71 67 50 68 67 50 68 67 50 68 67 50 68 67 50 68 67 50 68 67 50 68 67 50 68 68 51 69 68 51 69 68 51 69 68 51 69 68 51 69 68 51 69 68 51 69 68 51 69 70 56 73 70 56 73 70 56 73 70 56 73 70 56 73 70 56 73 70 56 73 70 56 73 78 64 81 78 64 81 78 64 81 78 64 81 78 64 81 78 64 81 78 64 81 78 64 81 86 68 84 86 68 84 86 68 84 86 68 84 86 68 84 86 68 84 86 68 84 86 68 84 84 66 82 84 66 82 84 66 82 84 66 82 84 66 82 84 66 82 84 66 82 84 66 82 77 61 74 77 61 74 77 61 74 77 61 74 77 61 74 77 61 74 77 61 74 77 61 74 69 53 66 69 53 66 69 53 66 69 53 66 69 53 66 69 53 66 69 53 66 67 53 66 67 57 68 64 56 67 62 54 65 59 51 62 57 49 60 54 46 57 52 44 55 51 43 54 58 50 61 58 50 61 58 50 61 58 50 61 58 50 61 58 50 61 58 50 61 60 50 61 63 49 62 65 49 62 65 49 62 65 49 62 65 49 62 65 49 62 65 49 62 65 49 62 70 54 67 70 54 67 70 54 67 70 54 67 70 54 67 70 54 67 70 54 67 68 54 67 77 64 81 74 63 79 72 61 77 69 58 74 65 54 70 62 51 67 60 49 65 58 47 63 52 41 57 52 41 57 52 41 57 52 41 57 52 41 57 52 41 57 52 41 57 49 43 57 47 46 62 42 45 60 40 43 58 37 40 55 33 36 51 30 33 48 28 31 46 26 29 44 25 28 43 25 28 43
47 63 97 47 63 97 47 63 97 47 63 97 48 63 96 49 62 96 51 62 94 51 62 94 51 62 94 51 62 94 51 62 94 51 62 94 51 62 94 53 64 96 53 64 96 53 64 96 53 64 96 53 64 96 53 64 96 53 64 96 54 63 94 56 63 92 57 62 91 57 62 91 57 62 91 57 62 91 57 62 91 57 62 91 57 62 91 59 64 93 59 64 93 59 64 93 59 64 93 59 64 93 59 64 93 59 64 93 59 65 91 68 70 95 68 70 93 68 70 93 68 70 93 68 70 93 68 70 93 68 70 93 68 70 93 74 76 99 74 76 99 74 76 99 74 76 99 74 76 99 74 76 99 74 76 99 74 76 97 61 62 80 61 63 78 61 63 78 61 63 78 61 63 78 61 63 78 61 63 78 61 63 78 75 77 92 75 77 92 75 77 92 75 77 92 75 77 92 75 77 92 75 77 92 78 76 90 85 74 91 81 67 84 73 59 76 67 53 70 67 53 70 73 59 76 81 67 84 87 73 90 86 72 89 84 70 87 82 68 85 79 65 82 75 61 78 72 58 75 70 56 73 68 54 71 65 48 66 65 48 66 65 48 66 65 48 66 65 48 66 65 48 66 65 48 66 65 48 66 66 49 67 66 49 67 66 49 67 66 49 67 66 49 67 66 49 67 66 49 67 66 49 67 68 54 71 68 54 71 68 54 71 68 54 71 68 54 71 68 54 71 68 54 71 68 54 71 70 56 73 70 56 73 70 56 73 70 56 73 70 56 73 70 56 73 70 56 73 70 56 73 80 62 78 80 62 78 80 62 78 80 62 78 80 62 78 80 62 78 80 62 78 80 62 78 89 71 87 89 71 87 89 71 87 89 71 87 89 71 87 89 71 87 89 71 87 89 71 87 90 74 87 90 74 87 90 74 87 90 74 87 90 74 87 90 74 87 90 74 87 90 74 87 79 63 76 79 63 76 79 63 76 79 63 76 79 63 76 79 63 76 79 63 76 77 63 76 69 57 69 66 56 67 63 53 64 60 50 61 56 46 57 52 42 53 49 39 50 47 37 48 55 45 56 55 45 56 55 45 56 55 45 56 55 45 56 55 45 56 55 45 56 56 44 56 58 44 57 60 44 57 60 44 57 60 44 57 60 44 57 60 44 57 60 44 57 60 44 57 68 52 65 68 52 65 68 52 65 68 52 65 68 52 65 68 52 65 68 52 65 66 52 65 77 64 81 74 63 79 72 61 77 69 58 74 65 54 70 62 51 67 60 49 65 58 47 63 52 41 57 52 41 57 52 41 57 52 41 57 52 41 57 52 41 57 52 41 57 49 43 57 47 46 62 42 45 60 40 43 58 37 40 55 33 36 51 30 33 48 28 31 46 26 29 44 25 28 43 25 28 43
47 63 97 47 63 97 47 63 97 47 63 97 48 63 96 49 62 96 51 62 94 51 62 94 51 62 94 51 62 94 51 62 94 51 62 94 51 62 94 53 64 96 53 64 96 53 64 96 53 64 96 53 64 96 53 64 96 53 64 96 54 63 94 56 63 92 57 62 91 57 62 91 57 62 91 57 62 91 57 62 91 57 62 91 57 62 91 59 64 93 59 64 93 59 64 93 59 64 93 59 64 93 59 64 93 59 64 93 59 65 91 68 70 95 68 70 93 68 70 93 68 70 93 68 70 93 68 70 93 68 70 93 68 70 93 74 76 99 74 76 99 74 76 99 74 76 99 74 76 99 74 76 99 74 76 99 74 76 97 61 62 80 61 63 78 61 63 78 61 63 78 61 63 78 61 63 78 61 63 78 61 63 78 75 77 92 75 77 92 75 77 92 75 77 92 75 77 92 75 77 92 75 77 92 78 76 90 85 74 91 81 67 84 73 59 76 67 53 70 67 53 70 73 59 76 81 67 84 87 73 90 86 72 89 84 70 87 82 68 85 79 65 82 75 61 78 72 58 75 70 56 73 68 54 71 63 46 64 63 46 64 63 46 64 63 46 64 63 46 64 63 46 64 63 46 64 63 46 64 64 47 65 64 47 65 64 47 65 64 47 65 64 47 65 64 47 65 64 47 65 64 47 65 66 52 69 66 52 69 66 52 69 66 52 69 66 52 69 66 52 69 66 52 69 66 52 69 64 50 67 64 50 67 64 50 67 64 50 67 64 50 67 64 50 67 64 50 67 64 50 67 76 58 74 76 58 74 76 58 74 76 58 74 76 58 74 76 58 74 76 58 74 76 58 74 91 73 89 91 73 89 91 73 89 91 73 89 91 73 89 91 73 89 91 73 89 91 73 89 98 82 95 98 82 95 98 82 95 98 82 95 98 82 95 98 82 95 98 82 95 98 82 95 86 70 83 86 70 83 86 70 83 86 70 83 86 70 83 86 70 83 86 70 83 86 70 83 70 56 69 69 55 68 65 51 64 61 47 60 56 42 55 52 38 51 48 34 47 46 32 45 55 41 54 55 41 54 55 41 54 55 41 54 55 41 54 55 41 54 55 41 54 55 41 54 58 42 55 58 42 55 58 42 55 58 42 55 58 42 55 58 42 55 58 42 55 58 42 55 66 50 63 66 50 63 66 50 63 66 50 63 66 50 63 66 50 63 66 50 63 64 50 63 77 64 81 74 63 79 72 61 77 69 58 74 65 54 70 62 51 67 60 49 65 58 47 63 52 41 57 52 41 57 52 41 57 52 41 57 52 41 57 52 41 57 52 41 57 49 43 57 47 46 62 42 45 60 40 43 58 37 40 55 33 36 51 30 33 48 28 31 46 26 29 44 25 28 43 25 28 43
53 69 103 53 69 103 53 69 103 53 69 103 54 69 102 46 59 93 48 59 91 48 59 91 48 59 91 48 59 91 48 59 91 48 59 91 48 59 91 54 65 97 54 65 97 54 65 97 54 65 97 54 65 97 54 65 97 54 65 97 55 64 95 56 63 92 57 62 91 57 62 91 57 62 91 57 62 91 57 62 91 57 62 91 57 62 91 58 63 92 58 63 92 58 63 92 58 63 92 58 63 92 58 63 92 58 63 92 58 64 90 60 62 87 60 62 85 60 62 85 60 62 85 60 62 85 60 62 85 60 62 85 60 62 85 60 62 85 60 62 85 60 62 85 60 62 85 60 62 85 60 62 85 60 62 85 60 62 83 62 63 81 62 64 79 62 64 79 62 64 79 62 64 79 62 64 79 62 64 79 62 64 79 75 77 92 75 77 92 75 77 92 75 77 92 75 77 92 75 77 92 75 77 92 78 76 90 66 55 72 70 56 73 72 58 75 75 61 78 79 65 82 82 68 85 84 70 87 86 72 89 76 62 79 76 62 79 76 62 79 76 62 79 76 62 79 76 62 79 76 62 79 76 62 79 68 51 69 68 51 69 68 51 69 68 51 69 68 51 69 68 51 69 68 51 69 68 51 69 64 47 65 64 47 65 64 47 65 64 47 65 64 47 65 64 47 65 64 47 65 64 47 65 64 50 67 64 50 67 64 50 67 64 50 67 64 50 67 64 50 67 64 50 67 64 50 67 67 53 70 67 53 70 67 53 70 67 53 70 67 53 70 67 53 70 67 53 70 67 53 70 72 54 70 72 54 70 72 54 70 72 54 70 72 54 70 72 54 70 72 54 70 72 54 70 75 57 73 75 57 73 75 57 73 75 57 73 75 57 73 75 57 73 75 57 73 75 57 73 85 69 82 85 69 82 85 69 82 85 69 82 85 69 82 85 69 82 85 69 82 85 69 82 89 73 86 89 73 86 89 73 86 89 73 86 89 73 86 89 73 86 89 73 86 89 73 86 92 74 88 92 74 88 92 74 88 92 74 88 92 74 88 92 74 88 92 74 88 92 74 88 72 54 68 72 54 68 72 54 68 72 54 68 72 54 68 72 54 68 72 54 68 72 54 68 61 45 58 61 45 58 61 45 58 61 45 58 61 45 58 61 45 58 61 45 58 61 45 58 48 32 45 48 32 45 48 32 45 48 32 45 48 32 45 48 32 45 48 32 45 46 32 45 53 40 57 52 41 57 52 41 57 52 41 57 52 41 57 52 41 57 52 41 57 52 41 57 54 43 59 54 43 59 54 43 59 54 43 59 54 43 59 54 43 59 54 43 59 51 45 59 40 39 55 37 40 55 37 40 55 37 40 55 37 40 55 37 40 55 37 40 55 37 40 55 28 31 46 28 31 46
50 66 100 50 66 100 50 66 100 50 66 100 51 66 99 48 61 95 50 61 93 50 61 93 50 61 93 50 61 93 50 61 93 50 61 93 50 61 93 54 65 97 54 65 97 54 65 97 54 65 97 54 65 97 54 65 97 54 65 97 55 64 95 56 63 92 57 62 91 57 62 91 57 62 91 57 62 91 57 62 91 57 62 91 57 62 91 58 63 92 58 63 92 58 63 92 58 63 92 58 63 92 58 63 92 58 63 92 58 64 90 60 62 87 60 62 85 60 62 85 60 62 85 60 62 85 60 62 85 60 62 85 60 62 85 60 62 85 60 62 85 60 62 85 60 62 85 60 62 85 60 62 85 60 62 85 60 62 83 62 63 81 62 64 79 62 64 79 62 64 79 62 64 79 62 64 79 62 64 79 62 64 79 73 75 90 73 75 90 73 75 90 73 75 90 73 75 90 73 75 90 73 75 90 76 74 88 66 55 72 70 56 73 72 58 75 75 61 78 79 65 82 82 68 85 84 70 87 86 72 89 76 62 79 76 62 79 76 62 79 76 62 79 76 62 79 76 62 79 76 62 79 76 62 79 68 51 69 68 51 69 68 51 69 68 51 69 68 51 69 68 51 69 68 51 69 68 51 69 64 47 65 64 47 65 64 47 65 64 47 65 64 47 65 64 47 65 64 47 65 64 47 65 64 50 67 64 50 67 64 50 67 64 50 67 64 50 67 64 50 67 64 50 67 64 50 67 67 53 70 67 53 70 67 53 70 67 53 70 67 53 70 67 53 70 67 53 70 67 53 70 72 54 70 72 54 70 72 54 70 72 54 70 72 54 70 72 54 70 72 54 70 72 54 70 75 57 73 75 57 73 75 57 73 75 57 73 75 57 73 75 57 73 75 57 73 75 57 73 83 67 80 83 67 80 83 67 80 83 67 80 83 67 80 83 67 80 83 67 80 83 67 80 87 71 84 87 71 84 87 71 84 87 71 84 87 71 84 87 71 84 87 71 84 88 70 84 92 71 86 93 70 86 93 70 86 93 70 86 93 70 86 93 70 86 93 70 86 93 70 86 81 58 74 81 58 74 81 58 74 81 58 74 81 58 74 81 58 74 81 58 74 80 59 74 69 51 65 68 52 65 68 52 65 68 52 65 68 52 65 68 52 65 68 52 65 68 52 65 56 40 53 56 40 53 56 40 53 56 40 53 56 40 53 56 40 53 56 40 53 54 40 53 55 42 59 54 43 59 54 43 59 54 43 59 54 43 59 54 43 59 54 43 59 54 43 59 51 40 56 51 40 56 51 40 56 51 40 56 51 40 56 51 40 56 51 40 56 48 42 56 37 36 52 34 37 52 34 37 52 34 37 52 34 37 52 34 37 52 34 37 52 34 37 52 30 33 48 30 33 48
47 63 97 47 63 97 47 63 97 47 63 97 48 63 96 50 63 97 52 63 95 52 63 95 52 63 95 52 63 95 52 63 95 52 63 95 52 63 95 54 65 97 54 65 97 54 65 97 54 65 97 54 65 97 54 65 97 54 65 97 55 64 95 56 63 92 57 62 91 57 62 91 57 62 91 57 62 91 57 62 91 57 62 91 57 62 91 58 63 92 58 63 92 58 63 92 58 63 92 58 63 92 58 63 92 58 63 92 58 64 90 60 62 87 60 62 85 60 62 85 60 62 85 60 62 85 60 62 85 60 62 85 60 62 85 60 62 85 60 62 85 60 62 85 60 62 85 60 62 85 60 62 85 60 62 85 60 62 83 62 63 81 62 64 79 62 64 79 62 64 79 62 64 79 62 64 79 62 64 79 62 64 79 71 73 88 71 73 88 71 73 88 71 73 88 71 73 88 71 73 88 71 73 88 74 72 86 66 55 72 70 56 73 72 58 75 75 61 78 79 65 82 82 68 85 84 70 87 86 72 89 76 62 79 76 62 79 76 62 79 76 62 79 76 62 79 76 62 79 76 62 79 76 62 79 68 51 69 68 51 69 68 51 69 68 51 69 68 51 69 68 51 69 68 51 69 68 51 69 64 47 65 64 47 65 64 47 65 64 47 65 64 47 65 64 47 65 64 47 65 64 47 65 64 50 67 64 50 67 64 50 67 64 50 67 64 50 67 64 50 67 64 50 67 64 50 67 67 53 70 67 53 70 67 53 70 67 53 70 67 53 70 67 53 70 67 53 70 67 53 70 72 54 70 72 54 70 72 54 70 72 54 70 72 54 70 72 54 70 72 54 70 72 54 70 75 57 73 75 57 73 75 57 73 75 57 73 75 57 73 75 57 73 75 57 73 75 57 73 81 65 78 81 65 78 81 65 78 81 65 78 81 65 78 81 65 78 81 65 78 81 65 78 85 69 82 85 69 82 85 69 82 85 69 82 85 69 82 85 69 82 85 69 82 86 68 82 91 68 84 92 68 84 92 68 84 92 68 84 92 68 84 92 68 84 92 68 84 92 68 84 90 66 82 90 66 82 90 66 82 90 66 82 90 66 82 90 66 82 90 66 82 89 66 82 79 61 75 78 62 75 78 62 75 78 62 75 78 62 75 78 62 75 78 62 75 78 62 75 69 53 66 69 53 66 69 53 66 69 53 66 69 53 66 69 53 66 69 53 66 67 53 66 60 47 64 59 48 64 59 48 64 59 48 64 59 48 64 59 48 64 59 48 64 59 48 64 48 37 53 48 37 53 48 37 53 48 37 53 48 37 53 48 37 53 48 37 53 45 39 53 34 33 49 31 34 49 31 34 49 31 34 49 31 34 49 31 34 49 31 34 49 31 34 49 32 35 50 32 35 50
48 64 98 48 64 98 48 64 98 48 64 98 49 64 97 53 66 100 55 66 98 55 66 98 55 66 98 55 66 98 55 66 98 55 66 98 55 66 98 54 65 97 54 65 97 54 65 97 54 65 97 54 65 97 54 65 97 54 65 97 55 64 95 56 63 92 57 62 91 57 62 91 57 62 91 57 62 91 57 62 91 57 62 91 57 62 91 58 63 92 58 63 92 58 63 92 58 63 92 58 63 92 58 63 92 58 63 92 58 64 90 60 62 87 60 62 85 60 62 85 60 62 85 60 62 85 60 62 85 60 62 85 60 62 85 60 62 85 60 62 85 60 62 85 60 62 85 60 62 85 60 62 85 60 62 85 60 62 83 62 63 81 62 64 79 62 64 79 62 64 79 62 64 79 62 64 79 62 64 79 62 64 79 68 70 85 68 70 85 68 70 85 68 70 85 68 70 85 68 70 85 68 70 85 71 69 83 66 55 72 70 56 73 72 58 75 75 61 78 79 65 82 82 68 85 84 70 87 86 72 89 76 62 79 76 62 79 76 62 79 76 62 79 76 62 79 76 62 79 76 62 79 76 62 79 68 51 69 68 51 69 68 51 69 68 51 69 68 51 69 68 51 69 68 51 69 68 51 69 64 47 65 64 47 65 64 47 65 64 47 65 64 47 65 64 47 65 64 47 65 64 47 65 64 50 67 64 50 67 64 50 67 64 50 67 64 50 67 64 50 67 64 50 67 64 50 67 67 53 70 67 53 70 67 53 70 67 53 70 67 53 70 67 53 70 67 53 70 67 53 70 72 54 70 72 54 70 72 54 70 72 54 70 72 54 70 72 54 70 72 54 70 72 54 70 75 57 73 75 57 73 75 57 73 75 57 73 75 57 73 75 57 73 75 57 73 75 57 73 78 62 75 78 62 75 78 62 75 78 62 75 78 62 75 78 62 75 78 62 75 78 62 75 82 66 79 82 66 79 82 66 79 82 66 79 82 66 79 82 66 79 82 66 79 83 65 79 89 65 81 91 64 81 92 63 81 91 64 81 92 63 81 91 64 81 92 63 81 91 64 81 99 70 88 98 71 88 99 70 88 98 71 88 99 70 88 98 71 88 99 70 88 96 72 88 88 70 84 87 71 84 87 71 84 87 71 84 87 71 84 87 71 84 87 71 84 87 71 84 81 65 78 81 65 78 81 65 78 81 65 78 81 65 78 81 65 78 81 65 78 79 65 78 67 54 71 66 55 71 66 55 71 66 55 71 66 55 71 66 55 71 66 55 71 66 55 71 49 38 54 49 38 54 49 38 54 49 38 54 49 38 54 49 38 54 49 38 54 46 40 54 35 34 50 32 35 50 32 35 50 32 35 50 32 35 50 32 35 50 32 35 50 32 35 50 35 38 53 35 38 53
55 71 105 55 71 105 55 71 105 55 71 105 56 71 104 57 70 104 59 70 102 59 70 102 59 70 102 59 70 102 59 70 102 59 70 102 59 70 102 54 65 97 54 65 97 54 65 97 54 65 97 54 65 97 54 65 97 54 65 97 55 64 95 56 63 92 57 62 91 57 62 91 57 62 91 57 62 91 57 62 91 57 62 91 57 62 91 58 63 92 58 63 92 58 63 92 58 63 92 58 63 92 58 63 92 58 63 92 58 64 90 60 62 87 60 62 85 60 62 85 60 62 85 60 62 85 60 62 85 60 62 85 60 62 85 60 62 85 60 62 85 60 62 85 60 62 85 60 62 85 60 62 85 60 62 85 60 62 83 62 63 81 62 64 79 62 64 79 62 64 79 62 64 79 62 64 79 62 64 79 62 64 79 64 66 81 64 66 81 64 66 81 64 66 81 64 66 81 64 66 81 64 66 81 67 65 79 66 55 72 70 56 73 72 58 75 75 61 78 79 65 82 82 68 85 84 70 87 86 72 89 76 62 79 76 62 79 76 62 79 76 62 79 76 62 79 76 62 79 76 62 79 76 62 79 68 51 69 68 51 69 68 51 69 68 51 69 68 51 69 68 51 69 68 51 69 68 51 69 64 47 65 64 47 65 64 47 65 64 47 65 64 47 65 64 47 65 64 47 65 64 47 65 64 50 67 64 50 67 64 50 67 64 50 67 64 50 67 64 50 67 64 50 67 64 50 67 67 53 70 67 53 70 67 53 70 67 53 70 67 53 70 67 53 70 67 53 70 67 53 70 72 54 70 72 54 70 72 54 70 72 54 70 72 54 70 72 54 70 72 54 70 72 54 70 75 57 73 75 57 73 75 57 73 75 57 73 75 57 73 75 57 73 75 57 73 75 57 73 74 58 71 74 58 71 74 58 71 74 58 71 74 58 71 74 58 71 74 58 71 74 58 71 78 62 75 78 62 75 78 62 75 78 62 75 78 62 75 78 62 75 78 62 75 81 60 75 87 60 77 88 59 77 90 59 77 88 59 77 90 59 77 88 59 77 90 59 77 88 59 77 101 70 88 99 70 88 101 70 88 99 70 88 101 70 88 99 70 88 101 70 88 98 71 88 93 72 87 90 74 87 90 74 87 90 74 87 90 74 87 90 74 87 90 74 87 90 74 87 88 72 85 88 72 85 88 72 85 88 72 85 88 72 85 88 72 85 88 72 85 86 72 85 73 60 77 72 61 77 72 61 77 72 61 77 72 61 77 72 61 77 72 61 77 72 61 77 56 45 61 56 45 61 56 45 61 56 45 61 56 45 61 56 45 61 56 45 61 53 47 61 42 41 57 39 42 57 39 42 57 39 42 57 39 42 57 39 42 57 39 42 57 39 42 57 39 42 57 39 42 57
67 83 117 67 83 117 67 83 117 67 83 117 68 83 116 60 73 107 62 73 105 62 73 105 62 73 105 62 73 105 62 73 105 62 73 105 62 73 105 54 65 97 54 65 97 54 65 97 54 65 97 54 65 97 54 65 97 54 65 97 55 64 95 56 63 92 57 62 91 57 62 91 57 62 91 57 62 91 57 62 91 57 62 91 57 62 91 58 63 92 58 63 92 58 63 92 58 63 92 58 63 92 58 63 92 58 63 92 58 64 90 60 62 87 60 62 85 60 62 85 60 62 85 60 62 85 60 62 85 60 62 85 60 62 85 60 62 85 60 62 85 60 62 85 60 62 85 60 62 85 60 62 85 60 62 85 60 62 83 62 63 81 62 64 79 62 64 79 62 64 79 62 64 79 62 64 79 62 64 79 62 64 79 61 63 78 61 63 78 61 63 78 61 63 78 61 63 78 61 63 78 61 63 78 64 62 76 66 55 72 70 56 73 72 58 75 75 61 78 79 65 82 82 68 85 84 70 87 86 72 89 76 62 79 76 62 79 76 62 79 76 62 79 76 62 79 76 62 79 76 62 79 76 62 79 68 51 69 68 51 69 68 51 69 68 51 69 68 51 69 68 51 69 68 51 69 68 51 69 64 47 65 64 47 65 64 47 65 64 47 65 64 47 65 64 47 65 64 47 65 64 47 65 64 50 67 64 50 67 64 50 67 64 50 67 64 50 67 64 50 67 64 50 67 64 50 67 67 53 70 67 53 70 67 53 70 67 53 70 67 53 70 67 53 70 67 53 70 67 53 70 72 54 70 72 54 70 72 54 70 72 54 70 72 54 70 72 54 70 72 54 70 72 54 70 75 57 73 75 57 73 75 57 73 75 57 73 75 57 73 75 57 73 75 57 73 75 57 73 71 55 68 71 55 68 71 55 68 71 55 68 71 55 68 71 55 68 71 55 68 71 55 68 75 59 72 75 59 72 75 59 72 75 59 72 75 59 72 75 59 72 75 59 72 78 57 72 85 56 74 87 56 74 88 55 74 87 56 74 88 55 74 87 56 74 88 55 74 87 56 74 96 63 82 95 64 82 96 63 82 95 64 82 96 63 82 95 64 82 96 63 82 93 64 82 91 70 85 88 72 85 88 72 85 88 72 85 88 72 85 88 72 85 88 72 85 88 72 85 89 73 86 89 73 86 89 73 86 89 73 86 89 73 86 89 73 86 89 73 86 87 73 86 80 67 84 79 68 84 79 68 84 79 68 84 79 68 84 79 68 84 79 68 84 79 68 84 68 57 73 68 57 73 68 57 73 68 57 73 68 57 73 68 57 73 68 57 73 65 59 73 54 53 69 51 54 69 51 54 69 51 54 69 51 54 69 51 54 69 51 54 69 51 54 69 42 45 60 42 45 60
80 96 130 80 96 130 80 96 130 80 96 130 81 96 129 62 75 109 64 75 107 64 75 107 64 75 107 64 75 107 64 75 107 64 75 107 64 75 107 54 65 97 54 65 97 54 65 97 54 65 97 54 65 97 54 65 97 54 65 97 55 64 95 56 63 92 57 62 91 57 62 91 57 62 91 57 62 91 57 62 91 57 62 91 57 62 91 58 63 92 58 63 92 58 63 92 58 63 92 58 63 92 58 63 92 58 63 92 58 64 90 60 62 87 60 62 85 60 62 85 60 62 85 60 62 85 60 62 85 60 62 85 60 62 85 60 62 85 60 62 85 60 62 85 60 62 85 60 62 85 60 62 85 60 62 85 60 62 83 62 63 81 62 64 79 62 64 79 62 64 79 62 64 79 62 64 79 62 64 79 62 64 79 59 61 76 59 61 76 59 61 76 59 61 76 59 61 76 59 61 76 59 61 76 62 60 74 66 55 72 70 56 73 72 58 75 75 61 78 79 65 82 82 68 85 84 70 87 86 72 89 76 62 79 76 62 79 76 62 79 76 62 79 76 62 79 76 62 79 76 62 79 76 62 79 68 51 69 68 51 69 68 51 69 68 51 69 68 51 69 68 51 69 68 51 69 68 51 69 64 47 65 64 47 65 64 47 65 64 47 65 64 47 65 64 47 65 64 47 65 64 47 65 64 50 67 64 50 67 64 50 67 64 50 67 64 50 67 64 50 67 64 50 67 64 50 67 67 53 70 67 53 70 67 53 70 67 53 70 67 53 70 67 53 70 67 53 70 67 53 70 72 54 70 72 54 70 72 54 70 72 54 70 72 54 70 72 54 70 72 54 70 72 54 70 75 57 73 75 57 73 75 57 73 75 57 73 75 57 73 75 57 73 75 57 73 75 57 73 69 53 66 69 53 66 69 53 66 69 53 66 69 53 66 69 53 66 69 53 66 69 53 66 73 57 70 73 57 70 73 57 70 73 57 70 73 57 70 73 57 70 73 57 70 76 55 70 83 54 72 86 53 72 87 52 72 86 53 72 87 52 72 86 53 72 87 52 72 86 53 72 89 54 74 88 55 74 89 54 74 88 55 74 89 54 74 88 55 74 89 54 74 85 56 74 85 64 79 82 66 79 82 66 79 82 66 79 82 66 79 82 66 79 82 66 79 82 66 79 86 70 83 86 70 83 86 70 83 86 70 83 86 70 83 86 70 83 86 70 83 84 70 83 85 72 89 84 73 89 84 73 89 84 73 89 84 73 89 84 73 89 84 73 89 84 73 89 81 70 86 81 70 86 81 70 86 81 70 86 81 70 86 81 70 86 81 70 86 78 72 86 67 66 82 64 67 82 64 67 82 64 67 82 64 67 82 64 67 82 64 67 82 64 67 82 44 47 62 44 47 62
86 105 138 86 104 140 86 105 138 86 104 140 88 104 138 63 77 112 63 77 112 63 77 112 63 77 112 63 77 112 63 77 112 63 77 112 63 77 112 51 65 100 51 65 100 51 65 100 51 65 100 51 65 100 51 65 100 51 65 100 52 65 99 53 64 96 53 64 94 54 63 94 53 64 94 54 63 94 53 64 94 54 63 94 53 64 94 55 64 95 54 65 95 55 64 95 54 65 95 55 64 95 54 65 95 55 64 95 55 64 93 56 63 91 57 63 89 57 62 91 57 63 89 57 62 91 57 63 89 57 62 91 57 63 89 57 62 91 57 63 89 57 62 91 57 63 89 57 62 91 57 63 89 57 62 91 57 63 89 59 64 86 59 64 84 59 64 84 59 64 84 59 64 84 59 64 84 59 64 84 59 64 84 54 59 79 54 59 79 54 59 79 54 59 79 54 59 79 54 59 79 54 59 79 57 58 78 61 56 76 66 57 76 68 59 80 71 62 81 75 66 87 78 69 88 80 71 92 82 73 92 72 63 84 72 63 82 72 63 84 72 63 82 72 63 84 72 63 82 72 63 84 72 63 82 64 52 74 64 52 72 64 52 74 64 52 72 64 52 74 64 52 72 64 52 74 64 52 72 60 48 70 60 48 68 60 48 70 60 48 68 60 48 70 60 48 68 60 48 70 61 48 68 64 49 70 64 49 70 64 49 70 64 49 70 64 49 70 64 49 70 64 49 70 64 49 70 67 52 73 67 52 73 67 52 73 67 52 73 67 52 73 67 52 73 67 52 73 69 51 73 72 53 73 72 53 73 74 52 73 72 53 73 74 52 73 72 53 73 74 52 73 72 53 73 77 55 76 75 56 76 77 55 76 75 56 76 77 55 76 75 56 76 77 55 76 75 56 75 67 50 68 67 50 66 67 50 66 67 50 66 67 50 66 67 50 66 67 50 66 67 50 66 71 54 70 71 54 70 71 54 70 71 54 70 71 54 70 71 54 70 71 54 70 74 53 70 83 51 72 85 50 72 85 50 72 85 50 72 85 50 72 85 50 72 85 50 72 85 50 72 83 48 70 83 48 70 83 48 70 83 48 70 83 48 70 83 48 70 83 48 70 81 49 70 81 60 77 78 62 75 78 61 77 78 62 75 78 61 77 78 62 75 78 61 77 78 62 75 83 66 82 83 67 80 83 66 82 83 67 80 83 66 82 83 67 80 83 66 82 83 66 82 88 74 89 88 74 91 88 74 91 88 74 91 88 74 91 88 74 91 88 74 91 88 74 91 91 77 94 91 77 94 91 77 94 91 77 94 91 77 94 91 77 94 91 77 94 89 78 94 79 72 88 76 74 88 76 73 90 76 74 88 76 73 90 76 74 88 76 73 90 76 74 88 50 47 64 50 48 62
83 103 138 88 108 145 92 112 147 95 115 152 97 117 154 86 105 147 86 105 148 86 105 148 86 105 148 86 105 148 86 105 148 86 105 148 86 105 148 63 82 125 63 82 125 63 82 125 63 82 125 63 82 125 63 82 125 63 82 125 63 82 124 54 74 109 54 74 107 55 74 107 54 74 107 55 74 107 54 74 107 55 74 107 54 74 107 53 72 105 52 72 105 53 72 105 52 72 105 53 72 105 52 72 105 53 72 105 53 72 105 47 61 96 47 62 95 47 61 96 47 62 95 47 61 96 47 62 95 47 61 96 47 62 95 53 67 102 53 68 101 53 67 102 53 68 101 53 67 102 53 68 101 53 67 102 54 67 101 53 64 94 53 64 92 53 64 92 53 64 92 53 64 92 53 64 92 53 64 92 53 64 92 51 62 90 51 62 90 51 62 90 51 62 90 51 62 90 51 62 90 51 62 90 52 61 90 53 59 85 54 58 83 54 58 85 54 58 83 54 58 85 54 58 83 54 58 85 54 58 83 55 59 86 55 59 84 55 59 86 55 59 84 55 59 86 55 59 84 55 59 86 57 59 84 58 58 86 60 57 84 60 57 86 60 57 84 60 57 86 60 57 84 60 57 86 60 57 84 57 54 83 57 54 81 57 54 83 57 54 81 57 54 83 57 54 81 57 54 83 59 53 81 69 54 83 72 53 83 72 53 83 72 53 83 72 53 83 72 53 83 72 53 83 72 53 83 71 52 82 71 52 82 71 52 82 71 52 82 71 52 82 71 52 82 71 52 82 71 52 82 75 52 81 75 52 80 76 51 80 75 52 80 76 51 80 75 52 80 76 51 80 75 52 80 77 52 81 76 53 81 77 52 81 76 53 81 77 52 81 76 53 81 77 52 81 76 53 81 75 57 79 73 58 79 73 58 79 73 58 79 73 58 79 73 58 79 73 58 79 73 58 79 75 60 81 75 60 81 75 60 81 75 60 81 75 60 81 75 60 81 75 60 81 80 58 79 87 55 79 89 54 78 89 54 78 89 54 78 89 54 78 89 54 78 89 54 78 89 54 78 86 51 75 86 51 75 86 51 75 86 51 75 86 51 75 86 51 75 86 51 75 84 52 75 77 54 74 74 56 72 74 55 74 74 56 72 74 55 74 74 56 72 74 55 74 74 56 72 73 54 73 73 55 71 73 54 73 73 55 71 73 54 73 73 55 71 73 54 73 73 55 71 78 57 74 78 57 74 78 57 74 78 57 74 78 57 74 78 57 74 78 57 74 78 57 74 88 67 84 88 67 84 88 67 84 88 67 84 88 67 84 88 67 84 88 67 84 88 67 86 89 72 90 89 72 90 89 72 91 89 72 90 89 72 91 89 72 90 89 72 91 89 72 90 96 79 98 96 79 97
78 101 135 82 104 141 86 109 143 89 111 148 90 112 151 83 106 148 83 106 150 83 105 152 83 106 150 83 105 152 83 106 150 83 105 152 83 106 150 67 89 136 67 90 134 67 89 136 67 90 134 67 89 136 67 90 134 67 89 136 67 90 132 53 77 115 53 77 113 53 77 113 53 77 113 53 77 113 53 77 113 53 77 113 53 77 113 46 70 106 46 70 106 46 70 106 46 70 106 46 70 106 46 70 106 46 70 106 47 69 106 45 65 102 46 64 102 46 64 102 46 64 102 46 64 102 46 64 102 46 64 102 46 64 102 50 68 106 50 68 106 50 68 106 50 68 106 50 68 106 50 68 106 50 68 106 50 68 104 50 64 99 50 65 98 50 65 98 50 65 98 50 65 98 50 65 98 50 65 98 50 65 98 48 63 96 48 63 96 48 63 96 48 63 96 48 63 96 48 63 96 48 63 96 49 62 94 49 60 90 50 59 88 50 59 88 50 59 88 50 59 88 50 59 88 50 59 88 50 59 88 51 60 89 51 60 89 51 60 89 51 60 89 51 60 89 51 60 89 51 60 89 53 60 89 54 59 89 55 58 89 55 58 89 55 58 89 55 58 89 55 58 89 55 58 89 55 58 89 52 55 86 52 55 86 52 55 86 52 55 86 52 55 86 52 55 86 52 55 86 57 54 85 68 54 89 70 53 87 72 52 87 70 53 87 72 52 87 70 53 87 72 52 87 70 53 87 71 51 86 69 52 86 71 51 86 69 52 86 71 51 86 69 52 86 71 51 86 71 52 84 75 51 85 75 51 83 76 51 83 75 51 83 76 51 83 75 51 83 76 51 83 75 51 83 77 52 84 76 52 84 77 52 84 76 52 84 77 52 84 76 52 84 77 52 84 76 53 82 75 57 83 73 58 81 73 58 81 73 58 81 73 58 81 73 58 81 73 58 81 73 58 81 75 60 83 75 60 83 75 60 83 75 60 83 75 60 83 75 60 83 75 60 83 78 59 81 85 55 81 88 54 79 89 53 79 88 54 79 89 53 79 88 54 79 89 53 79 88 54 79 86 50 76 85 51 76 86 50 76 85 51 76 86 50 76 85 51 76 86 50 76 84 52 76 77 54 74 74 55 74 74 55 74 74 55 74 74 55 74 74 55 74 74 55 74 74 55 74 73 54 73 73 54 73 73 54 73 73 54 73 73 54 73 73 54 73 73 54 73 75 54 73 79 56 74 80 55 74 80 55 74 80 55 74 80 55 74 80 55 74 80 55 74 80 55 74 88 63 82 88 63 82 88 63 82 88 63 82 88 63 82 88 63 82 88 63 82 88 63 82 91 68 88 91 68 88 91 68 88 91 68 88 91 68 88 91 68 88 91 68 88 91 68 88 98 75 95 98 75 95
76 99 131 79 102 136 81 104 136 83 106 140 84 106 143 83 106 147 83 106 148 83 106 150 83 106 148 83 106 150 83 106 148 83 106 150 83 106 148 77 100 144 77 100 142 77 100 144 77 100 142 77 100 144 77 100 142 77 100 144 77 100 142 58 82 120 58 82 118 58 82 118 58 82 118 58 82 118 58 82 118 58 82 118 58 82 118 43 67 103 43 67 103 43 67 103 43 67 103 43 67 103 43 67 103 43 67 103 44 66 103 47 67 104 48 66 104 48 66 104 48 66 104 48 66 104 48 66 104 48 66 104 48 66 104 50 68 106 50 68 106 50 68 106 50 68 106 50 68 106 50 68 106 50 68 106 50 68 104 50 64 99 50 65 98 50 65 98 50 65 98 50 65 98 50 65 98 50 65 98 50 65 98 48 63 96 48 63 96 48 63 96 48 63 96 48 63 96 48 63 96 48 63 96 49 62 94 49 60 90 50 59 88 50 59 88 50 59 88 50 59 88 50 59 88 50 59 88 50 59 88 51 60 89 51 60 89 51 60 89 51 60 89 51 60 89 51 60 89 51 60 89 53 60 89 54 59 89 55 58 89 55 58 89 55 58 89 55 58 89 55 58 89 55 58 89 55 58 89 52 55 86 52 55 86 52 55 86 52 55 86 52 55 86 52 55 86 52 55 86 55 54 85 66 55 89 69 54 87 70 53 87 69 54 87 70 53 87 69 54 87 70 53 87 69 54 87 69 52 86 68 53 86 69 52 86 68 53 86 69 52 86 68 53 86 69 52 86 69 52 84 73 52 85 73 52 83 75 51 83 73 52 83 75 51 83 73 52 83 75 51 83 73 52 83 76 52 84 74 53 84 76 52 84 74 53 84 76 52 84 74 53 84 76 52 84 74 54 82 75 57 83 73 58 81 73 58 81 73 58 81 73 58 81 73 58 81 73 58 81 73 58 81 75 60 83 75 60 83 75 60 83 75 60 83 75 60 83 75 60 83 75 60 83 78 59 81 84 56 81 87 55 79 88 54 79 87 55 79 88 54 79 87 55 79 88 54 79 87 55 79 85 51 76 84 52 76 85 51 76 84 52 76 85 51 76 84 52 76 85 51 76 82 52 76 77 54 74 74 55 74 74 55 74 74 55 74 74 55 74 74 55 74 74 55 74 74 55 74 73 54 73 73 54 73 73 54 73 73 54 73 73 54 73 73 54 73 73 54 73 75 54 73 79 56 74 80 55 74 80 55 74 80 55 74 80 55 74 80 55 74 80 55 74 80 55 74 86 61 80 86 61 80 86 61 80 86 61 80 86 61 80 86 61 80 86 61 80 86 61 80 89 66 86 89 66 86 89 66 86 89 66 86 89 66 86 89 66 86 89 66 86 89 66 86 93 70 90 93 70 90
77 100 131 78 101 133 79 102 133 80 103 135 80 103 137 83 107 145 83 106 147 83 106 148 83 106 147 83 106 148 83 106 147 83 106 148 83 106 147 86 109 151 86 109 150 86 109 151 86 109 150 86 109 151 86 109 150 86 109 151 86 109 150 65 89 127 65 89 125 65 89 125 65 89 125 65 89 125 65 89 125 65 89 125 65 89 125 44 68 104 44 68 104 44 68 104 44 68 104 44 68 104 44 68 104 44 68 104 45 67 104 50 70 107 51 69 107 51 69 107 51 69 107 51 69 107 51 69 107 51 69 107 51 69 107 50 68 106 50 68 106 50 68 106 50 68 106 50 68 106 50 68 106 50 68 106 50 68 104 50 64 99 50 65 98 50 65 98 50 65 98 50 65 98 50 65 98 50 65 98 50 65 98 48 63 96 48 63 96 48 63 96 48 63 96 48 63 96 48 63 96 48 63 96 49 62 94 49 60 90 50 59 88 50 59 88 50 59 88 50 59 88 50 59 88 50 59 88 50 59 88 51 60 89 51 60 89 51 60 89 51 60 89 51 60 89 51 60 89 51 60 89 53 60 89 54 59 89 55 58 89 55 58 89 55 58 89 55 58 89 55 58 89 55 58 89 55 58 89 52 55 86 52 55 86 52 55 86 52 55 86 52 55 86 52 55 86 52 55 86 55 54 85 65 55 89 68 54 87 69 54 87 68 54 87 69 54 87 68 54 87 69 54 87 68 54 87 68 53 86 67 53 86 68 53 86 67 53 86 68 53 86 67 53 86 68 53 86 68 53 84 72 53 85 72 53 83 73 52 83 72 53 83 73 52 83 72 53 83 73 52 83 72 53 83 74 53 84 73 54 84 74 53 84 73 54 84 74 53 84 73 54 84 74 53 84 73 54 82 73 57 83 73 58 81 73 58 81 73 58 81 73 58 81 73 58 81 73 58 81 73 58 81 75 60 83 75 60 83 75 60 83 75 60 83 75 60 83 75 60 83 75 60 83 78 59 81 84 56 81 85 55 79 87 55 79 85 55 79 87 55 79 85 55 79 87 55 79 85 55 79 84 52 76 82 52 76 84 52 76 82 52 76 84 52 76 82 52 76 84 52 76 81 53 76 76 55 74 74 55 74 74 55 74 74 55 74 74 55 74 74 55 74 74 55 74 74 55 74 73 54 73 73 54 73 73 54 73 73 54 73 73 54 73 73 54 73 73 54 73 75 54 73 79 56 74 80 55 74 80 55 74 80 55 74 80 55 74 80 55 74 80 55 74 80 55 74 83 58 77 83 58 77 83 58 77 83 58 77 83 58 77 83 58 77 83 58 77 83 58 77 86 63 83 86 63 83 86 63 83 86 63 83 86 63 83 86 63 83 86 63 83 86 63 83 86 63 83 86 63 83
85 109 137 84 107 138 83 107 135 83 106 137 82 105 137 83 107 143 83 107 145 83 106 147 83 107 145 83 106 147 83 107 145 83 106 147 83 107 145 89 112 153 89 113 151 89 112 153 89 113 151 89 112 153 89 113 151 89 112 153 89 113 151 71 95 131 71 95 131 71 95 131 71 95 131 71 95 131 71 95 131 71 95 131 71 95 131 51 75 111 51 75 111 51 75 111 51 75 111 51 75 111 51 75 111 51 75 111 52 74 111 54 74 111 55 73 111 55 73 111 55 73 111 55 73 111 55 73 111 55 73 111 55 73 111 50 68 106 50 68 106 50 68 106 50 68 106 50 68 106 50 68 106 50 68 106 50 68 104 50 64 99 50 65 98 50 65 98 50 65 98 50 65 98 50 65 98 50 65 98 50 65 98 48 63 96 48 63 96 48 63 96 48 63 96 48 63 96 48 63 96 48 63 96 49 62 94 49 60 90 50 59 88 50 59 88 50 59 88 50 59 88 50 59 88 50 59 88 50 59 88 51 60 89 51 60 89 51 60 89 51 60 89 51 60 89 51 60 89 51 60 89 53 60 89 54 59 89 55 58 89 55 58 89 55 58 89 55 58 89 55 58 89 55 58 89 55 58 89 52 55 86 52 55 86 52 55 86 52 55 86 52 55 86 52 55 86 52 55 86 55 54 85 65 55 89 66 55 87 68 54 87 66 55 87 68 54 87 66 55 87 68 54 87 66 55 87 67 53 86 65 54 86 67 53 86 65 54 86 67 53 86 65 54 86 67 53 86 67 54 84 70 53 85 70 54 83 72 53 83 70 54 83 72 53 83 70 54 83 72 53 83 70 54 83 73 54 84 71 55 84 73 54 84 71 55 84 73 54 84 71 55 84 73 54 84 71 55 82 73 57 83 73 58 81 73 58 81 73 58 81 73 58 81 73 58 81 73 58 81 73 58 81 75 60 83 75 60 83 75 60 83 75 60 83 75 60 83 75 60 83 75 60 83 78 59 81 82 56 81 84 56 79 85 55 79 84 56 79 85 55 79 84 56 79 85 55 79 84 56 79 82 52 76 81 53 76 82 52 76 81 53 76 82 52 76 81 53 76 82 52 76 79 54 76 76 55 74 74 55 74 74 55 74 74 55 74 74 55 74 74 55 74 74 55 74 74 55 74 73 54 73 73 54 73 73 54 73 73 54 73 73 54 73 73 54 73 73 54 73 75 54 73 79 56 74 80 55 74 80 55 74 80 55 74 80 55 74 80 55 74 80 55 74 80 55 74 79 54 73 79 54 73 79 54 73 79 54 73 79 54 73 79 54 73 79 54 73 79 54 73 82 59 79 82 59 79 82 59 79 82 59 79 82 59 79 82 59 79 82 59 79 82 59 79 80 57 77 80 57 77
98 122 148 95 119 145 93 117 143 91 115 141 90 114 142 83 107 141 83 107 143 83 107 143 83 107 143 83 107 143 83 107 143 83 107 143 83 107 143 87 111 147 87 111 147 87 111 147 87 111 147 87 111 147 87 111 147 87 111 147 87 111 147 78 102 138 78 102 138 78 102 138 78 102 138 78 102 138 78 102 138 78 102 138 78 102 138 63 87 123 63 87 123 63 87 123 63 87 123 63 87 123 63 87 123 63 87 123 64 86 123 57 77 114 58 76 114 58 76 114 58 76 114 58 76 114 58 76 114 58 76 114 58 76 114 50 68 106 50 68 106 50 68 106 50 68 106 50 68 106 50 68 106 50 68 106 50 68 104 50 64 99 50 65 98 50 65 98 50 65 98 50 65 98 50 65 98 50 65 98 50 65 98 48 63 96 48 63 96 48 63 96 48 63 96 48 63 96 48 63 96 48 63 96 49 62 94 49 60 90 50 59 88 50 59 88 50 59 88 50 59 88 50 59 88 50 59 88 50 59 88 51 60 89 51 60 89 51 60 89 51 60 89 51 60 89 51 60 89 51 60 89 53 60 89 54 59 89 55 58 89 55 58 89 55 58 89 55 58 89 55 58 89 55 58 89 55 58 89 52 55 86 52 55 86 52 55 86 52 55 86 52 55 86 52 55 86 52 55 86 55 54 85 63 56 89 65 56 87 65 56 87 65 56 87 65 56 87 65 56 87 65 56 87 65 56 87 64 55 86 64 55 86 64 55 86 64 55 86 64 55 86 64 55 86 64 55 86 65 54 84 69 54 85 69 54 83 69 54 83 69 54 83 69 54 83 69 54 83 69 54 83 69 54 83 70 55 84 70 55 84 70 55 84 70 55 84 70 55 84 70 55 84 70 55 84 70 56 82 73 57 83 73 58 81 73 58 81 73 58 81 73 58 81 73 58 81 73 58 81 73 58 81 75 60 83 75 60 83 75 60 83 75 60 83 75 60 83 75 60 83 75 60 83 77 59 81 81 57 81 82 57 79 82 57 79 82 57 79 82 57 79 82 57 79 82 57 79 82 57 79 79 54 76 79 54 76 79 54 76 79 54 76 79 54 76 79 54 76 79 54 76 78 54 76 76 55 74 74 55 74 74 55 74 74 55 74 74 55 74 74 55 74 74 55 74 74 55 74 73 54 73 73 54 73 73 54 73 73 54 73 73 54 73 73 54 73 73 54 73 75 54 73 79 56 74 80 55 74 80 55 74 80 55 74 80 55 74 80 55 74 80 55 74 80 55 74 76 51 70 76 51 70 76 51 70 76 51 70 76 51 70 76 51 70 76 51 70 76 51 70 79 56 76 79 56 76 79 56 76 79 56 76 79 56 76 79 56 76 79 56 76 79 56 76 73 50 70 73 50 70
112 136 160 108 132 156 104 128 152 101 125 149 100 124 150 83 108 139 83 107 141 83 107 141 83 107 141 83 107 141 83 107 141 83 107 141 83 107 141 81 105 139 81 105 139 81 105 139 81 105 139 81 105 139 81 105 139 81 105 139 81 105 139 83 107 143 83 107 143 83 107 143 83 107 143 83 107 143 83 107 143 83 107 143 83 107 143 76 100 136 76 100 136 76 100 136 76 100 136 76 100 136 76 100 136 76 100 136 77 99 136 59 79 116 60 78 116 60 78 116 60 78 116 60 78 116 60 78 116 60 78 116 60 78 116 50 68 106 50 68 106 50 68 106 50 68 106 50 68 106 50 68 106 50 68 106 50 68 104 50 64 99 50 65 98 50 65 98 50 65 98 50 65 98 50 65 98 50 65 98 50 65 98 48 63 96 48 63 96 48 63 96 48 63 96 48 63 96 48 63 96 48 63 96 49 62 94 49 60 90 50 59 88 50 59 88 50 59 88 50 59 88 50 59 88 50 59 88 50 59 88 51 60 89 51 60 89 51 60 89 51 60 89 51 60 89 51 60 89 51 60 89 53 60 89 54 59 89 55 58 89 55 58 89 55 58 89 55 58 89 55 58 89 55 58 89 55 58 89 52 55 86 52 55 86 52 55 86 52 55 86 52 55 86 52 55 86 52 55 86 54 55 85 62 57 89 63 56 87 63 56 87 63 56 87 63 56 87 63 56 87 63 56 87 63 56 87 62 55 86 62 55 86 62 55 86 62 55 86 62 55 86 62 55 86 62 55 86 62 56 84 66 55 85 68 55 83 68 55 83 68 55 83 68 55 83 68 55 83 68 55 83 68 55 83 69 56 84 69 56 84 69 56 84 69 56 84 69 56 84 69 56 84 69 56 84 69 56 82 72 58 83 73 58 81 73 58 81 73 58 81 73 58 81 73 58 81 73 58 81 73 58 81 75 60 83 75 60 83 75 60 83 75 60 83 75 60 83 75 60 83 75 60 83 77 59 81 80 58 81 81 57 79 81 57 79 81 57 79 81 57 79 81 57 79 81 57 79 81 57 79 78 54 76 78 54 76 78 54 76 78 54 76 78 54 76 78 54 76 78 54 76 77 55 76 74 55 74 74 55 74 74 55 74 74 55 74 74 55 74 74 55 74 74 55 74 74 55 74 73 54 73 73 54 73 73 54 73 73 54 73 73 54 73 73 54 73 73 54 73 75 54 73 79 56 74 80 55 74 80 55 74 80 55 74 80 55 74 80 55 74 80 55 74 80 55 74 74 49 68 74 49 68 74 49 68 74 49 68 74 49 68 74 49 68 74 49 68 74 49 68 77 54 74 77 54 74 77 54 74 77 54 74 77 54 74 77 54 74 77 54 74 77 54 74 68 45 65 68 45 65
120 145 165 116 141 161 111 136 156 108 133 153 106 131 153 83 109 136 83 108 138 83 108 138 83 108 138 83 108 138 83 108 138 83 108 138 83 108 138 77 102 132 77 102 132 77 102 132 77 102 132 77 102 132 77 102 132 77 102 132 77 102 133 85 109 143 85 109 145 85 109 145 85 109 145 85 109 145 85 109 145 85 109 145 85 109 145 84 108 144 84 108 144 84 108 144 84 108 144 84 108 144 84 108 144 84 108 144 85 107 144 61 81 118 62 80 118 62 80 118 62 80 118 62 80 118 62 80 118 62 80 118 62 80 118 50 68 106 50 68 106 50 68 106 50 68 106 50 68 106 50 68 106 50 68 106 50 68 104 50 64 99 50 65 98 50 65 98 50 65 98 50 65 98 50 65 98 50 65 98 50 65 98 48 63 96 48 63 96 48 63 96 48 63 96 48 63 96 48 63 96 48 63 96 49 62 94 49 60 90 50 59 88 50 59 88 50 59 88 50 59 88 50 59 88 50 59 88 50 59 88 51 60 89 51 60 89 51 60 89 51 60 89 51 60 89 51 60 89 51 60 89 53 60 89 54 59 89 55 58 89 55 58 89 55 58 89 55 58 89 55 58 89 55 58 89 55 58 89 52 55 86 52 55 86 52 55 86 52 55 86 52 55 86 52 55 86 52 55 86 54 55 85 59 58 89 61 58 87 61 58 87 61 58 87 61 58 87 61 58 87 61 58 87 61 58 87 60 57 86 60 57 86 60 57 86 60 57 86 60 57 86 60 57 86 60 57 86 61 57 84 63 57 85 65 56 83 65 56 83 65 56 83 65 56 83 65 56 83 65 56 83 65 56 83 66 57 84 66 57 84 66 57 84 66 57 84 66 57 84 66 57 84 66 57 84 67 57 82 72 58 83 73 58 81 73 58 81 73 58 81 73 58 81 73 58 81 73 58 81 73 58 81 75 60 83 75 60 83 75 60 83 75 60 83 75 60 83 75 60 83 75 60 83 75 60 81 78 59 81 78 59 79 78 59 79 78 59 79 78 59 79 78 59 79 78 59 79 78 59 79 75 56 76 75 56 76 75 56 76 75 56 76 75 56 76 75 56 76 75 56 76 75 56 76 74 55 74 74 55 74 74 55 74 74 55 74 74 55 74 74 55 74 74 55 74 74 55 74 73 54 73 73 54 73 73 54 73 73 54 73 73 54 73 73 54 73 73 54 73 75 54 73 79 56 74 80 55 74 80 55 74 80 55 74 80 55 74 80 55 74 80 55 74 80 55 74 72 47 66 72 47 66 72 47 66 72 47 66 72 47 66 72 47 66 72 47 66 72 47 66 75 52 72 75 52 72 75 52 72 75 52 72 75 52 72 75 52 72 75 52 72 75 52 72 66 43 63 66 43 63
