P3
172 37
255
51 31 42 54 34 45 57 37 48 59 39 50 96 76 87 99 79 90 104 84 95 110 90 101 117 97 108 124 104 115 128 108 119 131 111 122 138 121 129 139 122 130 141 124 132 145 128 136 148 131 139 151 134 142 154 137 145 155 138 146 144 127 135 144 127 135 144 127 135 144 127 135 144 127 135 144 127 135 144 127 135 144 127 135 135 119 129 133 117 127 131 115 125 128 112 122 124 108 118 121 105 115 119 103 113 117 101 111 94 78 88 91 75 85 86 70 80 80 64 74 73 57 67 67 51 61 62 46 56 57 44 54 69 55 68 68 56 70 68 56 70 68 56 70 68 56 70 68 56 70 68 56 70 68 56 70 81 69 83 81 69 83 81 69 83 81 69 83 81 69 83 81 69 83 81 69 83 81 69 83 79 65 80 79 65 80 79 65 80 79 65 80 79 65 80 79 65 80 79 65 80 79 65 80 71 57 72 71 57 72 71 57 72 71 57 72 71 57 72 71 57 72 71 57 72 70 58 72 65 53 65 64 54 65 64 54 65 64 54 65 64 54 65 64 54 65 64 54 65 64 54 65 60 50 61 60 50 61 60 50 61 60 50 61 60 50 61 60 50 61 60 50 61 60 50 61 42 32 43 42 32 43 42 32 43 42 32 43 42 32 43 42 32 43 42 32 43 42 32 43 27 17 28 25 15 26 23 13 24 20 10 21 16 6 17 13 3 14 11 1 12 7 0 10 7 2 9 5 2 9 5 2 9 5 2 9 5 2 9 5 2 9 5 2 9 5 2 9 17 14 21 17 14 21 17 14 21 17 14 21 17 14 21 17 14 21 17 14 21 16 15 21 14 13 18 15 16 20 17 18 22 20 21 25 24 25 29 27 28 32 29 30 34 31 32 36 49 50 54 52 53 57 59 60 64 68 69 73 78 79 83 87 88 92 94 95 99 97 98 100 109 109 111 103 103 103 94 94 94 81 81 81 67 67 67 54 54 54 45 45 45 39 39 39 40 40 40 40 40 40 40 40 40 40 40 40 40 40 40 40 40 40 40 40 40 40 40 40 39 37 38 39 37 38 39 37 38 39 37 38 39 37 38 39 37 38 39 37 38 39 37 38 42 40 41 42 40 41 42 40 41 42 40 41 42 40 41 42 40 41 42 40 41 42 40 41
50 30 42 52 34 46 58 38 50 57 39 51 105 85 97 105 87 99 112 92 104 117 99 111 125 105 117 130 112 124 137 117 129 137 119 131 139 122 132 140 123 133 143 126 136 146 129 139 149 132 142 153 136 146 155 138 148 156 139 149 144 127 137 144 127 137 144 127 137 144 127 137 144 127 137 144 127 137 144 127 137 144 127 137 135 119 129 133 117 127 131 115 125 128 112 122 124 108 118 121 105 115 119 103 113 117 101 111 93 77 87 90 74 84 85 69 79 79 63 73 72 56 66 66 50 60 61 45 55 56 43 53 68 56 70 67 56 70 67 56 70 67 56 70 67 56 70 67 56 70 67 56 70 67 56 70 80 69 83 80 69 83 80 69 83 80 69 83 80 69 83 80 69 83 80 69 83 80 69 83 76 64 78 76 64 78 76 63 80 76 64 78 76 63 80 76 64 78 76 63 80 76 64 78 68 55 72 68 56 70 68 55 72 68 56 70 68 55 72 68 56 70 68 55 72 67 56 70 60 52 65 60 52 63 60 52 63 60 52 63 60 52 63 60 52 63 60 52 63 60 52 63 56 48 59 56 48 59 56 48 59 56 48 59 56 48 59 56 48 59 56 48 59 56 48 59 38 30 41 37 31 41 38 30 41 37 31 41 38 30 41 37 31 41 38 30 41 37 31 41 21 13 24 18 12 22 17 9 20 13 7 17 10 2 13 6 0 10 5 0 8 3 0 7 3 0 7 2 1 6 3 0 7 2 1 6 3 0 7 2 1 6 3 0 7 2 1 6 17 14 21 16 15 20 17 14 21 16 15 20 17 14 21 16 15 20 17 14 21 16 15 20 13 14 18 13 17 18 17 18 22 18 22 23 24 25 29 25 29 30 29 30 34 29 33 34 50 51 55 52 56 57 60 61 65 66 70 71 78 79 83 84 88 89 92 93 97 96 97 99 109 109 109 103 103 103 94 94 94 81 81 81 67 67 67 54 54 54 45 45 45 39 39 39 40 40 40 40 40 40 40 40 40 40 40 40 40 40 40 40 40 40 40 40 40 40 40 40 39 37 38 39 37 38 39 37 38 39 37 38 39 37 38 39 37 38 39 37 38 39 37 38 42 40 41 42 40 41 42 40 41 42 40 41 42 40 41 42 40 41 42 40 41 42 40 41
60 42 58 63 46 62 66 48 64 66 49 65 108 90 106 110 93 109 117 99 115 123 106 122 132 114 130 139 122 138 146 128 144 149 131 147 147 129 143 147 129 141 147 129 141 147 129 141 147 129 141 147 129 141 147 129 141 147 129 141 152 134 146 150 132 144 148 130 142 145 127 139 141 123 135 138 120 132 136 118 130 134 116 128 139 123 134 136 120 131 131 115 126 125 109 120 118 102 113 112 96 107 107 91 102 104 88 99 81 65 76 80 64 75 78 62 73 74 58 69 71 55 66 68 52 63 65 49 60 62 49 59 57 46 60 56 48 63 60 52 67 64 56 71 69 61 76 73 65 80 77 69 84 79 71 86 74 66 81 74 66 81 74 66 81 74 66 81 74 66 81 74 66 81 74 66 81 74 66 81 64 56 71 64 56 71 64 55 72 64 56 71 64 55 72 64 56 71 64 55 72 64 56 71 53 44 61 53 45 60 53 44 61 53 45 60 53 44 61 53 45 60 53 44 61 52 46 60 43 40 51 42 40 51 42 40 51 42 40 51 42 40 51 42 40 51 42 40 51 42 40 51 29 27 38 29 27 38 29 27 38 29 27 38 29 27 38 29 27 38 29 27 38 29 27 38 12 11 19 11 11 19 12 11 19 11 11 19 12 11 19 11 11 19 12 11 19 11 11 19 21 20 28 18 18 26 17 16 24 13 13 21 10 9 17 6 6 14 5 4 12 2 3 8 2 1 6 1 2 4 2 1 6 1 2 4 2 1 6 1 2 4 2 1 6 1 2 4 0 0 4 1 2 4 4 3 8 6 7 9 11 10 15 13 14 16 16 15 20 17 18 20 16 20 21 17 23 21 20 24 25 22 28 26 27 31 32 29 35 33 32 36 37 33 39 37 48 52 53 49 55 53 55 59 60 61 67 65 68 72 73 74 80 78 80 84 85 82 86 85 91 93 92 88 88 86 81 81 79 71 71 69 61 61 59 51 51 49 44 44 42 40 40 38 39 39 37 39 39 37 39 39 37 39 39 37 39 39 37 39 39 37 39 39 37 39 39 37 39 37 38 39 37 38 39 37 38 39 37 38 39 37 38 39 37 38 39 37 38 39 37 38 38 36 37 38 36 37 38 36 37 38 36 37 38 36 37 38 36 37 38 36 37 38 36 37
70 53 71 74 57 75 76 59 77 77 60 78 110 93 111 113 96 114 118 101 119 125 108 126 132 115 133 139 122 140 145 128 146 148 131 147 147 129 145 147 129 143 147 129 143 147 129 143 147 129 143 147 129 143 147 129 143 147 129 143 152 134 148 150 132 146 148 130 144 145 127 141 141 123 137 138 120 134 136 118 132 134 116 130 138 122 133 135 119 130 130 114 125 124 108 119 117 101 112 111 95 106 106 90 101 103 87 98 80 64 75 79 63 74 76 60 71 73 57 68 70 54 65 66 50 61 64 48 59 61 47 60 55 47 60 56 50 64 59 53 67 62 56 70 66 60 74 70 64 78 73 67 81 75 69 83 71 65 79 71 65 79 71 65 79 71 65 79 71 65 79 71 65 79 71 65 79 71 65 79 61 54 70 61 54 70 61 54 70 61 54 70 61 54 70 61 54 70 61 54 70 61 54 70 50 43 59 50 43 59 50 43 59 50 43 59 50 43 59 50 43 59 50 43 59 48 44 58 40 38 51 39 39 49 39 39 49 39 39 49 39 39 49 39 39 49 39 39 49 39 39 49 26 26 36 26 26 36 26 26 36 26 26 36 26 26 36 26 26 36 26 26 36 26 26 36 9 12 19 9 12 19 9 12 19 9 12 19 9 12 19 9 12 19 9 12 19 9 12 19 18 21 28 16 19 26 14 17 24 11 14 21 7 10 17 4 7 14 2 5 12 0 3 8 1 2 6 1 2 4 1 2 4 1 2 4 1 2 4 1 2 4 1 2 4 1 2 4 0 0 2 1 2 4 3 4 6 6 7 9 10 11 13 13 14 16 15 16 18 15 19 20 16 20 19 17 23 21 19 25 23 22 28 26 26 32 30 29 35 33 31 37 35 33 39 37 47 53 51 49 55 53 54 60 58 61 67 65 67 73 71 74 80 78 79 85 83 82 86 85 91 93 90 88 88 86 81 81 79 71 71 69 61 61 59 51 51 49 44 44 42 40 40 38 39 39 37 39 39 37 39 39 37 39 39 37 39 39 37 39 39 37 39 39 37 39 39 37 39 37 38 39 37 38 39 37 38 39 37 38 39 37 38 39 37 38 39 37 38 39 37 38 38 36 37 38 36 37 38 36 37 38 36 37 38 36 37 38 36 37 38 36 37 38 36 37
88 71 89 91 74 92 94 77 95 95 78 96 116 99 117 118 101 119 122 105 123 128 111 129 134 117 135 140 123 141 144 127 145 147 130 146 147 129 145 147 129 143 147 129 143 147 129 143 147 129 143 147 129 143 147 129 143 147 129 143 152 134 148 150 132 146 148 130 144 145 127 141 141 123 137 138 120 134 136 118 132 134 116 130 135 119 130 133 117 128 128 112 123 121 105 116 114 98 109 108 92 103 103 87 98 101 85 96 78 62 73 76 60 71 74 58 69 71 55 66 67 51 62 64 48 59 62 46 57 58 44 57 56 48 61 56 50 64 58 52 66 61 55 69 63 57 71 66 60 74 68 62 76 69 63 77 66 60 74 66 60 74 66 60 74 66 60 74 66 60 74 66 60 74 66 60 74 66 60 74 56 49 65 56 49 65 56 49 65 56 49 65 56 49 65 56 49 65 56 49 65 56 49 65 45 38 54 45 38 54 45 38 54 45 38 54 45 38 54 45 38 54 45 38 54 43 39 53 35 33 46 34 34 44 34 34 44 34 34 44 34 34 44 34 34 44 34 34 44 34 34 44 24 24 34 24 24 34 24 24 34 24 24 34 24 24 34 24 24 34 24 24 34 24 24 34 9 12 19 9 12 19 9 12 19 9 12 19 9 12 19 9 12 19 9 12 19 9 12 19 18 21 28 16 19 26 14 17 24 11 14 21 7 10 17 4 7 14 2 5 12 0 3 8 1 2 6 1 2 4 1 2 4 1 2 4 1 2 4 1 2 4 1 2 4 1 2 4 0 0 2 1 2 4 3 4 6 6 7 9 10 11 13 13 14 16 15 16 18 15 19 20 16 20 19 17 23 21 19 25 23 22 28 26 26 32 30 29 35 33 31 37 35 33 39 37 47 53 51 49 55 53 54 60 58 61 67 65 67 73 71 74 80 78 79 85 83 82 86 85 91 93 90 88 88 86 81 81 79 71 71 69 61 61 59 51 51 49 44 44 42 40 40 38 39 39 37 39 39 37 39 39 37 39 39 37 39 39 37 39 39 37 39 39 37 39 39 37 39 37 38 39 37 38 39 37 38 39 37 38 39 37 38 39 37 38 39 37 38 39 37 38 38 36 37 38 36 37 38 36 37 38 36 37 38 36 37 38 36 37 38 36 37 38 36 37
106 89 107 110 93 111 112 95 113 113 96 114 123 106 124 125 108 126 128 111 129 132 115 133 136 119 137 141 124 142 144 127 145 145 128 144 147 129 145 147 129 143 147 129 143 147 129 143 147 129 143 147 129 143 147 129 143 147 129 143 152 134 148 150 132 146 148 130 144 145 127 141 141 123 137 138 120 134 136 118 132 134 116 130 132 116 127 129 113 124 125 109 120 118 102 113 111 95 106 105 89 100 100 84 95 97 81 92 74 58 69 73 57 68 71 55 66 67 51 62 64 48 59 61 45 56 58 42 53 55 41 54 57 49 62 57 51 65 57 51 65 58 52 66 59 53 67 60 54 68 61 55 69 61 55 69 59 53 67 59 53 67 59 53 67 59 53 67 59 53 67 59 53 67 59 53 67 59 53 67 49 42 58 49 42 58 49 42 58 49 42 58 49 42 58 49 42 58 49 42 58 49 42 58 38 31 47 38 31 47 38 31 47 38 31 47 38 31 47 38 31 47 38 31 47 36 32 46 28 26 39 27 27 37 27 27 37 27 27 37 27 27 37 27 27 37 27 27 37 27 27 37 21 21 31 21 21 31 21 21 31 21 21 31 21 21 31 21 21 31 21 21 31 21 21 31 9 12 19 9 12 19 9 12 19 9 12 19 9 12 19 9 12 19 9 12 19 9 12 19 18 21 28 16 19 26 14 17 24 11 14 21 7 10 17 4 7 14 2 5 12 0 3 8 1 2 6 1 2 4 1 2 4 1 2 4 1 2 4 1 2 4 1 2 4 1 2 4 0 0 2 1 2 4 3 4 6 6 7 9 10 11 13 13 14 16 15 16 18 15 19 20 16 20 19 17 23 21 19 25 23 22 28 26 26 32 30 29 35 33 31 37 35 33 39 37 47 53 51 49 55 53 54 60 58 61 67 65 67 73 71 74 80 78 79 85 83 82 86 85 91 93 90 88 88 86 81 81 79 71 71 69 61 61 59 51 51 49 44 44 42 40 40 38 39 39 37 39 39 37 39 39 37 39 39 37 39 39 37 39 39 37 39 39 37 39 39 37 39 37 38 39 37 38 39 37 38 39 37 38 39 37 38 39 37 38 39 37 38 39 37 38 38 36 37 38 36 37 38 36 37 38 36 37 38 36 37 38 36 37 38 36 37 38 36 37
120 103 121 123 106 124 126 109 127 127 110 128 131 114 132 132 115 133 134 117 135 136 119 137 139 122 140 141 124 142 143 126 144 144 127 143 147 129 145 147 129 143 147 129 143 147 129 143 147 129 143 147 129 143 147 129 143 147 129 143 152 134 148 150 132 146 148 130 144 145 127 141 141 123 137 138 120 134 136 118 132 134 116 130 129 113 124 126 110 121 121 105 116 115 99 110 108 92 103 101 85 96 97 81 92 94 78 89 71 55 66 70 54 65 67 51 62 64 48 59 61 45 56 57 41 52 55 39 50 52 38 51 59 51 64 57 51 65 57 51 65 56 50 64 55 49 63 54 48 62 53 47 61 53 47 61 53 47 61 53 47 61 53 47 61 53 47 61 53 47 61 53 47 61 53 47 61 53 47 61 43 36 52 43 36 52 43 36 52 43 36 52 43 36 52 43 36 52 43 36 52 43 36 52 32 25 41 32 25 41 32 25 41 32 25 41 32 25 41 32 25 41 32 25 41 30 26 40 22 20 33 21 21 31 21 21 31 21 21 31 21 21 31 21 21 31 21 21 31 21 21 31 17 17 27 17 17 27 17 17 27 17 17 27 17 17 27 17 17 27 17 17 27 17 17 27 9 12 19 9 12 19 9 12 19 9 12 19 9 12 19 9 12 19 9 12 19 9 12 19 18 21 28 16 19 26 14 17 24 11 14 21 7 10 17 4 7 14 2 5 12 0 3 8 1 2 6 1 2 4 1 2 4 1 2 4 1 2 4 1 2 4 1 2 4 1 2 4 0 0 2 1 2 4 3 4 6 6 7 9 10 11 13 13 14 16 15 16 18 15 19 20 16 20 19 17 23 21 19 25 23 22 28 26 26 32 30 29 35 33 31 37 35 33 39 37 47 53 51 49 55 53 54 60 58 61 67 65 67 73 71 74 80 78 79 85 83 82 86 85 91 93 90 88 88 86 81 81 79 71 71 69 61 61 59 51 51 49 44 44 42 40 40 38 39 39 37 39 39 37 39 39 37 39 39 37 39 39 37 39 39 37 39 39 37 39 39 37 39 37 38 39 37 38 39 37 38 39 37 38 39 37 38 39 37 38 39 37 38 39 37 38 38 36 37 38 36 37 38 36 37 38 36 37 38 36 37 38 36 37 38 36 37 38 36 37
127 110 128 131 114 132 133 116 134 134 117 135 139 122 140 139 122 140 140 123 141 141 124 142 141 124 142 142 125 143 142 125 143 143 126 142 147 129 145 147 129 143 147 129 143 147 129 143 147 129 143 147 129 143 147 129 143 147 129 143 152 134 148 150 132 146 148 130 144 145 127 141 141 123 137 138 120 134 136 118 132 134 116 130 125 109 120 123 107 118 118 102 113 112 96 107 105 89 100 98 82 93 93 77 88 91 75 86 68 52 63 66 50 61 64 48 59 61 45 56 57 41 52 54 38 49 52 36 47 48 34 47 60 52 65 58 52 66 56 50 64 53 47 61 51 45 59 48 42 56 46 40 54 45 39 53 46 40 54 46 40 54 46 40 54 46 40 54 46 40 54 46 40 54 46 40 54 46 40 54 36 29 45 36 29 45 36 29 45 36 29 45 36 29 45 36 29 45 36 29 45 36 29 45 25 18 34 25 18 34 25 18 34 25 18 34 25 18 34 25 18 34 25 18 34 23 19 33 15 13 26 14 14 24 14 14 24 14 14 24 14 14 24 14 14 24 14 14 24 14 14 24 14 14 24 14 14 24 14 14 24 14 14 24 14 14 24 14 14 24 14 14 24 14 14 24 9 12 19 9 12 19 9 12 19 9 12 19 9 12 19 9 12 19 9 12 19 9 12 19 18 21 28 16 19 26 14 17 24 11 14 21 7 10 17 4 7 14 2 5 12 0 3 8 1 2 6 1 2 4 1 2 4 1 2 4 1 2 4 1 2 4 1 2 4 1 2 4 0 0 2 1 2 4 3 4 6 6 7 9 10 11 13 13 14 16 15 16 18 15 19 20 16 20 19 17 23 21 19 25 23 22 28 26 26 32 30 29 35 33 31 37 35 33 39 37 47 53 51 49 55 53 54 60 58 61 67 65 67 73 71 74 80 78 79 85 83 82 86 85 91 93 90 88 88 86 81 81 79 71 71 69 61 61 59 51 51 49 44 44 42 40 40 38 39 39 37 39 39 37 39 39 37 39 39 37 39 39 37 39 39 37 39 39 37 39 39 37 39 37 38 39 37 38 39 37 38 39 37 38 39 37 38 39 37 38 39 37 38 39 37 38 38 36 37 38 36 37 38 36 37 38 36 37 38 36 37 38 36 37 38 36 37 38 36 37
129 112 130 132 115 133 135 118 136 136 119 137 145 128 146 145 128 146 144 127 145 144 127 145 143 126 144 142 125 143 142 125 143 142 125 141 147 129 145 147 129 143 147 129 143 147 129 143 147 129 143 147 129 143 147 129 143 147 129 143 152 134 148 150 132 146 148 130 144 145 127 141 141 123 137 138 120 134 136 118 132 134 116 130 123 107 118 120 104 115 115 99 110 109 93 104 102 86 97 96 80 91 91 75 86 88 72 83 65 49 60 64 48 59 62 46 57 58 42 53 55 39 50 52 36 47 49 33 44 46 32 45 61 53 66 58 52 66 55 49 63 52 46 60 48 42 56 44 38 52 41 35 49 39 33 47 41 35 49 41 35 49 41 35 49 41 35 49 41 35 49 41 35 49 41 35 49 41 35 49 31 24 40 31 24 40 31 24 40 31 24 40 31 24 40 31 24 40 31 24 40 31 24 40 20 13 29 20 13 29 20 13 29 20 13 29 20 13 29 20 13 29 20 13 29 18 14 28 10 8 21 9 9 19 9 9 19 9 9 19 9 9 19 9 9 19 9 9 19 9 9 19 12 12 22 12 12 22 12 12 22 12 12 22 12 12 22 12 12 22 12 12 22 12 12 22 9 12 19 9 12 19 9 12 19 9 12 19 9 12 19 9 12 19 9 12 19 9 12 19 18 21 28 16 19 26 14 17 24 11 14 21 7 10 17 4 7 14 2 5 12 0 3 8 1 2 6 1 2 4 1 2 4 1 2 4 1 2 4 1 2 4 1 2 4 1 2 4 0 0 2 1 2 4 3 4 6 6 7 9 10 11 13 13 14 16 15 16 18 15 19 20 16 20 19 17 23 21 19 25 23 22 28 26 26 32 30 29 35 33 31 37 35 33 39 37 47 53 51 49 55 53 54 60 58 61 67 65 67 73 71 74 80 78 79 85 83 82 86 85 91 93 90 88 88 86 81 81 79 71 71 69 61 61 59 51 51 49 44 44 42 40 40 38 39 39 37 39 39 37 39 39 37 39 39 37 39 39 37 39 39 37 39 39 37 39 39 37 39 37 38 39 37 38 39 37 38 39 37 38 39 37 38 39 37 38 39 37 38 39 37 38 38 36 37 38 36 37 38 36 37 38 36 37 38 36 37 38 36 37 38 36 37 38 36 37
129 112 130 132 115 133 134 117 135 136 119 137 148 131 149 147 130 148 147 130 148 145 128 146 144 127 145 143 126 144 142 125 143 141 124 140 147 129 145 147 129 143 147 129 143 147 129 143 147 129 143 147 129 143 147 129 143 147 129 143 152 134 148 150 132 146 148 130 144 145 127 141 141 123 137 138 120 134 136 118 132 134 116 130 122 106 117 119 103 114 114 98 109 108 92 103 101 85 96 95 79 90 90 74 85 87 71 82 64 48 59 63 47 58 60 44 55 57 41 52 54 38 49 50 34 45 48 32 43 45 31 44 61 53 66 59 53 67 55 49 63 51 45 59 46 40 54 42 36 50 38 32 46 36 30 44 39 33 47 39 33 47 39 33 47 39 33 47 39 33 47 39 33 47 39 33 47 39 33 47 29 22 38 29 22 38 29 22 38 29 22 38 29 22 38 29 22 38 29 22 38 29 22 38 18 11 27 18 11 27 18 11 27 18 11 27 18 11 27 18 11 27 18 11 27 16 12 26 8 6 19 7 7 17 7 7 17 7 7 17 7 7 17 7 7 17 7 7 17 7 7 17 10 10 20 10 10 20 10 10 20 10 10 20 10 10 20 10 10 20 10 10 20 10 10 20 9 12 19 9 12 19 9 12 19 9 12 19 9 12 19 9 12 19 9 12 19 9 12 19 18 21 28 16 19 26 14 17 24 11 14 21 7 10 17 4 7 14 2 5 12 0 3 8 1 2 6 1 2 4 1 2 4 1 2 4 1 2 4 1 2 4 1 2 4 1 2 4 0 0 2 1 2 4 3 4 6 6 7 9 10 11 13 13 14 16 15 16 18 15 19 20 16 20 19 17 23 21 19 25 23 22 28 26 26 32 30 29 35 33 31 37 35 33 39 37 47 53 51 49 55 53 54 60 58 61 67 65 67 73 71 74 80 78 79 85 83 82 86 85 91 93 90 88 88 86 81 81 79 71 71 69 61 61 59 51 51 49 44 44 42 40 40 38 39 39 37 39 39 37 39 39 37 39 39 37 39 39 37 39 39 37 39 39 37 39 39 37 39 37 38 39 37 38 39 37 38 39 37 38 39 37 38 39 37 38 39 37 38 39 37 38 38 36 37 38 36 37 38 36 37 38 36 37 38 36 37 38 36 37 38 36 37 38 36 37
130 113 131 130 113 131 130 113 131 130 113 131 135 118 136 135 118 136 135 118 136 135 118 136 135 118 136 135 118 136 135 118 136 135 118 134 140 122 138 140 122 136 140 122 136 140 122 136 140 122 136 140 122 136 140 122 136 140 122 136 150 132 146 149 131 145 147 129 143 143 125 139 140 122 136 137 119 133 134 116 130 133 115 129 119 103 114 116 100 111 109 93 104 101 85 96 92 76 87 84 68 79 77 61 72 74 58 69 34 18 29 34 18 29 34 18 29 34 18 29 34 18 29 34 18 29 34 18 29 32 18 31 23 15 28 22 16 30 22 16 30 22 16 30 22 16 30 22 16 30 22 16 30 22 16 30 10 4 18 10 4 18 10 4 18 10 4 18 10 4 18 10 4 18 10 4 18 10 4 18 9 2 18 9 2 18 9 2 18 9 2 18 9 2 18 9 2 18 9 2 18 9 2 18 10 3 19 10 3 19 10 3 19 10 3 19 10 3 19 10 3 19 10 3 19 8 4 18 9 7 20 8 8 18 8 8 18 8 8 18 8 8 18 8 8 18 8 8 18 8 8 18 9 9 19 9 9 19 9 9 19 9 9 19 9 9 19 9 9 19 9 9 19 9 9 19 4 7 14 5 8 15 7 10 17 11 14 21 14 17 24 17 20 27 20 23 30 21 24 31 31 34 41 29 32 39 24 27 34 17 20 27 11 14 21 4 7 14 0 2 9 0 0 5 0 1 5 0 1 3 0 1 3 0 1 3 0 1 3 0 1 3 0 1 3 0 1 3 0 0 2 1 2 4 3 4 6 6 7 9 10 11 13 13 14 16 15 16 18 15 19 20 21 25 24 22 28 26 24 30 28 27 33 31 31 37 35 34 40 38 36 42 40 38 44 42 44 50 48 46 52 50 48 54 52 51 57 55 55 61 59 58 64 62 60 66 64 63 67 66 63 65 62 62 62 60 60 60 58 57 57 55 53 53 51 50 50 48 48 48 46 46 46 44 34 34 32 34 34 32 34 34 32 34 34 32 34 34 32 34 34 32 34 34 32 34 34 32 33 31 32 33 31 32 33 31 32 33 31 32 33 31 32 33 31 32 33 31 32 33 31 32 37 35 36 37 35 36 37 35 36 37 35 36 37 35 36 37 35 36 37 35 36 37 35 36
130 113 131 130 113 131 130 113 131 130 113 131 135 118 136 135 118 136 135 118 136 135 118 136 135 118 136 135 118 136 135 118 136 135 118 134 140 122 138 140 122 136 140 122 136 140 122 136 140 122 136 140 122 136 140 122 136 140 122 136 149 131 145 148 130 144 145 127 141 142 124 138 139 121 135 135 117 131 133 115 129 132 114 128 118 102 113 114 98 109 108 92 103 99 83 94 89 73 84 80 64 75 73 57 68 69 53 64 32 16 27 32 16 27 32 16 27 32 16 27 32 16 27 32 16 27 32 16 27 30 16 29 21 13 26 20 14 28 20 14 28 20 14 28 20 14 28 20 14 28 20 14 28 20 14 28 10 4 18 10 4 18 10 4 18 10 4 18 10 4 18 10 4 18 10 4 18 10 4 18 9 2 18 9 2 18 9 2 18 9 2 18 9 2 18 9 2 18 9 2 18 9 2 18 10 3 19 10 3 19 10 3 19 10 3 19 10 3 19 10 3 19 10 3 19 8 4 18 9 7 20 8 8 18 8 8 18 8 8 18 8 8 18 8 8 18 8 8 18 8 8 18 9 9 19 9 9 19 9 9 19 9 9 19 9 9 19 9 9 19 9 9 19 9 9 19 5 8 15 6 9 16 9 12 19 12 15 22 15 18 25 19 22 29 21 24 31 22 25 32 31 34 41 29 32 39 24 27 34 17 20 27 11 14 21 4 7 14 0 2 9 0 0 5 0 1 5 0 1 3 0 1 3 0 1 3 0 1 3 0 1 3 0 1 3 0 1 3 0 0 2 1 2 4 3 4 6 6 7 9 10 11 13 13 14 16 15 16 18 15 19 20 21 25 24 22 28 26 24 30 28 27 33 31 31 37 35 34 40 38 36 42 40 38 44 42 44 50 48 46 52 50 48 54 52 51 57 55 55 61 59 58 64 62 60 66 64 63 67 66 63 65 62 62 62 60 60 60 58 57 57 55 53 53 51 50 50 48 48 48 46 46 46 44 34 34 32 34 34 32 34 34 32 34 34 32 34 34 32 34 34 32 34 34 32 34 34 32 33 31 32 33 31 32 33 31 32 33 31 32 33 31 32 33 31 32 33 31 32 33 31 32 37 35 36 37 35 36 37 35 36 37 35 36 37 35 36 37 35 36 37 35 36 37 35 36
130 113 131 130 113 131 130 113 131 130 113 131 135 118 136 135 118 136 135 118 136 135 118 136 135 118 136 135 118 136 135 118 136 135 118 134 140 122 138 140 122 136 140 122 136 140 122 136 140 122 136 140 122 136 140 122 136 140 122 136 147 129 143 145 127 141 143 125 139 140 122 136 136 118 132 133 115 129 131 113 127 129 111 125 117 101 112 112 96 107 105 89 100 94 78 89 83 67 78 73 57 68 65 49 60 61 45 56 30 14 25 30 14 25 30 14 25 30 14 25 30 14 25 30 14 25 30 14 25 28 14 27 19 11 24 18 12 26 18 12 26 18 12 26 18 12 26 18 12 26 18 12 26 18 12 26 10 4 18 10 4 18 10 4 18 10 4 18 10 4 18 10 4 18 10 4 18 10 4 18 9 2 18 9 2 18 9 2 18 9 2 18 9 2 18 9 2 18 9 2 18 9 2 18 10 3 19 10 3 19 10 3 19 10 3 19 10 3 19 10 3 19 10 3 19 8 4 18 9 7 20 8 8 18 8 8 18 8 8 18 8 8 18 8 8 18 8 8 18 8 8 18 9 9 19 9 9 19 9 9 19 9 9 19 9 9 19 9 9 19 9 9 19 9 9 19 7 10 17 9 12 19 11 14 21 14 17 24 18 21 28 21 24 31 23 26 33 25 28 35 31 34 41 29 32 39 24 27 34 17 20 27 11 14 21 4 7 14 0 2 9 0 0 5 0 1 5 0 1 3 0 1 3 0 1 3 0 1 3 0 1 3 0 1 3 0 1 3 0 0 2 1 2 4 3 4 6 6 7 9 10 11 13 13 14 16 15 16 18 15 19 20 21 25 24 22 28 26 24 30 28 27 33 31 31 37 35 34 40 38 36 42 40 38 44 42 44 50 48 46 52 50 48 54 52 51 57 55 55 61 59 58 64 62 60 66 64 63 67 66 63 65 62 62 62 60 60 60 58 57 57 55 53 53 51 50 50 48 48 48 46 46 46 44 34 34 32 34 34 32 34 34 32 34 34 32 34 34 32 34 34 32 34 34 32 34 34 32 33 31 32 33 31 32 33 31 32 33 31 32 33 31 32 33 31 32 33 31 32 33 31 32 37 35 36 37 35 36 37 35 36 37 35 36 37 35 36 37 35 36 37 35 36 37 35 36
130 113 131 130 113 131 130 113 131 130 113 131 135 118 136 135 118 136 135 118 136 135 118 136 135 118 136 135 118 136 135 118 136 135 118 134 140 122 138 140 122 136 140 122 136 140 122 136 140 122 136 140 122 136 140 122 136 140 122 136 143 125 139 142 124 138 140 122 136 136 118 132 133 115 129 130 112 126 127 109 123 126 108 122 115 99 110 110 94 105 101 85 96 89 73 84 76 60 71 64 48 59 55 39 50 50 34 45 27 11 22 27 11 22 27 11 22 27 11 22 27 11 22 27 11 22 27 11 22 25 11 24 16 8 21 15 9 23 15 9 23 15 9 23 15 9 23 15 9 23 15 9 23 15 9 23 10 4 18 10 4 18 10 4 18 10 4 18 10 4 18 10 4 18 10 4 18 10 4 18 9 2 18 9 2 18 9 2 18 9 2 18 9 2 18 9 2 18 9 2 18 9 2 18 10 3 19 10 3 19 10 3 19 10 3 19 10 3 19 10 3 19 10 3 19 8 4 18 9 7 20 8 8 18 8 8 18 8 8 18 8 8 18 8 8 18 8 8 18 8 8 18 9 9 19 9 9 19 9 9 19 9 9 19 9 9 19 9 9 19 9 9 19 9 9 19 11 14 21 12 15 22 14 17 24 18 21 28 21 24 31 24 27 34 27 30 37 28 31 38 31 34 41 29 32 39 24 27 34 17 20 27 11 14 21 4 7 14 0 2 9 0 0 5 0 1 5 0 1 3 0 1 3 0 1 3 0 1 3 0 1 3 0 1 3 0 1 3 0 0 2 1 2 4 3 4 6 6 7 9 10 11 13 13 14 16 15 16 18 15 19 20 21 25 24 22 28 26 24 30 28 27 33 31 31 37 35 34 40 38 36 42 40 38 44 42 44 50 48 46 52 50 48 54 52 51 57 55 55 61 59 58 64 62 60 66 64 63 67 66 63 65 62 62 62 60 60 60 58 57 57 55 53 53 51 50 50 48 48 48 46 46 46 44 34 34 32 34 34 32 34 34 32 34 34 32 34 34 32 34 34 32 34 34 32 34 34 32 33 31 32 33 31 32 33 31 32 33 31 32 33 31 32 33 31 32 33 31 32 33 31 32 37 35 36 37 35 36 37 35 36 37 35 36 37 35 36 37 35 36 37 35 36 37 35 36
130 113 131 130 113 131 130 113 131 130 113 131 135 118 136 135 118 136 135 118 136 135 118 136 135 118 136 135 118 136 135 118 136 135 118 134 140 122 138 140 122 136 140 122 136 140 122 136 140 122 136 140 122 136 140 122 136 140 122 136 140 122 136 139 121 135 136 118 132 133 115 129 130 112 126 126 108 122 124 106 120 123 105 119 113 97 108 107 91 102 97 81 92 83 67 78 68 52 63 55 39 50 44 28 39 39 23 34 23 7 18 23 7 18 23 7 18 23 7 18 23 7 18 23 7 18 23 7 18 21 7 20 12 4 17 11 5 19 11 5 19 11 5 19 11 5 19 11 5 19 11 5 19 11 5 19 10 4 18 10 4 18 10 4 18 10 4 18 10 4 18 10 4 18 10 4 18 10 4 18 9 2 18 9 2 18 9 2 18 9 2 18 9 2 18 9 2 18 9 2 18 9 2 18 10 3 19 10 3 19 10 3 19 10 3 19 10 3 19 10 3 19 10 3 19 8 4 18 9 7 20 8 8 18 8 8 18 8 8 18 8 8 18 8 8 18 8 8 18 8 8 18 9 9 19 9 9 19 9 9 19 9 9 19 9 9 19 9 9 19 9 9 19 9 9 19 14 17 24 15 18 25 18 21 28 21 24 31 24 27 34 28 31 38 30 33 40 31 34 41 31 34 41 29 32 39 24 27 34 17 20 27 11 14 21 4 7 14 0 2 9 0 0 5 0 1 5 0 1 3 0 1 3 0 1 3 0 1 3 0 1 3 0 1 3 0 1 3 0 0 2 1 2 4 3 4 6 6 7 9 10 11 13 13 14 16 15 16 18 15 19 20 21 25 24 22 28 26 24 30 28 27 33 31 31 37 35 34 40 38 36 42 40 38 44 42 44 50 48 46 52 50 48 54 52 51 57 55 55 61 59 58 64 62 60 66 64 63 67 66 63 65 62 62 62 60 60 60 58 57 57 55 53 53 51 50 50 48 48 48 46 46 46 44 34 34 32 34 34 32 34 34 32 34 34 32 34 34 32 34 34 32 34 34 32 34 34 32 33 31 32 33 31 32 33 31 32 33 31 32 33 31 32 33 31 32 33 31 32 33 31 32 37 35 36 37 35 36 37 35 36 37 35 36 37 35 36 37 35 36 37 35 36 37 35 36
130 113 131 130 113 131 130 113 131 130 113 131 135 118 136 135 118 136 135 118 136 135 118 136 135 118 136 135 118 136 135 118 136 135 118 134 140 122 138 140 122 136 140 122 136 140 122 136 140 122 136 140 122 136 140 122 136 140 122 136 137 119 133 135 117 131 133 115 129 130 112 126 126 108 122 123 105 119 121 103 117 119 101 115 111 95 106 104 88 99 93 77 88 77 61 72 61 45 56 46 30 41 34 18 29 28 12 23 20 4 15 20 4 15 20 4 15 20 4 15 20 4 15 20 4 15 20 4 15 18 4 17 9 1 14 8 2 16 8 2 16 8 2 16 8 2 16 8 2 16 8 2 16 8 2 16 10 4 18 10 4 18 10 4 18 10 4 18 10 4 18 10 4 18 10 4 18 10 4 18 9 2 18 9 2 18 9 2 18 9 2 18 9 2 18 9 2 18 9 2 18 9 2 18 10 3 19 10 3 19 10 3 19 10 3 19 10 3 19 10 3 19 10 3 19 8 4 18 9 7 20 8 8 18 8 8 18 8 8 18 8 8 18 8 8 18 8 8 18 8 8 18 9 9 19 9 9 19 9 9 19 9 9 19 9 9 19 9 9 19 9 9 19 9 9 19 17 20 27 19 22 29 21 24 31 24 27 34 28 31 38 31 34 41 33 36 43 35 38 45 31 34 41 29 32 39 24 27 34 17 20 27 11 14 21 4 7 14 0 2 9 0 0 5 0 1 5 0 1 3 0 1 3 0 1 3 0 1 3 0 1 3 0 1 3 0 1 3 0 0 2 1 2 4 3 4 6 6 7 9 10 11 13 13 14 16 15 16 18 15 19 20 21 25 24 22 28 26 24 30 28 27 33 31 31 37 35 34 40 38 36 42 40 38 44 42 44 50 48 46 52 50 48 54 52 51 57 55 55 61 59 58 64 62 60 66 64 63 67 66 63 65 62 62 62 60 60 60 58 57 57 55 53 53 51 50 50 48 48 48 46 46 46 44 34 34 32 34 34 32 34 34 32 34 34 32 34 34 32 34 34 32 34 34 32 34 34 32 33 31 32 33 31 32 33 31 32 33 31 32 33 31 32 33 31 32 33 31 32 33 31 32 37 35 36 37 35 36 37 35 36 37 35 36 37 35 36 37 35 36 37 35 36 37 35 36
130 113 131 130 113 131 130 113 131 130 113 131 135 118 136 135 118 136 135 118 136 135 118 136 135 118 136 135 118 136 135 118 136 135 118 134 140 122 138 140 122 136 140 122 136 140 122 136 140 122 136 140 122 136 140 122 136 140 122 136 134 116 130 133 115 129 131 113 127 127 109 123 124 106 120 121 103 117 118 100 114 117 99 113 109 93 104 102 86 97 90 74 85 73 57 68 55 39 50 39 23 34 26 10 21 19 3 14 18 2 13 18 2 13 18 2 13 18 2 13 18 2 13 18 2 13 18 2 13 16 2 15 7 0 12 6 0 14 6 0 14 6 0 14 6 0 14 6 0 14 6 0 14 6 0 14 10 4 18 10 4 18 10 4 18 10 4 18 10 4 18 10 4 18 10 4 18 10 4 18 9 2 18 9 2 18 9 2 18 9 2 18 9 2 18 9 2 18 9 2 18 9 2 18 10 3 19 10 3 19 10 3 19 10 3 19 10 3 19 10 3 19 10 3 19 8 4 18 9 7 20 8 8 18 8 8 18 8 8 18 8 8 18 8 8 18 8 8 18 8 8 18 9 9 19 9 9 19 9 9 19 9 9 19 9 9 19 9 9 19 9 9 19 9 9 19 20 23 30 21 24 31 23 26 33 27 30 37 30 33 40 33 36 43 36 39 46 37 40 47 31 34 41 29 32 39 24 27 34 17 20 27 11 14 21 4 7 14 0 2 9 0 0 5 0 1 5 0 1 3 0 1 3 0 1 3 0 1 3 0 1 3 0 1 3 0 1 3 0 0 2 1 2 4 3 4 6 6 7 9 10 11 13 13 14 16 15 16 18 15 19 20 21 25 24 22 28 26 24 30 28 27 33 31 31 37 35 34 40 38 36 42 40 38 44 42 44 50 48 46 52 50 48 54 52 51 57 55 55 61 59 58 64 62 60 66 64 63 67 66 63 65 62 62 62 60 60 60 58 57 57 55 53 53 51 50 50 48 48 48 46 46 46 44 34 34 32 34 34 32 34 34 32 34 34 32 34 34 32 34 34 32 34 34 32 34 34 32 33 31 32 33 31 32 33 31 32 33 31 32 33 31 32 33 31 32 33 31 32 33 31 32 37 35 36 37 35 36 37 35 36 37 35 36 37 35 36 37 35 36 37 35 36 37 35 36
130 113 132 130 113 132 130 113 132 130 113 132 135 118 137 135 118 137 135 118 137 135 118 137 135 118 137 135 118 137 135 118 137 135 118 136 140 122 138 140 122 138 140 122 138 140 122 138 140 122 138 140 122 138 140 122 138 140 122 138 133 115 131 132 114 130 129 111 127 126 108 124 123 105 121 119 101 117 117 99 115 115 99 112 106 92 105 98 86 98 85 73 85 68 56 68 49 37 49 32 20 32 19 7 19 12 0 12 13 1 13 13 1 13 13 1 13 13 1 13 13 1 13 13 1 13 13 1 13 12 2 13 4 0 10 2 0 12 4 0 12 2 0 12 4 0 12 2 0 12 4 0 12 2 0 12 10 4 18 8 4 18 10 4 18 8 4 18 10 4 18 8 4 18 10 4 18 8 4 18 7 3 18 7 3 18 7 3 18 7 3 18 7 3 18 7 3 18 7 3 18 7 3 18 8 4 19 8 4 19 8 4 19 8 4 19 8 4 19 8 4 19 8 4 19 7 5 18 8 8 18 6 9 18 6 9 18 6 9 18 6 9 18 6 9 18 6 9 18 6 9 18 7 10 19 7 10 19 7 10 19 7 10 19 7 10 19 7 10 19 7 10 19 7 10 17 21 24 31 22 25 32 25 28 35 28 31 38 31 34 41 35 38 45 37 40 47 38 41 48 31 34 41 29 32 39 24 27 34 17 20 27 11 14 21 4 7 14 0 2 9 0 0 5 0 1 5 0 1 3 0 1 3 0 1 3 0 1 3 0 1 3 0 1 3 0 1 3 0 0 2 1 2 4 3 4 6 6 7 9 10 11 13 13 14 16 15 16 18 15 19 20 21 25 26 22 28 26 24 30 28 27 33 31 31 37 35 34 40 38 36 42 40 38 44 42 44 50 48 46 52 50 48 54 52 51 57 55 55 61 59 58 64 62 60 66 64 63 67 66 64 64 64 62 62 60 60 60 58 57 57 55 53 53 51 50 50 48 48 48 46 46 46 44 34 34 32 34 34 32 34 34 32 34 34 32 34 34 32 34 34 32 34 34 32 35 34 32 33 32 30 33 32 30 35 31 32 33 32 30 35 31 32 33 32 30 35 31 32 33 32 30 39 35 36 37 36 34 39 35 36 37 36 34 39 35 36 37 36 34 39 35 36 37 35 36
113 98 119 113 98 119 113 98 119 113 98 119 123 108 129 123 108 129 123 108 129 123 108 129 123 108 129 123 108 129 123 108 129 123 108 129 121 104 123 121 104 122 121 104 122 121 104 122 121 104 122 121 104 122 121 104 122 121 104 122 105 88 106 110 93 111 117 100 118 120 103 121 118 101 119 111 94 112 101 84 102 93 79 96 59 51 66 54 48 60 45 39 51 34 28 40 23 17 29 12 6 18 4 0 10 3 0 9 8 2 14 8 2 14 8 2 14 8 2 14 8 2 14 8 2 14 8 2 14 6 3 14 6 3 14 5 3 14 6 3 14 5 3 14 6 3 14 5 3 14 6 3 14 5 3 14 4 1 12 3 1 12 4 1 12 3 1 12 4 1 12 3 1 12 4 1 12 3 1 12 4 4 16 4 4 16 4 4 16 4 4 16 4 4 16 4 4 16 4 4 16 4 4 16 6 6 18 6 6 18 6 6 18 6 6 18 6 6 18 6 6 18 6 6 18 4 6 18 6 10 19 6 11 17 6 11 17 6 11 17 6 11 17 6 11 17 6 11 17 6 11 17 0 4 10 2 7 13 7 12 18 13 18 24 20 25 31 26 31 37 31 36 42 34 39 45 38 43 49 38 43 47 38 43 47 38 43 47 38 43 47 38 43 47 38 43 47 38 43 47 36 41 45 34 39 43 29 34 38 22 27 31 16 21 25 9 14 18 4 9 13 2 7 11 0 3 6 0 3 6 0 3 6 0 3 6 0 3 6 0 3 6 0 3 6 0 3 6 1 5 8 3 7 10 5 9 12 8 12 15 12 16 19 15 19 22 17 21 24 19 23 24 21 25 26 23 27 28 25 29 30 28 32 33 32 36 37 35 39 40 37 41 42 39 43 44 42 46 47 42 46 47 42 46 47 42 46 47 42 46 47 42 46 47 42 46 47 42 46 45 51 51 51 50 48 49 48 46 47 45 43 44 41 39 40 38 36 37 36 34 35 34 32 33 33 31 32 33 31 32 33 31 32 33 31 32 33 31 32 33 31 32 33 31 32 33 32 30 35 31 30 35 31 28 36 30 30 35 31 28 36 30 30 35 31 28 36 30 30 35 31 28 39 33 33 38 34 31 39 33 33 38 34 31 39 33 33 38 34 31 39 33 33 38 34 33
115 100 123 115 100 123 115 100 123 115 100 123 123 108 131 123 108 131 123 108 131 123 108 131 123 108 131 123 108 131 123 108 131 123 108 129 121 103 125 121 104 123 121 104 123 121 104 123 121 104 123 121 104 123 121 104 123 121 104 123 106 89 108 110 93 112 116 99 118 119 102 121 117 100 119 108 91 110 98 81 100 89 76 94 55 49 63 48 46 59 40 38 51 30 28 41 19 17 30 9 7 20 1 0 12 0 0 11 5 3 16 5 3 16 5 3 16 5 3 16 5 3 16 5 3 16 5 3 16 5 3 16 5 3 14 5 3 14 5 3 14 5 3 14 5 3 14 5 3 14 5 3 14 5 3 14 3 1 12 3 1 12 3 1 12 3 1 12 3 1 12 3 1 12 3 1 12 2 2 12 4 4 16 2 4 16 2 4 16 2 4 16 2 4 16 2 4 16 2 4 16 2 4 16 4 6 18 4 6 18 4 6 18 4 6 18 4 6 18 4 6 18 4 6 18 3 7 16 6 10 19 4 11 17 4 11 17 4 11 17 4 11 17 4 11 17 4 11 17 4 11 17 0 5 11 1 8 14 6 13 19 12 19 25 19 26 32 25 32 38 30 37 43 33 40 46 38 43 47 38 43 47 38 43 47 38 43 47 38 43 47 38 43 47 38 43 47 38 43 47 36 41 45 34 39 43 29 34 38 22 27 31 16 21 25 9 14 18 4 9 13 2 7 11 0 3 6 0 3 6 0 3 6 0 3 6 0 3 6 0 3 6 0 3 6 0 3 6 1 5 8 3 7 10 5 9 12 8 12 15 12 16 19 15 19 22 17 21 24 19 23 26 21 25 26 23 27 28 25 29 30 28 32 33 32 36 37 35 39 40 37 41 42 39 43 44 42 46 47 42 46 47 42 46 47 42 46 47 42 46 47 42 46 47 42 46 47 44 45 47 51 51 51 50 48 49 48 46 47 45 43 44 41 39 40 38 36 37 36 34 35 34 32 33 33 31 32 33 31 32 33 31 32 33 31 32 33 31 32 33 31 32 33 31 32 33 32 30 36 30 30 36 31 28 36 31 28 36 31 28 36 31 28 36 31 28 36 31 28 36 31 28 39 34 31 39 34 31 39 34 31 39 34 31 39 34 31 39 34 31 39 34 31 39 34 31
117 102 125 117 102 125 117 102 125 117 102 125 123 108 131 123 108 131 123 108 131 123 108 131 123 108 131 123 108 131 123 108 131 123 108 129 121 103 125 121 104 123 121 104 123 121 104 123 121 104 123 121 104 123 121 104 123 121 104 123 107 90 109 111 94 113 116 99 118 118 101 120 113 96 115 104 87 106 93 76 95 83 70 88 49 43 57 42 40 53 36 34 47 27 25 38 17 15 28 8 6 19 1 0 12 0 0 11 5 3 16 5 3 16 5 3 16 5 3 16 5 3 16 5 3 16 5 3 16 5 3 16 5 3 14 5 3 14 5 3 14 5 3 14 5 3 14 5 3 14 5 3 14 5 3 14 3 1 12 3 1 12 3 1 12 3 1 12 3 1 12 3 1 12 3 1 12 2 2 12 4 4 16 2 4 16 2 4 16 2 4 16 2 4 16 2 4 16 2 4 16 2 4 16 4 6 18 4 6 18 4 6 18 4 6 18 4 6 18 4 6 18 4 6 18 3 7 16 6 10 19 4 11 17 4 11 17 4 11 17 4 11 17 4 11 17 4 11 17 4 11 17 1 8 14 3 10 16 8 15 21 15 22 28 22 29 35 28 35 41 33 40 46 35 42 48 38 43 47 38 43 47 38 43 47 38 43 47 38 43 47 38 43 47 38 43 47 38 43 47 36 41 45 34 39 43 29 34 38 22 27 31 16 21 25 9 14 18 4 9 13 2 7 11 0 3 6 0 3 6 0 3 6 0 3 6 0 3 6 0 3 6 0 3 6 0 3 6 1 5 8 3 7 10 5 9 12 8 12 15 12 16 19 15 19 22 17 21 24 19 23 26 21 25 26 23 27 28 25 29 30 28 32 33 32 36 37 35 39 40 37 41 42 39 43 44 42 46 47 42 46 47 42 46 47 42 46 47 42 46 47 42 46 47 42 46 47 44 45 47 51 51 51 50 48 49 48 46 47 45 43 44 41 39 40 38 36 37 36 34 35 34 32 33 33 31 32 33 31 32 33 31 32 33 31 32 33 31 32 33 31 32 33 31 32 33 32 30 36 30 30 36 31 28 36 31 28 36 31 28 36 31 28 36 31 28 36 31 28 36 31 28 39 34 31 39 34 31 39 34 31 39 34 31 39 34 31 39 34 31 39 34 31 39 34 31
120 105 128 120 105 128 120 105 128 120 105 128 123 108 131 123 108 131 123 108 131 123 108 131 123 108 131 123 108 131 123 108 131 123 108 129 121 103 125 121 104 123 121 104 123 121 104 123 121 104 123 121 104 123 121 104 123 121 104 123 108 91 110 111 94 113 115 98 117 115 98 117 109 92 111 98 81 100 86 69 88 75 62 80 41 35 49 35 33 46 30 28 41 23 21 34 15 13 26 8 6 19 2 0 13 0 0 11 5 3 16 5 3 16 5 3 16 5 3 16 5 3 16 5 3 16 5 3 16 5 3 16 5 3 14 5 3 14 5 3 14 5 3 14 5 3 14 5 3 14 5 3 14 5 3 14 3 1 12 3 1 12 3 1 12 3 1 12 3 1 12 3 1 12 3 1 12 2 2 12 4 4 16 2 4 16 2 4 16 2 4 16 2 4 16 2 4 16 2 4 16 2 4 16 4 6 18 4 6 18 4 6 18 4 6 18 4 6 18 4 6 18 4 6 18 3 7 16 6 10 19 4 11 17 4 11 17 4 11 17 4 11 17 4 11 17 4 11 17 4 11 17 4 11 17 7 14 20 11 18 24 18 25 31 25 32 38 31 38 44 36 43 49 39 46 52 38 43 47 38 43 47 38 43 47 38 43 47 38 43 47 38 43 47 38 43 47 38 43 47 36 41 45 34 39 43 29 34 38 22 27 31 16 21 25 9 14 18 4 9 13 2 7 11 0 3 6 0 3 6 0 3 6 0 3 6 0 3 6 0 3 6 0 3 6 0 3 6 1 5 8 3 7 10 5 9 12 8 12 15 12 16 19 15 19 22 17 21 24 19 23 26 21 25 26 23 27 28 25 29 30 28 32 33 32 36 37 35 39 40 37 41 42 39 43 44 42 46 47 42 46 47 42 46 47 42 46 47 42 46 47 42 46 47 42 46 47 44 45 47 51 51 51 50 48 49 48 46 47 45 43 44 41 39 40 38 36 37 36 34 35 34 32 33 33 31 32 33 31 32 33 31 32 33 31 32 33 31 32 33 31 32 33 31 32 33 32 30 36 30 30 36 31 28 36 31 28 36 31 28 36 31 28 36 31 28 36 31 28 36 31 28 39 34 31 39 34 31 39 34 31 39 34 31 39 34 31 39 34 31 39 34 31 39 34 31
124 109 132 124 109 132 124 109 132 124 109 132 123 108 131 123 108 131 123 108 131 123 108 131 123 108 131 123 108 131 123 108 131 123 108 129 121 103 125 121 104 123 121 104 123 121 104 123 121 104 123 121 104 123 121 104 123 121 104 123 109 92 111 112 95 114 114 97 116 113 96 115 105 88 107 92 75 94 79 62 81 67 54 72 33 27 41 28 26 39 24 22 35 18 16 29 12 10 23 7 5 18 3 1 14 0 0 11 5 3 16 5 3 16 5 3 16 5 3 16 5 3 16 5 3 16 5 3 16 5 3 16 5 3 14 5 3 14 5 3 14 5 3 14 5 3 14 5 3 14 5 3 14 5 3 14 3 1 12 3 1 12 3 1 12 3 1 12 3 1 12 3 1 12 3 1 12 2 2 12 4 4 16 2 4 16 2 4 16 2 4 16 2 4 16 2 4 16 2 4 16 2 4 16 4 6 18 4 6 18 4 6 18 4 6 18 4 6 18 4 6 18 4 6 18 3 7 16 6 10 19 4 11 17 4 11 17 4 11 17 4 11 17 4 11 17 4 11 17 4 11 17 7 14 20 10 17 23 15 22 28 21 28 34 28 35 41 35 42 48 39 46 52 42 49 55 38 43 47 38 43 47 38 43 47 38 43 47 38 43 47 38 43 47 38 43 47 38 43 47 36 41 45 34 39 43 29 34 38 22 27 31 16 21 25 9 14 18 4 9 13 2 7 11 0 3 6 0 3 6 0 3 6 0 3 6 0 3 6 0 3 6 0 3 6 0 3 6 1 5 8 3 7 10 5 9 12 8 12 15 12 16 19 15 19 22 17 21 24 19 23 26 21 25 26 23 27 28 25 29 30 28 32 33 32 36 37 35 39 40 37 41 42 39 43 44 42 46 47 42 46 47 42 46 47 42 46 47 42 46 47 42 46 47 42 46 47 44 45 47 51 51 51 50 48 49 48 46 47 45 43 44 41 39 40 38 36 37 36 34 35 34 32 33 33 31 32 33 31 32 33 31 32 33 31 32 33 31 32 33 31 32 33 31 32 33 32 30 36 30 30 36 31 28 36 31 28 36 31 28 36 31 28 36 31 28 36 31 28 36 31 28 39 34 31 39 34 31 39 34 31 39 34 31 39 34 31 39 34 31 39 34 31 39 34 31
127 112 135 127 112 135 127 112 135 127 112 135 123 108 131 123 108 131 123 108 131 123 108 131 123 108 131 123 108 131 123 108 131 123 108 129 121 103 125 121 104 123 121 104 123 121 104 123 121 104 123 121 104 123 121 104 123 121 104 123 111 94 113 113 96 115 114 97 116 111 94 113 101 84 103 86 69 88 72 55 74 59 46 64 26 20 34 21 19 32 18 16 29 14 12 25 10 8 21 6 4 17 3 1 14 2 0 13 5 3 16 5 3 16 5 3 16 5 3 16 5 3 16 5 3 16 5 3 16 5 3 16 5 3 14 5 3 14 5 3 14 5 3 14 5 3 14 5 3 14 5 3 14 5 3 14 3 1 12 3 1 12 3 1 12 3 1 12 3 1 12 3 1 12 3 1 12 2 2 12 4 4 16 2 4 16 2 4 16 2 4 16 2 4 16 2 4 16 2 4 16 2 4 16 4 6 18 4 6 18 4 6 18 4 6 18 4 6 18 4 6 18 4 6 18 3 7 16 6 10 19 4 11 17 4 11 17 4 11 17 4 11 17 4 11 17 4 11 17 4 11 17 11 18 24 13 20 26 18 25 31 24 31 37 31 38 44 38 45 51 43 50 56 45 52 58 38 43 47 38 43 47 38 43 47 38 43 47 38 43 47 38 43 47 38 43 47 38 43 47 36 41 45 34 39 43 29 34 38 22 27 31 16 21 25 9 14 18 4 9 13 2 7 11 0 3 6 0 3 6 0 3 6 0 3 6 0 3 6 0 3 6 0 3 6 0 3 6 1 5 8 3 7 10 5 9 12 8 12 15 12 16 19 15 19 22 17 21 24 19 23 26 21 25 26 23 27 28 25 29 30 28 32 33 32 36 37 35 39 40 37 41 42 39 43 44 42 46 47 42 46 47 42 46 47 42 46 47 42 46 47 42 46 47 42 46 47 44 45 47 51 51 51 50 48 49 48 46 47 45 43 44 41 39 40 38 36 37 36 34 35 34 32 33 33 31 32 33 31 32 33 31 32 33 31 32 33 31 32 33 31 32 33 31 32 33 32 30 36 30 30 36 31 28 36 31 28 36 31 28 36 31 28 36 31 28 36 31 28 36 31 28 39 34 31 39 34 31 39 34 31 39 34 31 39 34 31 39 34 31 39 34 31 39 34 31
129 114 137 129 114 137 129 114 137 129 114 137 123 108 131 123 108 131 123 108 131 123 108 131 123 108 131 123 108 131 123 108 131 123 108 129 121 103 125 121 104 123 121 104 123 121 104 123 121 104 123 121 104 123 121 104 123 121 104 123 112 95 114 113 96 115 113 96 115 109 92 111 98 81 100 82 65 84 66 49 68 53 40 58 20 14 28 16 14 27 14 12 25 11 9 22 8 6 19 6 4 17 4 2 15 3 1 14 5 3 16 5 3 16 5 3 16 5 3 16 5 3 16 5 3 16 5 3 16 5 3 16 5 3 14 5 3 14 5 3 14 5 3 14 5 3 14 5 3 14 5 3 14 5 3 14 3 1 12 3 1 12 3 1 12 3 1 12 3 1 12 3 1 12 3 1 12 2 2 12 4 4 16 2 4 16 2 4 16 2 4 16 2 4 16 2 4 16 2 4 16 2 4 16 4 6 18 4 6 18 4 6 18 4 6 18 4 6 18 4 6 18 4 6 18 3 7 16 6 10 19 4 11 17 4 11 17 4 11 17 4 11 17 4 11 17 4 11 17 4 11 17 13 20 26 16 23 29 21 28 34 27 34 40 34 41 47 40 47 53 45 52 58 48 55 61 38 43 47 38 43 47 38 43 47 38 43 47 38 43 47 38 43 47 38 43 47 38 43 47 36 41 45 34 39 43 29 34 38 22 27 31 16 21 25 9 14 18 4 9 13 2 7 11 0 3 6 0 3 6 0 3 6 0 3 6 0 3 6 0 3 6 0 3 6 0 3 6 1 5 8 3 7 10 5 9 12 8 12 15 12 16 19 15 19 22 17 21 24 19 23 26 21 25 26 23 27 28 25 29 30 28 32 33 32 36 37 35 39 40 37 41 42 39 43 44 42 46 47 42 46 47 42 46 47 42 46 47 42 46 47 42 46 47 42 46 47 44 45 47 51 51 51 50 48 49 48 46 47 45 43 44 41 39 40 38 36 37 36 34 35 34 32 33 33 31 32 33 31 32 33 31 32 33 31 32 33 31 32 33 31 32 33 31 32 33 32 30 36 30 30 36 31 28 36 31 28 36 31 28 36 31 28 36 31 28 36 31 28 36 31 28 39 34 31 39 34 31 39 34 31 39 34 31 39 34 31 39 34 31 39 34 31 39 34 31
131 116 139 131 116 139 131 116 139 131 116 139 123 108 131 123 108 131 123 108 131 123 108 131 123 108 131 123 108 131 123 108 131 123 108 129 121 103 125 121 104 123 121 104 123 121 104 123 121 104 123 121 104 123 121 104 123 121 104 123 112 95 114 113 96 115 113 96 115 108 91 110 96 79 98 80 63 82 63 46 65 50 37 55 17 11 25 13 11 24 11 9 22 9 7 20 7 5 18 5 3 16 4 2 15 3 1 14 5 3 16 5 3 16 5 3 16 5 3 16 5 3 16 5 3 16 5 3 16 5 3 16 5 3 14 5 3 14 5 3 14 5 3 14 5 3 14 5 3 14 5 3 14 5 3 14 3 1 12 3 1 12 3 1 12 3 1 12 3 1 12 3 1 12 3 1 12 2 2 12 4 4 16 2 4 16 2 4 16 2 4 16 2 4 16 2 4 16 2 4 16 2 4 16 4 6 18 4 6 18 4 6 18 4 6 18 4 6 18 4 6 18 4 6 18 3 7 16 6 10 19 4 11 17 4 11 17 4 11 17 4 11 17 4 11 17 4 11 17 4 11 17 14 21 27 17 24 30 22 29 35 28 35 41 35 42 48 41 48 54 46 53 59 49 56 62 38 43 47 38 43 47 38 43 47 38 43 47 38 43 47 38 43 47 38 43 47 38 43 47 36 41 45 34 39 43 29 34 38 22 27 31 16 21 25 9 14 18 4 9 13 2 7 11 0 3 6 0 3 6 0 3 6 0 3 6 0 3 6 0 3 6 0 3 6 0 3 6 1 5 8 3 7 10 5 9 12 8 12 15 12 16 19 15 19 22 17 21 24 19 23 26 21 25 26 23 27 28 25 29 30 28 32 33 32 36 37 35 39 40 37 41 42 39 43 44 42 46 47 42 46 47 42 46 47 42 46 47 42 46 47 42 46 47 42 46 47 44 45 47 51 51 51 50 48 49 48 46 47 45 43 44 41 39 40 38 36 37 36 34 35 34 32 33 33 31 32 33 31 32 33 31 32 33 31 32 33 31 32 33 31 32 33 31 32 33 32 30 36 30 30 36 31 28 36 31 28 36 31 28 36 31 28 36 31 28 36 31 28 36 31 28 39 34 31 39 34 31 39 34 31 39 34 31 39 34 31 39 34 31 39 34 31 39 34 31
128 113 136 128 113 136 128 113 136 128 113 136 127 112 135 127 112 135 127 112 135 127 112 135 127 112 135 127 112 135 127 112 135 127 112 133 118 100 122 118 101 120 118 101 120 118 101 120 118 101 120 118 101 120 118 101 120 118 101 120 129 112 131 120 103 122 105 88 107 84 67 86 62 45 64 42 25 44 26 9 28 15 2 20 9 3 17 6 4 17 6 4 17 6 4 17 6 4 17 6 4 17 6 4 17 6 4 17 6 4 17 6 4 17 6 4 17 6 4 17 6 4 17 6 4 17 6 4 17 6 4 17 4 2 13 4 2 13 4 2 13 4 2 13 4 2 13 4 2 13 4 2 13 4 2 13 5 3 14 5 3 14 5 3 14 5 3 14 5 3 14 5 3 14 5 3 14 4 4 14 6 6 18 4 6 18 4 6 18 4 6 18 4 6 18 4 6 18 4 6 18 4 6 18 7 9 21 7 9 21 7 9 21 7 9 21 7 9 21 7 9 21 7 9 21 6 10 19 11 15 24 10 17 23 12 19 25 16 23 29 19 26 32 22 29 35 25 32 38 26 33 39 43 50 56 43 50 56 43 50 56 43 50 56 43 50 56 43 50 56 43 50 56 43 50 56 33 38 42 33 38 42 33 38 42 33 38 42 33 38 42 33 38 42 33 38 42 33 38 42 29 34 38 26 31 35 21 26 30 15 20 24 8 13 17 2 7 11 0 2 6 0 1 5 6 10 13 6 10 13 6 10 13 6 10 13 6 10 13 6 10 13 6 10 13 6 10 13 6 10 13 8 12 15 10 14 17 13 17 20 17 21 24 20 24 27 22 26 29 24 28 31 28 32 33 28 32 33 28 32 33 28 32 33 28 32 33 28 32 33 28 32 33 28 32 33 30 34 35 30 34 35 30 34 35 30 34 35 30 34 35 30 34 35 30 34 35 32 33 35 31 31 31 32 30 31 32 30 31 32 30 31 32 30 31 32 30 31 32 30 31 32 30 31 32 30 31 32 30 31 32 30 31 32 30 31 32 30 31 32 30 31 32 30 31 32 31 29 35 29 29 35 30 27 35 30 27 35 30 27 35 30 27 35 30 27 35 30 27 35 30 27 36 31 28 36 31 28 36 31 28 36 31 28 36 31 28 36 31 28 36 31 28 36 31 28
122 107 130 122 107 130 122 107 130 122 107 130 125 110 133 125 110 133 125 110 133 125 110 133 125 110 133 125 110 133 125 110 133 125 110 131 122 104 126 122 105 124 122 105 124 122 105 124 122 105 124 122 105 124 122 105 124 122 105 124 124 107 126 116 99 118 101 84 103 81 64 83 60 43 62 40 23 42 25 8 27 14 1 19 9 3 17 6 4 17 6 4 17 6 4 17 6 4 17 6 4 17 6 4 17 6 4 17 6 4 17 6 4 17 6 4 17 6 4 17 6 4 17 6 4 17 6 4 17 6 4 17 4 2 13 4 2 13 4 2 13 4 2 13 4 2 13 4 2 13 4 2 13 4 2 13 5 3 14 5 3 14 5 3 14 5 3 14 5 3 14 5 3 14 5 3 14 4 4 14 6 6 18 4 6 18 4 6 18 4 6 18 4 6 18 4 6 18 4 6 18 4 6 18 7 9 21 7 9 21 7 9 21 7 9 21 7 9 21 7 9 21 7 9 21 6 10 19 12 16 25 11 18 24 14 21 27 17 24 30 20 27 33 24 31 37 26 33 39 27 34 40 43 50 56 43 50 56 43 50 56 43 50 56 43 50 56 43 50 56 43 50 56 43 50 56 35 40 44 35 40 44 35 40 44 35 40 44 35 40 44 35 40 44 35 40 44 35 40 44 30 35 39 27 32 36 22 27 31 16 21 25 9 14 18 3 8 12 0 3 7 0 1 5 6 10 13 6 10 13 6 10 13 6 10 13 6 10 13 6 10 13 6 10 13 6 10 13 6 10 13 8 12 15 10 14 17 13 17 20 17 21 24 20 24 27 22 26 29 24 28 31 28 32 33 28 32 33 28 32 33 28 32 33 28 32 33 28 32 33 28 32 33 28 32 33 30 34 35 30 34 35 30 34 35 30 34 35 30 34 35 30 34 35 30 34 35 32 33 35 31 31 31 32 30 31 32 30 31 32 30 31 32 30 31 32 30 31 32 30 31 32 30 31 32 30 31 32 30 31 32 30 31 32 30 31 32 30 31 32 30 31 32 30 31 32 31 29 35 29 29 35 30 27 35 30 27 35 30 27 35 30 27 35 30 27 35 30 27 35 30 27 36 31 28 36 31 28 36 31 28 36 31 28 36 31 28 36 31 28 36 31 28 36 31 28
114 99 122 114 99 122 114 99 122 114 99 122 123 108 131 123 108 131 123 108 131 123 108 131 123 108 131 123 108 131 123 108 131 123 108 129 128 110 132 128 111 130 128 111 130 128 111 130 128 111 130 128 111 130 128 111 130 128 111 130 116 99 118 108 91 110 94 77 96 76 59 78 56 39 58 37 20 39 23 6 25 13 0 18 9 3 17 6 4 17 6 4 17 6 4 17 6 4 17 6 4 17 6 4 17 6 4 17 6 4 17 6 4 17 6 4 17 6 4 17 6 4 17 6 4 17 6 4 17 6 4 17 4 2 13 4 2 13 4 2 13 4 2 13 4 2 13 4 2 13 4 2 13 4 2 13 5 3 14 5 3 14 5 3 14 5 3 14 5 3 14 5 3 14 5 3 14 4 4 14 6 6 18 4 6 18 4 6 18 4 6 18 4 6 18 4 6 18 4 6 18 4 6 18 7 9 21 7 9 21 7 9 21 7 9 21 7 9 21 7 9 21 7 9 21 6 10 19 14 18 27 14 21 27 16 23 29 19 26 32 23 30 36 26 33 39 28 35 41 30 37 43 43 50 56 43 50 56 43 50 56 43 50 56 43 50 56 43 50 56 43 50 56 43 50 56 37 42 46 37 42 46 37 42 46 37 42 46 37 42 46 37 42 46 37 42 46 37 42 46 32 37 41 30 35 39 25 30 34 19 24 28 12 17 21 5 10 14 0 5 9 0 3 7 6 10 13 6 10 13 6 10 13 6 10 13 6 10 13 6 10 13 6 10 13 6 10 13 6 10 13 8 12 15 10 14 17 13 17 20 17 21 24 20 24 27 22 26 29 24 28 31 28 32 33 28 32 33 28 32 33 28 32 33 28 32 33 28 32 33 28 32 33 28 32 33 30 34 35 30 34 35 30 34 35 30 34 35 30 34 35 30 34 35 30 34 35 32 33 35 31 31 31 32 30 31 32 30 31 32 30 31 32 30 31 32 30 31 32 30 31 32 30 31 32 30 31 32 30 31 32 30 31 32 30 31 32 30 31 32 30 31 32 30 31 32 31 29 35 29 29 35 30 27 35 30 27 35 30 27 35 30 27 35 30 27 35 30 27 35 30 27 36 31 28 36 31 28 36 31 28 36 31 28 36 31 28 36 31 28 36 31 28 36 31 28
108 93 116 108 93 116 108 93 116 108 93 116 120 105 128 120 105 128 120 105 128 120 105 128 120 105 128 120 105 128 120 105 128 120 105 126 130 112 134 130 113 132 130 113 132 130 113 132 130 113 132 130 113 132 130 113 132 130 113 132 105 88 107 98 81 100 85 68 87 69 52 71 50 33 52 34 17 36 21 4 23 11 0 16 9 3 17 6 4 17 6 4 17 6 4 17 6 4 17 6 4 17 6 4 17 6 4 17 6 4 17 6 4 17 6 4 17 6 4 17 6 4 17 6 4 17 6 4 17 6 4 17 4 2 13 4 2 13 4 2 13 4 2 13 4 2 13 4 2 13 4 2 13 4 2 13 5 3 14 5 3 14 5 3 14 5 3 14 5 3 14 5 3 14 5 3 14 4 4 14 6 6 18 4 6 18 4 6 18 4 6 18 4 6 18 4 6 18 4 6 18 4 6 18 7 9 21 7 9 21 7 9 21 7 9 21 7 9 21 7 9 21 7 9 21 6 10 19 18 22 31 17 24 30 19 26 32 23 30 36 26 33 39 29 36 42 32 39 45 33 40 46 43 50 56 43 50 56 43 50 56 43 50 56 43 50 56 43 50 56 43 50 56 43 50 56 40 45 49 40 45 49 40 45 49 40 45 49 40 45 49 40 45 49 40 45 49 40 45 49 36 41 45 33 38 42 28 33 37 22 27 31 15 20 24 8 13 17 4 9 13 1 6 10 6 10 13 6 10 13 6 10 13 6 10 13 6 10 13 6 10 13 6 10 13 6 10 13 6 10 13 8 12 15 10 14 17 13 17 20 17 21 24 20 24 27 22 26 29 24 28 31 28 32 33 28 32 33 28 32 33 28 32 33 28 32 33 28 32 33 28 32 33 28 32 33 30 34 35 30 34 35 30 34 35 30 34 35 30 34 35 30 34 35 30 34 35 32 33 35 31 31 31 32 30 31 32 30 31 32 30 31 32 30 31 32 30 31 32 30 31 32 30 31 32 30 31 32 30 31 32 30 31 32 30 31 32 30 31 32 30 31 32 30 31 32 31 29 35 29 29 35 30 27 35 30 27 35 30 27 35 30 27 35 30 27 35 30 27 35 30 27 36 31 28 36 31 28 36 31 28 36 31 28 36 31 28 36 31 28 36 31 28 36 31 28
108 93 116 108 93 116 108 93 116 108 93 116 116 101 124 116 101 124 116 101 124 116 101 124 116 101 124 116 101 124 116 101 124 116 101 122 127 109 131 127 110 129 127 110 129 127 110 129 127 110 129 127 110 129 127 110 129 127 110 129 94 77 96 87 70 89 76 59 78 61 44 63 44 27 46 29 12 31 18 1 20 9 0 14 9 3 17 6 4 17 6 4 17 6 4 17 6 4 17 6 4 17 6 4 17 6 4 17 6 4 17 6 4 17 6 4 17 6 4 17 6 4 17 6 4 17 6 4 17 6 4 17 4 2 13 4 2 13 4 2 13 4 2 13 4 2 13 4 2 13 4 2 13 4 2 13 5 3 14 5 3 14 5 3 14 5 3 14 5 3 14 5 3 14 5 3 14 4 4 14 6 6 18 4 6 18 4 6 18 4 6 18 4 6 18 4 6 18 4 6 18 4 6 18 7 9 21 7 9 21 7 9 21 7 9 21 7 9 21 7 9 21 7 9 21 6 10 19 21 25 34 20 27 33 23 30 36 26 33 39 29 36 42 33 40 46 35 42 48 36 43 49 43 50 56 43 50 56 43 50 56 43 50 56 43 50 56 43 50 56 43 50 56 43 50 56 44 49 53 44 49 53 44 49 53 44 49 53 44 49 53 44 49 53 44 49 53 44 49 53 39 44 48 36 41 45 32 37 41 25 30 34 18 23 27 12 17 21 7 12 16 4 9 13 6 10 13 6 10 13 6 10 13 6 10 13 6 10 13 6 10 13 6 10 13 6 10 13 6 10 13 8 12 15 10 14 17 13 17 20 17 21 24 20 24 27 22 26 29 24 28 31 28 32 33 28 32 33 28 32 33 28 32 33 28 32 33 28 32 33 28 32 33 28 32 33 30 34 35 30 34 35 30 34 35 30 34 35 30 34 35 30 34 35 30 34 35 32 33 35 31 31 31 32 30 31 32 30 31 32 30 31 32 30 31 32 30 31 32 30 31 32 30 31 32 30 31 32 30 31 32 30 31 32 30 31 32 30 31 32 30 31 32 30 31 32 31 29 35 29 29 35 30 27 35 30 27 35 30 27 35 30 27 35 30 27 35 30 27 35 30 27 36 31 28 36 31 28 36 31 28 36 31 28 36 31 28 36 31 28 36 31 28 36 31 28
114 99 122 114 99 122 114 99 122 114 99 122 113 98 121 113 98 121 113 98 121 113 98 121 113 98 121 113 98 121 113 98 121 113 98 119 118 100 122 118 101 120 118 101 120 118 101 120 118 101 120 118 101 120 118 101 120 118 101 120 83 66 85 77 60 79 67 50 69 53 36 55 39 22 41 25 8 27 15 0 17 7 0 12 9 3 17 6 4 17 6 4 17 6 4 17 6 4 17 6 4 17 6 4 17 6 4 17 6 4 17 6 4 17 6 4 17 6 4 17 6 4 17 6 4 17 6 4 17 6 4 17 4 2 13 4 2 13 4 2 13 4 2 13 4 2 13 4 2 13 4 2 13 4 2 13 5 3 14 5 3 14 5 3 14 5 3 14 5 3 14 5 3 14 5 3 14 4 4 14 6 6 18 4 6 18 4 6 18 4 6 18 4 6 18 4 6 18 4 6 18 4 6 18 7 9 21 7 9 21 7 9 21 7 9 21 7 9 21 7 9 21 7 9 21 6 10 19 24 28 37 24 31 37 26 33 39 29 36 42 33 40 46 36 43 49 38 45 51 40 47 53 43 50 56 43 50 56 43 50 56 43 50 56 43 50 56 43 50 56 43 50 56 43 50 56 47 52 56 47 52 56 47 52 56 47 52 56 47 52 56 47 52 56 47 52 56 47 52 56 42 47 51 40 45 49 35 40 44 28 33 37 21 26 30 15 20 24 10 15 19 8 13 17 6 10 13 6 10 13 6 10 13 6 10 13 6 10 13 6 10 13 6 10 13 6 10 13 6 10 13 8 12 15 10 14 17 13 17 20 17 21 24 20 24 27 22 26 29 24 28 31 28 32 33 28 32 33 28 32 33 28 32 33 28 32 33 28 32 33 28 32 33 28 32 33 30 34 35 30 34 35 30 34 35 30 34 35 30 34 35 30 34 35 30 34 35 32 33 35 31 31 31 32 30 31 32 30 31 32 30 31 32 30 31 32 30 31 32 30 31 32 30 31 32 30 31 32 30 31 32 30 31 32 30 31 32 30 31 32 30 31 32 30 31 32 31 29 35 29 29 35 30 27 35 30 27 35 30 27 35 30 27 35 30 27 35 30 27 35 30 27 36 31 28 36 31 28 36 31 28 36 31 28 36 31 28 36 31 28 36 31 28 36 31 28
122 107 130 122 107 130 122 107 130 122 107 130 111 96 119 111 96 119 111 96 119 111 96 119 111 96 119 111 96 119 111 96 119 111 96 117 108 90 112 108 91 110 108 91 110 108 91 110 108 91 110 108 91 110 108 91 110 108 91 110 74 57 76 69 52 71 60 43 62 48 31 50 35 18 37 23 6 25 13 0 15 7 0 12 9 3 17 6 4 17 6 4 17 6 4 17 6 4 17 6 4 17 6 4 17 6 4 17 6 4 17 6 4 17 6 4 17 6 4 17 6 4 17 6 4 17 6 4 17 6 4 17 4 2 13 4 2 13 4 2 13 4 2 13 4 2 13 4 2 13 4 2 13 4 2 13 5 3 14 5 3 14 5 3 14 5 3 14 5 3 14 5 3 14 5 3 14 4 4 14 6 6 18 4 6 18 4 6 18 4 6 18 4 6 18 4 6 18 4 6 18 4 6 18 7 9 21 7 9 21 7 9 21 7 9 21 7 9 21 7 9 21 7 9 21 6 10 19 27 31 40 26 33 39 28 35 41 32 39 45 35 42 48 38 45 51 41 48 54 42 49 55 43 50 56 43 50 56 43 50 56 43 50 56 43 50 56 43 50 56 43 50 56 43 50 56 49 54 58 49 54 58 49 54 58 49 54 58 49 54 58 49 54 58 49 54 58 49 54 58 45 50 54 42 47 51 37 42 46 31 36 40 24 29 33 18 23 27 13 18 22 10 15 19 6 10 13 6 10 13 6 10 13 6 10 13 6 10 13 6 10 13 6 10 13 6 10 13 6 10 13 8 12 15 10 14 17 13 17 20 17 21 24 20 24 27 22 26 29 24 28 31 28 32 33 28 32 33 28 32 33 28 32 33 28 32 33 28 32 33 28 32 33 28 32 33 30 34 35 30 34 35 30 34 35 30 34 35 30 34 35 30 34 35 30 34 35 32 33 35 31 31 31 32 30 31 32 30 31 32 30 31 32 30 31 32 30 31 32 30 31 32 30 31 32 30 31 32 30 31 32 30 31 32 30 31 32 30 31 32 30 31 32 30 31 32 31 29 35 29 29 35 30 27 35 30 27 35 30 27 35 30 27 35 30 27 35 30 27 35 30 27 36 31 28 36 31 28 36 31 28 36 31 28 36 31 28 36 31 28 36 31 28 36 31 28
127 113 136 127 113 136 127 113 136 127 113 136 108 94 117 108 94 117 108 94 117 108 94 117 108 94 117 108 94 117 108 94 117 108 95 115 98 85 103 98 85 103 99 84 103 98 85 103 99 84 103 98 85 103 99 84 103 98 85 103 68 53 72 62 49 67 54 39 58 42 29 47 30 15 34 18 5 23 10 0 14 6 0 12 7 3 17 6 4 17 6 4 17 6 4 17 6 4 17 6 4 17 6 4 17 6 4 17 6 4 17 6 4 17 6 4 17 6 4 17 6 4 17 6 4 17 6 4 17 6 4 17 4 2 13 4 2 13 4 2 13 4 2 13 4 2 13 4 2 13 4 2 13 4 2 13 5 3 14 5 3 14 5 3 14 5 3 14 5 3 14 5 3 14 5 3 14 4 4 14 4 7 16 3 7 16 4 6 18 3 7 16 4 6 18 3 7 16 4 6 18 3 7 16 7 9 21 6 10 19 7 9 21 6 10 19 7 9 21 6 10 19 7 9 21 6 10 19 26 33 39 27 34 40 30 37 43 33 40 46 36 43 49 40 47 53 42 49 55 43 50 56 43 50 56 43 50 56 43 50 56 43 50 56 43 50 56 43 50 56 43 50 56 43 50 56 51 56 60 51 56 60 51 56 60 51 56 60 51 56 60 51 56 60 51 56 60 51 56 60 46 51 55 43 48 52 38 43 47 32 37 41 25 30 34 19 24 28 14 19 23 11 16 20 5 10 13 5 10 13 5 10 13 5 10 13 5 10 13 5 10 13 5 10 13 5 10 13 5 10 13 7 12 15 9 14 17 12 17 20 16 21 24 19 24 27 21 26 29 23 28 31 27 32 35 27 33 33 28 32 33 27 33 33 28 32 33 27 33 33 28 32 33 27 33 33 30 34 35 29 35 35 30 34 35 29 35 35 30 34 35 29 35 35 30 34 35 30 34 35 31 31 31 32 30 31 32 30 31 32 30 31 32 30 31 32 30 31 32 30 31 32 30 31 32 30 31 32 30 31 32 30 31 32 30 31 32 30 31 32 30 31 32 30 31 34 30 29 35 30 27 35 30 27 35 30 27 35 30 27 35 30 27 35 30 27 35 30 27 35 30 27 36 31 28 36 31 28 36 31 28 36 31 28 36 31 28 36 31 28 36 31 28 36 31 28
99 92 110 99 92 110 99 92 110 99 92 110 100 93 111 100 93 111 100 93 111 100 93 111 100 93 111 100 93 111 100 93 111 100 93 111 67 60 76 63 56 72 59 50 67 50 43 59 43 34 51 34 27 43 29 20 37 25 18 34 9 0 17 8 1 17 9 0 17 8 1 17 9 0 17 8 1 17 9 0 17 8 1 17 6 2 16 5 3 16 5 3 16 5 3 16 5 3 16 5 3 16 5 3 16 5 3 16 5 3 16 5 3 16 5 3 16 5 3 16 5 3 16 5 3 16 5 3 16 5 3 16 4 4 14 4 4 14 4 4 14 4 4 14 4 4 14 4 4 14 4 4 14 4 4 14 3 3 13 3 3 13 3 3 13 3 3 13 3 3 13 3 3 13 3 3 13 3 3 13 0 0 9 0 1 7 0 0 9 0 4 10 2 6 15 3 10 16 8 12 21 7 14 20 16 20 29 15 22 28 19 23 32 21 28 34 26 30 39 27 34 40 32 36 45 31 38 44 46 53 59 46 54 57 46 54 57 46 54 57 46 54 57 46 54 57 46 54 57 46 54 57 44 52 55 44 52 55 44 52 55 44 52 55 44 52 55 44 52 55 44 52 55 44 52 55 51 59 62 51 59 62 51 59 62 51 59 62 51 59 62 51 59 62 51 59 62 51 59 62 51 59 62 48 56 59 43 51 54 37 45 48 30 38 41 24 32 35 19 27 30 16 24 27 21 29 32 21 29 32 21 29 32 21 29 32 21 29 32 21 29 32 21 29 32 21 29 32 11 19 22 11 19 22 11 19 22 11 19 22 11 19 22 11 19 22 11 19 22 11 19 21 27 35 37 27 35 37 29 34 37 27 35 37 29 34 37 27 35 37 29 34 37 27 35 37 28 33 36 26 34 36 28 33 36 26 34 36 28 33 36 26 34 36 28 33 36 29 33 34 26 26 26 29 25 24 29 25 24 29 25 24 29 25 24 29 25 24 29 25 24 29 25 24 33 29 28 33 29 28 33 29 28 33 29 28 33 29 28 33 29 28 33 29 28 33 29 28 35 30 27 37 29 27 37 29 27 37 29 27 37 29 27 37 29 27 37 29 27 37 29 27 36 28 26 36 28 26 36 28 26 36 28 26 36 28 26 36 28 26 36 28 26 34 29 26
79 75 92 79 75 92 79 75 92 79 75 92 80 76 93 80 76 93 80 76 93 80 76 93 80 76 93 80 76 93 80 76 93 80 76 93 55 51 66 52 48 63 46 42 57 39 35 50 32 28 43 25 21 36 20 16 31 17 13 28 6 2 17 6 2 17 6 2 17 6 2 17 6 2 17 6 2 17 6 2 17 6 2 17 5 3 16 5 3 16 5 3 16 5 3 16 5 3 16 5 3 16 5 3 16 5 3 16 5 3 16 5 3 16 5 3 16 5 3 16 5 3 16 5 3 16 5 3 16 5 3 16 4 4 14 4 4 14 4 4 14 4 4 14 4 4 14 4 4 14 4 4 14 4 4 14 3 3 13 3 3 13 3 3 13 3 3 13 3 3 13 3 3 13 3 3 13 1 4 13 0 1 7 0 1 7 0 2 8 0 5 11 1 8 14 5 12 18 7 14 20 8 15 21 15 22 28 16 23 29 19 26 32 22 29 35 25 32 38 29 36 42 31 38 44 32 39 45 46 54 57 46 54 57 46 54 57 46 54 57 46 54 57 46 54 57 46 54 57 46 54 57 46 54 57 46 54 57 46 54 57 46 54 57 46 54 57 46 54 57 46 54 57 46 54 57 53 61 64 53 61 64 53 61 64 53 61 64 53 61 64 53 61 64 53 61 64 53 61 64 52 60 63 49 57 60 44 52 55 38 46 49 31 39 42 25 33 36 20 28 31 17 25 28 20 30 32 20 30 32 20 30 32 20 30 32 20 30 32 20 30 32 20 30 32 20 30 32 10 20 22 10 20 22 10 20 22 10 20 22 10 20 22 10 20 22 10 20 22 10 20 22 25 33 35 25 33 35 25 33 35 25 33 35 25 33 35 25 33 35 25 33 35 25 33 35 24 32 34 24 32 34 24 32 34 24 32 34 24 32 34 24 32 34 24 32 34 26 32 32 27 25 26 29 25 24 29 25 24 29 25 24 29 25 24 29 25 24 29 25 24 29 25 24 33 29 28 33 29 28 33 29 28 33 29 28 33 29 28 33 29 28 33 29 28 33 29 28 37 29 27 37 29 27 37 29 27 37 29 27 37 29 27 37 29 27 37 29 27 37 29 27 36 28 26 36 28 26 36 28 26 36 28 26 36 28 26 36 28 26 36 28 26 36 28 26
51 47 64 51 47 64 51 47 64 51 47 64 52 48 65 52 48 65 52 48 65 52 48 65 52 48 65 52 48 65 52 48 65 52 48 65 38 34 49 36 32 47 32 28 43 26 22 37 20 16 31 14 10 25 10 6 21 7 3 18 6 2 17 6 2 17 6 2 17 6 2 17 6 2 17 6 2 17 6 2 17 6 2 17 5 3 16 5 3 16 5 3 16 5 3 16 5 3 16 5 3 16 5 3 16 5 3 16 5 3 16 5 3 16 5 3 16 5 3 16 5 3 16 5 3 16 5 3 16 5 3 16 4 4 14 4 4 14 4 4 14 4 4 14 4 4 14 4 4 14 4 4 14 4 4 14 3 3 13 3 3 13 3 3 13 3 3 13 3 3 13 3 3 13 3 3 13 1 4 13 0 1 7 0 2 8 0 4 10 0 7 13 4 11 17 7 14 20 9 16 22 11 18 24 17 24 30 19 26 32 21 28 34 24 31 37 28 35 41 31 38 44 33 40 46 35 42 48 46 54 57 46 54 57 46 54 57 46 54 57 46 54 57 46 54 57 46 54 57 46 54 57 48 56 59 48 56 59 48 56 59 48 56 59 48 56 59 48 56 59 48 56 59 48 56 59 55 63 66 55 63 66 55 63 66 55 63 66 55 63 66 55 63 66 55 63 66 55 63 66 54 62 65 52 60 63 47 55 58 41 49 52 34 42 45 27 35 38 22 30 33 20 28 31 20 30 32 20 30 32 20 30 32 20 30 32 20 30 32 20 30 32 20 30 32 20 30 32 10 20 22 10 20 22 10 20 22 10 20 22 10 20 22 10 20 22 10 20 22 10 20 22 23 31 33 23 31 33 23 31 33 23 31 33 23 31 33 23 31 33 23 31 33 23 31 33 22 30 32 22 30 32 22 30 32 22 30 32 22 30 32 22 30 32 22 30 32 24 30 30 27 25 26 29 25 24 29 25 24 29 25 24 29 25 24 29 25 24 29 25 24 29 25 24 33 29 28 33 29 28 33 29 28 33 29 28 33 29 28 33 29 28 33 29 28 33 29 28 37 29 27 37 29 27 37 29 27 37 29 27 37 29 27 37 29 27 37 29 27 37 29 27 36 28 26 36 28 26 36 28 26 36 28 26 36 28 26 36 28 26 36 28 26 36 28 26
