P3
207 145
255
81 66 71 78 63 68 74 59 64 72 57 62 72 55 61 64 38 49 65 37 49 65 37 49 65 37 49 65 37 49 65 37 49 65 37 49 65 37 49 79 51 63 79 51 63 79 51 63 79 51 63 79 51 63 79 51 63 79 51 63 78 52 63 69 49 58 65 48 56 63 46 54 60 43 51 56 39 47 53 36 44 51 34 42 49 32 40 56 39 47 56 39 47 56 39 47 56 39 47 56 39 47 56 39 47 56 39 47 53 40 47 57 47 56 61 56 63 71 66 73 80 75 82 83 78 85 81 76 83 75 70 77 71 66 73 66 61 68 63 58 65 58 53 60 52 47 54 45 40 47 39 34 41 34 29 36 29 26 35 32 30 41 31 31 43 31 31 43 31 31 43 31 31 43 31 31 43 31 31 43 31 31 43 30 30 42 32 32 44 34 34 46 37 37 49 41 41 53 44 44 56 46 46 58 52 46 58 62 46 56 66 45 54 66 45 54 66 45 54 66 45 54 66 45 54 66 45 54 66 45 54 59 38 47 61 40 49 63 42 51 66 45 54 70 49 58 73 52 61 75 54 63 76 56 67 84 70 83 83 71 85 83 71 85 83 71 85 83 71 85 83 71 85 83 71 85 83 71 85 79 67 81 77 65 79 72 60 74 65 53 67 59 47 61 52 40 54 47 35 49 44 33 47 42 39 48 43 42 50 48 42 52 51 45 55 58 48 59 62 50 62 65 51 64 70 52 66 67 44 60 70 43 60 71 42 60 73 42 60 75 40 60 75 40 60 78 39 60 78 39 60 70 33 51 72 35 53 75 38 56 78 44 61 81 48 65 83 55 70 83 59 73 83 63 75 100 82 94 98 85 95 99 87 97 100 93 101 102 97 104 103 100 107 106 103 110 106 105 113 93 92 106 93 92 108 93 92 108 93 92 108 93 92 108 93 92 108 93 92 108 93 92 108 101 100 116 101 100 116 101 100 116 101 100 116 101 100 116 101 100 116 101 100 116 102 100 113 108 98 107 109 98 104 109 98 104 109 98 104 109 98 104 109 98 104 109 98 104 109 98 104 95 84 90 96 85 91 100 89 95 104 93 99 109 98 104 113 102 108 117 106 112 122 107 114 120 99 108 123 97 108 123 97 108 123 97 108 123 97 108 123 97 108 123 97 108 123 97 108 102 76 87 102 76 87 102 76 87 102 76 87 102 76 87 102 76 87 102 76 87 103 75 87 109 77 90 110 76 90 110 76 90 110 76 90 110 76 90 110 76 90 110 76 90 110 76 90 110 76 90 110 76 90 110 76 90 110 76 90 110 76 90 110 76 90 110 76 90 113 75 90 99 50 71 101 49 71 101 49 71 98 51 71 98 51 71 95 52 71 94 53 71 91 54 71 83 51 66 73 45 59
72 57 62 68 53 58 65 50 55 63 48 53 62 45 51 68 42 53 69 41 53 69 41 53 69 41 53 69 41 53 69 41 53 69 41 53 69 41 53 76 48 60 76 48 60 76 48 60 76 48 60 76 48 60 76 48 60 76 48 60 75 49 60 55 35 44 53 36 44 53 36 44 53 36 44 53 36 44 53 36 44 53 36 44 53 36 44 48 31 39 48 31 39 48 31 39 48 31 39 48 31 39 48 31 39 48 31 39 45 32 39 42 32 41 39 34 41 39 34 41 39 34 41 39 34 41 39 34 41 39 34 41 39 34 41 33 28 35 33 28 35 33 28 35 33 28 35 33 28 35 33 28 35 33 28 35 31 28 37 27 25 36 26 26 38 26 26 38 26 26 38 26 26 38 26 26 38 26 26 38 26 26 38 40 40 52 40 40 52 40 40 52 40 40 52 40 40 52 40 40 52 40 40 52 44 38 50 68 52 62 72 51 60 71 50 59 70 49 58 68 47 56 67 46 55 66 45 54 66 45 54 62 41 50 64 43 52 67 46 55 72 51 60 76 55 64 81 60 69 84 63 72 85 65 76 86 72 85 85 73 87 85 73 87 85 73 87 85 73 87 85 73 87 85 73 87 85 73 87 59 47 61 57 45 59 55 43 57 52 40 54 48 36 50 45 33 47 43 31 45 40 29 43 45 42 51 44 43 51 47 41 51 47 41 51 50 40 51 51 39 51 52 38 51 55 37 51 65 42 58 67 40 57 67 38 56 68 37 55 69 34 54 67 32 52 70 31 52 68 30 51 83 49 66 85 52 69 91 58 75 97 66 82 103 75 90 108 84 98 113 91 104 113 95 107 103 87 98 100 88 98 97 90 98 94 91 98 93 92 98 92 93 98 92 93 98 92 92 100 91 90 104 91 90 106 91 90 106 91 90 106 91 90 106 91 90 106 91 90 106 91 90 106 98 97 113 98 97 113 98 97 113 98 97 113 98 97 113 98 97 113 98 97 113 99 97 110 109 99 108 110 99 105 110 99 105 110 99 105 110 99 105 110 99 105 110 99 105 110 99 105 95 84 90 95 84 90 95 84 90 95 84 90 95 84 90 95 84 90 95 84 90 98 83 90 126 105 114 127 101 112 123 97 108 119 93 104 114 88 99 110 84 95 106 80 91 105 79 90 103 77 88 102 76 87 99 73 84 96 70 81 93 67 78 89 63 74 87 61 72 87 59 71 92 60 73 95 61 75 97 63 77 100 66 80 104 70 84 107 73 87 109 75 89 111 77 91 119 85 99 117 83 97 115 81 95 112 78 92 108 74 88 105 71 85 103 69 83 104 66 81 109 60 81 109 57 79 107 55 77 101 54 74 97 50 70 91 48 67 88 47 65 83 46 63 62 30 45 59 31 45
72 57 62 68 53 58 65 50 55 63 48 53 62 45 51 68 42 53 69 41 53 69 41 53 69 41 53 69 41 53 69 41 53 69 41 53 69 41 53 76 48 60 76 48 60 76 48 60 76 48 60 76 48 60 76 48 60 76 48 60 75 49 60 55 35 44 53 36 44 53 36 44 53 36 44 53 36 44 53 36 44 53 36 44 53 36 44 48 31 39 48 31 39 48 31 39 48 31 39 48 31 39 48 31 39 48 31 39 45 32 39 42 32 41 39 34 41 39 34 41 39 34 41 39 34 41 39 34 41 39 34 41 39 34 41 33 28 35 33 28 35 33 28 35 33 28 35 33 28 35 33 28 35 33 28 35 31 28 37 29 27 38 28 28 40 28 28 40 28 28 40 28 28 40 28 28 40 28 28 40 28 28 40 40 40 52 40 40 52 40 40 52 40 40 52 40 40 52 40 40 52 40 40 52 44 38 50 67 51 61 70 49 58 70 49 58 69 48 57 69 48 57 68 47 56 68 47 56 67 46 55 64 43 52 65 44 53 68 47 56 72 51 60 76 55 64 80 59 68 83 62 71 83 63 74 78 64 77 77 65 79 77 65 79 77 65 79 77 65 79 77 65 79 77 65 79 77 65 79 59 47 61 57 45 59 55 43 57 52 40 54 48 36 50 45 33 47 43 31 45 40 29 43 45 42 51 44 43 51 47 41 51 47 41 51 50 40 51 51 39 51 52 38 51 55 37 51 64 41 57 67 40 57 68 39 57 69 38 56 70 35 55 70 35 55 72 33 54 71 33 54 85 52 69 87 56 72 90 62 77 96 69 84 101 77 91 106 86 98 110 92 104 110 97 107 100 88 98 97 90 98 94 91 98 93 92 98 92 93 98 90 93 98 89 94 98 89 94 100 91 90 104 91 90 106 91 90 106 91 90 106 91 90 106 91 90 106 91 90 106 91 90 106 98 97 113 98 97 113 98 97 113 98 97 113 98 97 113 98 97 113 98 97 113 99 97 110 109 99 108 110 99 105 110 99 105 110 99 105 110 99 105 110 99 105 110 99 105 110 99 105 93 82 88 93 82 88 93 82 88 93 82 88 93 82 88 93 82 88 93 82 88 96 81 88 123 102 111 124 98 109 121 95 106 117 91 102 113 87 98 110 84 95 107 81 92 105 79 90 104 78 89 103 77 88 101 75 86 97 71 82 94 68 79 91 65 76 88 62 73 88 60 72 92 60 73 95 61 75 97 63 77 100 66 80 104 70 84 107 73 87 109 75 89 111 77 91 119 85 99 117 83 97 115 81 95 112 78 92 108 74 88 105 71 85 103 69 83 104 66 81 109 60 81 109 57 79 107 55 77 101 54 74 97 50 70 91 48 67 88 47 65 83 46 63 62 30 45 59 31 45
72 57 62 68 53 58 65 50 55 63 48 53 62 45 51 68 42 53 69 41 53 69 41 53 69 41 53 69 41 53 69 41 53 69 41 53 69 41 53 76 48 60 76 48 60 76 48 60 76 48 60 76 48 60 76 48 60 76 48 60 75 49 60 55 35 44 53 36 44 53 36 44 53 36 44 53 36 44 53 36 44 53 36 44 53 36 44 48 31 39 48 31 39 48 31 39 48 31 39 48 31 39 48 31 39 48 31 39 45 32 39 42 32 41 39 34 41 39 34 41 39 34 41 39 34 41 39 34 41 39 34 41 39 34 41 33 28 35 33 28 35 33 28 35 33 28 35 33 28 35 33 28 35 33 28 35 31 28 37 31 29 40 30 30 42 30 30 42 30 30 42 30 30 42 30 30 42 30 30 42 30 30 42 40 40 52 40 40 52 40 40 52 40 40 52 40 40 52 40 40 52 40 40 52 44 38 50 63 47 57 67 46 55 68 47 56 69 48 57 69 48 57 70 49 58 71 50 59 71 50 59 67 46 55 68 47 56 70 49 58 73 52 61 75 54 63 78 57 66 80 59 68 80 60 71 65 51 64 64 52 66 64 52 66 64 52 66 64 52 66 64 52 66 64 52 66 64 52 66 59 47 61 57 45 59 55 43 57 52 40 54 48 36 50 45 33 47 43 31 45 40 29 43 45 42 51 44 43 51 47 41 51 47 41 51 50 40 51 51 39 51 52 38 51 55 37 51 63 40 56 67 40 57 68 39 57 71 40 58 73 38 58 74 39 59 78 39 60 77 39 60 90 59 75 89 62 77 91 67 81 96 74 87 101 81 93 105 87 99 108 92 103 108 96 106 97 90 98 94 91 98 93 92 98 90 93 98 89 94 98 87 95 98 86 96 98 87 94 100 89 91 104 91 90 106 91 90 106 91 90 106 91 90 106 91 90 106 91 90 106 91 90 106 98 97 113 98 97 113 98 97 113 98 97 113 98 97 113 98 97 113 98 97 113 99 97 110 109 99 108 110 99 105 110 99 105 110 99 105 110 99 105 110 99 105 110 99 105 110 99 105 91 80 86 91 80 86 91 80 86 91 80 86 91 80 86 91 80 86 91 80 86 94 79 86 117 96 105 119 93 104 117 91 102 114 88 99 112 86 97 109 83 94 107 81 92 106 80 91 107 81 92 105 79 90 103 77 88 100 74 85 96 70 81 93 67 78 91 65 76 90 62 74 92 60 73 95 61 75 97 63 77 100 66 80 104 70 84 107 73 87 109 75 89 111 77 91 119 85 99 117 83 97 115 81 95 112 78 92 108 74 88 105 71 85 103 69 83 104 66 81 109 60 81 109 57 79 107 55 77 101 54 74 97 50 70 91 48 67 88 47 65 83 46 63 62 30 45 59 31 45
72 57 62 68 53 58 65 50 55 63 48 53 62 45 51 68 42 53 69 41 53 69 41 53 69 41 53 69 41 53 69 41 53 69 41 53 69 41 53 76 48 60 76 48 60 76 48 60 76 48 60 76 48 60 76 48 60 76 48 60 75 49 60 55 35 44 53 36 44 53 36 44 53 36 44 53 36 44 53 36 44 53 36 44 53 36 44 48 31 39 48 31 39 48 31 39 48 31 39 48 31 39 48 31 39 48 31 39 45 32 39 42 32 41 39 34 41 39 34 41 39 34 41 39 34 41 39 34 41 39 34 41 39 34 41 33 28 35 33 28 35 33 28 35 33 28 35 33 28 35 33 28 35 33 28 35 31 28 37 34 32 43 33 33 45 33 33 45 33 33 45 33 33 45 33 33 45 33 33 45 33 33 45 40 40 52 40 40 52 40 40 52 40 40 52 40 40 52 40 40 52 40 40 52 44 38 50 59 43 53 64 43 52 65 44 53 68 47 56 70 49 58 73 52 61 74 53 62 75 54 63 72 51 60 72 51 60 73 52 61 74 53 62 74 53 62 75 54 63 76 55 64 75 55 66 53 39 52 52 40 54 52 40 54 52 40 54 52 40 54 52 40 54 52 40 54 52 40 54 59 47 61 57 45 59 55 43 57 52 40 54 48 36 50 45 33 47 43 31 45 40 29 43 45 42 51 44 43 51 47 41 51 47 41 51 50 40 51 51 39 51 52 38 51 55 37 51 62 39 55 66 39 56 69 40 58 73 42 60 78 43 63 80 45 65 85 46 67 83 48 68 95 67 82 94 70 84 96 74 87 99 79 91 101 83 95 105 89 100 105 93 103 103 96 104 94 91 98 93 92 98 90 93 98 89 94 98 87 95 98 86 96 98 85 96 98 86 95 100 89 91 104 91 90 106 91 90 106 91 90 106 91 90 106 91 90 106 91 90 106 91 90 106 98 97 113 98 97 113 98 97 113 98 97 113 98 97 113 98 97 113 98 97 113 99 97 110 109 99 108 110 99 105 110 99 105 110 99 105 110 99 105 110 99 105 110 99 105 110 99 105 88 77 83 88 77 83 88 77 83 88 77 83 88 77 83 88 77 83 88 77 83 91 76 83 109 88 97 112 86 97 111 85 96 110 84 95 109 83 94 108 82 93 108 82 93 107 81 92 110 84 95 109 83 94 106 80 91 103 77 88 100 74 85 96 70 81 94 68 79 94 66 78 92 60 73 95 61 75 97 63 77 100 66 80 104 70 84 107 73 87 109 75 89 111 77 91 119 85 99 117 83 97 115 81 95 112 78 92 108 74 88 105 71 85 103 69 83 104 66 81 109 60 81 109 57 79 107 55 77 101 54 74 97 50 70 91 48 67 88 47 65 83 46 63 62 30 45 59 31 45
72 57 62 68 53 58 65 50 55 63 48 53 62 45 51 68 42 53 69 41 53 69 41 53 69 41 53 69 41 53 69 41 53 69 41 53 69 41 53 76 48 60 76 48 60 76 48 60 76 48 60 76 48 60 76 48 60 76 48 60 75 49 60 55 35 44 53 36 44 53 36 44 53 36 44 53 36 44 53 36 44 53 36 44 53 36 44 48 31 39 48 31 39 48 31 39 48 31 39 48 31 39 48 31 39 48 31 39 45 32 39 42 32 41 39 34 41 39 34 41 39 34 41 39 34 41 39 34 41 39 34 41 39 34 41 33 28 35 33 28 35 33 28 35 33 28 35 33 28 35 33 28 35 33 28 35 31 28 37 38 36 47 37 37 49 37 37 49 37 37 49 37 37 49 37 37 49 37 37 49 37 37 49 40 40 52 40 40 52 40 40 52 40 40 52 40 40 52 40 40 52 40 40 52 44 38 50 54 38 48 60 39 48 63 42 51 67 46 55 71 50 59 75 54 63 78 57 66 80 59 68 76 55 64 76 55 64 75 54 63 74 53 62 74 53 62 73 52 61 72 51 60 71 51 62 46 32 45 45 33 47 45 33 47 45 33 47 45 33 47 45 33 47 45 33 47 45 33 47 59 47 61 57 45 59 55 43 57 52 40 54 48 36 50 45 33 47 43 31 45 40 29 43 45 42 51 44 43 51 47 41 51 47 41 51 50 40 51 51 39 51 52 38 51 55 37 51 61 38 54 65 38 55 69 40 58 76 45 63 82 47 67 86 51 71 92 53 74 91 56 76 102 75 90 99 79 91 101 81 93 101 83 95 103 87 98 103 90 100 103 93 102 101 96 103 93 92 98 92 93 98 89 94 98 87 95 98 85 96 98 83 97 98 83 97 98 85 96 100 88 92 104 91 90 106 91 90 106 91 90 106 91 90 106 91 90 106 91 90 106 91 90 106 98 97 113 98 97 113 98 97 113 98 97 113 98 97 113 98 97 113 98 97 113 99 97 110 109 99 108 110 99 105 110 99 105 110 99 105 110 99 105 110 99 105 110 99 105 110 99 105 84 73 79 84 73 79 84 73 79 84 73 79 84 73 79 84 73 79 84 73 79 87 72 79 101 80 89 104 78 89 105 79 90 106 80 91 107 81 92 108 82 93 108 82 93 109 83 94 113 87 98 112 86 97 110 84 95 106 80 91 103 77 88 100 74 85 97 71 82 97 69 81 92 60 73 95 61 75 97 63 77 100 66 80 104 70 84 107 73 87 109 75 89 111 77 91 119 85 99 117 83 97 115 81 95 112 78 92 108 74 88 105 71 85 103 69 83 104 66 81 109 60 81 109 57 79 107 55 77 101 54 74 97 50 70 91 48 67 88 47 65 83 46 63 62 30 45 59 31 45
72 57 62 68 53 58 65 50 55 63 48 53 62 45 51 68 42 53 69 41 53 69 41 53 69 41 53 69 41 53 69 41 53 69 41 53 69 41 53 76 48 60 76 48 60 76 48 60 76 48 60 76 48 60 76 48 60 76 48 60 75 49 60 55 35 44 53 36 44 53 36 44 53 36 44 53 36 44 53 36 44 53 36 44 53 36 44 48 31 39 48 31 39 48 31 39 48 31 39 48 31 39 48 31 39 48 31 39 45 32 39 42 32 41 39 34 41 39 34 41 39 34 41 39 34 41 39 34 41 39 34 41 39 34 41 33 28 35 33 28 35 33 28 35 33 28 35 33 28 35 33 28 35 33 28 35 31 28 37 41 39 50 40 40 52 40 40 52 40 40 52 40 40 52 40 40 52 40 40 52 40 40 52 40 40 52 40 40 52 40 40 52 40 40 52 40 40 52 40 40 52 40 40 52 44 38 50 50 34 44 56 35 44 60 39 48 66 45 54 72 51 60 78 57 66 82 61 70 84 63 72 81 60 69 80 59 68 78 57 66 75 54 63 73 52 61 70 49 58 68 47 56 66 46 57 45 31 44 44 32 46 44 32 46 44 32 46 44 32 46 44 32 46 44 32 46 44 32 46 59 47 61 57 45 59 55 43 57 52 40 54 48 36 50 45 33 47 43 31 45 40 29 43 45 42 51 44 43 51 47 41 51 47 41 51 50 40 51 51 39 51 52 38 51 55 37 51 59 36 52 65 38 55 70 41 59 78 47 65 86 51 71 92 57 77 99 60 81 98 63 83 108 84 98 104 86 98 105 87 99 105 89 100 103 90 100 103 91 101 100 93 101 98 95 102 93 92 98 90 93 98 87 95 98 86 96 98 83 97 98 82 98 98 82 98 98 85 96 100 88 92 104 91 90 106 91 90 106 91 90 106 91 90 106 91 90 106 91 90 106 91 90 106 98 97 113 98 97 113 98 97 113 98 97 113 98 97 113 98 97 113 98 97 113 99 97 110 109 99 108 110 99 105 110 99 105 110 99 105 110 99 105 110 99 105 110 99 105 110 99 105 81 70 76 81 70 76 81 70 76 81 70 76 81 70 76 81 70 76 81 70 76 84 69 76 93 72 81 97 71 82 99 73 84 102 76 87 104 78 89 107 81 92 109 83 94 110 84 95 117 91 102 115 89 100 113 87 98 110 84 95 106 80 91 103 77 88 101 75 86 100 72 84 92 60 73 95 61 75 97 63 77 100 66 80 104 70 84 107 73 87 109 75 89 111 77 91 119 85 99 117 83 97 115 81 95 112 78 92 108 74 88 105 71 85 103 69 83 104 66 81 109 60 81 109 57 79 107 55 77 101 54 74 97 50 70 91 48 67 88 47 65 83 46 63 62 30 45 59 31 45
72 57 62 68 53 58 65 50 55 63 48 53 62 45 51 68 42 53 69 41 53 69 41 53 69 41 53 69 41 53 69 41 53 69 41 53 69 41 53 76 48 60 76 48 60 76 48 60 76 48 60 76 48 60 76 48 60 76 48 60 75 49 60 55 35 44 53 36 44 53 36 44 53 36 44 53 36 44 53 36 44 53 36 44 53 36 44 48 31 39 48 31 39 48 31 39 48 31 39 48 31 39 48 31 39 48 31 39 45 32 39 42 32 41 39 34 41 39 34 41 39 34 41 39 34 41 39 34 41 39 34 41 39 34 41 33 28 35 33 28 35 33 28 35 33 28 35 33 28 35 33 28 35 33 28 35 31 28 37 43 41 52 42 42 54 42 42 54 42 42 54 42 42 54 42 42 54 42 42 54 42 42 54 40 40 52 40 40 52 40 40 52 40 40 52 40 40 52 40 40 52 40 40 52 44 38 50 46 30 40 53 32 41 58 37 46 65 44 53 73 52 61 80 59 68 85 64 73 88 67 76 84 63 72 83 62 71 80 59 68 76 55 64 72 51 60 68 47 56 65 44 53 63 43 54 48 34 47 47 35 49 47 35 49 47 35 49 47 35 49 47 35 49 47 35 49 47 35 49 59 47 61 57 45 59 55 43 57 52 40 54 48 36 50 45 33 47 43 31 45 40 29 43 45 42 51 44 43 51 47 41 51 47 41 51 50 40 51 51 39 51 52 38 51 55 37 51 58 35 51 64 37 54 71 42 60 80 49 67 89 54 74 96 61 81 104 65 86 104 69 89 114 90 104 110 92 104 109 91 103 108 92 103 104 92 102 102 92 101 99 94 101 96 95 101 92 93 98 89 94 98 86 96 98 85 96 98 83 97 98 82 98 98 82 98 98 83 97 100 88 92 104 91 90 106 91 90 106 91 90 106 91 90 106 91 90 106 91 90 106 91 90 106 98 97 113 98 97 113 98 97 113 98 97 113 98 97 113 98 97 113 98 97 113 99 97 110 109 99 108 110 99 105 110 99 105 110 99 105 110 99 105 110 99 105 110 99 105 110 99 105 79 68 74 79 68 74 79 68 74 79 68 74 79 68 74 79 68 74 79 68 74 82 67 74 87 66 75 92 66 77 95 69 80 99 73 84 103 77 88 106 80 91 109 83 94 111 85 96 119 93 104 118 92 103 115 89 100 112 86 97 109 83 94 105 79 90 103 77 88 103 75 87 92 60 73 95 61 75 97 63 77 100 66 80 104 70 84 107 73 87 109 75 89 111 77 91 119 85 99 117 83 97 115 81 95 112 78 92 108 74 88 105 71 85 103 69 83 104 66 81 109 60 81 109 57 79 107 55 77 101 54 74 97 50 70 91 48 67 88 47 65 83 46 63 62 30 45 59 31 45
72 57 62 68 53 58 65 50 55 63 48 53 62 45 51 68 42 53 69 41 53 69 41 53 69 41 53 69 41 53 69 41 53 69 41 53 69 41 53 76 48 60 76 48 60 76 48 60 76 48 60 76 48 60 76 48 60 76 48 60 75 49 60 55 35 44 53 36 44 53 36 44 53 36 44 53 36 44 53 36 44 53 36 44 53 36 44 48 31 39 48 31 39 48 31 39 48 31 39 48 31 39 48 31 39 48 31 39 47 31 41 43 31 41 42 32 41 42 32 41 42 32 41 42 32 41 40 33 41 40 33 41 39 34 41 33 28 35 33 28 35 31 28 35 31 28 35 31 28 35 30 29 35 30 29 35 30 29 37 44 44 54 44 44 54 44 44 56 44 44 54 44 44 56 44 44 54 44 44 56 44 44 54 40 40 52 40 40 50 40 40 52 40 40 50 40 40 52 40 40 50 40 40 52 44 38 48 42 29 38 48 31 37 56 36 45 62 45 51 72 52 61 78 61 67 86 66 75 87 70 76 85 65 74 81 64 70 80 60 69 73 56 62 71 51 60 64 47 53 63 43 52 59 42 50 51 38 48 50 38 50 50 38 50 50 38 50 50 38 50 50 38 50 50 38 50 50 38 50 59 47 59 57 45 57 55 43 55 52 40 52 48 36 48 45 33 45 43 31 43 40 30 41 47 41 51 47 42 49 48 41 49 48 41 49 50 40 49 51 39 49 52 39 49 54 38 49 57 37 49 61 39 52 68 44 58 78 51 66 87 59 74 96 65 81 103 70 87 103 75 90 115 95 107 111 95 106 109 96 106 106 94 104 104 94 103 101 94 102 99 94 101 96 93 100 93 92 98 90 93 98 89 94 98 87 95 98 86 96 98 86 96 98 85 96 98 86 95 100 89 91 103 92 90 104 92 90 104 92 90 104 92 90 104 92 90 104 92 90 104 92 90 104 99 97 111 99 97 111 99 97 111 99 97 111 99 97 111 99 97 111 99 97 111 100 97 108 109 99 107 111 98 105 111 98 105 111 98 105 111 98 105 111 98 105 111 98 105 111 98 105 78 65 72 78 65 72 78 65 72 78 65 72 78 65 72 78 65 72 78 65 72 80 65 72 85 62 72 89 63 74 93 67 78 97 71 82 102 76 87 106 80 91 110 84 95 111 85 96 120 94 105 119 93 104 117 91 102 113 87 98 110 84 95 107 81 92 104 78 89 104 76 88 91 61 73 93 63 75 95 65 77 99 67 80 103 71 84 106 74 87 109 75 89 111 77 91 121 85 99 119 83 97 117 81 95 115 77 92 111 73 88 108 70 85 106 68 83 107 64 81 109 60 81 109 57 79 105 56 77 101 54 74 95 50 70 90 49 67 86 47 65 81 47 63 61 30 45 58 32 45
76 64 66 72 60 62 69 57 59 67 55 57 68 51 57 73 47 58 76 46 58 76 46 58 76 46 58 76 46 58 76 46 58 76 46 58 76 46 58 73 43 55 73 43 55 73 43 55 73 43 55 73 43 55 73 43 55 73 43 55 70 44 55 52 32 43 50 33 43 50 33 43 50 33 43 50 33 43 50 33 43 50 33 43 50 33 43 38 21 31 38 21 31 38 21 31 38 21 31 38 21 31 38 21 31 38 21 31 38 21 31 52 32 44 52 31 46 50 32 46 50 32 46 49 33 46 47 33 46 46 34 46 43 35 46 48 42 52 46 43 52 45 44 52 44 44 52 42 45 52 41 46 52 39 46 52 41 46 52 43 43 51 43 42 50 43 41 52 41 40 48 40 38 49 39 38 46 38 36 47 37 36 44 58 56 67 57 56 64 55 53 64 53 52 60 51 49 60 49 48 56 48 46 57 48 45 52 49 40 45 52 42 43 58 46 50 64 54 55 71 59 63 77 67 68 83 71 75 84 74 75 98 86 90 95 85 86 94 82 86 90 80 81 87 75 79 83 73 74 82 70 74 79 68 72 56 45 53 56 44 54 56 44 54 56 44 54 56 44 54 56 44 54 56 44 54 56 44 54 46 34 44 46 34 44 46 34 44 46 34 44 46 34 44 46 34 44 46 34 44 46 35 43 67 56 64 67 56 64 67 56 64 67 56 64 67 56 64 68 55 64 68 55 64 68 55 64 84 68 78 85 69 79 88 71 81 92 75 85 95 78 88 100 80 91 103 83 94 102 85 95 100 88 98 100 90 99 101 91 100 102 92 101 101 94 102 103 96 104 103 96 104 103 98 105 97 92 99 95 92 99 95 92 99 95 92 99 94 93 99 94 93 99 94 93 99 94 93 99 97 94 105 97 94 105 97 94 105 97 94 105 97 94 105 97 94 105 97 94 105 97 94 105 102 99 110 102 99 110 102 99 110 102 99 110 102 99 110 102 99 110 102 99 110 105 97 108 114 101 108 114 99 104 112 97 102 109 94 99 105 90 95 102 87 92 100 85 90 98 83 88 88 73 78 87 72 77 84 69 74 81 66 71 78 63 68 74 59 64 72 57 62 74 55 61 88 65 75 91 63 75 91 63 75 91 63 75 91 63 75 91 63 75 91 63 75 91 63 75 103 75 87 104 76 88 107 79 91 110 82 94 113 85 97 117 89 101 119 91 103 119 93 104 102 78 91 103 81 93 106 82 95 111 85 98 116 88 102 121 90 105 124 92 107 127 93 109 110 71 89 112 71 89 113 70 89 114 69 89 116 69 89 116 69 89 117 68 89 117 68 89 118 69 90 115 68 88 108 63 83 100 57 76 93 52 70 84 45 63 78 41 58 73 41 56 54 26 40 53 29 42
76 64 66 72 60 62 69 57 59 67 55 57 68 52 55 73 47 58 76 46 58 76 46 58 76 46 58 76 46 58 76 46 58 76 46 58 76 46 58 73 43 55 73 43 55 73 43 55 73 43 55 73 43 55 73 43 55 73 43 55 70 44 55 53 31 43 50 33 43 50 33 43 50 33 43 50 33 43 50 33 43 50 33 43 50 33 43 40 23 33 40 23 33 40 23 33 40 23 33 40 23 33 40 23 33 40 23 33 42 22 33 56 32 48 56 32 48 56 32 48 54 33 48 54 33 48 51 35 48 49 35 48 47 37 48 48 42 52 45 44 52 44 44 52 41 46 52 41 46 52 38 47 52 38 47 52 38 47 52 44 44 52 45 44 52 44 43 51 44 43 51 43 42 50 42 41 49 42 41 49 42 41 49 61 60 68 60 59 67 58 57 65 55 54 62 52 51 59 50 49 57 48 47 55 48 45 52 47 41 43 51 42 43 56 47 48 63 54 55 69 60 61 76 67 68 81 72 73 83 74 75 96 87 88 94 85 86 92 83 84 89 80 81 85 76 77 82 73 74 80 71 72 78 69 72 56 45 51 56 45 53 56 45 53 56 45 53 56 45 53 56 45 53 56 45 53 56 45 53 48 37 45 48 37 45 48 37 45 48 37 45 48 37 45 48 37 45 48 37 45 48 37 45 70 57 64 70 57 64 70 57 64 70 57 64 70 57 64 70 57 64 70 57 64 70 57 64 83 70 77 84 71 78 87 74 81 90 77 84 93 80 87 97 84 91 99 86 93 99 88 94 100 90 99 98 91 99 98 91 99 99 92 100 100 93 101 100 93 101 101 94 102 101 94 102 98 91 99 98 91 99 98 91 99 98 91 99 98 91 99 98 91 99 98 91 99 98 91 99 99 93 103 99 93 103 99 93 103 99 93 103 99 93 103 99 93 103 99 93 103 99 93 103 104 98 108 104 98 108 104 98 108 104 98 108 104 98 108 104 98 108 104 98 108 105 98 106 116 101 108 115 98 104 113 96 102 110 93 99 106 89 95 103 86 92 101 84 90 99 82 88 90 73 79 89 72 78 87 70 76 83 66 72 80 63 69 77 60 66 74 57 63 75 56 62 90 64 75 91 63 75 91 63 75 91 63 75 91 63 75 91 63 75 91 63 75 91 63 75 102 74 86 103 75 87 105 77 89 109 81 93 112 84 96 115 87 99 118 90 102 118 92 103 100 80 91 100 83 93 105 83 95 108 86 98 115 89 102 119 91 105 123 92 107 127 93 109 110 71 89 113 70 89 114 69 89 116 69 89 119 67 89 119 67 89 121 66 89 120 66 89 118 69 90 113 68 88 108 63 83 99 58 76 93 52 70 83 46 63 76 42 58 72 41 56 53 27 40 52 30 42
76 64 66 72 60 62 69 57 59 67 55 57 68 52 55 73 47 58 76 46 58 76 46 58 76 46 58 76 46 58 76 46 58 76 46 58 76 46 58 73 43 55 73 43 55 73 43 55 73 43 55 73 43 55 73 43 55 73 43 55 70 44 55 53 31 43 50 33 43 50 33 43 50 33 43 50 33 43 50 33 43 50 33 43 50 33 43 42 25 35 42 25 35 42 25 35 42 25 35 42 25 35 42 25 35 42 25 35 44 24 35 61 37 53 61 37 53 61 37 53 59 38 53 59 38 53 56 40 53 54 40 53 52 42 53 48 42 52 45 44 52 44 44 52 41 46 52 41 46 52 38 47 52 38 47 52 38 47 52 45 45 53 47 46 54 47 46 54 48 47 55 49 48 56 49 48 56 50 49 57 50 49 57 67 66 74 65 64 72 62 61 69 58 57 65 54 53 61 50 49 57 47 46 54 47 44 51 47 41 43 51 42 43 56 47 48 63 54 55 69 60 61 76 67 68 81 72 73 83 74 75 96 87 88 94 85 86 92 83 84 89 80 81 85 76 77 82 73 74 80 71 72 78 69 72 56 45 51 56 45 53 56 45 53 56 45 53 56 45 53 56 45 53 56 45 53 56 45 53 53 42 50 53 42 50 53 42 50 53 42 50 53 42 50 53 42 50 53 42 50 53 42 50 72 59 66 72 59 66 72 59 66 72 59 66 72 59 66 72 59 66 72 59 66 72 59 66 85 72 79 87 74 81 89 76 83 92 79 86 96 83 90 99 86 93 101 88 95 102 91 97 101 91 100 98 91 99 98 91 99 97 90 98 97 90 98 96 89 97 95 88 96 95 88 96 98 91 99 98 91 99 98 91 99 98 91 99 98 91 99 98 91 99 98 91 99 98 91 99 99 93 103 99 93 103 99 93 103 99 93 103 99 93 103 99 93 103 99 93 103 99 93 103 104 98 108 104 98 108 104 98 108 104 98 108 104 98 108 104 98 108 104 98 108 105 98 106 116 101 108 115 98 104 113 96 102 110 93 99 106 89 95 103 86 92 101 84 90 99 82 88 93 76 82 91 74 80 89 72 78 86 69 75 82 65 71 79 62 68 77 60 66 77 58 64 90 64 75 91 63 75 91 63 75 91 63 75 91 63 75 91 63 75 91 63 75 91 63 75 99 71 83 101 73 85 103 75 87 106 78 90 110 82 94 113 85 97 115 87 99 116 90 101 100 80 91 100 83 93 105 83 95 108 86 98 115 89 102 119 91 105 123 92 107 127 93 109 110 71 89 113 70 89 114 69 89 116 69 89 119 67 89 119 67 89 121 66 89 120 66 89 118 69 90 113 68 88 108 63 83 99 58 76 93 52 70 83 46 63 76 42 58 72 41 56 53 27 40 52 30 42
76 64 66 72 60 62 69 57 59 67 55 57 68 52 55 73 47 58 76 46 58 76 46 58 76 46 58 76 46 58 76 46 58 76 46 58 76 46 58 73 43 55 73 43 55 73 43 55 73 43 55 73 43 55 73 43 55 73 43 55 70 44 55 53 31 43 50 33 43 50 33 43 50 33 43 50 33 43 50 33 43 50 33 43 50 33 43 45 28 38 45 28 38 45 28 38 45 28 38 45 28 38 45 28 38 45 28 38 47 27 38 68 44 60 68 44 60 68 44 60 66 45 60 66 45 60 63 47 60 61 47 60 59 49 60 48 42 52 45 44 52 44 44 52 41 46 52 41 46 52 38 47 52 38 47 52 38 47 52 47 47 55 49 48 56 51 50 58 53 52 60 56 55 63 58 57 65 60 59 67 61 60 68 74 73 81 72 71 79 68 67 75 62 61 69 56 55 63 51 50 58 47 46 54 45 42 49 47 41 43 51 42 43 56 47 48 63 54 55 69 60 61 76 67 68 81 72 73 83 74 75 96 87 88 94 85 86 92 83 84 89 80 81 85 76 77 82 73 74 80 71 72 78 69 72 56 45 51 56 45 53 56 45 53 56 45 53 56 45 53 56 45 53 56 45 53 56 45 53 60 49 57 60 49 57 60 49 57 60 49 57 60 49 57 60 49 57 60 49 57 60 49 57 75 62 69 75 62 69 75 62 69 75 62 69 75 62 69 75 62 69 75 62 69 75 62 69 89 76 83 90 77 84 92 79 86 96 83 90 99 86 93 102 89 96 105 92 99 105 94 100 102 92 101 99 92 100 97 90 98 95 88 96 92 85 93 90 83 91 88 81 89 87 80 88 98 91 99 98 91 99 98 91 99 98 91 99 98 91 99 98 91 99 98 91 99 98 91 99 99 93 103 99 93 103 99 93 103 99 93 103 99 93 103 99 93 103 99 93 103 99 93 103 104 98 108 104 98 108 104 98 108 104 98 108 104 98 108 104 98 108 104 98 108 105 98 106 116 101 108 115 98 104 113 96 102 110 93 99 106 89 95 103 86 92 101 84 90 99 82 88 96 79 85 95 78 84 92 75 81 89 72 78 86 69 75 82 65 71 80 63 69 81 62 68 90 64 75 91 63 75 91 63 75 91 63 75 91 63 75 91 63 75 91 63 75 91 63 75 96 68 80 97 69 81 100 72 84 103 75 87 106 78 90 110 82 94 112 84 96 112 86 97 100 80 91 100 83 93 105 83 95 108 86 98 115 89 102 119 91 105 123 92 107 127 93 109 110 71 89 113 70 89 114 69 89 116 69 89 119 67 89 119 67 89 121 66 89 120 66 89 118 69 90 113 68 88 108 63 83 99 58 76 93 52 70 83 46 63 76 42 58 72 41 56 53 27 40 52 30 42
76 64 66 72 60 62 69 57 59 67 55 57 68 52 55 73 47 58 76 46 58 76 46 58 76 46 58 76 46 58 76 46 58 76 46 58 76 46 58 73 43 55 73 43 55 73 43 55 73 43 55 73 43 55 73 43 55 73 43 55 70 44 55 53 31 43 50 33 43 50 33 43 50 33 43 50 33 43 50 33 43 50 33 43 50 33 43 49 32 42 49 32 42 49 32 42 49 32 42 49 32 42 49 32 42 49 32 42 51 31 42 74 50 66 74 50 66 74 50 66 72 51 66 72 51 66 69 53 66 67 53 66 65 55 66 48 42 52 45 44 52 44 44 52 41 46 52 41 46 52 38 47 52 38 47 52 38 47 52 49 49 57 52 51 59 55 54 62 59 58 66 64 63 71 68 67 75 71 70 78 72 71 79 82 81 89 79 78 86 74 73 81 67 66 74 59 58 66 52 51 59 46 45 53 44 41 48 47 41 43 51 42 43 56 47 48 63 54 55 69 60 61 76 67 68 81 72 73 83 74 75 96 87 88 94 85 86 92 83 84 89 80 81 85 76 77 82 73 74 80 71 72 78 69 72 56 45 51 56 45 53 56 45 53 56 45 53 56 45 53 56 45 53 56 45 53 56 45 53 66 55 63 66 55 63 66 55 63 66 55 63 66 55 63 66 55 63 66 55 63 66 55 63 79 66 73 79 66 73 79 66 73 79 66 73 79 66 73 79 66 73 79 66 73 79 66 73 92 79 86 93 80 87 96 83 90 99 86 93 102 89 96 106 93 100 108 95 102 108 97 103 103 93 102 100 93 101 97 90 98 92 85 93 88 81 89 84 77 85 81 74 82 79 72 80 98 91 99 98 91 99 98 91 99 98 91 99 98 91 99 98 91 99 98 91 99 98 91 99 99 93 103 99 93 103 99 93 103 99 93 103 99 93 103 99 93 103 99 93 103 99 93 103 104 98 108 104 98 108 104 98 108 104 98 108 104 98 108 104 98 108 104 98 108 105 98 106 116 101 108 115 98 104 113 96 102 110 93 99 106 89 95 103 86 92 101 84 90 99 82 88 99 82 88 98 81 87 96 79 85 92 75 81 89 72 78 86 69 75 83 66 72 84 65 71 90 64 75 91 63 75 91 63 75 91 63 75 91 63 75 91 63 75 91 63 75 91 63 75 93 65 77 94 66 78 96 68 80 100 72 84 103 75 87 106 78 90 109 81 93 109 83 94 100 80 91 100 83 93 105 83 95 108 86 98 115 89 102 119 91 105 123 92 107 127 93 109 110 71 89 113 70 89 114 69 89 116 69 89 119 67 89 119 67 89 121 66 89 120 66 89 118 69 90 113 68 88 108 63 83 99 58 76 93 52 70 83 46 63 76 42 58 72 41 56 53 27 40 52 30 42
76 64 66 72 60 62 69 57 59 67 55 57 68 52 55 73 47 58 76 46 58 76 46 58 76 46 58 76 46 58 76 46 58 76 46 58 76 46 58 73 43 55 73 43 55 73 43 55 73 43 55 73 43 55 73 43 55 73 43 55 70 44 55 53 31 43 50 33 43 50 33 43 50 33 43 50 33 43 50 33 43 50 33 43 50 33 43 52 35 45 52 35 45 52 35 45 52 35 45 52 35 45 52 35 45 52 35 45 54 34 45 81 57 73 81 57 73 81 57 73 79 58 73 79 58 73 76 60 73 74 60 73 72 62 73 48 42 52 45 44 52 44 44 52 41 46 52 41 46 52 38 47 52 38 47 52 38 47 52 51 51 59 55 54 62 59 58 66 65 64 72 71 70 78 77 76 84 81 80 88 83 82 90 90 89 97 86 85 93 80 79 87 71 70 78 61 60 68 52 51 59 45 44 52 43 40 47 47 41 43 51 42 43 56 47 48 63 54 55 69 60 61 76 67 68 81 72 73 83 74 75 96 87 88 94 85 86 92 83 84 89 80 81 85 76 77 82 73 74 80 71 72 78 69 72 56 45 51 56 45 53 56 45 53 56 45 53 56 45 53 56 45 53 56 45 53 56 45 53 73 62 70 73 62 70 73 62 70 73 62 70 73 62 70 73 62 70 73 62 70 73 62 70 82 69 76 82 69 76 82 69 76 82 69 76 82 69 76 82 69 76 82 69 76 82 69 76 95 82 89 97 84 91 99 86 93 102 89 96 106 93 100 109 96 103 111 98 105 112 101 107 105 95 104 100 93 101 96 89 97 90 83 91 84 77 85 78 71 79 74 67 75 72 65 73 98 91 99 98 91 99 98 91 99 98 91 99 98 91 99 98 91 99 98 91 99 98 91 99 99 93 103 99 93 103 99 93 103 99 93 103 99 93 103 99 93 103 99 93 103 99 93 103 104 98 108 104 98 108 104 98 108 104 98 108 104 98 108 104 98 108 104 98 108 105 98 106 116 101 108 115 98 104 113 96 102 110 93 99 106 89 95 103 86 92 101 84 90 99 82 88 103 86 92 101 84 90 99 82 88 96 79 85 92 75 81 89 72 78 87 70 76 87 68 74 90 64 75 91 63 75 91 63 75 91 63 75 91 63 75 91 63 75 91 63 75 91 63 75 89 61 73 91 63 75 93 65 77 96 68 80 100 72 84 103 75 87 105 77 89 106 80 91 100 80 91 100 83 93 105 83 95 108 86 98 115 89 102 119 91 105 123 92 107 127 93 109 110 71 89 113 70 89 114 69 89 116 69 89 119 67 89 119 67 89 121 66 89 120 66 89 118 69 90 113 68 88 108 63 83 99 58 76 93 52 70 83 46 63 76 42 58 72 41 56 53 27 40 52 30 42
76 64 66 72 60 62 69 57 59 67 55 57 68 52 55 73 47 58 76 46 58 76 46 58 76 46 58 76 46 58 76 46 58 76 46 58 76 46 58 73 43 55 73 43 55 73 43 55 73 43 55 73 43 55 73 43 55 73 43 55 70 44 55 53 31 43 50 33 43 50 33 43 50 33 43 50 33 43 50 33 43 50 33 43 50 33 43 54 37 47 54 37 47 54 37 47 54 37 47 54 37 47 54 37 47 54 37 47 56 36 47 86 62 78 86 62 78 86 62 78 84 63 78 84 63 78 81 65 78 79 65 78 77 67 78 48 42 52 45 44 52 44 44 52 41 46 52 41 46 52 38 47 52 38 47 52 38 47 52 53 53 61 57 56 64 62 61 69 69 68 76 76 75 83 83 82 90 89 88 96 92 91 99 96 95 103 92 91 99 84 83 91 74 73 81 63 62 70 53 52 60 45 44 52 42 39 46 47 41 43 51 42 43 56 47 48 63 54 55 69 60 61 76 67 68 81 72 73 83 74 75 96 87 88 94 85 86 92 83 84 89 80 81 85 76 77 82 73 74 80 71 72 78 69 72 56 45 51 56 45 53 56 45 53 56 45 53 56 45 53 56 45 53 56 45 53 56 45 53 78 67 75 78 67 75 78 67 75 78 67 75 78 67 75 78 67 75 78 67 75 78 67 75 84 71 78 84 71 78 84 71 78 84 71 78 84 71 78 84 71 78 84 71 78 84 71 78 98 85 92 99 86 93 101 88 95 105 92 99 108 95 102 111 98 105 114 101 108 114 103 109 106 96 105 101 94 102 95 88 96 88 81 89 81 74 82 74 67 75 69 62 70 66 59 67 98 91 99 98 91 99 98 91 99 98 91 99 98 91 99 98 91 99 98 91 99 98 91 99 99 93 103 99 93 103 99 93 103 99 93 103 99 93 103 99 93 103 99 93 103 99 93 103 104 98 108 104 98 108 104 98 108 104 98 108 104 98 108 104 98 108 104 98 108 105 98 106 116 101 108 115 98 104 113 96 102 110 93 99 106 89 95 103 86 92 101 84 90 99 82 88 105 88 94 104 87 93 101 84 90 98 81 87 95 78 84 91 74 80 89 72 78 90 71 77 90 64 75 91 63 75 91 63 75 91 63 75 91 63 75 91 63 75 91 63 75 91 63 75 87 59 71 88 60 72 91 63 75 94 66 78 97 69 81 101 73 85 103 75 87 103 77 88 100 80 91 100 83 93 105 83 95 108 86 98 115 89 102 119 91 105 123 92 107 127 93 109 110 71 89 113 70 89 114 69 89 116 69 89 119 67 89 119 67 89 121 66 89 120 66 89 118 69 90 113 68 88 108 63 83 99 58 76 93 52 70 83 46 63 76 42 58 72 41 56 53 27 40 52 30 42
76 64 66 72 60 62 69 57 59 67 55 57 68 52 55 73 47 58 76 46 58 76 46 58 76 46 58 76 46 58 76 46 58 76 46 58 76 46 58 73 43 55 73 43 55 73 43 55 73 43 55 73 43 55 73 43 55 73 43 55 70 44 55 53 31 43 50 33 43 50 33 43 50 33 43 50 33 43 50 33 43 50 33 43 50 33 43 56 39 49 56 39 49 56 39 49 56 39 49 56 39 49 56 39 49 56 39 49 58 38 49 88 64 80 88 64 80 88 64 80 86 65 80 86 65 80 83 67 80 81 67 80 79 69 80 48 42 52 45 44 52 44 44 52 41 46 52 41 46 52 38 47 52 38 47 52 38 47 52 54 54 62 58 57 65 64 63 71 71 70 78 79 78 86 87 86 94 93 92 100 96 95 103 99 98 106 95 94 102 86 85 93 75 74 82 64 63 71 53 52 60 45 44 52 41 38 45 47 41 43 51 42 43 56 47 48 63 54 55 69 60 61 76 67 68 81 72 73 83 74 75 96 87 88 94 85 86 92 83 84 89 80 81 85 76 77 82 73 74 80 71 72 78 69 72 56 45 51 56 45 53 56 45 53 56 45 53 56 45 53 56 45 53 56 45 53 56 45 53 80 69 77 80 69 77 80 69 77 80 69 77 80 69 77 80 69 77 80 69 77 80 69 77 86 73 80 86 73 80 86 73 80 86 73 80 86 73 80 86 73 80 86 73 80 86 73 80 99 86 93 100 87 94 103 90 97 106 93 100 109 96 103 113 100 107 115 102 109 115 104 110 106 96 105 101 94 102 95 88 96 87 80 88 79 72 80 72 65 73 66 59 67 63 56 64 98 91 99 98 91 99 98 91 99 98 91 99 98 91 99 98 91 99 98 91 99 98 91 99 99 93 103 99 93 103 99 93 103 99 93 103 99 93 103 99 93 103 99 93 103 99 93 103 104 98 108 104 98 108 104 98 108 104 98 108 104 98 108 104 98 108 104 98 108 105 98 106 116 101 108 115 98 104 113 96 102 110 93 99 106 89 95 103 86 92 101 84 90 99 82 88 106 89 95 105 88 94 103 86 92 99 82 88 96 79 85 93 76 82 90 73 79 91 72 78 90 64 75 91 63 75 91 63 75 91 63 75 91 63 75 91 63 75 91 63 75 91 63 75 86 58 70 87 59 71 89 61 73 93 65 77 96 68 80 99 71 83 102 74 86 102 76 87 100 80 91 100 83 93 105 83 95 108 86 98 115 89 102 119 91 105 123 92 107 127 93 109 110 71 89 113 70 89 114 69 89 116 69 89 119 67 89 119 67 89 121 66 89 120 66 89 118 69 90 113 68 88 108 63 83 99 58 76 93 52 70 83 46 63 76 42 58 72 41 56 53 27 40 52 30 42
86 74 76 82 70 72 79 67 69 77 65 67 78 62 65 76 50 61 79 49 61 79 49 61 79 49 61 79 49 61 79 49 61 79 49 61 79 49 61 81 51 63 79 49 61 77 47 59 74 44 56 70 40 52 67 37 49 65 35 47 60 34 45 57 35 47 54 37 47 54 37 47 54 37 47 54 37 47 54 37 47 54 37 47 54 37 47 49 32 42 50 33 43 53 36 46 56 39 49 59 42 52 63 46 56 65 48 58 68 48 59 83 59 75 81 57 73 79 55 71 74 53 68 70 49 64 64 48 61 60 46 59 56 46 57 54 48 58 50 49 57 48 48 56 44 49 55 43 48 54 38 47 52 38 47 52 37 46 51 85 85 93 86 85 93 86 85 93 86 85 93 86 85 93 86 85 93 86 85 93 86 85 93 90 89 97 93 92 100 96 95 103 95 94 102 88 87 95 76 75 83 63 62 70 56 53 60 35 29 31 40 31 32 46 37 38 54 45 46 62 53 54 69 60 61 75 66 67 78 69 70 105 96 97 102 93 94 96 87 88 88 79 80 80 71 72 73 64 65 67 58 59 64 55 58 57 46 52 57 46 54 57 46 54 57 46 54 57 46 54 57 46 54 57 46 54 57 46 54 84 73 81 84 73 81 84 73 81 84 73 81 84 73 81 84 73 81 84 73 81 84 73 81 80 67 74 81 68 75 83 70 77 87 74 81 90 77 84 93 80 87 96 83 90 97 84 91 106 93 100 106 93 100 106 93 100 106 93 100 106 93 100 106 93 100 106 93 100 105 94 100 108 98 107 98 91 99 85 78 86 73 66 74 66 59 67 65 58 66 68 61 69 71 64 72 83 76 84 85 78 86 87 80 88 90 83 91 94 87 95 97 90 98 99 92 100 101 94 102 102 96 106 102 96 106 102 96 106 102 96 106 102 96 106 102 96 106 102 96 106 102 96 106 104 98 108 104 98 108 104 98 108 104 98 108 104 98 108 104 98 108 104 98 108 105 98 106 104 89 96 103 86 92 101 84 90 98 81 87 94 77 83 91 74 80 89 72 78 87 70 76 96 79 85 97 80 86 100 83 89 103 86 92 106 89 95 110 93 99 112 95 101 115 96 102 108 82 93 109 81 93 109 81 93 109 81 93 109 81 93 109 81 93 109 81 93 109 81 93 94 66 78 94 66 78 94 66 78 94 66 78 94 66 78 94 66 78 94 66 78 93 67 78 109 89 100 107 90 100 110 88 100 110 88 100 113 87 100 114 86 100 116 85 100 118 84 100 110 71 89 113 70 89 114 69 89 116 69 89 119 67 89 119 67 89 121 66 89 120 66 89 116 67 88 111 66 86 106 61 81 97 56 74 91 50 68 81 44 61 74 40 56 70 39 54 54 28 41 53 31 43
86 74 76 82 70 72 79 67 69 77 65 67 78 62 65 76 50 61 79 49 61 79 49 61 79 49 61 79 49 61 79 49 61 79 49 61 79 49 61 81 51 63 79 49 61 77 47 59 74 44 56 70 40 52 67 37 49 65 35 47 60 34 45 57 35 47 54 37 47 54 37 47 54 37 47 54 37 47 54 37 47 54 37 47 54 37 47 52 35 45 53 36 46 55 38 48 59 42 52 62 45 55 65 48 58 68 51 61 71 51 62 83 59 75 81 57 73 79 55 71 74 53 68 70 49 64 64 48 61 60 46 59 56 46 57 53 47 57 50 49 57 49 49 57 45 50 56 44 49 55 41 50 55 40 49 54 40 49 54 85 85 93 86 85 93 86 85 93 86 85 93 86 85 93 86 85 93 86 85 93 86 85 93 90 89 97 93 92 100 96 95 103 95 94 102 88 87 95 76 75 83 63 62 70 56 53 60 35 29 31 40 31 32 46 37 38 53 44 45 60 51 52 67 58 59 72 63 64 75 66 67 101 92 93 98 89 90 92 83 84 85 76 77 78 69 70 71 62 63 66 57 58 63 54 57 57 46 52 57 46 54 57 46 54 57 46 54 57 46 54 57 46 54 57 46 54 57 46 54 82 71 79 82 71 79 82 71 79 82 71 79 82 71 79 82 71 79 82 71 79 82 71 79 81 68 75 82 69 76 85 72 79 88 75 82 91 78 85 95 82 89 97 84 91 98 85 92 106 93 100 106 93 100 106 93 100 106 93 100 106 93 100 106 93 100 106 93 100 105 94 100 108 98 107 98 91 99 85 78 86 73 66 74 66 59 67 65 58 66 68 61 69 71 64 72 83 76 84 85 78 86 87 80 88 90 83 91 94 87 95 97 90 98 99 92 100 101 94 102 102 96 106 102 96 106 102 96 106 102 96 106 102 96 106 102 96 106 102 96 106 102 96 106 104 98 108 104 98 108 104 98 108 104 98 108 104 98 108 104 98 108 104 98 108 105 98 106 104 89 96 103 86 92 101 84 90 98 81 87 94 77 83 91 74 80 89 72 78 87 70 76 95 78 84 96 79 85 98 81 87 102 85 91 105 88 94 108 91 97 111 94 100 114 95 101 110 84 95 111 83 95 111 83 95 111 83 95 111 83 95 111 83 95 111 83 95 111 83 95 96 68 80 96 68 80 96 68 80 96 68 80 96 68 80 96 68 80 96 68 80 95 69 80 109 89 100 107 90 100 110 88 100 110 88 100 113 87 100 114 86 100 116 85 100 118 84 100 110 71 89 113 70 89 114 69 89 116 69 89 119 67 89 119 67 89 121 66 89 120 66 89 116 67 88 111 66 86 106 61 81 97 56 74 91 50 68 81 44 61 74 40 56 70 39 54 54 28 41 53 31 43
86 74 76 82 70 72 79 67 69 77 65 67 78 62 65 76 50 61 79 49 61 79 49 61 79 49 61 79 49 61 79 49 61 79 49 61 79 49 61 81 51 63 79 49 61 77 47 59 74 44 56 70 40 52 67 37 49 65 35 47 60 34 45 57 35 47 54 37 47 54 37 47 54 37 47 54 37 47 54 37 47 54 37 47 54 37 47 57 40 50 58 41 51 60 43 53 63 46 56 67 50 60 70 53 63 73 56 66 76 56 67 83 59 75 81 57 73 79 55 71 74 53 68 70 49 64 64 48 61 60 46 59 56 46 57 52 46 56 50 49 57 49 49 57 47 52 58 47 52 58 45 54 59 46 55 60 46 55 60 85 85 93 86 85 93 86 85 93 86 85 93 86 85 93 86 85 93 86 85 93 86 85 93 90 89 97 93 92 100 96 95 103 95 94 102 88 87 95 76 75 83 63 62 70 56 53 60 36 30 32 41 32 33 45 36 37 51 42 43 57 48 49 63 54 55 67 58 59 69 60 61 92 83 84 90 81 82 86 77 78 80 71 72 74 65 66 68 59 60 64 55 56 61 52 55 57 46 52 57 46 54 57 46 54 57 46 54 57 46 54 57 46 54 57 46 54 57 46 54 80 69 77 80 69 77 80 69 77 80 69 77 80 69 77 80 69 77 80 69 77 80 69 77 83 70 77 85 72 79 87 74 81 90 77 84 94 81 88 97 84 91 99 86 93 101 88 95 106 93 100 106 93 100 106 93 100 106 93 100 106 93 100 106 93 100 106 93 100 105 94 100 108 98 107 98 91 99 85 78 86 73 66 74 66 59 67 65 58 66 68 61 69 71 64 72 83 76 84 85 78 86 87 80 88 90 83 91 94 87 95 97 90 98 99 92 100 101 94 102 102 96 106 102 96 106 102 96 106 102 96 106 102 96 106 102 96 106 102 96 106 102 96 106 104 98 108 104 98 108 104 98 108 104 98 108 104 98 108 104 98 108 104 98 108 105 98 106 104 89 96 103 86 92 101 84 90 98 81 87 94 77 83 91 74 80 89 72 78 87 70 76 92 75 81 94 77 83 96 79 85 99 82 88 103 86 92 106 89 95 108 91 97 112 93 99 112 86 97 113 85 97 113 85 97 113 85 97 113 85 97 113 85 97 113 85 97 113 85 97 98 70 82 98 70 82 98 70 82 98 70 82 98 70 82 98 70 82 98 70 82 97 71 82 109 89 100 107 90 100 110 88 100 110 88 100 113 87 100 114 86 100 116 85 100 118 84 100 110 71 89 113 70 89 114 69 89 116 69 89 119 67 89 119 67 89 121 66 89 120 66 89 116 67 88 111 66 86 106 61 81 97 56 74 91 50 68 81 44 61 74 40 56 70 39 54 54 28 41 53 31 43
86 74 76 82 70 72 79 67 69 77 65 67 78 62 65 76 50 61 79 49 61 79 49 61 79 49 61 79 49 61 79 49 61 79 49 61 79 49 61 81 51 63 79 49 61 77 47 59 74 44 56 70 40 52 67 37 49 65 35 47 60 34 45 57 35 47 54 37 47 54 37 47 54 37 47 54 37 47 54 37 47 54 37 47 54 37 47 63 46 56 64 47 57 67 50 60 70 53 63 73 56 66 76 59 69 79 62 72 82 62 73 83 59 75 81 57 73 79 55 71 74 53 68 70 49 64 64 48 61 60 46 59 56 46 57 51 45 55 49 48 56 50 50 58 49 54 60 52 57 63 51 60 65 53 62 67 54 63 68 85 85 93 86 85 93 86 85 93 86 85 93 86 85 93 86 85 93 86 85 93 86 85 93 90 89 97 93 92 100 96 95 103 95 94 102 88 87 95 76 75 83 63 62 70 56 53 60 38 32 34 41 32 33 44 35 36 49 40 41 53 44 45 57 48 49 60 51 52 62 53 54 81 72 73 80 71 72 77 68 69 73 64 65 68 59 60 64 55 56 61 52 53 59 50 53 57 46 52 57 46 54 57 46 54 57 46 54 57 46 54 57 46 54 57 46 54 57 46 54 77 66 74 77 66 74 77 66 74 77 66 74 77 66 74 77 66 74 77 66 74 77 66 74 87 74 81 88 75 82 90 77 84 94 81 88 97 84 91 100 87 94 103 90 97 104 91 98 106 93 100 106 93 100 106 93 100 106 93 100 106 93 100 106 93 100 106 93 100 105 94 100 108 98 107 98 91 99 85 78 86 73 66 74 66 59 67 65 58 66 68 61 69 71 64 72 83 76 84 85 78 86 87 80 88 90 83 91 94 87 95 97 90 98 99 92 100 101 94 102 102 96 106 102 96 106 102 96 106 102 96 106 102 96 106 102 96 106 102 96 106 102 96 106 104 98 108 104 98 108 104 98 108 104 98 108 104 98 108 104 98 108 104 98 108 105 98 106 104 89 96 103 86 92 101 84 90 98 81 87 94 77 83 91 74 80 89 72 78 87 70 76 89 72 78 90 73 79 93 76 82 96 79 85 99 82 88 103 86 92 105 88 94 108 89 95 115 89 100 116 88 100 116 88 100 116 88 100 116 88 100 116 88 100 116 88 100 116 88 100 101 73 85 101 73 85 101 73 85 101 73 85 101 73 85 101 73 85 101 73 85 100 74 85 109 89 100 107 90 100 110 88 100 110 88 100 113 87 100 114 86 100 116 85 100 118 84 100 110 71 89 113 70 89 114 69 89 116 69 89 119 67 89 119 67 89 121 66 89 120 66 89 116 67 88 111 66 86 106 61 81 97 56 74 91 50 68 81 44 61 74 40 56 70 39 54 54 28 41 53 31 43
86 74 76 82 70 72 79 67 69 77 65 67 78 62 65 76 50 61 79 49 61 79 49 61 79 49 61 79 49 61 79 49 61 79 49 61 79 49 61 81 51 63 79 49 61 77 47 59 74 44 56 70 40 52 67 37 49 65 35 47 60 34 45 57 35 47 54 37 47 54 37 47 54 37 47 54 37 47 54 37 47 54 37 47 54 37 47 70 53 63 71 54 64 74 57 67 77 60 70 80 63 73 83 66 76 86 69 79 89 69 80 83 59 75 81 57 73 79 55 71 74 53 68 70 49 64 64 48 61 60 46 59 56 46 57 50 44 54 48 47 55 50 50 58 52 57 63 56 61 67 57 66 71 60 69 74 62 71 76 85 85 93 86 85 93 86 85 93 86 85 93 86 85 93 86 85 93 86 85 93 86 85 93 90 89 97 93 92 100 96 95 103 95 94 102 88 87 95 76 75 83 63 62 70 56 53 60 39 33 35 42 33 34 44 35 36 46 37 38 49 40 41 51 42 43 53 44 45 54 45 46 70 61 62 69 60 61 67 58 59 65 56 57 62 53 54 60 51 52 58 49 50 57 48 51 57 46 52 57 46 54 57 46 54 57 46 54 57 46 54 57 46 54 57 46 54 57 46 54 73 62 70 73 62 70 73 62 70 73 62 70 73 62 70 73 62 70 73 62 70 73 62 70 90 77 84 91 78 85 94 81 88 97 84 91 100 87 94 104 91 98 106 93 100 107 94 101 106 93 100 106 93 100 106 93 100 106 93 100 106 93 100 106 93 100 106 93 100 105 94 100 108 98 107 98 91 99 85 78 86 73 66 74 66 59 67 65 58 66 68 61 69 71 64 72 83 76 84 85 78 86 87 80 88 90 83 91 94 87 95 97 90 98 99 92 100 101 94 102 102 96 106 102 96 106 102 96 106 102 96 106 102 96 106 102 96 106 102 96 106 102 96 106 104 98 108 104 98 108 104 98 108 104 98 108 104 98 108 104 98 108 104 98 108 105 98 106 104 89 96 103 86 92 101 84 90 98 81 87 94 77 83 91 74 80 89 72 78 87 70 76 86 69 75 87 70 76 89 72 78 93 76 82 96 79 85 99 82 88 102 85 91 105 86 92 119 93 104 120 92 104 120 92 104 120 92 104 120 92 104 120 92 104 120 92 104 120 92 104 105 77 89 105 77 89 105 77 89 105 77 89 105 77 89 105 77 89 105 77 89 104 78 89 109 89 100 107 90 100 110 88 100 110 88 100 113 87 100 114 86 100 116 85 100 118 84 100 110 71 89 113 70 89 114 69 89 116 69 89 119 67 89 119 67 89 121 66 89 120 66 89 116 67 88 111 66 86 106 61 81 97 56 74 91 50 68 81 44 61 74 40 56 70 39 54 54 28 41 53 31 43
86 74 76 82 70 72 79 67 69 77 65 67 78 62 65 76 50 61 79 49 61 79 49 61 79 49 61 79 49 61 79 49 61 79 49 61 79 49 61 81 51 63 79 49 61 77 47 59 74 44 56 70 40 52 67 37 49 65 35 47 60 34 45 57 35 47 54 37 47 54 37 47 54 37 47 54 37 47 54 37 47 54 37 47 54 37 47 76 59 69 77 60 70 80 63 73 83 66 76 87 70 80 90 73 83 92 75 85 95 75 86 83 59 75 81 57 73 79 55 71 74 53 68 70 49 64 64 48 61 60 46 59 56 46 57 48 42 52 48 47 55 51 51 59 54 59 65 60 65 71 63 72 77 67 76 81 69 78 83 85 85 93 86 85 93 86 85 93 86 85 93 86 85 93 86 85 93 86 85 93 86 85 93 90 89 97 93 92 100 96 95 103 95 94 102 88 87 95 76 75 83 63 62 70 56 53 60 40 34 36 43 34 35 43 34 35 44 35 36 44 35 36 45 36 37 46 37 38 46 37 38 59 50 51 59 50 51 58 49 50 58 49 50 57 48 49 56 47 48 56 47 48 55 46 49 57 46 52 57 46 54 57 46 54 57 46 54 57 46 54 57 46 54 57 46 54 57 46 54 70 59 67 70 59 67 70 59 67 70 59 67 70 59 67 70 59 67 70 59 67 70 59 67 93 80 87 95 82 89 97 84 91 100 87 94 104 91 98 107 94 101 109 96 103 111 98 105 106 93 100 106 93 100 106 93 100 106 93 100 106 93 100 106 93 100 106 93 100 105 94 100 108 98 107 98 91 99 85 78 86 73 66 74 66 59 67 65 58 66 68 61 69 71 64 72 83 76 84 85 78 86 87 80 88 90 83 91 94 87 95 97 90 98 99 92 100 101 94 102 102 96 106 102 96 106 102 96 106 102 96 106 102 96 106 102 96 106 102 96 106 102 96 106 104 98 108 104 98 108 104 98 108 104 98 108 104 98 108 104 98 108 104 98 108 105 98 106 104 89 96 103 86 92 101 84 90 98 81 87 94 77 83 91 74 80 89 72 78 87 70 76 82 65 71 84 67 73 86 69 75 89 72 78 93 76 82 96 79 85 98 81 87 102 83 89 122 96 107 123 95 107 123 95 107 123 95 107 123 95 107 123 95 107 123 95 107 123 95 107 108 80 92 108 80 92 108 80 92 108 80 92 108 80 92 108 80 92 108 80 92 107 81 92 109 89 100 107 90 100 110 88 100 110 88 100 113 87 100 114 86 100 116 85 100 118 84 100 110 71 89 113 70 89 114 69 89 116 69 89 119 67 89 119 67 89 121 66 89 120 66 89 116 67 88 111 66 86 106 61 81 97 56 74 91 50 68 81 44 61 74 40 56 70 39 54 54 28 41 53 31 43
86 74 76 82 70 72 79 67 69 77 65 67 78 62 65 76 50 61 79 49 61 79 49 61 79 49 61 79 49 61 79 49 61 79 49 61 79 49 61 81 51 63 79 49 61 77 47 59 74 44 56 70 40 52 67 37 49 65 35 47 60 34 45 57 35 47 54 37 47 54 37 47 54 37 47 54 37 47 54 37 47 54 37 47 54 37 47 81 64 74 82 65 75 85 68 78 88 71 81 91 74 84 95 78 88 97 80 90 100 80 91 83 59 75 81 57 73 79 55 71 74 53 68 70 49 64 64 48 61 60 46 59 56 46 57 47 41 51 47 46 54 52 52 60 56 61 67 63 68 74 67 76 81 72 81 86 75 84 89 85 85 93 86 85 93 86 85 93 86 85 93 86 85 93 86 85 93 86 85 93 86 85 93 90 89 97 93 92 100 96 95 103 95 94 102 88 87 95 76 75 83 63 62 70 56 53 60 41 35 37 43 34 35 43 34 35 42 33 34 41 32 33 41 32 33 40 31 32 40 31 32 51 42 43 51 42 43 51 42 43 52 43 44 53 44 45 53 44 45 54 45 46 54 45 48 57 46 52 57 46 54 57 46 54 57 46 54 57 46 54 57 46 54 57 46 54 57 46 54 68 57 65 68 57 65 68 57 65 68 57 65 68 57 65 68 57 65 68 57 65 68 57 65 96 83 90 97 84 91 99 86 93 103 90 97 106 93 100 109 96 103 112 99 106 113 100 107 106 93 100 106 93 100 106 93 100 106 93 100 106 93 100 106 93 100 106 93 100 105 94 100 108 98 107 98 91 99 85 78 86 73 66 74 66 59 67 65 58 66 68 61 69 71 64 72 83 76 84 85 78 86 87 80 88 90 83 91 94 87 95 97 90 98 99 92 100 101 94 102 102 96 106 102 96 106 102 96 106 102 96 106 102 96 106 102 96 106 102 96 106 102 96 106 104 98 108 104 98 108 104 98 108 104 98 108 104 98 108 104 98 108 104 98 108 105 98 106 104 89 96 103 86 92 101 84 90 98 81 87 94 77 83 91 74 80 89 72 78 87 70 76 80 63 69 81 64 70 84 67 73 87 70 76 90 73 79 94 77 83 96 79 85 99 80 86 124 98 109 125 97 109 125 97 109 125 97 109 125 97 109 125 97 109 125 97 109 125 97 109 110 82 94 110 82 94 110 82 94 110 82 94 110 82 94 110 82 94 110 82 94 109 83 94 109 89 100 107 90 100 110 88 100 110 88 100 113 87 100 114 86 100 116 85 100 118 84 100 110 71 89 113 70 89 114 69 89 116 69 89 119 67 89 119 67 89 121 66 89 120 66 89 116 67 88 111 66 86 106 61 81 97 56 74 91 50 68 81 44 61 74 40 56 70 39 54 54 28 41 53 31 43
85 75 76 82 70 72 78 68 69 77 65 67 77 62 65 74 51 59 77 49 61 77 49 61 77 49 61 77 49 61 77 49 61 77 49 61 77 49 61 79 51 63 77 49 61 75 47 59 72 44 56 68 40 52 65 37 49 63 35 47 60 34 45 57 36 45 54 37 45 56 36 45 54 37 45 56 36 45 54 37 45 56 36 45 54 37 45 86 66 75 85 68 76 89 69 78 91 74 82 96 76 85 97 80 88 102 82 91 103 83 94 82 60 73 81 57 71 78 56 69 74 54 66 68 50 62 64 48 59 60 47 57 57 45 55 50 40 49 50 45 52 54 51 58 61 60 66 68 69 74 75 76 81 79 82 87 82 85 90 86 85 93 86 85 93 86 85 93 86 85 93 86 85 93 86 85 93 86 85 93 86 85 93 90 89 97 93 92 100 96 95 103 95 94 102 88 87 95 76 75 83 63 62 70 56 53 60 41 36 42 41 35 39 40 33 40 39 33 37 38 31 38 36 30 34 36 29 36 35 29 33 44 37 44 45 39 43 46 39 46 47 41 45 48 41 48 50 44 48 50 43 50 51 44 51 56 46 55 56 46 55 56 46 55 56 46 55 56 46 55 56 46 55 56 46 55 56 46 55 65 55 64 65 55 64 65 55 64 65 55 64 65 55 64 65 55 64 65 55 64 65 55 64 95 85 93 96 87 92 99 89 97 102 93 98 105 95 103 109 100 105 111 101 109 112 103 108 104 94 102 104 95 100 104 94 102 104 95 100 104 94 102 104 95 100 104 94 102 104 94 102 109 97 107 101 89 99 89 76 86 76 64 74 70 57 67 68 56 66 72 59 69 74 62 72 87 74 84 88 76 86 91 78 88 93 81 91 98 85 95 100 88 98 103 90 100 104 92 102 105 95 103 103 96 103 103 96 103 103 96 103 103 96 103 103 96 103 103 96 103 103 96 103 105 98 105 105 98 105 105 98 105 105 98 105 105 98 105 105 98 105 105 98 105 107 97 105 104 89 96 103 86 92 101 84 90 98 81 87 94 77 83 91 74 80 89 72 78 87 70 76 79 62 68 80 63 69 82 65 71 86 69 75 89 72 78 92 75 81 95 78 84 98 79 85 124 101 109 126 100 109 126 100 109 126 100 109 126 100 109 126 100 109 126 100 109 126 100 109 111 85 94 111 85 94 111 85 94 111 85 94 111 85 94 111 85 94 111 85 94 111 85 96 111 87 100 111 87 100 113 86 101 113 87 100 114 86 101 116 85 100 117 84 101 118 84 100 110 71 90 112 71 89 113 70 90 114 69 89 116 68 90 117 68 89 119 67 90 117 68 89 113 68 88 110 67 86 104 63 81 95 56 74 88 51 68 79 45 61 72 41 56 67 41 54 52 28 41 52 32 43
93 85 83 94 84 83 93 85 83 94 84 83 95 83 85 86 65 72 87 61 70 85 59 68 82 56 65 78 52 61 75 49 58 73 47 56 71 45 54 79 53 62 77 51 60 75 49 58 72 46 55 68 42 51 65 39 48 63 37 46 59 36 44 55 34 41 56 37 43 62 41 48 68 49 55 75 54 61 81 62 68 87 66 73 88 69 75 105 84 91 104 85 91 105 84 91 104 85 91 105 84 91 104 85 91 105 84 91 104 85 91 101 81 90 98 78 89 93 73 84 85 68 78 78 61 71 72 55 65 66 50 60 63 47 57 64 48 58 65 52 61 71 58 67 77 66 74 85 74 82 93 82 90 99 88 96 101 91 99 94 89 96 92 89 96 92 89 96 92 89 96 92 89 96 92 89 96 92 89 96 92 89 96 102 99 106 99 96 103 93 90 97 85 82 89 77 74 81 69 66 73 63 60 67 60 57 66 38 36 49 38 36 49 38 36 50 38 36 49 38 36 50 38 36 49 38 36 50 38 36 49 44 42 56 44 42 55 44 42 56 44 42 55 44 42 56 44 42 55 44 42 56 45 41 55 49 43 55 49 43 55 49 43 55 49 43 55 49 43 55 49 43 55 49 43 55 49 43 55 44 38 50 53 47 59 66 60 72 78 72 84 84 78 90 85 79 91 82 76 88 77 74 83 97 94 101 96 95 100 96 95 101 96 95 100 96 95 101 96 95 100 96 95 101 96 95 100 108 107 113 107 106 111 105 104 110 101 100 105 98 97 103 95 94 99 92 91 97 95 88 96 90 72 84 91 69 82 89 65 79 83 61 74 80 56 70 74 52 65 72 48 62 69 47 60 92 68 82 93 71 84 96 72 86 98 76 89 103 79 93 105 83 96 108 84 98 108 88 99 107 95 99 106 96 97 106 96 97 106 96 97 106 96 97 106 96 97 106 96 97 106 96 97 111 101 102 109 99 100 107 97 98 104 94 95 100 90 91 97 87 88 95 85 86 94 82 84 108 91 97 110 91 97 110 91 97 110 91 97 110 91 97 110 91 97 110 91 97 110 91 97 76 57 63 78 59 65 83 64 70 88 69 75 94 75 81 100 81 87 104 85 91 107 88 94 101 80 85 102 81 86 106 85 90 110 89 94 115 94 99 119 98 103 123 102 107 125 104 109 116 95 100 116 95 100 115 94 99 114 93 98 112 91 96 111 90 95 110 89 94 111 88 96 121 90 105 121 87 104 119 84 104 116 82 99 112 77 97 111 74 92 109 71 92 107 70 88 110 71 92 110 71 90 112 70 92 112 70 90 112 70 92 113 70 90 113 69 92 112 70 90 108 69 88 103 66 84 94 60 77 83 50 67 72 41 57 60 32 47 50 26 40 44 24 36 59 41 53 56 43 53
93 85 83 93 85 83 93 85 83 93 85 83 95 83 83 85 66 72 85 62 70 83 60 68 80 57 65 76 53 61 73 50 58 71 48 56 69 46 54 77 54 62 75 52 60 73 50 58 70 47 55 66 43 51 63 40 48 61 38 46 59 36 44 55 34 39 57 36 41 62 41 46 69 48 53 75 54 59 82 61 66 87 66 71 89 68 73 105 84 89 105 84 89 105 84 89 105 84 89 105 84 89 105 84 89 105 84 89 104 85 89 100 80 89 95 78 86 90 73 81 84 67 75 77 60 68 71 54 62 66 49 57 63 46 54 64 47 55 67 50 58 72 55 63 79 62 70 86 69 77 93 76 84 99 82 90 99 86 93 97 90 98 94 91 98 94 91 98 94 91 98 94 91 98 94 91 98 94 91 98 94 91 98 96 93 100 93 90 97 88 85 92 81 78 85 73 70 77 66 63 70 61 58 65 57 56 64 38 35 52 37 36 54 37 36 54 37 36 54 37 36 54 37 36 54 37 36 54 37 36 54 43 42 60 43 42 60 43 42 60 43 42 60 43 42 60 43 42 60 43 42 60 43 42 58 47 43 58 47 43 57 47 43 57 47 43 57 47 43 57 47 43 57 47 43 57 47 43 57 44 40 54 52 48 62 65 61 75 77 73 87 84 80 94 84 80 94 81 77 91 77 75 86 95 95 103 93 96 101 95 96 101 93 96 101 95 96 101 93 96 101 95 96 101 93 96 101 106 107 112 103 106 111 102 103 108 97 100 105 96 97 102 90 93 98 90 91 96 93 88 95 90 70 82 94 66 81 91 63 78 87 59 74 83 55 70 79 51 66 76 48 63 75 47 62 95 67 82 97 69 84 99 71 86 102 74 89 106 78 93 109 81 96 111 83 98 110 87 97 110 94 97 107 96 94 107 96 94 107 96 94 107 96 94 107 96 94 107 96 94 107 96 94 112 101 99 110 99 97 108 97 95 105 94 92 101 90 88 98 87 85 96 85 83 96 82 82 106 90 93 108 89 95 108 89 95 108 89 95 108 89 95 108 89 95 108 89 95 108 89 95 86 67 73 87 68 74 89 70 76 91 72 78 94 75 81 96 77 83 98 79 85 99 80 84 100 81 85 102 83 85 105 86 88 108 89 91 112 93 95 116 97 99 119 100 102 121 102 104 114 95 97 113 94 96 113 94 96 112 93 95 112 93 95 111 92 94 111 92 94 112 89 95 123 89 106 124 85 106 122 83 104 119 80 101 115 76 97 112 73 94 110 71 92 108 69 90 110 71 92 110 71 92 110 71 92 110 71 92 110 71 92 110 71 92 110 71 92 109 71 92 107 70 88 100 67 84 93 60 77 80 52 67 70 42 57 57 33 47 49 27 40 42 24 36 56 43 53 54 44 53
93 85 83 93 85 83 93 85 83 93 85 83 95 83 83 85 66 72 85 62 70 83 60 68 80 57 65 76 53 61 73 50 58 71 48 56 69 46 54 77 54 62 75 52 60 73 50 58 70 47 55 66 43 51 63 40 48 61 38 46 59 36 44 55 34 39 57 36 41 62 41 46 69 48 53 75 54 59 82 61 66 87 66 71 89 68 73 105 84 89 105 84 89 105 84 89 105 84 89 105 84 89 105 84 89 105 84 89 104 85 89 97 77 86 93 76 84 88 71 79 81 64 72 74 57 65 68 51 59 63 46 54 61 44 52 62 45 53 65 48 56 69 52 60 75 58 66 81 64 72 87 70 78 91 74 82 90 77 84 98 91 99 95 92 99 95 92 99 95 92 99 95 92 99 95 92 99 95 92 99 95 92 99 85 82 89 83 80 87 78 75 82 73 70 77 67 64 71 61 58 65 57 54 61 53 52 60 38 35 52 37 36 54 37 36 54 37 36 54 37 36 54 37 36 54 37 36 54 37 36 54 43 42 60 43 42 60 43 42 60 43 42 60 43 42 60 43 42 60 43 42 60 43 42 58 47 43 58 47 43 57 47 43 57 47 43 57 47 43 57 47 43 57 47 43 57 47 43 57 46 42 56 54 50 64 67 63 77 79 75 89 86 82 96 87 83 97 84 80 94 81 78 89 96 95 103 95 96 101 96 95 101 95 96 101 96 95 101 95 96 101 96 95 101 95 96 101 105 104 110 102 103 108 101 100 106 97 98 103 94 93 99 90 91 96 89 88 94 91 84 92 88 66 79 91 63 78 89 61 76 86 58 73 84 56 71 81 53 68 79 51 66 78 50 65 95 67 82 97 69 84 99 71 86 102 74 89 106 78 93 109 81 96 111 83 98 110 87 97 110 94 97 107 96 94 107 96 94 107 96 94 107 96 94 107 96 94 107 96 94 107 96 94 112 101 99 110 99 97 108 97 95 105 94 92 101 90 88 98 87 85 96 85 83 96 82 82 104 88 91 106 87 93 106 87 93 106 87 93 106 87 93 106 87 93 106 87 93 106 87 93 101 82 88 100 81 87 99 80 86 96 77 83 94 75 81 91 72 78 90 71 77 89 70 74 101 82 86 102 83 85 104 85 87 107 88 90 109 90 92 112 93 95 114 95 97 115 96 98 110 91 93 110 91 93 111 92 94 112 93 95 112 93 95 113 94 96 114 95 97 116 93 99 123 89 106 124 85 106 122 83 104 119 80 101 115 76 97 112 73 94 110 71 92 108 69 90 110 71 92 110 71 92 110 71 92 110 71 92 110 71 92 110 71 92 110 71 92 109 71 92 107 70 88 100 67 84 93 60 77 80 52 67 70 42 57 57 33 47 49 27 40 42 24 36 56 43 53 54 44 53
93 85 83 93 85 83 93 85 83 93 85 83 95 83 83 85 66 72 85 62 70 83 60 68 80 57 65 76 53 61 73 50 58 71 48 56 69 46 54 77 54 62 75 52 60 73 50 58 70 47 55 66 43 51 63 40 48 61 38 46 59 36 44 55 34 39 57 36 41 62 41 46 69 48 53 75 54 59 82 61 66 87 66 71 89 68 73 105 84 89 105 84 89 105 84 89 105 84 89 105 84 89 105 84 89 105 84 89 104 85 89 94 74 83 89 72 80 85 68 76 78 61 69 71 54 62 65 48 56 60 43 51 57 40 48 60 43 51 62 45 53 65 48 56 69 52 60 74 57 65 78 61 69 81 64 72 79 66 73 94 87 95 91 88 95 91 88 95 91 88 95 91 88 95 91 88 95 91 88 95 91 88 95 71 68 75 70 67 74 66 63 70 62 59 66 58 55 62 54 51 58 51 48 55 48 47 55 38 35 52 37 36 54 37 36 54 37 36 54 37 36 54 37 36 54 37 36 54 37 36 54 43 42 60 43 42 60 43 42 60 43 42 60 43 42 60 43 42 60 43 42 60 43 42 58 47 43 58 47 43 57 47 43 57 47 43 57 47 43 57 47 43 57 47 43 57 47 43 57 49 45 59 58 54 68 70 66 80 82 78 92 89 85 99 90 86 100 87 83 97 84 81 92 97 94 103 96 95 101 97 94 101 96 95 101 97 94 101 96 95 101 97 94 101 96 95 101 102 99 106 100 99 105 99 96 103 94 93 99 92 89 96 88 87 93 86 83 90 90 80 89 83 61 74 87 59 74 86 58 73 85 57 72 85 57 72 84 56 71 83 55 70 83 55 70 95 67 82 97 69 84 99 71 86 102 74 89 106 78 93 109 81 96 111 83 98 110 87 97 110 94 97 107 96 94 107 96 94 107 96 94 107 96 94 107 96 94 107 96 94 107 96 94 112 101 99 110 99 97 108 97 95 105 94 92 101 90 88 98 87 85 96 85 83 96 82 82 101 85 88 103 84 90 103 84 90 103 84 90 103 84 90 103 84 90 103 84 90 103 84 90 114 95 101 111 92 98 107 88 94 101 82 88 95 76 82 90 71 77 85 66 72 83 64 68 102 83 87 103 84 86 103 84 86 104 85 87 105 86 88 106 87 89 107 88 90 107 88 90 106 87 89 107 88 90 108 89 91 111 92 94 113 94 96 116 97 99 117 98 100 120 97 103 123 89 106 124 85 106 122 83 104 119 80 101 115 76 97 112 73 94 110 71 92 108 69 90 110 71 92 110 71 92 110 71 92 110 71 92 110 71 92 110 71 92 110 71 92 109 71 92 107 70 88 100 67 84 93 60 77 80 52 67 70 42 57 57 33 47 49 27 40 42 24 36 56 43 53 54 44 53
93 85 83 93 85 83 93 85 83 93 85 83 95 83 83 85 66 72 85 62 70 83 60 68 80 57 65 76 53 61 73 50 58 71 48 56 69 46 54 77 54 62 75 52 60 73 50 58 70 47 55 66 43 51 63 40 48 61 38 46 59 36 44 55 34 39 57 36 41 62 41 46 69 48 53 75 54 59 82 61 66 87 66 71 89 68 73 105 84 89 105 84 89 105 84 89 105 84 89 105 84 89 105 84 89 105 84 89 104 85 89 91 71 80 86 69 77 81 64 72 75 58 66 68 51 59 61 44 52 57 40 48 54 37 45 58 41 49 59 42 50 61 44 52 63 46 54 66 49 57 68 51 59 70 53 61 68 55 62 83 76 84 80 77 84 80 77 84 80 77 84 80 77 84 80 77 84 80 77 84 80 77 84 56 53 60 55 52 59 53 50 57 51 48 55 49 46 53 46 43 50 44 41 48 43 42 50 38 35 52 37 36 54 37 36 54 37 36 54 37 36 54 37 36 54 37 36 54 37 36 54 43 42 60 43 42 60 43 42 60 43 42 60 43 42 60 43 42 60 43 42 60 43 42 58 47 43 58 47 43 57 47 43 57 47 43 57 47 43 57 47 43 57 47 43 57 47 43 57 53 49 63 61 57 71 74 70 84 86 82 96 93 89 103 94 90 104 90 86 100 87 84 95 97 94 103 97 94 101 99 94 101 97 94 101 99 94 101 97 94 101 99 94 101 97 94 101 101 96 103 98 95 102 97 92 99 92 89 96 91 86 93 85 82 89 85 80 87 87 77 86 79 57 70 83 55 70 84 56 71 85 57 72 85 57 72 86 58 73 87 59 74 87 59 74 95 67 82 97 69 84 99 71 86 102 74 89 106 78 93 109 81 96 111 83 98 110 87 97 110 94 97 107 96 94 107 96 94 107 96 94 107 96 94 107 96 94 107 96 94 107 96 94 112 101 99 110 99 97 108 97 95 105 94 92 101 90 88 98 87 85 96 85 83 96 82 82 97 81 84 99 80 86 99 80 86 99 80 86 99 80 86 99 80 86 99 80 86 99 80 86 117 98 104 115 96 102 110 91 97 105 86 92 99 80 86 93 74 80 89 70 76 86 67 71 104 85 89 103 84 86 103 84 86 102 83 85 101 82 84 100 81 83 99 80 82 99 80 82 101 82 84 103 84 86 106 87 89 110 91 93 114 95 97 118 99 101 121 102 104 125 102 108 123 89 106 124 85 106 122 83 104 119 80 101 115 76 97 112 73 94 110 71 92 108 69 90 110 71 92 110 71 92 110 71 92 110 71 92 110 71 92 110 71 92 110 71 92 109 71 92 107 70 88 100 67 84 93 60 77 80 52 67 70 42 57 57 33 47 49 27 40 42 24 36 56 43 53 54 44 53
93 85 83 93 85 83 93 85 83 93 85 83 95 83 83 85 66 72 85 62 70 83 60 68 80 57 65 76 53 61 73 50 58 71 48 56 69 46 54 77 54 62 75 52 60 73 50 58 70 47 55 66 43 51 63 40 48 61 38 46 59 36 44 55 34 39 57 36 41 62 41 46 69 48 53 75 54 59 82 61 66 87 66 71 89 68 73 105 84 89 105 84 89 105 84 89 105 84 89 105 84 89 105 84 89 105 84 89 104 85 89 87 67 76 83 66 74 78 61 69 72 55 63 65 48 56 58 41 49 53 36 44 51 34 42 56 39 47 57 40 48 57 40 48 58 41 49 59 42 50 59 42 50 60 43 51 57 44 51 68 61 69 65 62 69 65 62 69 65 62 69 65 62 69 65 62 69 65 62 69 65 62 69 42 39 46 42 39 46 41 38 45 41 38 45 40 37 44 39 36 43 39 36 43 37 36 44 38 35 52 37 36 54 37 36 54 37 36 54 37 36 54 37 36 54 37 36 54 37 36 54 43 42 60 43 42 60 43 42 60 43 42 60 43 42 60 43 42 60 43 42 60 43 42 58 47 43 58 47 43 57 47 43 57 47 43 57 47 43 57 47 43 57 47 43 57 47 43 57 56 52 66 64 60 74 77 73 87 89 85 99 96 92 106 97 93 107 94 90 104 91 88 99 99 93 103 100 93 101 100 93 101 100 93 101 100 93 101 100 93 101 100 93 101 100 93 101 99 92 100 97 90 98 95 88 96 92 85 93 88 81 89 85 78 86 83 76 84 84 72 82 74 52 65 79 51 66 81 53 68 84 56 71 86 58 73 89 61 76 91 63 78 92 64 79 95 67 82 97 69 84 99 71 86 102 74 89 106 78 93 109 81 96 111 83 98 110 87 97 110 94 97 107 96 94 107 96 94 107 96 94 107 96 94 107 96 94 107 96 94 107 96 94 112 101 99 110 99 97 108 97 95 105 94 92 101 90 88 98 87 85 96 85 83 96 82 82 94 78 81 96 77 83 96 77 83 96 77 83 96 77 83 96 77 83 96 77 83 96 77 83 111 92 98 110 91 97 109 90 96 106 87 93 104 85 91 101 82 88 100 81 87 99 80 84 105 86 90 104 85 87 102 83 85 99 80 82 97 78 80 94 75 77 92 73 75 91 72 74 97 78 80 99 80 82 103 84 86 109 90 92 115 96 98 121 102 104 125 106 108 129 106 112 123 89 106 124 85 106 122 83 104 119 80 101 115 76 97 112 73 94 110 71 92 108 69 90 110 71 92 110 71 92 110 71 92 110 71 92 110 71 92 110 71 92 110 71 92 109 71 92 107 70 88 100 67 84 93 60 77 80 52 67 70 42 57 57 33 47 49 27 40 42 24 36 56 43 53 54 44 53
93 85 83 93 85 83 93 85 83 93 85 83 95 83 83 85 66 72 85 62 70 83 60 68 80 57 65 76 53 61 73 50 58 71 48 56 69 46 54 77 54 62 75 52 60 73 50 58 70 47 55 66 43 51 63 40 48 61 38 46 59 36 44 55 34 39 57 36 41 62 41 46 69 48 53 75 54 59 82 61 66 87 66 71 89 68 73 105 84 89 105 84 89 105 84 89 105 84 89 105 84 89 105 84 89 105 84 89 104 85 89 85 65 74 80 63 71 75 58 66 69 52 60 62 45 53 56 39 47 51 34 42 48 31 39 55 38 46 55 38 46 54 37 45 54 37 45 53 36 44 52 35 43 52 35 43 49 36 43 53 46 54 50 47 54 50 47 54 50 47 54 50 47 54 50 47 54 50 47 54 50 47 54 31 28 35 32 29 36 32 29 36 33 30 37 33 30 37 34 31 38 34 31 38 33 32 40 38 35 52 37 36 54 37 36 54 37 36 54 37 36 54 37 36 54 37 36 54 37 36 54 43 42 60 43 42 60 43 42 60 43 42 60 43 42 60 43 42 60 43 42 60 43 42 58 47 43 58 47 43 57 47 43 57 47 43 57 47 43 57 47 43 57 47 43 57 47 43 57 58 54 68 67 63 77 80 76 90 92 88 102 98 94 108 99 95 109 96 92 106 95 89 101 100 92 103 102 92 101 102 92 101 102 92 101 102 92 101 102 92 101 102 92 101 102 92 101 98 88 97 97 87 96 95 85 94 91 81 90 88 78 87 85 75 84 82 72 81 83 70 80 72 48 62 76 48 63 79 51 66 83 55 70 87 59 74 91 63 78 94 66 81 95 67 82 95 67 82 97 69 84 99 71 86 102 74 89 106 78 93 109 81 96 111 83 98 110 87 97 110 94 97 107 96 94 107 96 94 107 96 94 107 96 94 107 96 94 107 96 94 107 96 94 112 101 99 110 99 97 108 97 95 105 94 92 101 90 88 98 87 85 96 85 83 96 82 82 92 76 79 94 75 81 94 75 81 94 75 81 94 75 81 94 75 81 94 75 81 94 75 81 101 82 88 102 83 89 104 85 91 106 87 93 109 90 96 111 92 98 113 94 100 114 95 99 106 87 91 104 85 87 101 82 84 98 79 81 94 75 77 90 71 73 87 68 70 85 66 68 93 74 76 96 77 79 101 82 84 108 89 91 116 97 99 123 104 106 128 109 111 133 110 116 123 89 106 124 85 106 122 83 104 119 80 101 115 76 97 112 73 94 110 71 92 108 69 90 110 71 92 110 71 92 110 71 92 110 71 92 110 71 92 110 71 92 110 71 92 109 71 92 107 70 88 100 67 84 93 60 77 80 52 67 70 42 57 57 33 47 49 27 40 42 24 36 56 43 53 54 44 53
93 85 83 93 85 83 93 85 83 93 85 83 95 83 83 85 66 72 85 62 70 83 60 68 80 57 65 76 53 61 73 50 58 71 48 56 69 46 54 77 54 62 75 52 60 73 50 58 70 47 55 66 43 51 63 40 48 61 38 46 59 36 44 55 34 39 57 36 41 62 41 46 69 48 53 75 54 59 82 61 66 87 66 71 89 68 73 105 84 89 105 84 89 105 84 89 105 84 89 105 84 89 105 84 89 105 84 89 104 85 89 84 64 73 79 62 70 74 57 65 68 51 59 61 44 52 55 38 46 50 33 41 47 30 38 54 37 45 53 36 44 53 36 44 51 34 42 50 33 41 49 32 40 48 31 39 44 31 38 43 36 44 40 37 44 40 37 44 40 37 44 40 37 44 40 37 44 40 37 44 40 37 44 26 23 30 26 23 30 27 24 31 28 25 32 30 27 34 31 28 35 32 29 36 31 30 38 38 35 52 37 36 54 37 36 54 37 36 54 37 36 54 37 36 54 37 36 54 37 36 54 43 42 60 43 42 60 43 42 60 43 42 60 43 42 60 43 42 60 43 42 60 43 42 58 47 43 58 47 43 57 47 43 57 47 43 57 47 43 57 47 43 57 47 43 57 47 43 57 60 56 70 68 64 78 81 77 91 93 89 103 100 96 110 100 96 110 97 93 107 96 90 102 103 91 103 104 91 101 104 91 101 104 91 101 104 91 101 104 91 101 104 91 101 104 91 101 99 86 96 98 85 95 95 82 92 92 79 89 89 76 86 85 72 82 83 70 80 85 67 79 70 46 60 75 47 62 78 50 65 83 55 70 87 59 74 92 64 79 95 67 82 97 69 84 95 67 82 97 69 84 99 71 86 102 74 89 106 78 93 109 81 96 111 83 98 110 87 97 110 94 97 107 96 94 107 96 94 107 96 94 107 96 94 107 96 94 107 96 94 107 96 94 112 101 99 110 99 97 108 97 95 105 94 92 101 90 88 98 87 85 96 85 83 96 82 82 90 74 77 92 73 79 92 73 79 92 73 79 92 73 79 92 73 79 92 73 79 92 73 79 93 74 80 96 77 83 100 81 87 106 87 93 112 93 99 117 98 104 122 103 109 124 105 109 106 87 91 105 86 88 101 82 84 97 78 80 92 73 75 88 69 71 84 65 67 82 63 65 91 72 74 94 75 77 100 81 83 108 89 91 116 97 99 124 105 107 130 111 113 135 112 118 123 89 106 124 85 106 122 83 104 119 80 101 115 76 97 112 73 94 110 71 92 108 69 90 110 71 92 110 71 92 110 71 92 110 71 92 110 71 92 110 71 92 110 71 92 109 71 92 107 70 88 100 67 84 93 60 77 80 52 67 70 42 57 57 33 47 49 27 40 42 24 36 56 43 53 54 44 53
93 85 83 98 90 88 102 94 92 106 98 96 110 98 98 105 86 92 104 81 89 98 75 83 90 67 75 82 59 67 75 52 60 69 46 54 66 43 51 63 40 48 63 40 48 63 40 48 63 40 48 63 40 48 63 40 48 63 40 48 63 40 48 46 25 30 50 29 34 57 36 41 67 46 51 77 56 61 87 66 71 94 73 78 98 77 82 104 83 88 104 83 88 104 83 88 104 83 88 104 83 88 104 83 88 104 83 88 103 84 88 68 48 57 64 47 55 62 45 53 59 42 50 55 38 46 52 35 43 50 33 41 48 31 39 48 31 39 48 31 39 48 31 39 48 31 39 48 31 39 48 31 39 48 31 39 45 32 39 39 32 40 36 33 40 36 33 40 36 33 40 36 33 40 36 33 40 36 33 40 36 33 40 35 32 39 35 32 39 35 32 39 35 32 39 35 32 39 35 32 39 35 32 39 34 33 41 40 37 54 39 38 56 39 38 56 39 38 56 39 38 56 39 38 56 39 38 56 39 38 56 41 40 58 41 40 58 41 40 58 41 40 58 41 40 58 41 40 58 41 40 58 41 40 56 45 41 56 45 41 55 45 41 55 45 41 55 45 41 55 45 41 55 45 41 55 45 41 55 63 59 73 70 66 80 81 77 91 90 86 100 93 89 103 91 87 101 85 81 95 84 76 89 81 67 80 84 66 78 84 66 78 84 66 78 84 66 78 84 66 78 84 66 78 84 66 78 66 48 60 66 48 60 66 48 60 66 48 60 66 48 60 66 48 60 66 48 60 68 48 60 80 53 68 83 55 70 85 57 72 88 60 75 92 64 79 95 67 82 97 69 84 99 71 86 104 76 91 106 78 93 108 80 95 111 83 98 115 87 102 118 90 105 120 92 107 119 96 106 108 92 95 105 94 92 105 94 92 105 94 92 105 94 92 105 94 92 105 94 92 105 94 92 103 92 90 103 92 90 103 92 90 103 92 90 103 92 90 103 92 90 103 92 90 105 91 91 94 78 81 96 77 83 96 77 83 96 77 83 96 77 83 96 77 83 96 77 83 96 77 83 98 79 85 99 80 86 102 83 89 105 86 92 108 89 95 112 93 99 114 95 101 115 96 100 119 100 104 117 98 100 114 95 97 109 90 92 105 86 88 100 81 83 97 78 80 95 76 78 114 95 97 114 95 97 114 95 97 114 95 97 114 95 97 114 95 97 114 95 97 116 93 99 115 81 98 118 79 100 118 79 100 118 79 100 118 79 100 118 79 100 118 79 100 118 79 100 123 84 105 123 84 105 123 84 105 123 84 105 123 84 105 123 84 105 123 84 105 122 84 105 115 78 96 102 69 86 87 54 71 69 41 56 58 30 45 51 27 41 51 29 42 50 32 44 45 32 42 49 39 48
92 84 82 96 88 86 100 92 90 103 95 93 107 95 95 101 82 88 100 77 85 94 71 79 87 64 72 80 57 65 73 50 58 68 45 53 65 42 50 63 40 48 63 40 48 63 40 48 63 40 48 63 40 48 63 40 48 63 40 48 63 40 48 46 25 30 50 29 34 57 36 41 67 46 51 77 56 61 87 66 71 94 73 78 98 77 82 104 83 88 104 83 88 104 83 88 104 83 88 104 83 88 104 83 88 104 83 88 103 84 88 68 48 57 64 47 55 62 45 53 59 42 50 55 38 46 52 35 43 50 33 41 48 31 39 48 31 39 48 31 39 48 31 39 48 31 39 48 31 39 48 31 39 48 31 39 45 32 39 39 32 40 36 33 40 36 33 40 36 33 40 36 33 40 36 33 40 36 33 40 36 33 40 35 32 39 35 32 39 35 32 39 35 32 39 35 32 39 35 32 39 35 32 39 34 33 41 40 37 54 39 38 56 39 38 56 39 38 56 39 38 56 39 38 56 39 38 56 39 38 56 41 40 58 41 40 58 41 40 58 41 40 58 41 40 58 41 40 58 41 40 58 41 40 56 45 41 56 45 41 55 45 41 55 45 41 55 45 41 55 45 41 55 45 41 55 45 41 55 66 62 76 73 69 83 84 80 94 93 89 103 96 92 106 94 90 104 88 84 98 87 79 92 82 64 78 85 63 76 85 63 76 85 63 76 85 63 76 85 63 76 85 63 76 85 63 76 69 47 60 69 47 60 69 47 60 69 47 60 69 47 60 69 47 60 69 47 60 70 46 60 80 53 68 83 55 70 85 57 72 88 60 75 92 64 79 95 67 82 97 69 84 99 71 86 104 76 91 106 78 93 108 80 95 111 83 98 115 87 102 118 90 105 120 92 107 119 96 106 108 92 95 105 94 92 105 94 92 105 94 92 105 94 92 105 94 92 105 94 92 105 94 92 103 92 90 103 92 90 103 92 90 103 92 90 103 92 90 103 92 90 103 92 90 105 91 91 94 78 81 96 77 83 96 77 83 96 77 83 96 77 83 96 77 83 96 77 83 96 77 83 97 78 84 98 79 85 100 81 87 104 85 91 107 88 94 110 91 97 113 94 100 114 95 99 117 98 102 116 97 99 113 94 96 109 90 92 105 86 88 101 82 84 98 79 81 97 78 80 114 95 97 114 95 97 114 95 97 114 95 97 114 95 97 114 95 97 114 95 97 116 93 99 115 81 98 118 79 100 118 79 100 118 79 100 118 79 100 118 79 100 118 79 100 118 79 100 123 84 105 123 84 105 123 84 105 123 84 105 123 84 105 123 84 105 123 84 105 122 84 105 115 78 96 102 69 86 87 54 71 69 41 56 58 30 45 51 27 41 51 29 42 50 32 44 45 32 42 49 39 48
91 83 81 93 85 83 96 88 86 98 90 88 101 89 89 92 73 79 92 69 77 88 65 73 82 59 67 76 53 61 70 47 55 66 43 51 63 40 48 63 40 48 63 40 48 63 40 48 63 40 48 63 40 48 63 40 48 63 40 48 63 40 48 46 25 30 50 29 34 57 36 41 67 46 51 77 56 61 87 66 71 94 73 78 98 77 82 104 83 88 104 83 88 104 83 88 104 83 88 104 83 88 104 83 88 104 83 88 103 84 88 68 48 57 64 47 55 62 45 53 59 42 50 55 38 46 52 35 43 50 33 41 48 31 39 48 31 39 48 31 39 48 31 39 48 31 39 48 31 39 48 31 39 48 31 39 45 32 39 39 32 40 36 33 40 36 33 40 36 33 40 36 33 40 36 33 40 36 33 40 36 33 40 35 32 39 35 32 39 35 32 39 35 32 39 35 32 39 35 32 39 35 32 39 34 33 41 40 37 54 39 38 56 39 38 56 39 38 56 39 38 56 39 38 56 39 38 56 39 38 56 41 40 58 41 40 58 41 40 58 41 40 58 41 40 58 41 40 58 41 40 58 41 40 56 45 41 56 45 41 55 45 41 55 45 41 55 45 41 55 45 41 55 45 41 55 45 41 55 70 66 80 76 72 86 87 83 97 96 92 106 99 95 109 97 93 107 91 87 101 92 81 95 82 61 76 84 60 74 84 60 74 84 60 74 84 60 74 84 60 74 84 60 74 84 60 74 70 46 60 70 46 60 70 46 60 70 46 60 70 46 60 70 46 60 70 46 60 72 45 60 81 53 68 83 55 70 85 57 72 88 60 75 92 64 79 95 67 82 97 69 84 99 71 86 104 76 91 106 78 93 108 80 95 111 83 98 115 87 102 118 90 105 120 92 107 119 96 106 108 92 95 105 94 92 105 94 92 105 94 92 105 94 92 105 94 92 105 94 92 105 94 92 103 92 90 103 92 90 103 92 90 103 92 90 103 92 90 103 92 90 103 92 90 105 91 91 94 78 81 96 77 83 96 77 83 96 77 83 96 77 83 96 77 83 96 77 83 96 77 83 94 75 81 96 77 83 98 79 85 101 82 88 105 86 92 108 89 95 110 91 97 112 93 97 114 95 99 113 94 96 111 92 94 108 89 91 106 87 89 103 84 86 101 82 84 100 81 83 114 95 97 114 95 97 114 95 97 114 95 97 114 95 97 114 95 97 114 95 97 116 93 99 115 81 98 118 79 100 118 79 100 118 79 100 118 79 100 118 79 100 118 79 100 118 79 100 123 84 105 123 84 105 123 84 105 123 84 105 123 84 105 123 84 105 123 84 105 122 84 105 115 78 96 102 69 86 87 54 71 69 41 56 58 30 45 51 27 41 51 29 42 50 32 44 45 32 42 49 39 48
88 80 78 89 81 79 90 82 80 91 83 81 93 81 81 81 62 68 82 59 67 79 56 64 75 52 60 70 47 55 66 43 51 63 40 48 61 38 46 63 40 48 63 40 48 63 40 48 63 40 48 63 40 48 63 40 48 63 40 48 63 40 48 46 25 30 50 29 34 57 36 41 67 46 51 77 56 61 87 66 71 94 73 78 98 77 82 104 83 88 104 83 88 104 83 88 104 83 88 104 83 88 104 83 88 104 83 88 103 84 88 68 48 57 64 47 55 62 45 53 59 42 50 55 38 46 52 35 43 50 33 41 48 31 39 48 31 39 48 31 39 48 31 39 48 31 39 48 31 39 48 31 39 48 31 39 45 32 39 39 32 40 36 33 40 36 33 40 36 33 40 36 33 40 36 33 40 36 33 40 36 33 40 35 32 39 35 32 39 35 32 39 35 32 39 35 32 39 35 32 39 35 32 39 34 33 41 40 37 54 39 38 56 39 38 56 39 38 56 39 38 56 39 38 56 39 38 56 39 38 56 41 40 58 41 40 58 41 40 58 41 40 58 41 40 58 41 40 58 41 40 58 41 40 56 45 41 56 45 41 55 45 41 55 45 41 55 45 41 55 45 41 55 45 41 55 45 41 55 69 65 79 76 72 86 86 82 96 95 91 105 98 94 108 96 92 106 90 86 100 91 80 94 80 57 73 83 56 71 84 56 71 83 56 71 84 56 71 83 56 71 84 56 71 83 56 71 73 45 60 72 45 60 73 45 60 72 45 60 73 45 60 72 45 60 73 45 60 73 45 60 81 53 68 83 55 70 85 57 72 88 60 75 92 64 79 95 67 82 97 69 84 99 71 86 104 76 91 106 78 93 108 80 95 111 83 98 115 87 102 118 90 105 120 92 107 119 96 106 108 92 95 105 94 92 105 94 92 105 94 92 105 94 92 105 94 92 105 94 92 105 94 92 103 92 90 103 92 90 103 92 90 103 92 90 103 92 90 103 92 90 103 92 90 105 91 91 94 78 81 96 77 83 96 77 83 96 77 83 96 77 83 96 77 83 96 77 83 96 77 83 91 72 78 92 73 79 95 76 82 98 79 85 101 82 88 105 86 92 107 88 94 108 89 93 109 90 94 109 90 92 108 89 91 107 88 90 107 88 90 106 87 89 105 86 88 105 86 88 114 95 97 114 95 97 114 95 97 114 95 97 114 95 97 114 95 97 114 95 97 116 93 99 115 81 98 118 79 100 118 79 100 118 79 100 118 79 100 118 79 100 118 79 100 118 79 100 123 84 105 123 84 105 123 84 105 123 84 105 123 84 105 123 84 105 123 84 105 122 84 105 115 78 96 102 69 86 87 54 71 69 41 56 58 30 45 51 27 41 51 29 42 50 32 44 45 32 42 49 39 48
86 78 76 85 77 75 84 76 74 83 75 73 85 73 73 70 51 57 71 48 56 69 46 54 67 44 52 64 41 49 62 39 47 60 37 45 59 36 44 63 40 48 63 40 48 63 40 48 63 40 48 63 40 48 63 40 48 63 40 48 63 40 48 46 25 30 50 29 34 57 36 41 67 46 51 77 56 61 87 66 71 94 73 78 98 77 82 104 83 88 104 83 88 104 83 88 104 83 88 104 83 88 104 83 88 104 83 88 103 84 88 68 48 57 64 47 55 62 45 53 59 42 50 55 38 46 52 35 43 50 33 41 48 31 39 48 31 39 48 31 39 48 31 39 48 31 39 48 31 39 48 31 39 48 31 39 45 32 39 39 32 40 36 33 40 36 33 40 36 33 40 36 33 40 36 33 40 36 33 40 36 33 40 35 32 39 35 32 39 35 32 39 35 32 39 35 32 39 35 32 39 35 32 39 34 33 41 40 37 54 39 38 56 39 38 56 39 38 56 39 38 56 39 38 56 39 38 56 39 38 56 41 40 58 41 40 58 41 40 58 41 40 58 41 40 58 41 40 58 41 40 58 41 40 56 45 41 56 45 41 55 45 41 55 45 41 55 45 41 55 45 41 55 45 41 55 45 41 55 62 58 72 69 65 79 79 75 89 88 84 98 92 88 102 89 85 99 84 80 94 84 73 87 76 53 69 80 52 67 82 51 67 80 52 67 82 51 67 80 52 67 82 51 67 80 52 67 75 44 60 73 45 60 75 44 60 73 45 60 75 44 60 73 45 60 75 44 60 73 45 60 81 53 68 83 55 70 85 57 72 88 60 75 92 64 79 95 67 82 97 69 84 99 71 86 104 76 91 106 78 93 108 80 95 111 83 98 115 87 102 118 90 105 120 92 107 119 96 106 108 92 95 105 94 92 105 94 92 105 94 92 105 94 92 105 94 92 105 94 92 105 94 92 103 92 90 103 92 90 103 92 90 103 92 90 103 92 90 103 92 90 103 92 90 105 91 91 94 78 81 96 77 83 96 77 83 96 77 83 96 77 83 96 77 83 96 77 83 96 77 83 88 69 75 89 70 76 91 72 78 95 76 82 98 79 85 101 82 88 104 85 91 105 86 90 105 86 90 105 86 88 106 87 89 107 88 90 107 88 90 108 89 91 109 90 92 109 90 92 114 95 97 114 95 97 114 95 97 114 95 97 114 95 97 114 95 97 114 95 97 116 93 99 115 81 98 118 79 100 118 79 100 118 79 100 118 79 100 118 79 100 118 79 100 118 79 100 123 84 105 123 84 105 123 84 105 123 84 105 123 84 105 123 84 105 123 84 105 122 84 105 115 78 96 102 69 86 87 54 71 69 41 56 58 30 45 51 27 41 51 29 42 50 32 44 45 32 42 49 39 48
83 75 73 81 73 71 78 70 68 76 68 66 77 65 65 59 40 46 61 38 46 60 37 45 60 37 45 59 36 44 58 35 43 58 35 43 57 34 42 63 40 48 63 40 48 63 40 48 63 40 48 63 40 48 63 40 48 63 40 48 63 40 48 46 25 30 50 29 34 57 36 41 67 46 51 77 56 61 87 66 71 94 73 78 98 77 82 104 83 88 104 83 88 104 83 88 104 83 88 104 83 88 104 83 88 104 83 88 103 84 88 68 48 57 64 47 55 62 45 53 59 42 50 55 38 46 52 35 43 50 33 41 48 31 39 48 31 39 48 31 39 48 31 39 48 31 39 48 31 39 48 31 39 48 31 39 45 32 39 39 32 40 36 33 40 36 33 40 36 33 40 36 33 40 36 33 40 36 33 40 36 33 40 35 32 39 35 32 39 35 32 39 35 32 39 35 32 39 35 32 39 35 32 39 34 33 41 40 37 54 39 38 56 39 38 56 39 38 56 39 38 56 39 38 56 39 38 56 39 38 56 41 40 58 41 40 58 41 40 58 41 40 58 41 40 58 41 40 58 41 40 58 41 40 56 45 41 56 45 41 55 45 41 55 45 41 55 45 41 55 45 41 55 45 41 55 45 41 55 50 46 60 57 53 67 67 63 77 76 72 86 80 76 90 77 73 87 72 68 82 72 61 75 74 50 66 79 48 64 80 47 64 79 48 64 80 47 64 79 48 64 80 47 64 79 48 64 76 43 60 75 44 60 76 43 60 75 44 60 76 43 60 75 44 60 76 43 60 75 44 60 81 53 68 83 55 70 85 57 72 88 60 75 92 64 79 95 67 82 97 69 84 99 71 86 104 76 91 106 78 93 108 80 95 111 83 98 115 87 102 118 90 105 120 92 107 119 96 106 108 92 95 105 94 92 105 94 92 105 94 92 105 94 92 105 94 92 105 94 92 105 94 92 103 92 90 103 92 90 103 92 90 103 92 90 103 92 90 103 92 90 103 92 90 105 91 91 94 78 81 96 77 83 96 77 83 96 77 83 96 77 83 96 77 83 96 77 83 96 77 83 84 65 71 86 67 73 88 69 75 91 72 78 95 76 82 98 79 85 100 81 87 102 83 87 100 81 85 101 82 84 103 84 86 106 87 89 108 89 91 111 92 94 113 94 96 114 95 97 114 95 97 114 95 97 114 95 97 114 95 97 114 95 97 114 95 97 114 95 97 116 93 99 115 81 98 118 79 100 118 79 100 118 79 100 118 79 100 118 79 100 118 79 100 118 79 100 123 84 105 123 84 105 123 84 105 123 84 105 123 84 105 123 84 105 123 84 105 122 84 105 115 78 96 102 69 86 87 54 71 69 41 56 58 30 45 51 27 41 51 29 42 50 32 44 45 32 42 49 39 48
82 74 72 78 70 68 74 66 64 71 63 61 71 59 59 51 32 38 53 30 38 53 30 38 54 31 39 55 32 40 55 32 40 56 33 41 56 33 41 63 40 48 63 40 48 63 40 48 63 40 48 63 40 48 63 40 48 63 40 48 63 40 48 46 25 30 50 29 34 57 36 41 67 46 51 77 56 61 87 66 71 94 73 78 98 77 82 104 83 88 104 83 88 104 83 88 104 83 88 104 83 88 104 83 88 104 83 88 103 84 88 68 48 57 64 47 55 62 45 53 59 42 50 55 38 46 52 35 43 50 33 41 48 31 39 48 31 39 48 31 39 48 31 39 48 31 39 48 31 39 48 31 39 48 31 39 45 32 39 39 32 40 36 33 40 36 33 40 36 33 40 36 33 40 36 33 40 36 33 40 36 33 40 35 32 39 35 32 39 35 32 39 35 32 39 35 32 39 35 32 39 35 32 39 34 33 41 40 37 54 39 38 56 39 38 56 39 38 56 39 38 56 39 38 56 39 38 56 39 38 56 41 40 58 41 40 58 41 40 58 41 40 58 41 40 58 41 40 58 41 40 58 41 40 56 45 41 56 45 41 55 45 41 55 45 41 55 45 41 55 45 41 55 45 41 55 45 41 55 37 33 47 44 40 54 54 50 64 63 59 73 67 63 77 64 60 74 59 55 69 60 48 62 74 47 64 78 45 62 79 45 62 78 45 62 79 45 62 78 45 62 79 45 62 78 45 62 77 43 60 76 43 60 77 43 60 76 43 60 77 43 60 76 43 60 77 43 60 76 43 60 83 52 68 83 55 70 85 57 72 88 60 75 92 64 79 95 67 82 97 69 84 99 71 86 104 76 91 106 78 93 108 80 95 111 83 98 115 87 102 118 90 105 120 92 107 119 96 106 108 92 95 105 94 92 105 94 92 105 94 92 105 94 92 105 94 92 105 94 92 105 94 92 103 92 90 103 92 90 103 92 90 103 92 90 103 92 90 103 92 90 103 92 90 105 91 91 94 78 81 96 77 83 96 77 83 96 77 83 96 77 83 96 77 83 96 77 83 96 77 83 82 63 69 83 64 70 86 67 73 89 70 76 92 73 79 96 77 83 98 79 85 99 80 84 97 78 82 98 79 81 101 82 84 105 86 88 109 90 92 113 94 96 116 97 99 117 98 100 114 95 97 114 95 97 114 95 97 114 95 97 114 95 97 114 95 97 114 95 97 116 93 99 115 81 98 118 79 100 118 79 100 118 79 100 118 79 100 118 79 100 118 79 100 118 79 100 123 84 105 123 84 105 123 84 105 123 84 105 123 84 105 123 84 105 123 84 105 122 84 105 115 78 96 102 69 86 87 54 71 69 41 56 58 30 45 51 27 41 51 29 42 50 32 44 45 32 42 49 39 48
81 72 73 77 67 68 72 63 64 69 59 60 68 56 58 44 27 33 47 27 36 48 28 37 49 29 38 50 30 39 52 32 41 52 32 41 53 33 42 61 41 50 61 41 50 61 41 50 61 41 50 61 41 50 61 41 50 61 41 50 61 41 50 45 26 32 49 30 36 56 37 43 66 47 53 76 57 63 86 67 73 93 74 80 97 78 84 103 84 90 103 84 90 103 84 90 103 84 90 103 84 90 103 84 90 103 84 90 103 84 90 68 48 59 66 46 57 64 44 55 61 41 52 57 37 48 54 34 45 52 32 43 50 30 41 50 30 41 50 30 41 50 30 41 50 30 41 50 30 41 50 30 41 50 30 41 47 31 42 39 31 42 36 33 42 36 33 42 36 33 42 36 33 42 36 33 42 36 33 42 36 33 42 35 32 41 35 32 41 35 32 41 35 32 41 35 32 41 35 32 41 35 32 41 34 32 43 39 38 52 39 38 54 39 38 54 39 38 54 39 38 54 39 38 54 39 38 54 39 38 54 41 40 56 41 40 56 41 40 56 41 40 56 41 40 56 41 40 56 41 40 56 42 40 54 45 41 55 47 41 53 47 41 55 47 41 53 47 41 55 47 41 53 47 41 55 47 41 53 31 25 39 38 32 44 48 42 56 57 51 63 60 54 68 58 52 64 52 46 60 53 39 54 72 45 60 76 44 59 77 43 60 76 44 59 77 43 60 76 44 59 77 43 60 76 44 59 77 43 60 76 44 59 77 43 60 76 44 59 77 43 60 76 44 59 77 43 60 76 43 60 83 52 68 83 55 70 87 56 72 88 60 75 94 63 79 95 67 82 99 68 84 99 71 86 106 75 91 106 78 93 110 79 95 111 83 98 117 86 102 118 90 105 122 91 107 119 96 106 108 92 93 104 94 92 105 94 92 104 94 92 105 94 92 104 94 92 105 94 92 104 94 92 103 92 90 102 92 90 103 92 90 102 92 90 103 92 90 102 92 90 103 92 90 103 92 90 94 78 81 96 77 81 96 77 83 96 77 81 96 77 83 96 77 81 96 77 83 96 77 81 81 62 68 82 63 67 84 65 71 88 69 73 91 72 78 94 75 79 97 78 84 98 79 83 96 75 80 98 78 80 101 81 83 106 86 88 110 90 92 115 95 97 118 98 100 120 100 102 115 95 97 115 95 97 115 95 97 115 95 97 115 95 97 115 95 97 115 95 97 118 92 101 115 81 98 118 79 100 118 79 100 118 79 100 118 79 100 118 79 100 118 79 100 118 79 100 123 84 105 123 84 105 123 84 105 123 84 105 123 84 105 123 84 105 123 84 105 122 84 105 111 80 96 98 71 86 83 56 71 66 42 56 54 32 45 49 29 41 48 30 42 49 33 44 44 32 42 49 39 48
59 48 52 56 44 48 52 41 45 51 39 43 48 37 43 46 35 43 46 34 44 46 34 44 46 34 44 46 34 44 46 34 44 46 34 44 46 34 44 46 34 44 46 34 44 46 34 44 46 34 44 46 34 44 46 34 44 46 34 44 47 34 44 50 34 44 53 36 44 58 41 49 65 48 56 71 54 62 78 61 69 83 66 74 85 68 76 107 90 98 106 89 97 104 87 95 100 83 91 97 80 88 94 77 85 91 74 82 92 72 83 68 44 60 68 41 60 66 39 58 63 36 55 59 32 51 56 29 48 54 27 46 52 25 44 56 29 48 56 29 48 56 29 48 56 29 48 56 29 48 56 29 48 56 29 48 52 31 48 46 38 53 42 40 53 42 40 53 42 40 53 42 40 53 42 40 53 42 40 53 42 40 53 35 33 46 35 33 46 35 33 46 35 33 46 35 33 46 35 33 46 35 33 46 35 33 46 38 38 50 36 38 50 36 38 50 36 38 50 36 38 50 36 38 50 36 38 50 36 38 50 38 40 52 38 40 52 38 40 52 38 40 52 38 40 52 38 40 52 38 40 52 41 39 52 45 37 50 48 36 48 48 36 50 48 36 48 48 36 50 48 36 48 48 36 50 48 36 48 49 37 51 49 37 49 49 37 51 49 37 49 49 37 51 49 37 49 49 37 51 52 36 49 66 40 53 69 39 51 70 38 53 69 39 51 70 38 53 69 39 51 70 38 53 69 39 51 70 38 53 71 41 53 74 42 57 76 46 58 81 49 64 83 53 65 86 54 69 87 56 71 92 59 76 92 61 77 97 64 81 100 69 85 106 73 90 109 78 94 114 81 98 115 84 100 118 85 102 117 86 102 118 85 102 117 86 102 118 85 102 117 86 102 118 85 102 114 88 99 103 89 89 99 92 86 100 91 86 99 92 86 100 91 86 99 92 86 100 91 86 99 92 86 102 93 88 102 95 89 105 96 91 108 101 95 112 103 98 114 107 101 118 109 104 120 109 107 102 86 87 104 85 87 104 85 89 104 85 87 104 85 89 104 85 87 104 85 89 104 85 87 90 71 75 90 71 73 90 71 75 90 71 73 90 71 75 90 71 73 90 71 75 91 70 75 102 77 83 105 78 85 107 80 87 110 83 90 114 87 94 117 90 97 119 92 99 121 94 101 120 93 100 118 91 98 116 89 96 113 86 93 109 82 89 106 79 86 104 77 84 104 74 84 111 74 92 114 72 94 114 72 94 114 72 94 114 72 94 114 72 94 114 72 94 114 72 94 128 86 108 128 86 108 128 86 108 128 86 108 128 86 108 128 86 108 128 86 108 123 88 108 77 57 69 65 52 62 55 42 52 46 33 43 42 30 40 44 32 42 50 38 48 53 43 52 57 47 56 53 46 54
60 47 54 56 43 50 53 40 47 51 38 45 48 37 45 45 35 44 43 35 46 43 35 46 43 35 46 43 35 46 43 35 46 43 35 46 43 35 46 43 35 46 43 35 46 43 35 46 43 35 46 43 35 46 43 35 46 43 35 46 45 35 44 48 35 45 52 36 46 57 41 51 64 48 58 70 54 64 77 61 71 82 66 76 84 68 78 105 89 99 104 88 98 101 85 95 98 82 92 95 79 89 91 75 85 89 73 83 89 71 83 68 43 62 68 40 62 67 38 60 63 35 57 60 31 53 56 28 50 55 26 48 52 24 46 57 28 50 56 28 50 57 28 50 56 28 50 57 28 50 56 28 50 57 28 50 52 31 50 46 37 54 42 40 54 42 40 54 42 40 54 42 40 54 42 40 54 42 40 54 42 40 54 35 33 47 35 33 47 35 33 47 35 33 47 35 33 47 35 33 47 35 33 47 35 33 46 38 38 50 36 39 48 38 38 48 36 39 48 38 38 48 36 39 48 38 38 48 36 39 48 40 40 50 38 41 50 40 40 50 38 41 50 40 40 50 38 41 50 40 40 50 41 39 50 47 37 48 49 35 48 49 35 48 49 35 48 49 35 48 49 35 48 49 35 48 49 35 48 50 36 49 50 36 49 50 36 49 50 36 49 50 36 49 50 36 49 50 36 49 53 35 47 66 40 53 69 39 51 69 39 51 69 39 51 69 39 51 69 39 51 69 39 51 69 39 51 69 39 51 71 41 53 73 43 55 76 46 58 80 50 62 83 53 65 85 55 67 87 57 69 91 60 76 93 62 78 97 64 81 99 68 84 104 71 88 107 76 92 111 78 95 112 81 97 114 81 98 113 82 98 114 81 98 113 82 98 114 81 98 113 82 98 114 81 98 110 84 95 101 87 87 97 90 84 97 89 86 97 90 84 97 89 86 97 90 84 97 89 86 97 90 84 98 90 87 99 92 86 102 94 91 105 98 92 108 100 97 112 105 99 114 106 103 116 106 104 102 86 87 104 85 87 104 85 87 104 85 87 104 85 87 104 85 87 104 85 87 104 85 87 92 73 75 92 73 75 92 73 75 92 73 75 92 73 75 92 73 75 92 73 75 93 73 75 103 76 83 107 77 85 109 79 87 112 82 90 116 86 94 119 89 97 121 91 99 123 93 101 122 92 100 120 90 98 118 88 96 115 85 93 111 81 89 108 78 86 106 76 84 105 73 84 112 73 92 114 72 94 114 72 94 114 72 94 114 72 94 114 72 94 114 72 94 114 72 94 126 84 106 126 84 106 126 84 106 126 84 106 126 84 106 126 84 106 126 84 106 120 87 106 74 58 69 61 54 62 51 44 52 42 35 43 39 32 40 41 34 42 47 40 48 51 44 52 55 48 56 53 46 54
60 47 54 56 43 50 53 40 47 51 38 45 48 37 45 45 35 44 43 35 46 43 35 46 43 35 46 43 35 46 43 35 46 43 35 46 43 35 46 43 35 46 43 35 46 43 35 46 43 35 46 43 35 46 43 35 46 43 35 46 45 35 44 48 35 45 52 36 46 57 41 51 64 48 58 70 54 64 77 61 71 82 66 76 84 68 78 103 87 97 101 85 95 99 83 93 96 80 90 92 76 86 89 73 83 87 71 81 86 68 80 67 44 62 66 41 62 66 38 60 61 36 57 59 31 53 54 29 50 54 26 48 50 25 46 56 28 50 54 29 50 56 28 50 54 29 50 56 28 50 54 29 50 56 28 50 52 31 50 46 37 54 42 40 54 42 40 54 42 40 54 42 40 54 42 40 54 42 40 54 42 40 54 35 33 47 35 33 47 35 33 47 35 33 47 35 33 47 35 33 47 35 33 47 35 33 46 39 37 50 38 38 48 39 37 48 38 38 48 39 37 48 38 38 48 39 37 48 38 38 48 41 39 50 40 40 50 41 39 50 40 40 50 41 39 50 40 40 50 41 39 50 42 39 50 47 37 48 49 35 48 49 35 48 49 35 48 49 35 48 49 35 48 49 35 48 49 35 48 50 36 49 50 36 49 50 36 49 50 36 49 50 36 49 50 36 49 50 36 49 53 35 47 66 40 53 69 39 51 69 39 51 69 39 51 69 39 51 69 39 51 69 39 51 69 39 51 69 39 51 71 41 53 73 43 55 76 46 58 80 50 62 83 53 65 85 55 67 87 57 69 92 61 77 91 63 78 95 64 80 96 68 83 100 69 85 101 73 88 105 74 90 104 76 91 106 75 91 104 76 91 106 75 91 104 76 91 106 75 91 104 76 91 106 75 91 101 77 90 94 82 84 92 84 81 92 84 82 92 84 81 92 84 82 92 84 81 92 84 82 92 84 81 93 85 83 94 86 83 97 89 87 100 92 89 104 96 94 107 99 96 109 101 99 111 101 100 102 86 87 104 85 87 104 85 87 104 85 87 104 85 87 104 85 87 104 85 87 104 85 87 94 75 77 94 75 77 94 75 77 94 75 77 94 75 77 94 75 77 94 75 77 95 75 77 103 76 83 107 77 85 109 79 87 112 82 90 116 86 94 119 89 97 121 91 99 123 93 101 122 92 100 120 90 98 118 88 96 115 85 93 111 81 89 108 78 86 106 76 84 105 73 84 112 73 92 114 72 94 114 72 94 114 72 94 114 72 94 114 72 94 114 72 94 114 72 94 124 82 104 124 82 104 124 82 104 124 82 104 124 82 104 124 82 104 124 82 104 118 85 104 74 58 69 61 54 62 51 44 52 42 35 43 39 32 40 41 34 42 47 40 48 51 44 52 55 48 56 53 46 54
60 47 54 56 43 50 53 40 47 51 38 45 48 37 45 45 35 44 43 35 46 43 35 46 43 35 46 43 35 46 43 35 46 43 35 46 43 35 46 43 35 46 43 35 46 43 35 46 43 35 46 43 35 46 43 35 46 43 35 46 45 35 44 48 35 45 52 36 46 57 41 51 64 48 58 70 54 64 77 61 71 82 66 76 84 68 78 99 83 93 98 82 92 96 80 90 92 76 86 89 73 83 86 70 80 83 67 77 83 65 77 67 44 62 65 42 62 64 39 60 60 37 57 57 32 53 53 30 50 52 27 48 49 26 46 54 29 50 53 30 50 54 29 50 53 30 50 54 29 50 53 30 50 54 29 50 50 31 50 46 37 54 42 40 54 42 40 54 42 40 54 42 40 54 42 40 54 42 40 54 42 40 54 35 33 47 35 33 47 35 33 47 35 33 47 35 33 47 35 33 47 35 33 47 35 33 46 39 37 50 39 37 48 40 37 48 39 37 48 40 37 48 39 37 48 40 37 48 39 37 48 42 39 50 41 39 50 42 39 50 41 39 50 42 39 50 41 39 50 42 39 50 44 38 50 48 36 48 49 35 48 49 35 48 49 35 48 49 35 48 49 35 48 49 35 48 49 35 48 50 36 49 50 36 49 50 36 49 50 36 49 50 36 49 50 36 49 50 36 49 53 35 47 66 40 53 69 39 51 69 39 51 69 39 51 69 39 51 69 39 51 69 39 51 69 39 51 69 39 51 71 41 53 73 43 55 76 46 58 80 50 62 83 53 65 85 55 67 87 57 69 91 63 78 91 64 79 92 64 79 92 65 80 94 66 81 94 67 82 96 68 83 95 68 83 94 66 81 93 66 81 94 66 81 93 66 81 94 66 81 93 66 81 94 66 81 90 68 80 87 75 79 85 77 75 85 76 77 85 77 75 85 76 77 85 77 75 85 76 77 85 77 75 87 78 79 88 80 78 91 82 83 94 86 84 97 88 89 100 92 90 103 94 95 105 95 94 102 86 87 104 85 87 104 85 87 104 85 87 104 85 87 104 85 87 104 85 87 104 85 87 97 78 80 97 78 80 97 78 80 97 78 80 97 78 80 97 78 80 97 78 80 98 78 80 103 76 83 107 77 85 109 79 87 112 82 90 116 86 94 119 89 97 121 91 99 123 93 101 122 92 100 120 90 98 118 88 96 115 85 93 111 81 89 108 78 86 106 76 84 105 73 84 112 73 92 114 72 94 114 72 94 114 72 94 114 72 94 114 72 94 114 72 94 114 72 94 121 79 101 121 79 101 121 79 101 121 79 101 121 79 101 121 79 101 121 79 101 115 82 101 74 58 69 61 54 62 51 44 52 42 35 43 39 32 40 41 34 42 47 40 48 51 44 52 55 48 56 53 46 54
60 47 54 56 43 50 53 40 47 51 38 45 48 37 45 45 35 44 43 35 46 43 35 46 43 35 46 43 35 46 43 35 46 43 35 46 43 35 46 43 35 46 43 35 46 43 35 46 43 35 46 43 35 46 43 35 46 43 35 46 45 35 44 48 35 45 52 36 46 57 41 51 64 48 58 70 54 64 77 61 71 82 66 76 84 68 78 96 80 90 95 79 89 92 76 86 89 73 83 86 70 80 82 66 76 80 64 74 80 62 74 66 45 62 64 43 62 63 40 60 59 38 57 56 33 53 52 31 50 51 28 48 48 27 46 53 30 50 52 31 50 53 30 50 52 31 50 53 30 50 52 31 50 53 30 50 49 32 50 45 38 54 42 40 54 42 40 54 42 40 54 42 40 54 42 40 54 42 40 54 42 40 54 35 33 47 35 33 47 35 33 47 35 33 47 35 33 47 35 33 47 35 33 47 35 33 46 40 36 50 40 37 48 42 36 48 40 37 48 42 36 48 40 37 48 42 36 48 40 37 48 44 38 50 42 39 50 44 38 50 42 39 50 44 38 50 42 39 50 44 38 50 45 37 50 48 36 48 49 35 48 49 35 48 49 35 48 49 35 48 49 35 48 49 35 48 49 35 48 50 36 49 50 36 49 50 36 49 50 36 49 50 36 49 50 36 49 50 36 49 53 35 47 66 40 53 69 39 51 69 39 51 69 39 51 69 39 51 69 39 51 69 39 51 69 39 51 69 39 51 71 41 53 73 43 55 76 46 58 80 50 62 83 53 65 85 55 67 85 57 69 92 65 80 89 65 79 91 64 79 88 64 78 89 62 77 86 62 76 87 60 75 85 61 75 83 56 71 81 57 71 83 56 71 81 57 71 83 56 71 81 57 71 83 56 71 80 58 70 81 69 73 79 70 71 79 70 73 79 70 71 79 70 73 79 70 71 79 70 73 79 70 71 80 71 74 81 72 73 84 75 78 87 78 79 90 81 84 93 84 85 96 87 90 98 88 89 102 86 87 104 85 87 104 85 87 104 85 87 104 85 87 104 85 87 104 85 87 104 85 87 101 82 84 101 82 84 101 82 84 101 82 84 101 82 84 101 82 84 101 82 84 102 82 84 103 76 83 107 77 85 109 79 87 112 82 90 116 86 94 119 89 97 121 91 99 123 93 101 122 92 100 120 90 98 118 88 96 115 85 93 111 81 89 108 78 86 106 76 84 105 73 84 112 73 92 114 72 94 114 72 94 114 72 94 114 72 94 114 72 94 114 72 94 114 72 94 117 75 97 117 75 97 117 75 97 117 75 97 117 75 97 117 75 97 117 75 97 111 78 97 74 58 69 61 54 62 51 44 52 42 35 43 39 32 40 41 34 42 47 40 48 51 44 52 55 48 56 53 46 54
60 47 54 56 43 50 53 40 47 51 38 45 48 37 45 45 35 44 43 35 46 43 35 46 43 35 46 43 35 46 43 35 46 43 35 46 43 35 46 43 35 46 43 35 46 43 35 46 43 35 46 43 35 46 43 35 46 43 35 46 45 35 44 48 35 45 52 36 46 57 41 51 64 48 58 70 54 64 77 61 71 82 66 76 84 68 78 93 77 87 91 75 85 89 73 83 86 70 80 82 66 76 79 63 73 77 61 71 75 59 70 64 46 62 62 43 62 60 41 60 57 38 57 53 34 53 50 31 50 48 29 48 46 27 46 50 31 50 50 31 50 50 31 50 50 31 50 50 31 50 50 31 50 50 31 50 47 33 50 45 38 54 42 40 54 42 40 54 42 40 54 42 40 54 42 40 54 42 40 54 42 40 54 35 33 47 35 33 47 35 33 47 35 33 47 35 33 47 35 33 47 35 33 47 36 32 46 42 36 50 43 35 48 43 35 48 43 35 48 43 35 48 43 35 48 43 35 48 43 35 48 45 37 50 45 37 50 45 37 50 45 37 50 45 37 50 45 37 50 45 37 50 47 36 50 48 36 48 49 35 48 49 35 48 49 35 48 49 35 48 49 35 48 49 35 48 49 35 48 50 36 49 50 36 49 50 36 49 50 36 49 50 36 49 50 36 49 50 36 49 53 35 47 66 40 53 69 39 51 69 39 51 69 39 51 69 39 51 69 39 51 69 39 51 69 39 51 69 39 51 71 41 53 73 43 55 76 46 58 80 50 62 83 53 65 85 55 67 85 57 69 91 67 81 89 67 80 87 65 78 84 62 75 82 60 73 79 57 70 77 55 68 76 54 67 70 48 61 70 48 61 70 48 61 70 48 61 70 48 61 70 48 61 70 48 61 69 49 60 74 61 68 72 63 68 72 63 68 72 63 68 72 63 68 72 63 68 72 63 68 72 63 68 74 65 70 75 66 71 77 68 73 80 71 76 84 75 80 87 78 83 90 81 86 92 81 85 102 86 89 104 85 87 104 85 87 104 85 87 104 85 87 104 85 87 104 85 87 104 85 87 104 85 87 104 85 87 104 85 87 104 85 87 104 85 87 104 85 87 104 85 87 105 85 87 103 76 83 107 77 85 109 79 87 112 82 90 116 86 94 119 89 97 121 91 99 123 93 101 122 92 100 120 90 98 118 88 96 115 85 93 111 81 89 108 78 86 106 76 84 105 73 84 112 73 92 114 72 94 114 72 94 114 72 94 114 72 94 114 72 94 114 72 94 114 72 94 114 72 94 114 72 94 114 72 94 114 72 94 114 72 94 114 72 94 114 72 94 108 75 94 74 58 69 61 54 62 51 44 52 42 35 43 39 32 40 41 34 42 47 40 48 51 44 52 55 48 56 53 46 54
60 47 54 56 43 50 53 40 47 51 38 45 48 37 45 45 35 44 43 35 46 43 35 46 43 35 46 43 35 46 43 35 46 43 35 46 43 35 46 43 35 46 43 35 46 43 35 46 43 35 46 43 35 46 43 35 46 43 35 46 45 35 44 48 35 45 52 36 46 57 41 51 64 48 58 70 54 64 77 61 71 82 66 76 84 68 78 90 74 84 89 73 83 87 71 81 83 67 77 80 64 74 77 61 71 74 58 68 73 57 68 63 46 62 61 44 62 59 42 60 56 39 57 52 35 53 49 32 50 47 30 48 45 28 46 49 32 50 49 32 50 49 32 50 49 32 50 49 32 50 49 32 50 49 32 50 46 33 50 45 38 54 42 40 54 42 40 54 42 40 54 42 40 54 42 40 54 42 40 54 42 40 54 35 33 47 35 33 47 35 33 47 35 33 47 35 33 47 35 33 47 35 33 47 36 32 46 43 35 50 45 34 48 45 34 48 45 34 48 45 34 48 45 34 48 45 34 48 45 34 48 47 36 50 47 36 50 47 36 50 47 36 50 47 36 50 47 36 50 47 36 50 48 36 50 49 35 48 49 35 48 49 35 48 49 35 48 49 35 48 49 35 48 49 35 48 49 35 48 50 36 49 50 36 49 50 36 49 50 36 49 50 36 49 50 36 49 50 36 49 53 35 47 66 40 53 69 39 51 69 39 51 69 39 51 69 39 51 69 39 51 69 39 51 69 39 51 69 39 51 71 41 53 73 43 55 76 46 58 80 50 62 83 53 65 85 55 67 85 57 69 91 69 82 88 68 80 85 65 77 82 62 74 78 58 70 74 54 66 71 51 63 69 49 61 62 42 54 62 42 54 62 42 54 62 42 54 62 42 54 62 42 54 62 42 54 60 42 54 68 57 65 67 57 65 67 57 65 67 57 65 67 57 65 67 57 65 67 57 65 67 57 65 69 59 67 70 60 68 72 62 70 76 66 74 79 69 77 82 72 80 85 75 83 87 76 82 102 86 89 104 85 87 104 85 87 104 85 87 104 85 87 104 85 87 104 85 87 104 85 87 106 87 89 106 87 89 106 87 89 106 87 89 106 87 89 106 87 89 106 87 89 107 87 89 103 76 83 107 77 85 109 79 87 112 82 90 116 86 94 119 89 97 121 91 99 123 93 101 122 92 100 120 90 98 118 88 96 115 85 93 111 81 89 108 78 86 106 76 84 105 73 84 112 73 92 114 72 94 114 72 94 114 72 94 114 72 94 114 72 94 114 72 94 114 72 94 112 70 92 112 70 92 112 70 92 112 70 92 112 70 92 112 70 92 112 70 92 106 73 92 74 58 69 61 54 62 51 44 52 42 35 43 39 32 40 41 34 42 47 40 48 51 44 52 55 48 56 53 46 54
60 47 54 56 43 50 53 40 47 51 38 45 48 37 45 45 35 44 43 35 46 43 35 46 43 35 46 43 35 46 43 35 46 43 35 46 43 35 46 43 35 46 43 35 46 43 35 46 43 35 46 43 35 46 43 35 46 43 35 46 45 35 44 48 35 45 52 36 46 57 41 51 64 48 58 70 54 64 77 61 71 82 66 76 84 68 78 89 73 83 88 72 82 85 69 79 82 66 76 79 63 73 75 59 69 73 57 67 70 57 67 61 47 62 58 45 62 56 43 60 53 40 57 49 36 53 46 33 50 44 31 48 42 29 46 46 33 50 46 33 50 46 33 50 46 33 50 46 33 50 46 33 50 46 33 50 45 34 50 43 39 54 42 40 54 42 40 54 42 40 54 42 40 54 42 40 54 42 40 54 42 40 54 35 33 47 35 33 47 35 33 47 35 33 47 35 33 47 35 33 47 35 33 47 36 32 46 46 33 50 47 33 48 47 33 48 47 33 48 47 33 48 47 33 48 47 33 48 47 33 48 49 35 50 49 35 50 49 35 50 49 35 50 49 35 50 49 35 50 49 35 50 49 35 50 49 35 48 49 35 48 49 35 48 49 35 48 49 35 48 49 35 48 49 35 48 49 35 48 50 36 49 50 36 49 50 36 49 50 36 49 50 36 49 50 36 49 50 36 49 53 35 47 66 40 53 69 39 51 69 39 51 69 39 51 69 39 51 69 39 51 69 39 51 69 39 51 69 39 51 71 41 53 73 43 55 76 46 58 80 50 62 83 53 65 85 55 67 84 58 69 90 70 82 86 70 81 82 66 77 78 62 73 73 57 68 69 53 64 65 49 60 63 47 58 55 39 50 55 39 50 55 39 50 55 39 50 55 39 50 55 39 50 55 39 50 53 40 50 66 54 66 65 55 66 65 55 66 65 55 66 65 55 66 65 55 66 65 55 66 65 55 66 66 56 67 67 57 68 70 60 71 73 63 74 76 66 77 80 70 81 82 72 83 84 73 81 102 85 91 104 85 87 104 85 87 104 85 87 104 85 87 104 85 87 104 85 87 104 85 87 108 89 91 108 89 91 108 89 91 108 89 91 108 89 91 108 89 91 108 89 91 109 89 91 103 76 83 107 77 85 109 79 87 112 82 90 116 86 94 119 89 97 121 91 99 123 93 101 122 92 100 120 90 98 118 88 96 115 85 93 111 81 89 108 78 86 106 76 84 105 73 84 112 73 92 114 72 94 114 72 94 114 72 94 114 72 94 114 72 94 114 72 94 114 72 94 110 68 90 110 68 90 110 68 90 110 68 90 110 68 90 110 68 90 110 68 90 104 71 90 74 58 69 61 54 62 51 44 52 42 35 43 39 32 40 41 34 42 47 40 48 51 44 52 55 48 56 53 46 54
82 69 76 82 69 76 82 69 76 82 69 76 81 70 78 57 47 56 54 46 57 52 44 55 48 40 51 45 37 48 42 34 45 39 31 42 38 30 41 46 38 49 46 38 49 46 38 49 46 38 49 46 38 49 46 38 49 46 38 49 48 38 47 63 50 60 65 49 59 65 49 59 65 49 59 65 49 59 65 49 59 65 49 59 65 49 59 65 49 59 65 49 59 65 49 59 65 49 59 65 49 59 65 49 59 65 49 59 63 50 60 45 34 48 43 35 50 43 35 50 43 35 50 43 35 50 43 35 50 43 35 50 43 35 50 44 36 51 44 36 51 44 36 51 44 36 51 44 36 51 44 36 51 44 36 51 43 37 51 50 46 61 49 47 61 49 47 61 49 47 61 49 47 61 49 47 61 49 47 61 49 47 61 47 45 59 47 45 59 47 45 59 47 45 59 47 45 59 47 45 59 47 45 59 50 44 58 49 35 52 52 34 50 52 34 50 52 34 50 52 34 50 52 34 50 52 34 50 52 34 50 57 39 55 57 39 55 57 39 55 57 39 55 57 39 55 57 39 55 57 39 55 56 39 55 49 33 46 47 33 46 47 33 46 47 33 46 47 33 46 47 33 46 47 33 46 47 33 46 43 29 42 45 31 44 47 33 46 50 36 49 54 40 53 57 43 56 59 45 58 64 46 58 66 40 53 70 40 52 72 42 54 76 46 58 79 49 61 82 52 64 85 55 67 86 56 68 94 64 76 94 64 76 95 65 77 96 66 78 98 68 80 99 69 81 100 70 82 97 71 82 72 56 67 68 56 66 66 54 64 62 50 60 59 47 57 56 44 54 53 41 51 52 40 50 41 29 39 43 31 41 45 33 43 48 36 46 52 40 50 55 43 53 57 45 55 59 47 59 53 42 56 53 42 58 53 42 58 53 42 58 53 42 58 53 42 58 53 42 58 53 42 58 52 41 57 53 42 58 55 44 60 59 48 64 62 51 67 65 54 70 68 57 73 70 58 70 96 79 85 98 79 81 98 79 81 98 79 81 98 79 81 98 79 81 98 79 81 98 79 81 92 73 75 94 75 77 96 77 79 99 80 82 103 84 86 106 87 89 108 89 91 111 91 93 111 84 91 113 83 91 113 83 91 113 83 91 113 83 91 113 83 91 113 83 91 113 83 91 113 83 91 113 83 91 113 83 91 113 83 91 113 83 91 113 83 91 113 83 91 114 82 93 102 63 82 104 62 84 104 62 84 104 62 84 104 62 84 104 62 84 104 62 84 104 62 84 110 68 90 108 66 88 106 64 86 103 61 83 99 57 79 96 54 76 94 52 74 86 53 72 53 37 48 47 40 48 47 40 48 47 40 48 47 40 48 47 40 48 47 40 48 47 40 48 61 54 62 59 52 60
82 69 76 82 69 76 82 69 76 82 69 76 81 70 78 60 50 59 57 49 60 54 46 57 51 43 54 48 40 51 44 36 47 42 34 45 41 33 44 46 38 49 46 38 49 46 38 49 46 38 49 46 38 49 46 38 49 46 38 49 48 38 47 61 48 58 63 47 57 63 47 57 63 47 57 63 47 57 63 47 57 63 47 57 63 47 57 63 47 57 63 47 57 63 47 57 63 47 57 63 47 57 63 47 57 63 47 57 61 48 58 43 35 48 40 36 50 40 36 50 40 36 50 40 36 50 40 36 50 40 36 50 40 36 50 41 37 51 41 37 51 41 37 51 41 37 51 41 37 51 41 37 51 41 37 51 41 37 51 49 47 61 49 47 61 49 47 61 49 47 61 49 47 61 49 47 61 49 47 61 49 47 61 47 45 59 47 45 59 47 45 59 47 45 59 47 45 59 47 45 59 47 45 59 50 44 58 51 34 52 55 32 50 55 32 50 55 32 50 55 32 50 55 32 50 55 32 50 55 32 50 60 37 55 60 37 55 60 37 55 60 37 55 60 37 55 60 37 55 60 37 55 59 38 55 49 33 46 47 33 46 47 33 46 47 33 46 47 33 46 47 33 46 47 33 46 47 33 46 43 29 42 45 31 44 47 33 46 50 36 49 54 40 53 57 43 56 59 45 58 64 46 58 67 41 54 71 41 53 74 44 56 77 47 59 80 50 62 84 54 66 86 56 68 87 57 69 95 65 77 96 66 78 96 66 78 97 67 79 97 67 79 98 68 80 98 68 80 94 71 81 69 56 66 64 57 65 61 54 62 58 51 59 55 48 56 51 44 52 49 42 50 48 41 49 38 31 39 40 33 41 42 35 43 45 38 46 49 42 50 52 45 53 54 47 55 56 48 59 53 42 59 53 41 61 53 41 61 53 41 61 53 41 61 53 41 61 53 41 61 53 41 61 53 41 61 54 42 62 57 45 65 60 48 68 63 51 71 67 55 75 69 57 77 71 59 73 96 79 85 98 79 81 98 79 81 98 79 81 98 79 81 98 79 81 98 79 81 98 79 81 92 73 75 94 75 77 96 77 79 99 80 82 103 84 86 106 87 89 108 89 91 111 91 93 111 84 91 113 83 91 113 83 91 113 83 91 113 83 91 113 83 91 113 83 91 113 83 91 111 81 89 111 81 89 111 81 89 111 81 89 111 81 89 111 81 89 111 81 89 112 80 91 102 63 82 104 62 84 104 62 84 104 62 84 104 62 84 104 62 84 104 62 84 104 62 84 110 68 90 108 66 88 106 64 86 103 61 83 99 57 79 96 54 76 94 52 74 86 53 72 53 37 48 47 40 48 47 40 48 47 40 48 47 40 48 47 40 48 47 40 48 47 40 48 61 54 62 59 52 60
82 69 76 82 69 76 82 69 76 82 69 76 81 70 78 65 55 64 62 54 65 59 51 62 56 48 59 52 44 55 49 41 52 47 39 50 46 38 49 46 38 49 46 38 49 46 38 49 46 38 49 46 38 49 46 38 49 46 38 49 48 38 47 59 46 56 61 45 55 61 45 55 61 45 55 61 45 55 61 45 55 61 45 55 61 45 55 61 45 55 61 45 55 61 45 55 61 45 55 61 45 55 61 45 55 61 45 55 58 46 56 42 36 48 39 37 50 39 37 50 39 37 50 39 37 50 39 37 50 39 37 50 39 37 50 40 38 51 40 38 51 40 38 51 40 38 51 40 38 51 40 38 51 40 38 51 40 38 51 49 47 61 49 47 61 49 47 61 49 47 61 49 47 61 49 47 61 49 47 61 49 47 61 47 45 59 47 45 59 47 45 59 47 45 59 47 45 59 47 45 59 47 45 59 51 43 58 52 33 52 56 31 50 56 31 50 56 31 50 56 31 50 56 31 50 56 31 50 56 31 50 61 36 55 61 36 55 61 36 55 61 36 55 61 36 55 61 36 55 61 36 55 60 37 55 49 33 46 47 33 46 47 33 46 47 33 46 47 33 46 47 33 46 47 33 46 47 33 46 43 29 42 45 31 44 47 33 46 50 36 49 54 40 53 57 43 56 59 45 58 64 46 58 69 43 56 74 44 56 76 46 58 79 49 61 83 53 65 86 56 68 88 58 70 90 60 72 99 69 81 99 69 81 98 68 80 97 67 79 97 67 79 96 66 78 95 65 77 90 67 77 66 54 64 60 55 62 58 53 60 55 50 57 51 46 53 48 43 50 46 41 48 44 39 46 37 32 39 39 34 41 41 36 43 44 39 46 48 43 50 51 46 53 53 48 55 55 49 61 51 42 61 53 41 63 53 41 63 53 41 63 53 41 63 53 41 63 53 41 63 53 41 63 55 43 65 57 45 67 59 47 69 62 50 72 66 54 76 69 57 79 71 59 81 74 61 78 96 79 87 98 79 81 98 79 81 98 79 81 98 79 81 98 79 81 98 79 81 98 79 81 92 73 75 94 75 77 96 77 79 99 80 82 103 84 86 106 87 89 108 89 91 111 91 93 111 84 91 113 83 91 113 83 91 113 83 91 113 83 91 113 83 91 113 83 91 113 83 91 109 79 87 109 79 87 109 79 87 109 79 87 109 79 87 109 79 87 109 79 87 110 78 89 102 63 82 104 62 84 104 62 84 104 62 84 104 62 84 104 62 84 104 62 84 104 62 84 110 68 90 108 66 88 106 64 86 103 61 83 99 57 79 96 54 76 94 52 74 86 53 72 53 37 48 47 40 48 47 40 48 47 40 48 47 40 48 47 40 48 47 40 48 47 40 48 61 54 62 59 52 60
82 69 76 82 69 76 82 69 76 82 69 76 81 70 78 71 61 70 68 60 71 65 57 68 62 54 65 59 51 62 56 48 59 53 45 56 52 44 55 46 38 49 46 38 49 46 38 49 46 38 49 46 38 49 46 38 49 46 38 49 48 38 47 56 43 53 58 42 52 58 42 52 58 42 52 58 42 52 58 42 52 58 42 52 58 42 52 58 42 52 58 42 52 58 42 52 58 42 52 58 42 52 58 42 52 58 42 52 55 43 53 40 37 48 36 38 50 38 38 50 36 38 50 38 38 50 36 38 50 38 38 50 36 38 50 39 39 51 37 39 51 39 39 51 37 39 51 39 39 51 37 39 51 39 39 51 39 39 51 49 47 61 49 47 61 49 47 61 49 47 61 49 47 61 49 47 61 49 47 61 49 47 61 47 45 59 47 45 59 47 45 59 47 45 59 47 45 59 47 45 59 47 45 59 51 43 58 54 33 52 58 31 50 59 30 50 58 31 50 59 30 50 58 31 50 59 30 50 58 31 50 64 35 55 63 36 55 64 35 55 63 36 55 64 35 55 63 36 55 64 35 55 61 36 55 50 32 46 47 33 46 47 33 46 47 33 46 47 33 46 47 33 46 47 33 46 47 33 46 43 29 42 45 31 44 47 33 46 50 36 49 54 40 53 57 43 56 59 45 58 64 46 58 73 47 60 77 47 59 79 49 61 83 53 65 86 56 68 89 59 71 92 62 74 93 63 75 103 73 85 102 72 84 101 71 83 98 68 80 96 66 78 93 63 75 92 62 74 86 63 73 61 51 60 54 53 59 53 50 57 48 47 53 46 43 50 42 41 47 40 37 44 38 37 43 35 32 39 36 35 41 39 36 43 41 40 46 46 43 50 48 47 53 51 48 55 53 50 61 51 42 63 53 41 65 53 40 66 53 41 65 53 40 66 53 41 65 53 40 66 53 41 65 59 46 72 60 48 72 62 49 75 66 54 78 69 56 82 72 60 84 75 62 88 77 64 82 96 79 87 98 79 81 98 79 81 98 79 81 98 79 81 98 79 81 98 79 81 98 79 81 92 73 75 94 75 77 96 77 79 99 80 82 103 84 86 106 87 89 108 89 91 111 91 93 111 84 91 113 83 91 113 83 91 113 83 91 113 83 91 113 83 91 113 83 91 113 83 91 106 76 84 106 76 84 106 76 84 106 76 84 106 76 84 106 76 84 106 76 84 107 75 86 102 63 82 104 62 84 104 62 84 104 62 84 104 62 84 104 62 84 104 62 84 104 62 84 110 68 90 108 66 88 106 64 86 103 61 83 99 57 79 96 54 76 94 52 74 86 53 72 53 37 48 47 40 48 47 40 48 47 40 48 47 40 48 47 40 48 47 40 48 47 40 48 61 54 62 59 52 60
82 69 76 82 69 76 82 69 76 82 69 76 81 70 78 78 68 77 75 67 78 72 64 75 69 61 72 66 58 69 63 55 66 60 52 63 59 51 62 46 38 49 46 38 49 46 38 49 46 38 49 46 38 49 46 38 49 46 38 49 48 38 47 52 39 49 54 38 48 54 38 48 54 38 48 54 38 48 54 38 48 54 38 48 54 38 48 54 38 48 54 38 48 54 38 48 54 38 48 54 38 48 54 38 48 54 38 48 51 39 49 39 37 48 35 39 50 36 38 50 35 39 50 36 38 50 35 39 50 36 38 50 35 39 50 37 39 51 36 40 51 37 39 51 36 40 51 37 39 51 36 40 51 37 39 51 37 39 51 48 47 61 49 47 61 49 47 61 49 47 61 49 47 61 49 47 61 49 47 61 49 47 61 47 45 59 47 45 59 47 45 59 47 45 59 47 45 59 47 45 59 47 45 59 51 43 58 55 32 52 59 30 50 61 29 50 59 30 50 61 29 50 59 30 50 61 29 50 59 30 50 66 34 55 64 35 55 66 34 55 64 35 55 66 34 55 64 35 55 66 34 55 63 36 55 50 32 46 47 33 46 47 33 46 47 33 46 47 33 46 47 33 46 47 33 46 47 33 46 43 29 42 45 31 44 47 33 46 50 36 49 54 40 53 57 43 56 59 45 58 64 46 58 76 50 63 80 50 62 83 53 65 86 56 68 89 59 71 93 63 75 95 65 77 96 66 78 108 78 90 106 76 88 103 73 85 99 69 81 95 65 77 91 61 73 88 58 70 80 59 68 56 49 57 50 51 56 48 47 53 44 45 50 42 41 47 37 38 43 36 35 41 34 35 40 34 33 39 35 36 41 38 37 43 40 41 46 45 44 50 47 48 53 50 49 55 53 50 61 51 42 63 53 40 66 53 40 68 53 40 66 53 40 68 53 40 66 53 40 68 53 40 66 62 49 77 63 50 76 66 53 81 69 56 82 72 59 87 76 63 89 78 65 93 80 67 87 96 79 87 98 79 81 98 79 81 98 79 81 98 79 81 98 79 81 98 79 81 98 79 81 92 73 75 94 75 77 96 77 79 99 80 82 103 84 86 106 87 89 108 89 91 111 91 93 111 84 91 113 83 91 113 83 91 113 83 91 113 83 91 113 83 91 113 83 91 113 83 91 102 72 80 102 72 80 102 72 80 102 72 80 102 72 80 102 72 80 102 72 80 103 71 82 102 63 82 104 62 84 104 62 84 104 62 84 104 62 84 104 62 84 104 62 84 104 62 84 110 68 90 108 66 88 106 64 86 103 61 83 99 57 79 96 54 76 94 52 74 86 53 72 53 37 48 47 40 48 47 40 48 47 40 48 47 40 48 47 40 48 47 40 48 47 40 48 61 54 62 59 52 60
82 69 76 82 69 76 82 69 76 82 69 76 81 70 78 84 74 83 81 73 84 79 71 82 76 68 79 72 64 75 69 61 72 66 58 69 65 57 68 46 38 49 46 38 49 46 38 49 46 38 49 46 38 49 46 38 49 46 38 49 48 38 47 49 36 46 51 35 45 51 35 45 51 35 45 51 35 45 51 35 45 51 35 45 51 35 45 51 35 45 51 35 45 51 35 45 51 35 45 51 35 45 51 35 45 51 35 45 47 37 46 38 38 48 33 40 50 35 39 50 33 40 50 35 39 50 33 40 50 35 39 50 33 40 50 36 40 51 34 41 51 36 40 51 34 41 51 36 40 51 34 41 51 36 40 51 36 40 51 48 47 61 49 47 61 49 47 61 49 47 61 49 47 61 49 47 61 49 47 61 49 47 61 47 45 59 47 45 59 47 45 59 47 45 59 47 45 59 47 45 59 47 45 59 53 42 58 56 31 52 61 29 50 62 29 50 61 29 50 62 29 50 61 29 50 62 29 50 61 29 50 67 34 55 66 34 55 67 34 55 66 34 55 67 34 55 66 34 55 67 34 55 63 36 55 50 32 46 47 33 46 47 33 46 47 33 46 47 33 46 47 33 46 47 33 46 47 33 46 43 29 42 45 31 44 47 33 46 50 36 49 54 40 53 57 43 56 59 45 58 64 46 58 79 53 66 84 54 66 86 56 68 89 59 71 93 63 75 96 66 78 98 68 80 100 70 82 112 82 94 110 80 92 106 76 88 100 70 82 94 64 76 88 58 70 84 54 66 76 55 64 52 47 54 44 47 52 44 45 50 39 42 47 37 38 43 32 35 40 32 33 38 28 31 36 33 34 39 33 36 41 37 38 43 38 41 46 44 45 50 45 48 53 49 50 55 52 50 61 51 41 65 53 40 68 53 40 70 53 40 68 53 40 70 53 40 68 53 40 70 53 40 68 65 52 82 67 54 82 69 56 86 72 59 87 76 63 93 79 66 94 81 68 98 84 70 93 96 79 89 98 79 81 98 79 81 98 79 81 98 79 81 98 79 81 98 79 81 98 79 81 92 73 75 94 75 77 96 77 79 99 80 82 103 84 86 106 87 89 108 89 91 111 91 93 111 84 91 113 83 91 113 83 91 113 83 91 113 83 91 113 83 91 113 83 91 113 83 91 99 69 77 99 69 77 99 69 77 99 69 77 99 69 77 99 69 77 99 69 77 100 68 79 102 63 82 104 62 84 104 62 84 104 62 84 104 62 84 104 62 84 104 62 84 104 62 84 110 68 90 108 66 88 106 64 86 103 61 83 99 57 79 96 54 76 94 52 74 86 53 72 53 37 48 47 40 48 47 40 48 47 40 48 47 40 48 47 40 48 47 40 48 47 40 48 61 54 62 59 52 60
82 69 76 82 69 76 82 69 76 82 69 76 81 70 78 89 79 88 86 78 89 84 76 87 80 72 83 77 69 80 74 66 77 71 63 74 70 62 73 46 38 49 46 38 49 46 38 49 46 38 49 46 38 49 46 38 49 46 38 49 48 38 47 47 34 44 49 33 43 49 33 43 49 33 43 49 33 43 49 33 43 49 33 43 49 33 43 49 33 43 49 33 43 49 33 43 49 33 43 49 33 43 49 33 43 49 33 43 45 35 44 36 39 48 32 41 50 33 40 50 32 41 50 33 40 50 32 41 50 33 40 50 32 41 50 34 41 51 33 42 51 34 41 51 33 42 51 34 41 51 33 42 51 34 41 51 36 40 51 48 47 61 49 47 61 49 47 61 49 47 61 49 47 61 49 47 61 49 47 61 49 47 61 47 45 59 47 45 59 47 45 59 47 45 59 47 45 59 47 45 59 47 45 59 53 42 58 58 30 52 62 29 50 63 28 50 62 29 50 63 28 50 62 29 50 63 28 50 62 29 50 68 33 55 67 34 55 68 33 55 67 34 55 68 33 55 67 34 55 68 33 55 64 35 55 50 32 46 47 33 46 47 33 46 47 33 46 47 33 46 47 33 46 47 33 46 47 33 46 43 29 42 45 31 44 47 33 46 50 36 49 54 40 53 57 43 56 59 45 58 64 46 58 82 56 69 86 56 68 88 58 70 92 62 74 95 65 77 98 68 80 101 71 83 102 72 84 116 86 98 113 83 95 108 78 90 101 71 83 93 63 75 86 56 68 81 51 63 72 51 60 49 44 51 41 46 50 40 43 48 35 40 44 33 36 41 29 34 38 27 30 35 25 30 34 31 34 39 32 37 41 35 38 43 37 42 46 42 45 50 44 49 53 47 50 55 51 51 63 50 42 66 53 40 70 53 39 72 53 40 70 53 39 72 53 40 70 53 39 72 53 40 70 68 54 87 69 56 86 71 57 90 75 62 92 78 64 97 81 68 98 84 70 103 86 72 97 96 79 89 98 79 81 98 79 81 98 79 81 98 79 81 98 79 81 98 79 81 98 79 81 92 73 75 94 75 77 96 77 79 99 80 82 103 84 86 106 87 89 108 89 91 111 91 93 111 84 91 113 83 91 113 83 91 113 83 91 113 83 91 113 83 91 113 83 91 113 83 91 97 67 75 97 67 75 97 67 75 97 67 75 97 67 75 97 67 75 97 67 75 98 66 77 102 63 82 104 62 84 104 62 84 104 62 84 104 62 84 104 62 84 104 62 84 104 62 84 110 68 90 108 66 88 106 64 86 103 61 83 99 57 79 96 54 76 94 52 74 86 53 72 53 37 48 47 40 48 47 40 48 47 40 48 47 40 48 47 40 48 47 40 48 47 40 48 61 54 62 59 52 60
82 69 76 82 69 76 82 69 76 82 69 76 81 70 78 92 82 91 89 81 92 86 78 89 83 75 86 80 72 83 76 68 79 74 66 77 73 65 76 46 38 49 46 38 49 46 38 49 46 38 49 46 38 49 46 38 49 46 38 49 48 38 49 44 32 44 44 32 42 44 32 44 44 32 42 44 32 44 44 32 42 44 32 44 44 32 42 44 32 44 44 32 42 44 32 44 44 32 42 44 32 44 44 32 42 44 32 44 41 33 44 36 38 50 33 40 50 33 40 50 33 40 50 33 40 50 33 40 50 33 40 50 33 40 50 34 41 51 34 41 51 34 41 51 34 41 51 34 41 51 34 41 51 34 41 51 36 40 51 46 48 61 48 47 61 48 47 61 48 47 61 48 47 61 48 47 61 48 47 61 48 47 61 46 45 59 46 45 59 46 45 59 46 45 59 46 45 59 46 45 59 46 45 59 51 43 58 55 32 50 61 30 48 61 29 50 61 30 48 61 29 50 61 30 48 61 29 50 61 30 48 66 34 55 66 35 53 66 34 55 66 35 53 66 34 55 66 35 53 66 34 55 61 36 55 49 32 48 45 34 48 46 34 48 45 34 48 46 34 48 45 34 48 46 34 48 45 34 48 42 30 44 43 32 46 46 34 48 48 37 51 53 41 55 55 44 58 58 46 60 61 47 60 80 58 71 84 58 71 87 61 74 90 64 77 93 67 80 97 71 84 99 73 86 100 74 87 115 89 102 112 86 99 106 80 93 98 72 85 90 64 77 82 56 69 76 50 63 67 49 61 46 43 52 40 44 53 37 41 50 34 38 47 31 35 44 27 31 40 25 29 38 24 28 37 30 34 43 32 36 45 34 38 47 37 41 50 41 45 54 44 48 57 46 50 59 51 50 64 50 42 65 53 40 66 53 40 68 53 40 66 53 40 68 53 40 66 53 40 68 53 40 66 69 56 84 70 57 83 73 60 88 76 63 89 79 66 94 83 70 96 85 72 100 87 74 94 96 79 89 98 79 81 98 79 83 98 79 81 98 79 83 98 79 81 98 79 83 98 79 81 92 73 77 94 75 77 96 77 81 99 80 82 103 84 88 106 87 89 108 89 93 111 90 95 111 84 91 113 83 91 114 82 93 113 83 91 114 82 93 113 83 91 114 82 93 113 83 91 96 64 75 95 65 73 96 64 75 95 65 73 96 64 75 95 65 73 96 64 75 97 64 75 102 63 82 104 62 82 105 61 84 104 62 82 105 61 84 104 62 82 105 61 84 104 62 82 111 67 90 108 66 86 107 63 86 103 61 81 100 56 79 96 54 74 95 51 74 86 53 70 53 37 48 46 41 48 47 40 48 46 41 48 47 40 48 46 41 48 47 40 48 46 41 48 61 54 62 58 53 60
83 72 76 83 72 76 83 72 76 83 72 76 83 72 78 84 74 83 84 74 85 84 74 85 84 74 85 84 74 85 84 74 85 84 74 85 84 74 85 59 49 60 58 48 59 55 45 56 52 42 53 49 39 50 45 35 46 43 33 44 40 32 45 43 37 51 41 37 51 41 37 52 41 37 51 41 37 52 41 37 51 41 37 52 41 37 51 41 37 52 41 37 51 41 37 52 41 37 51 41 37 52 41 37 51 41 37 52 40 38 52 39 38 52 39 38 52 39 38 52 39 38 52 39 38 52 39 38 52 39 38 52 39 38 52 47 46 60 47 46 60 47 46 60 47 46 60 47 46 60 47 46 60 47 46 60 45 47 60 52 56 67 52 56 67 52 56 67 52 56 67 52 56 67 52 56 67 52 56 67 52 56 67 42 46 57 42 46 57 42 46 57 42 46 57 42 46 57 42 46 57 42 46 57 46 44 57 50 36 49 55 35 47 55 34 49 55 35 47 55 34 49 55 35 47 55 34 49 55 35 47 63 42 57 63 43 55 63 42 57 63 43 55 63 42 57 63 43 55 63 42 57 60 44 57 50 42 57 47 43 57 49 43 57 47 43 57 49 43 57 47 43 57 49 43 57 47 43 57 50 44 58 48 44 58 50 44 58 48 44 58 50 44 58 48 44 58 50 44 58 51 43 58 77 63 78 79 63 76 79 63 76 79 63 76 79 63 76 79 63 76 79 63 76 79 63 76 104 88 101 100 84 97 91 75 88 80 64 77 69 53 66 58 42 55 50 34 47 41 30 44 33 32 48 28 34 50 28 34 50 28 34 50 28 34 50 28 34 50 28 34 50 28 34 50 39 45 61 39 45 61 39 45 61 39 45 61 39 45 61 39 45 61 39 45 61 42 44 59 42 33 50 48 35 52 53 40 58 59 46 63 66 53 71 72 59 76 77 64 82 80 67 84 84 71 89 84 71 88 84 71 89 84 71 88 84 71 89 84 71 88 84 71 89 85 71 86 92 77 84 93 77 80 93 76 82 93 77 80 93 76 82 93 77 80 93 76 82 93 77 80 104 87 93 104 88 91 104 87 93 104 88 91 104 87 93 104 88 91 104 87 93 107 86 93 112 82 92 111 79 90 110 76 90 106 74 85 103 69 83 99 67 78 98 64 78 95 63 74 98 64 78 97 65 76 98 64 78 97 65 76 98 64 78 97 65 76 98 64 78 100 64 78 96 55 73 97 54 73 98 53 74 97 54 73 98 53 74 97 54 73 98 53 74 97 54 73 95 50 71 98 55 74 105 60 81 106 63 82 104 59 80 94 51 70 85 40 61 71 37 53 52 39 48 45 43 48 47 42 48 45 43 48 47 42 48 45 43 48 47 42 48 45 43 48 47 42 48 43 41 46
83 72 76 83 72 76 83 72 76 83 72 76 83 72 78 84 74 83 84 74 85 84 74 85 84 74 85 84 74 85 84 74 85 84 74 85 84 74 85 60 50 61 59 49 60 57 47 58 53 43 54 50 40 51 47 37 48 44 34 45 41 33 46 40 38 52 39 38 54 39 38 54 39 38 54 39 38 54 39 38 54 39 38 54 39 38 54 39 38 54 39 38 54 39 38 54 39 38 54 39 38 54 39 38 54 39 38 54 39 38 54 40 38 52 40 38 52 40 38 52 40 38 52 40 38 52 40 38 52 40 38 52 40 38 52 48 46 60 48 46 60 48 46 60 48 46 60 48 46 60 48 46 60 48 46 60 47 46 60 52 56 67 50 57 67 52 56 67 50 57 67 52 56 67 50 57 67 52 56 67 50 57 67 44 48 59 42 49 59 44 48 59 42 49 59 44 48 59 42 49 59 44 48 59 47 47 57 50 40 51 54 38 49 54 38 49 54 38 49 54 38 49 54 38 49 54 38 49 54 38 49 60 44 55 60 44 55 60 44 55 60 44 55 60 44 55 60 44 55 60 44 55 57 45 57 49 43 57 46 44 58 46 44 58 46 44 58 46 44 58 46 44 58 46 44 58 46 44 58 47 45 59 47 45 59 47 45 59 47 45 59 47 45 59 47 45 59 47 45 59 48 44 58 73 62 78 74 62 76 74 62 76 74 62 76 74 62 76 74 62 76 74 62 76 74 62 76 98 86 100 94 82 96 86 74 88 76 64 78 65 53 67 55 43 57 47 35 49 40 32 47 31 32 52 28 33 53 28 33 53 28 33 53 28 33 53 28 33 53 28 33 53 28 33 53 39 44 64 39 44 64 39 44 64 39 44 64 39 44 64 39 44 64 39 44 64 42 43 61 43 35 50 49 37 49 54 42 54 60 48 60 67 55 67 73 61 73 78 66 78 81 69 81 84 72 84 84 72 84 84 72 84 84 72 84 84 72 84 84 72 84 84 72 84 85 72 82 92 77 84 93 76 82 93 76 82 93 76 82 93 76 82 93 76 82 93 76 82 93 76 82 104 87 93 104 87 93 104 87 93 104 87 93 104 87 93 104 87 93 104 87 93 107 86 93 112 82 94 112 78 92 110 76 90 107 73 87 103 69 83 100 66 80 98 64 78 96 62 76 98 64 78 98 64 78 98 64 78 98 64 78 98 64 78 98 64 78 98 64 78 100 64 78 97 54 73 98 53 73 98 53 73 98 53 73 98 53 73 98 53 73 98 53 73 98 53 73 95 50 70 99 54 74 105 60 80 107 62 82 104 59 79 95 50 70 85 40 60 71 37 53 52 39 48 45 43 48 45 43 48 45 43 48 45 43 48 45 43 48 45 43 48 45 43 48 45 43 48 43 41 46
83 72 76 83 72 76 83 72 76 83 72 76 83 72 78 84 74 83 84 74 85 84 74 85 84 74 85 84 74 85 84 74 85 84 74 85 84 74 85 63 53 64 61 51 62 59 49 60 56 46 57 52 42 53 49 39 50 47 37 48 43 35 48 40 38 52 39 38 54 39 38 54 39 38 54 39 38 54 39 38 54 39 38 54 39 38 54 39 38 54 39 38 54 39 38 54 39 38 54 39 38 54 39 38 54 39 38 54 39 38 54 40 38 52 40 38 52 40 38 52 40 38 52 40 38 52 40 38 52 40 38 52 40 38 52 48 46 60 48 46 60 48 46 60 48 46 60 48 46 60 48 46 60 48 46 60 47 46 60 53 55 67 52 56 67 53 55 67 52 56 67 53 55 67 52 56 67 53 55 67 52 56 67 50 52 64 49 53 64 50 52 64 49 53 64 50 52 64 49 53 64 50 52 64 53 51 62 56 44 56 59 43 54 59 43 54 59 43 54 59 43 54 59 43 54 59 43 54 59 43 54 60 44 55 60 44 55 60 44 55 60 44 55 60 44 55 60 44 55 60 44 55 57 45 57 49 43 57 46 44 58 46 44 58 46 44 58 46 44 58 46 44 58 46 44 58 46 44 58 47 45 59 47 45 59 47 45 59 47 45 59 47 45 59 47 45 59 47 45 59 48 44 58 71 60 76 72 60 74 72 60 74 72 60 74 72 60 74 72 60 74 72 60 74 72 60 74 92 80 94 88 76 90 82 70 84 73 61 75 63 51 65 54 42 56 47 35 49 41 33 48 31 32 52 28 33 53 28 33 53 28 33 53 28 33 53 28 33 53 28 33 53 28 33 53 39 44 64 39 44 64 39 44 64 39 44 64 39 44 64 39 44 64 39 44 64 42 43 61 46 38 53 51 39 51 56 44 56 63 51 63 70 58 70 76 64 76 81 69 81 83 71 83 84 72 84 84 72 84 84 72 84 84 72 84 84 72 84 84 72 84 84 72 84 85 72 82 92 77 84 93 76 82 93 76 82 93 76 82 93 76 82 93 76 82 93 76 82 93 76 82 104 87 93 104 87 93 104 87 93 104 87 93 104 87 93 104 87 93 104 87 93 107 86 93 112 82 94 112 78 92 110 76 90 107 73 87 103 69 83 100 66 80 98 64 78 96 62 76 98 64 78 98 64 78 98 64 78 98 64 78 98 64 78 98 64 78 98 64 78 100 64 78 97 54 73 98 53 73 98 53 73 98 53 73 98 53 73 98 53 73 98 53 73 98 53 73 95 50 70 99 54 74 105 60 80 107 62 82 104 59 79 95 50 70 85 40 60 71 37 53 52 39 48 45 43 48 45 43 48 45 43 48 45 43 48 45 43 48 45 43 48 45 43 48 45 43 48 43 41 46
83 72 76 83 72 76 83 72 76 83 72 76 83 72 78 84 74 83 84 74 85 84 74 85 84 74 85 84 74 85 84 74 85 84 74 85 84 74 85 66 56 67 65 55 66 62 52 63 59 49 60 56 46 57 52 42 53 50 40 51 47 39 52 40 38 52 39 38 54 39 38 54 39 38 54 39 38 54 39 38 54 39 38 54 39 38 54 39 38 54 39 38 54 39 38 54 39 38 54 39 38 54 39 38 54 39 38 54 39 38 54 40 38 52 40 38 52 40 38 52 40 38 52 40 38 52 40 38 52 40 38 52 40 38 52 48 46 60 48 46 60 48 46 60 48 46 60 48 46 60 48 46 60 48 46 60 48 46 60 55 55 67 53 55 67 55 55 67 53 55 67 55 55 67 53 55 67 55 55 67 53 55 67 59 59 71 57 59 71 59 59 71 57 59 71 59 59 71 57 59 71 59 59 71 61 58 69 63 51 63 66 50 61 66 50 61 66 50 61 66 50 61 66 50 61 66 50 61 66 50 61 60 44 55 60 44 55 60 44 55 60 44 55 60 44 55 60 44 55 60 44 55 57 45 57 49 43 57 46 44 58 46 44 58 46 44 58 46 44 58 46 44 58 46 44 58 46 44 58 47 45 59 47 45 59 47 45 59 47 45 59 47 45 59 47 45 59 47 45 59 48 44 58 68 57 73 69 57 71 69 57 71 69 57 71 69 57 71 69 57 71 69 57 71 69 57 71 84 72 86 81 69 83 76 64 78 69 57 71 61 49 63 54 42 56 48 36 50 42 34 49 31 32 52 28 33 53 28 33 53 28 33 53 28 33 53 28 33 53 28 33 53 28 33 53 39 44 64 39 44 64 39 44 64 39 44 64 39 44 64 39 44 64 39 44 64 42 43 61 49 41 56 55 43 55 59 47 59 66 54 66 73 61 73 79 67 79 84 72 84 87 75 87 84 72 84 84 72 84 84 72 84 84 72 84 84 72 84 84 72 84 84 72 84 85 72 82 92 77 84 93 76 82 93 76 82 93 76 82 93 76 82 93 76 82 93 76 82 93 76 82 104 87 93 104 87 93 104 87 93 104 87 93 104 87 93 104 87 93 104 87 93 107 86 93 112 82 94 112 78 92 110 76 90 107 73 87 103 69 83 100 66 80 98 64 78 96 62 76 98 64 78 98 64 78 98 64 78 98 64 78 98 64 78 98 64 78 98 64 78 100 64 78 97 54 73 98 53 73 98 53 73 98 53 73 98 53 73 98 53 73 98 53 73 98 53 73 95 50 70 99 54 74 105 60 80 107 62 82 104 59 79 95 50 70 85 40 60 71 37 53 52 39 48 45 43 48 45 43 48 45 43 48 45 43 48 45 43 48 45 43 48 45 43 48 45 43 48 43 41 46
83 72 76 83 72 76 83 72 76 83 72 76 83 72 78 84 74 83 84 74 85 84 74 85 84 74 85 84 74 85 84 74 85 84 74 85 84 74 85 69 59 70 68 58 69 66 56 67 62 52 63 59 49 60 56 46 57 53 43 54 50 42 55 40 38 52 39 38 54 39 38 54 39 38 54 39 38 54 39 38 54 39 38 54 39 38 54 39 38 54 39 38 54 39 38 54 39 38 54 39 38 54 39 38 54 39 38 54 39 38 54 40 38 52 40 38 52 40 38 52 40 38 52 40 38 52 40 38 52 40 38 52 40 38 52 48 46 60 48 46 60 48 46 60 48 46 60 48 46 60 48 46 60 48 46 60 48 46 60 56 54 67 55 55 67 56 54 67 55 55 67 56 54 67 55 55 67 56 54 67 55 55 67 66 64 77 65 65 77 66 64 77 65 65 77 66 64 77 65 65 77 66 64 77 67 64 75 69 57 69 72 56 67 72 56 67 72 56 67 72 56 67 72 56 67 72 56 67 72 56 67 60 44 55 60 44 55 60 44 55 60 44 55 60 44 55 60 44 55 60 44 55 57 45 57 49 43 57 46 44 58 46 44 58 46 44 58 46 44 58 46 44 58 46 44 58 46 44 58 47 45 59 47 45 59 47 45 59 47 45 59 47 45 59 47 45 59 47 45 59 48 44 58 64 53 69 65 53 67 65 53 67 65 53 67 65 53 67 65 53 67 65 53 67 65 53 67 76 64 78 74 62 76 70 58 72 64 52 66 58 46 60 53 41 55 49 37 51 43 35 50 31 32 52 28 33 53 28 33 53 28 33 53 28 33 53 28 33 53 28 33 53 28 33 53 39 44 64 39 44 64 39 44 64 39 44 64 39 44 64 39 44 64 39 44 64 42 43 61 52 44 59 58 46 58 63 51 63 69 57 69 76 64 76 83 71 83 87 75 87 90 78 90 84 72 84 84 72 84 84 72 84 84 72 84 84 72 84 84 72 84 84 72 84 85 72 82 92 77 84 93 76 82 93 76 82 93 76 82 93 76 82 93 76 82 93 76 82 93 76 82 104 87 93 104 87 93 104 87 93 104 87 93 104 87 93 104 87 93 104 87 93 107 86 93 112 82 94 112 78 92 110 76 90 107 73 87 103 69 83 100 66 80 98 64 78 96 62 76 98 64 78 98 64 78 98 64 78 98 64 78 98 64 78 98 64 78 98 64 78 100 64 78 97 54 73 98 53 73 98 53 73 98 53 73 98 53 73 98 53 73 98 53 73 98 53 73 95 50 70 99 54 74 105 60 80 107 62 82 104 59 79 95 50 70 85 40 60 71 37 53 52 39 48 45 43 48 45 43 48 45 43 48 45 43 48 45 43 48 45 43 48 45 43 48 45 43 48 43 41 46
83 72 76 83 72 76 83 72 76 83 72 76 83 72 78 84 74 83 84 74 85 84 74 85 84 74 85 84 74 85 84 74 85 84 74 85 84 74 85 73 63 74 71 61 72 69 59 70 66 56 67 62 52 63 59 49 60 57 47 58 53 45 58 40 38 52 39 38 54 39 38 54 39 38 54 39 38 54 39 38 54 39 38 54 39 38 54 39 38 54 39 38 54 39 38 54 39 38 54 39 38 54 39 38 54 39 38 54 39 38 54 40 38 52 40 38 52 40 38 52 40 38 52 40 38 52 40 38 52 40 38 52 40 38 52 48 46 60 48 46 60 48 46 60 48 46 60 48 46 60 48 46 60 48 46 60 48 46 60 57 53 67 57 53 67 57 53 67 57 53 67 57 53 67 57 53 67 57 53 67 57 53 67 74 70 84 74 70 84 74 70 84 74 70 84 74 70 84 74 70 84 74 70 84 76 70 82 76 64 76 79 63 74 79 63 74 79 63 74 79 63 74 79 63 74 79 63 74 79 63 74 60 44 55 60 44 55 60 44 55 60 44 55 60 44 55 60 44 55 60 44 55 57 45 57 49 43 57 46 44 58 46 44 58 46 44 58 46 44 58 46 44 58 46 44 58 46 44 58 47 45 59 47 45 59 47 45 59 47 45 59 47 45 59 47 45 59 47 45 59 48 44 58 61 50 66 62 50 64 62 50 64 62 50 64 62 50 64 62 50 64 62 50 64 62 50 64 69 57 71 67 55 69 64 52 66 60 48 62 56 44 58 52 40 54 49 37 51 45 37 52 31 32 52 28 33 53 28 33 53 28 33 53 28 33 53 28 33 53 28 33 53 28 33 53 39 44 64 39 44 64 39 44 64 39 44 64 39 44 64 39 44 64 39 44 64 42 43 61 56 48 63 61 49 61 66 54 66 72 60 72 79 67 79 86 74 86 91 79 91 93 81 93 84 72 84 84 72 84 84 72 84 84 72 84 84 72 84 84 72 84 84 72 84 85 72 82 92 77 84 93 76 82 93 76 82 93 76 82 93 76 82 93 76 82 93 76 82 93 76 82 104 87 93 104 87 93 104 87 93 104 87 93 104 87 93 104 87 93 104 87 93 107 86 93 112 82 94 112 78 92 110 76 90 107 73 87 103 69 83 100 66 80 98 64 78 96 62 76 98 64 78 98 64 78 98 64 78 98 64 78 98 64 78 98 64 78 98 64 78 100 64 78 97 54 73 98 53 73 98 53 73 98 53 73 98 53 73 98 53 73 98 53 73 98 53 73 95 50 70 99 54 74 105 60 80 107 62 82 104 59 79 95 50 70 85 40 60 71 37 53 52 39 48 45 43 48 45 43 48 45 43 48 45 43 48 45 43 48 45 43 48 45 43 48 45 43 48 43 41 46
83 72 76 83 72 76 83 72 76 83 72 76 83 72 78 84 74 83 84 74 85 84 74 85 84 74 85 84 74 85 84 74 85 84 74 85 84 74 85 75 65 76 74 64 75 71 61 72 68 58 69 65 55 66 61 51 62 59 49 60 56 48 61 40 38 52 39 38 54 39 38 54 39 38 54 39 38 54 39 38 54 39 38 54 39 38 54 39 38 54 39 38 54 39 38 54 39 38 54 39 38 54 39 38 54 39 38 54 39 38 54 40 38 52 40 38 52 40 38 52 40 38 52 40 38 52 40 38 52 40 38 52 40 38 52 48 46 60 48 46 60 48 46 60 48 46 60 48 46 60 48 46 60 48 46 60 49 45 60 59 53 67 59 53 67 59 53 67 59 53 67 59 53 67 59 53 67 59 53 67 59 53 67 81 75 89 81 75 89 81 75 89 81 75 89 81 75 89 81 75 89 81 75 89 82 74 87 82 68 81 84 68 79 84 68 79 84 68 79 84 68 79 84 68 79 84 68 79 84 68 79 60 44 55 60 44 55 60 44 55 60 44 55 60 44 55 60 44 55 60 44 55 57 45 57 49 43 57 46 44 58 46 44 58 46 44 58 46 44 58 46 44 58 46 44 58 46 44 58 47 45 59 47 45 59 47 45 59 47 45 59 47 45 59 47 45 59 47 45 59 48 44 58 59 48 64 60 48 62 60 48 62 60 48 62 60 48 62 60 48 62 60 48 62 60 48 62 63 51 65 62 50 64 60 48 62 57 45 59 54 42 56 52 40 54 50 38 52 46 38 53 31 32 52 28 33 53 28 33 53 28 33 53 28 33 53 28 33 53 28 33 53 28 33 53 39 44 64 39 44 64 39 44 64 39 44 64 39 44 64 39 44 64 39 44 64 42 43 61 58 50 65 64 52 64 69 57 69 75 63 75 82 70 82 88 76 88 93 81 93 96 84 96 84 72 84 84 72 84 84 72 84 84 72 84 84 72 84 84 72 84 84 72 84 85 72 82 92 77 84 93 76 82 93 76 82 93 76 82 93 76 82 93 76 82 93 76 82 93 76 82 104 87 93 104 87 93 104 87 93 104 87 93 104 87 93 104 87 93 104 87 93 107 86 93 112 82 94 112 78 92 110 76 90 107 73 87 103 69 83 100 66 80 98 64 78 96 62 76 98 64 78 98 64 78 98 64 78 98 64 78 98 64 78 98 64 78 98 64 78 100 64 78 97 54 73 98 53 73 98 53 73 98 53 73 98 53 73 98 53 73 98 53 73 98 53 73 95 50 70 99 54 74 105 60 80 107 62 82 104 59 79 95 50 70 85 40 60 71 37 53 52 39 48 45 43 48 45 43 48 45 43 48 45 43 48 45 43 48 45 43 48 45 43 48 45 43 48 43 41 46
83 72 76 83 72 76 83 72 76 83 72 76 83 72 78 84 74 83 84 74 85 84 74 85 84 74 85 84 74 85 84 74 85 84 74 85 84 74 85 76 66 77 75 65 76 73 63 74 69 59 70 66 56 67 63 53 64 60 50 61 57 49 62 40 38 52 39 38 54 39 38 54 39 38 54 39 38 54 39 38 54 39 38 54 39 38 54 39 38 54 39 38 54 39 38 54 39 38 54 39 38 54 39 38 54 39 38 54 39 38 54 40 38 52 40 38 52 40 38 52 40 38 52 40 38 52 40 38 52 40 38 52 40 38 52 48 46 60 48 46 60 48 46 60 48 46 60 48 46 60 48 46 60 48 46 60 49 45 60 60 52 67 62 51 67 62 51 67 62 51 67 62 51 67 62 51 67 62 51 67 62 51 67 86 75 91 86 75 91 86 75 91 86 75 91 86 75 91 86 75 91 86 75 91 87 75 89 84 70 83 86 70 81 86 70 81 86 70 81 86 70 81 86 70 81 86 70 81 86 70 81 60 44 55 60 44 55 60 44 55 60 44 55 60 44 55 60 44 55 60 44 55 57 45 57 49 43 57 46 44 58 46 44 58 46 44 58 46 44 58 46 44 58 46 44 58 46 44 58 47 45 59 47 45 59 47 45 59 47 45 59 47 45 59 47 45 59 47 45 59 48 44 58 57 46 62 58 46 60 58 46 60 58 46 60 58 46 60 58 46 60 58 46 60 58 46 60 60 48 62 59 47 61 57 45 59 55 43 57 53 41 55 51 39 53 50 38 52 46 38 53 31 32 52 28 33 53 28 33 53 28 33 53 28 33 53 28 33 53 28 33 53 28 33 53 39 44 64 39 44 64 39 44 64 39 44 64 39 44 64 39 44 64 39 44 64 42 43 61 59 51 66 65 53 65 70 58 70 76 64 76 83 71 83 89 77 89 94 82 94 97 85 97 84 72 84 84 72 84 84 72 84 84 72 84 84 72 84 84 72 84 84 72 84 85 72 82 92 77 84 93 76 82 93 76 82 93 76 82 93 76 82 93 76 82 93 76 82 93 76 82 104 87 93 104 87 93 104 87 93 104 87 93 104 87 93 104 87 93 104 87 93 107 86 93 112 82 94 112 78 92 110 76 90 107 73 87 103 69 83 100 66 80 98 64 78 96 62 76 98 64 78 98 64 78 98 64 78 98 64 78 98 64 78 98 64 78 98 64 78 100 64 78 97 54 73 98 53 73 98 53 73 98 53 73 98 53 73 98 53 73 98 53 73 98 53 73 95 50 70 99 54 74 105 60 80 107 62 82 104 59 79 95 50 70 85 40 60 71 37 53 52 39 48 45 43 48 45 43 48 45 43 48 45 43 48 45 43 48 45 43 48 45 43 48 45 43 48 43 41 46
86 75 79 86 75 79 86 75 79 86 75 79 86 75 81 80 70 79 78 68 79 76 66 77 73 63 74 69 59 70 66 56 67 64 54 65 62 52 63 76 66 77 76 66 77 76 66 77 76 66 77 76 66 77 76 66 77 76 66 77 74 66 79 66 64 78 64 63 79 60 59 75 56 55 71 51 50 66 47 46 62 43 42 58 41 40 56 42 41 57 42 41 57 42 41 57 42 41 57 42 41 57 42 41 57 42 41 57 42 41 57 57 55 69 56 54 68 53 51 65 50 48 62 47 45 59 43 41 55 41 39 53 40 38 52 59 57 71 59 57 71 59 57 71 59 57 71 59 57 71 59 57 71 59 57 71 60 56 71 60 47 64 62 48 65 64 50 67 68 54 71 71 57 74 74 60 77 77 63 80 78 64 81 90 76 93 90 76 93 90 76 93 90 76 93 90 76 93 90 76 93 90 76 93 90 76 91 88 72 85 88 72 83 88 72 83 88 72 83 88 72 83 88 72 83 88 72 83 88 72 83 91 75 86 89 73 84 84 68 79 77 61 72 71 55 66 64 48 59 59 43 54 54 42 54 48 42 56 45 43 57 45 43 57 45 43 57 45 43 57 45 43 57 45 43 57 45 43 57 40 38 52 40 38 52 40 38 52 40 38 52 40 38 52 40 38 52 40 38 52 41 37 51 49 38 54 50 38 52 50 38 52 50 38 52 50 38 52 50 38 52 50 38 52 50 38 52 50 38 52 50 38 52 50 38 52 50 38 52 50 38 52 50 38 52 50 38 52 47 39 54 34 35 55 31 36 56 31 36 56 31 36 56 31 36 56 31 36 56 31 36 56 31 36 56 34 39 59 36 41 61 38 43 63 41 46 66 45 50 70 48 53 73 50 55 75 55 56 74 77 69 84 80 68 80 80 68 80 80 68 80 80 68 80 80 68 80 80 68 80 80 68 80 73 61 73 75 63 75 77 65 77 80 68 80 84 72 84 87 75 87 89 77 89 92 79 89 98 83 90 99 82 88 99 82 88 99 82 88 99 82 88 99 82 88 99 82 88 99 82 88 98 81 87 98 81 87 98 81 87 98 81 87 98 81 87 98 81 87 98 81 87 101 80 87 101 71 83 103 69 83 103 69 83 103 69 83 103 69 83 103 69 83 103 69 83 103 69 83 103 69 83 103 69 83 103 69 83 103 69 83 103 69 83 103 69 83 103 69 83 105 69 83 96 53 72 97 52 72 97 52 72 97 52 72 97 52 72 97 52 72 97 52 72 97 52 72 95 50 70 93 48 68 91 46 66 88 43 63 84 39 59 81 36 56 79 34 54 70 36 52 42 29 38 37 35 40 39 37 42 42 40 45 46 44 49 49 47 52 51 49 54 53 51 56 41 39 44 39 37 42
86 75 79 86 75 79 86 75 79 86 75 79 86 75 81 80 70 79 78 68 79 76 66 77 73 63 74 69 59 70 66 56 67 64 54 65 62 52 63 74 64 75 74 64 75 74 64 75 74 64 75 74 64 75 74 64 75 74 64 75 72 64 77 66 64 78 63 62 78 60 59 75 57 56 72 53 52 68 49 48 64 46 45 61 44 43 59 50 49 65 50 49 65 50 49 65 50 49 65 50 49 65 50 49 65 50 49 65 50 49 65 58 56 70 57 55 69 55 53 67 51 49 63 48 46 60 45 43 57 42 40 54 41 39 53 59 57 71 59 57 71 59 57 71 59 57 71 59 57 71 59 57 71 59 57 71 62 55 71 62 48 65 66 47 66 69 50 69 72 53 72 75 56 75 79 60 79 81 62 81 82 63 82 93 74 93 93 74 93 93 74 93 93 74 93 93 74 93 93 74 93 93 74 93 93 75 91 88 72 85 88 72 83 88 72 83 88 72 83 88 72 83 88 72 83 88 72 83 88 72 83 91 75 86 89 73 84 84 68 79 77 61 72 71 55 66 64 48 59 59 43 54 54 42 54 48 42 56 45 43 57 45 43 57 45 43 57 45 43 57 45 43 57 45 43 57 45 43 57 40 38 52 40 38 52 40 38 52 40 38 52 40 38 52 40 38 52 40 38 52 41 37 51 49 38 54 50 38 52 50 38 52 50 38 52 50 38 52 50 38 52 50 38 52 50 38 52 50 38 52 50 38 52 50 38 52 50 38 52 50 38 52 50 38 52 50 38 52 47 39 54 34 35 55 31 36 56 31 36 56 31 36 56 31 36 56 31 36 56 31 36 56 31 36 56 34 39 59 36 41 61 38 43 63 41 46 66 45 50 70 48 53 73 50 55 75 55 56 74 77 69 84 80 68 80 80 68 80 80 68 80 80 68 80 80 68 80 80 68 80 80 68 80 73 61 73 75 63 75 77 65 77 80 68 80 84 72 84 87 75 87 89 77 89 92 79 89 98 83 90 99 82 88 99 82 88 99 82 88 99 82 88 99 82 88 99 82 88 99 82 88 98 81 87 98 81 87 98 81 87 98 81 87 98 81 87 98 81 87 98 81 87 101 80 87 101 71 83 103 69 83 103 69 83 103 69 83 103 69 83 103 69 83 103 69 83 103 69 83 103 69 83 103 69 83 103 69 83 103 69 83 103 69 83 103 69 83 103 69 83 105 69 83 96 53 72 97 52 72 97 52 72 97 52 72 97 52 72 97 52 72 97 52 72 97 52 72 95 50 70 93 48 68 91 46 66 88 43 63 84 39 59 81 36 56 79 34 54 70 36 52 42 29 38 37 35 40 39 37 42 42 40 45 46 44 49 49 47 52 51 49 54 53 51 56 41 39 44 39 37 42
86 75 79 86 75 79 86 75 79 86 75 79 86 75 81 80 70 79 78 68 79 76 66 77 73 63 74 69 59 70 66 56 67 64 54 65 62 52 63 72 62 73 72 62 73 72 62 73 72 62 73 72 62 73 72 62 73 72 62 73 70 62 75 65 63 77 63 62 78 61 60 76 58 57 73 56 55 71 53 52 68 51 50 66 50 49 65 63 62 78 63 62 78 63 62 78 63 62 78 63 62 78 63 62 78 63 62 78 63 62 78 61 59 73 59 57 71 57 55 69 54 52 66 50 48 62 47 45 59 45 43 57 43 41 55 59 57 71 59 57 71 59 57 71 59 57 71 59 57 71 59 57 71 59 57 71 62 55 71 66 49 67 71 50 69 73 52 71 76 55 74 80 59 78 83 62 81 85 64 83 87 66 85 95 74 93 95 74 93 95 74 93 95 74 93 95 74 93 95 74 93 95 74 93 95 74 91 89 71 85 88 72 83 88 72 83 88 72 83 88 72 83 88 72 83 88 72 83 88 72 83 91 75 86 89 73 84 84 68 79 77 61 72 71 55 66 64 48 59 59 43 54 54 42 54 48 42 56 45 43 57 45 43 57 45 43 57 45 43 57 45 43 57 45 43 57 45 43 57 40 38 52 40 38 52 40 38 52 40 38 52 40 38 52 40 38 52 40 38 52 41 37 51 49 38 54 50 38 52 50 38 52 50 38 52 50 38 52 50 38 52 50 38 52 50 38 52 50 38 52 50 38 52 50 38 52 50 38 52 50 38 52 50 38 52 50 38 52 47 39 54 34 35 55 31 36 56 31 36 56 31 36 56 31 36 56 31 36 56 31 36 56 31 36 56 34 39 59 36 41 61 38 43 63 41 46 66 45 50 70 48 53 73 50 55 75 55 56 74 77 69 84 80 68 80 80 68 80 80 68 80 80 68 80 80 68 80 80 68 80 80 68 80 73 61 73 75 63 75 77 65 77 80 68 80 84 72 84 87 75 87 89 77 89 92 79 89 98 83 90 99 82 88 99 82 88 99 82 88 99 82 88 99 82 88 99 82 88 99 82 88 98 81 87 98 81 87 98 81 87 98 81 87 98 81 87 98 81 87 98 81 87 101 80 87 101 71 83 103 69 83 103 69 83 103 69 83 103 69 83 103 69 83 103 69 83 103 69 83 103 69 83 103 69 83 103 69 83 103 69 83 103 69 83 103 69 83 103 69 83 105 69 83 96 53 72 97 52 72 97 52 72 97 52 72 97 52 72 97 52 72 97 52 72 97 52 72 95 50 70 93 48 68 91 46 66 88 43 63 84 39 59 81 36 56 79 34 54 70 36 52 42 29 38 37 35 40 39 37 42 42 40 45 46 44 49 49 47 52 51 49 54 53 51 56 41 39 44 39 37 42
86 75 79 86 75 79 86 75 79 86 75 79 86 75 81 80 70 79 78 68 79 76 66 77 73 63 74 69 59 70 66 56 67 64 54 65 62 52 63 69 59 70 69 59 70 69 59 70 69 59 70 69 59 70 69 59 70 69 59 70 67 59 72 64 62 76 62 61 77 62 61 77 61 60 76 60 59 75 59 58 74 58 57 73 58 57 73 75 74 90 75 74 90 75 74 90 75 74 90 75 74 90 75 74 90 75 74 90 75 74 90 64 62 76 63 61 75 60 58 72 57 55 69 54 52 66 50 48 62 48 46 60 47 45 59 59 57 71 59 57 71 59 57 71 59 57 71 59 57 71 59 57 71 59 57 71 63 54 71 71 52 71 75 52 72 78 53 74 81 58 78 85 60 81 87 64 84 91 66 87 91 68 88 97 72 93 96 73 93 97 72 93 96 73 93 97 72 93 96 73 93 97 72 93 96 73 91 89 71 85 88 72 83 88 72 83 88 72 83 88 72 83 88 72 83 88 72 83 88 72 83 91 75 86 89 73 84 84 68 79 77 61 72 71 55 66 64 48 59 59 43 54 54 42 54 48 42 56 45 43 57 45 43 57 45 43 57 45 43 57 45 43 57 45 43 57 45 43 57 40 38 52 40 38 52 40 38 52 40 38 52 40 38 52 40 38 52 40 38 52 41 37 51 49 38 54 50 38 52 50 38 52 50 38 52 50 38 52 50 38 52 50 38 52 50 38 52 50 38 52 50 38 52 50 38 52 50 38 52 50 38 52 50 38 52 50 38 52 47 39 54 34 35 55 31 36 56 31 36 56 31 36 56 31 36 56 31 36 56 31 36 56 31 36 56 34 39 59 36 41 61 38 43 63 41 46 66 45 50 70 48 53 73 50 55 75 55 56 74 77 69 84 80 68 80 80 68 80 80 68 80 80 68 80 80 68 80 80 68 80 80 68 80 73 61 73 75 63 75 77 65 77 80 68 80 84 72 84 87 75 87 89 77 89 92 79 89 98 83 90 99 82 88 99 82 88 99 82 88 99 82 88 99 82 88 99 82 88 99 82 88 98 81 87 98 81 87 98 81 87 98 81 87 98 81 87 98 81 87 98 81 87 101 80 87 101 71 83 103 69 83 103 69 83 103 69 83 103 69 83 103 69 83 103 69 83 103 69 83 103 69 83 103 69 83 103 69 83 103 69 83 103 69 83 103 69 83 103 69 83 105 69 83 96 53 72 97 52 72 97 52 72 97 52 72 97 52 72 97 52 72 97 52 72 97 52 72 95 50 70 93 48 68 91 46 66 88 43 63 84 39 59 81 36 56 79 34 54 70 36 52 42 29 38 37 35 40 39 37 42 42 40 45 46 44 49 49 47 52 51 49 54 53 51 56 41 39 44 39 37 42
86 75 79 86 75 79 86 75 79 86 75 79 86 75 81 80 70 79 78 68 79 76 66 77 73 63 74 69 59 70 66 56 67 64 54 65 62 52 63 65 55 66 65 55 66 65 55 66 65 55 66 65 55 66 65 55 66 65 55 66 63 55 68 62 60 74 62 61 77 62 61 77 63 62 78 64 63 79 65 64 80 66 65 81 66 65 81 82 81 97 82 81 97 82 81 97 82 81 97 82 81 97 82 81 97 82 81 97 82 81 97 67 65 79 66 64 78 64 62 76 60 58 72 57 55 69 54 52 66 51 49 63 50 48 62 59 57 71 59 57 71 59 57 71 59 57 71 59 57 71 59 57 71 59 57 71 63 54 71 76 55 74 79 54 75 84 56 78 85 60 81 90 62 84 92 67 88 96 68 90 95 70 91 99 71 93 97 72 93 99 71 93 97 72 93 99 71 93 97 72 93 99 71 93 96 73 91 89 71 85 88 72 83 88 72 83 88 72 83 88 72 83 88 72 83 88 72 83 88 72 83 91 75 86 89 73 84 84 68 79 77 61 72 71 55 66 64 48 59 59 43 54 54 42 54 48 42 56 45 43 57 45 43 57 45 43 57 45 43 57 45 43 57 45 43 57 45 43 57 40 38 52 40 38 52 40 38 52 40 38 52 40 38 52 40 38 52 40 38 52 41 37 51 49 38 54 50 38 52 50 38 52 50 38 52 50 38 52 50 38 52 50 38 52 50 38 52 50 38 52 50 38 52 50 38 52 50 38 52 50 38 52 50 38 52 50 38 52 47 39 54 34 35 55 31 36 56 31 36 56 31 36 56 31 36 56 31 36 56 31 36 56 31 36 56 34 39 59 36 41 61 38 43 63 41 46 66 45 50 70 48 53 73 50 55 75 55 56 74 77 69 84 80 68 80 80 68 80 80 68 80 80 68 80 80 68 80 80 68 80 80 68 80 73 61 73 75 63 75 77 65 77 80 68 80 84 72 84 87 75 87 89 77 89 92 79 89 98 83 90 99 82 88 99 82 88 99 82 88 99 82 88 99 82 88 99 82 88 99 82 88 98 81 87 98 81 87 98 81 87 98 81 87 98 81 87 98 81 87 98 81 87 101 80 87 101 71 83 103 69 83 103 69 83 103 69 83 103 69 83 103 69 83 103 69 83 103 69 83 103 69 83 103 69 83 103 69 83 103 69 83 103 69 83 103 69 83 103 69 83 105 69 83 96 53 72 97 52 72 97 52 72 97 52 72 97 52 72 97 52 72 97 52 72 97 52 72 95 50 70 93 48 68 91 46 66 88 43 63 84 39 59 81 36 56 79 34 54 70 36 52 42 29 38 37 35 40 39 37 42 42 40 45 46 44 49 49 47 52 51 49 54 53 51 56 41 39 44 39 37 42
86 75 79 86 75 79 86 75 79 86 75 79 86 75 81 80 70 79 78 68 79 76 66 77 73 63 74 69 59 70 66 56 67 64 54 65 62 52 63 62 52 63 62 52 63 62 52 63 62 52 63 62 52 63 62 52 63 62 52 63 60 52 65 61 59 73 61 60 76 63 62 78 66 65 81 68 67 83 71 70 86 73 72 88 74 73 89 83 82 98 83 82 98 83 82 98 83 82 98 83 82 98 83 82 98 83 82 98 83 82 98 71 69 83 69 67 81 67 65 79 64 62 76 60 58 72 57 55 69 55 53 67 53 51 65 59 57 71 59 57 71 59 57 71 59 57 71 59 57 71 59 57 71 59 57 71 63 54 71 79 58 77 85 57 79 88 59 81 90 62 84 95 66 88 97 69 91 100 71 93 101 73 95 100 71 93 99 71 93 100 71 93 99 71 93 100 71 93 99 71 93 100 71 93 97 72 91 89 71 85 88 72 83 88 72 83 88 72 83 88 72 83 88 72 83 88 72 83 88 72 83 91 75 86 89 73 84 84 68 79 77 61 72 71 55 66 64 48 59 59 43 54 54 42 54 48 42 56 45 43 57 45 43 57 45 43 57 45 43 57 45 43 57 45 43 57 45 43 57 40 38 52 40 38 52 40 38 52 40 38 52 40 38 52 40 38 52 40 38 52 41 37 51 49 38 54 50 38 52 50 38 52 50 38 52 50 38 52 50 38 52 50 38 52 50 38 52 50 38 52 50 38 52 50 38 52 50 38 52 50 38 52 50 38 52 50 38 52 47 39 54 34 35 55 31 36 56 31 36 56 31 36 56 31 36 56 31 36 56 31 36 56 31 36 56 34 39 59 36 41 61 38 43 63 41 46 66 45 50 70 48 53 73 50 55 75 55 56 74 77 69 84 80 68 80 80 68 80 80 68 80 80 68 80 80 68 80 80 68 80 80 68 80 73 61 73 75 63 75 77 65 77 80 68 80 84 72 84 87 75 87 89 77 89 92 79 89 98 83 90 99 82 88 99 82 88 99 82 88 99 82 88 99 82 88 99 82 88 99 82 88 98 81 87 98 81 87 98 81 87 98 81 87 98 81 87 98 81 87 98 81 87 101 80 87 101 71 83 103 69 83 103 69 83 103 69 83 103 69 83 103 69 83 103 69 83 103 69 83 103 69 83 103 69 83 103 69 83 103 69 83 103 69 83 103 69 83 103 69 83 105 69 83 96 53 72 97 52 72 97 52 72 97 52 72 97 52 72 97 52 72 97 52 72 97 52 72 95 50 70 93 48 68 91 46 66 88 43 63 84 39 59 81 36 56 79 34 54 70 36 52 42 29 38 37 35 40 39 37 42 42 40 45 46 44 49 49 47 52 51 49 54 53 51 56 41 39 44 39 37 42
86 75 79 86 75 79 86 75 79 86 75 79 86 75 81 80 70 79 78 68 79 76 66 77 73 63 74 69 59 70 66 56 67 64 54 65 62 52 63 60 50 61 60 50 61 60 50 61 60 50 61 60 50 61 60 50 61 60 50 61 58 50 63 60 58 72 61 60 76 64 63 79 67 66 82 71 70 86 75 74 90 78 77 93 80 79 95 80 79 95 80 79 95 80 79 95 80 79 95 80 79 95 80 79 95 80 79 95 80 79 95 73 71 85 72 70 84 69 67 81 66 64 78 63 61 75 59 57 71 57 55 69 56 54 68 59 57 71 59 57 71 59 57 71 59 57 71 59 57 71 59 57 71 59 57 71 63 54 71 83 60 80 88 59 81 92 60 83 94 65 87 99 67 90 100 71 93 105 73 96 104 75 97 102 70 93 100 71 93 102 70 93 100 71 93 102 70 93 100 71 93 102 70 93 99 72 91 91 70 85 88 72 83 88 72 83 88 72 83 88 72 83 88 72 83 88 72 83 88 72 83 91 75 86 89 73 84 84 68 79 77 61 72 71 55 66 64 48 59 59 43 54 54 42 54 48 42 56 45 43 57 45 43 57 45 43 57 45 43 57 45 43 57 45 43 57 45 43 57 40 38 52 40 38 52 40 38 52 40 38 52 40 38 52 40 38 52 40 38 52 41 37 51 49 38 54 50 38 52 50 38 52 50 38 52 50 38 52 50 38 52 50 38 52 50 38 52 50 38 52 50 38 52 50 38 52 50 38 52 50 38 52 50 38 52 50 38 52 47 39 54 34 35 55 31 36 56 31 36 56 31 36 56 31 36 56 31 36 56 31 36 56 31 36 56 34 39 59 36 41 61 38 43 63 41 46 66 45 50 70 48 53 73 50 55 75 55 56 74 77 69 84 80 68 80 80 68 80 80 68 80 80 68 80 80 68 80 80 68 80 80 68 80 73 61 73 75 63 75 77 65 77 80 68 80 84 72 84 87 75 87 89 77 89 92 79 89 98 83 90 99 82 88 99 82 88 99 82 88 99 82 88 99 82 88 99 82 88 99 82 88 98 81 87 98 81 87 98 81 87 98 81 87 98 81 87 98 81 87 98 81 87 101 80 87 101 71 83 103 69 83 103 69 83 103 69 83 103 69 83 103 69 83 103 69 83 103 69 83 103 69 83 103 69 83 103 69 83 103 69 83 103 69 83 103 69 83 103 69 83 105 69 83 96 53 72 97 52 72 97 52 72 97 52 72 97 52 72 97 52 72 97 52 72 97 52 72 95 50 70 93 48 68 91 46 66 88 43 63 84 39 59 81 36 56 79 34 54 70 36 52 42 29 38 37 35 40 39 37 42 42 40 45 46 44 49 49 47 52 51 49 54 53 51 56 41 39 44 39 37 42
86 75 79 86 75 79 86 75 79 86 75 79 85 76 81 80 70 79 78 68 79 76 66 77 73 63 74 69 59 70 66 56 67 64 54 65 62 52 63 58 48 59 58 48 59 58 48 59 58 48 59 58 48 59 58 48 59 58 48 59 56 48 59 61 57 71 61 59 72 66 62 76 69 67 80 75 71 85 78 76 89 83 79 93 84 82 95 79 75 89 78 76 89 79 75 89 78 76 89 79 75 89 78 76 89 79 75 89 79 75 89 75 71 85 74 71 82 72 68 82 68 65 76 65 61 75 62 59 70 59 55 69 58 55 66 60 56 70 60 57 68 60 56 70 60 57 68 60 56 70 60 57 68 60 56 70 65 54 68 84 61 79 89 60 80 92 63 83 95 66 86 98 69 89 102 73 93 104 75 95 105 76 96 100 71 91 100 71 91 100 71 91 100 71 91 100 71 91 100 71 91 100 71 91 97 73 89 89 71 83 88 72 82 88 72 83 88 72 82 88 72 83 88 72 82 88 72 83 88 72 82 91 75 86 89 73 83 84 68 79 77 61 71 71 55 66 64 48 58 59 43 54 54 42 54 48 42 56 45 43 57 46 42 57 45 43 57 46 42 57 45 43 57 46 42 57 45 43 57 41 37 52 40 38 52 41 37 52 40 38 52 41 37 52 40 38 52 41 37 52 41 37 52 47 39 54 47 39 54 49 38 54 47 39 54 49 38 54 47 39 54 49 38 54 47 39 54 49 38 54 47 39 54 49 38 54 47 39 54 49 38 54 47 39 54 49 38 54 46 39 55 36 35 53 33 36 55 33 36 55 33 36 55 33 36 55 33 36 55 33 36 55 33 36 55 36 39 58 38 41 60 40 43 62 43 46 65 47 50 69 50 53 72 52 55 74 57 56 72 79 68 82 81 68 78 81 68 78 81 68 78 81 68 78 81 68 78 81 68 78 81 68 78 74 61 71 76 63 73 78 65 75 81 68 78 85 72 82 88 75 85 90 77 87 94 78 88 101 81 90 101 82 88 102 81 88 101 82 88 102 81 88 101 82 88 102 81 88 101 82 88 101 80 87 100 81 87 101 80 87 100 81 87 101 80 87 100 81 87 101 80 87 102 79 89 102 70 83 103 69 83 103 69 85 103 69 83 103 69 85 103 69 83 103 69 85 103 69 83 103 69 85 103 69 83 103 69 85 103 69 83 103 69 85 103 69 83 103 69 85 106 67 85 97 52 72 99 52 72 99 52 72 99 52 72 99 52 72 97 52 72 97 52 72 96 53 72 94 51 70 92 49 68 89 48 66 86 45 63 82 41 59 77 38 56 75 36 54 68 37 52 41 30 38 37 35 40 39 37 42 42 40 45 46 44 49 49 47 52 51 49 54 53 51 56 41 39 44 39 37 42
89 80 83 89 80 83 89 80 83 89 80 83 89 80 85 86 76 84 82 75 83 80 73 81 77 70 78 73 66 74 70 63 71 68 61 69 66 59 67 57 50 58 57 50 58 57 50 58 57 50 58 57 50 58 57 50 58 57 50 58 57 50 58 56 49 57 58 51 59 62 52 61 63 56 64 69 59 68 70 63 71 74 64 73 74 67 75 98 88 97 95 88 96 95 85 94 89 82 90 88 78 87 83 76 84 82 72 81 81 71 80 64 54 63 64 54 62 64 54 63 64 54 62 64 54 63 64 54 62 64 54 63 64 54 62 68 58 67 70 60 68 72 62 71 75 65 73 79 69 78 82 72 80 84 74 83 88 75 84 103 83 94 104 80 93 102 78 91 98 74 87 95 71 84 92 68 81 89 65 78 88 64 77 88 64 77 90 66 79 92 68 81 95 71 84 99 75 88 102 78 91 104 80 93 105 83 95 89 73 83 85 72 79 83 70 79 80 67 74 76 63 72 73 60 67 71 58 67 69 56 63 76 63 72 76 63 70 76 63 72 76 63 70 76 63 72 76 63 70 76 63 72 75 63 73 57 49 64 52 48 65 52 45 63 47 43 60 45 38 56 40 36 53 40 33 51 36 32 49 37 30 48 35 31 48 37 30 48 35 31 48 37 30 48 35 31 48 37 30 48 35 31 48 50 46 61 49 47 61 50 46 61 49 47 61 50 46 61 49 47 61 50 46 61 49 47 61 38 34 49 37 35 49 38 34 49 37 35 49 38 34 49 37 35 49 38 34 49 37 34 51 42 41 57 42 41 59 42 41 59 42 41 59 42 41 59 42 41 59 42 41 59 42 41 59 45 44 62 47 46 64 52 51 69 59 58 76 65 64 82 72 71 89 77 76 94 81 77 92 98 87 95 99 84 89 96 81 86 91 76 81 87 72 77 82 67 72 79 64 69 77 62 67 95 80 85 95 80 85 95 80 85 95 80 85 95 80 85 95 80 85 95 80 85 98 79 85 98 75 85 100 74 85 101 73 85 100 74 85 101 73 85 100 74 85 101 73 85 100 74 85 97 69 81 96 70 81 97 69 81 96 70 81 97 69 81 96 70 81 97 69 81 99 69 81 100 66 82 102 65 82 102 65 83 102 65 82 102 65 83 102 65 82 102 65 83 102 65 82 104 67 85 104 67 84 104 67 85 104 67 84 104 67 85 104 67 84 104 67 85 107 66 84 103 54 75 106 53 73 105 54 73 105 54 73 103 54 73 102 55 73 100 56 73 98 57 73 94 56 71 91 55 69 84 50 64 76 44 57 69 39 51 60 32 44 54 28 39 48 28 39 38 31 38 36 35 41 38 37 43 41 40 46 45 44 50 48 47 53 50 49 55 52 51 57 37 36 42 35 34 40
89 80 83 89 80 83 89 80 83 89 80 83 89 80 85 84 77 84 82 75 83 80 73 81 77 70 78 73 66 74 70 63 71 68 61 69 66 59 67 57 50 58 57 50 58 57 50 58 57 50 58 57 50 58 57 50 58 57 50 58 57 50 57 59 48 56 61 50 56 63 52 58 66 55 61 70 59 65 73 62 68 75 64 70 77 66 72 98 87 93 97 86 92 94 83 89 91 80 86 88 77 83 84 73 79 82 71 77 81 70 76 65 54 60 65 54 60 65 54 60 65 54 60 65 54 60 65 54 60 65 54 60 65 54 60 69 58 64 71 60 66 73 62 68 76 65 71 80 69 75 83 72 78 85 74 80 88 75 82 102 82 91 102 81 90 99 78 87 96 75 84 93 72 81 89 68 77 87 66 75 86 65 74 87 66 75 89 68 77 91 70 79 94 73 82 98 77 86 101 80 89 103 82 91 104 84 93 89 74 81 85 72 79 83 70 77 80 67 74 76 63 70 73 60 67 71 58 65 69 56 63 76 63 70 76 63 70 76 63 70 76 63 70 76 63 70 76 63 70 76 63 70 75 63 73 57 49 64 54 47 65 52 45 63 49 42 60 45 38 56 42 35 53 40 33 51 38 31 49 39 32 50 39 32 50 39 32 50 39 32 50 39 32 50 39 32 50 39 32 50 37 33 50 49 46 63 48 47 63 48 47 63 48 47 63 48 47 63 48 47 63 48 47 63 48 47 63 36 35 51 36 35 51 36 35 51 36 35 51 36 35 51 36 35 51 36 35 51 36 35 51 43 40 57 43 40 57 43 40 57 43 40 57 43 40 57 43 40 57 43 40 57 43 40 57 46 43 60 48 45 62 53 50 67 60 57 74 66 63 80 73 70 87 78 75 92 83 77 91 97 84 91 99 83 86 96 80 83 92 76 79 88 72 75 84 68 71 81 65 68 80 64 67 96 80 83 96 80 83 96 80 83 96 80 83 96 80 83 96 80 83 96 80 83 98 79 83 101 73 85 103 73 85 103 73 85 103 73 85 103 73 85 103 73 85 103 73 85 103 73 85 99 69 81 99 69 81 99 69 81 99 69 81 99 69 81 99 69 81 99 69 81 100 68 81 100 66 83 102 65 83 102 65 83 102 65 83 102 65 83 102 65 83 102 65 83 102 65 83 104 67 85 104 67 85 104 67 85 104 67 85 104 67 85 104 67 85 104 67 85 107 66 84 106 52 75 107 52 73 107 52 73 105 54 73 105 54 73 102 55 73 100 56 73 98 57 73 93 57 71 88 56 69 82 52 64 72 46 57 66 40 51 56 35 44 51 30 39 45 30 37 37 32 39 36 35 41 38 37 43 41 40 46 45 44 50 48 47 53 50 49 55 52 51 57 37 36 42 35 34 40
89 80 83 89 80 83 89 80 83 89 80 83 89 80 85 84 77 84 82 75 83 80 73 81 77 70 78 73 66 74 70 63 71 68 61 69 66 59 67 57 50 58 57 50 58 57 50 58 57 50 58 57 50 58 57 50 58 57 50 58 57 50 57 59 48 56 61 50 56 63 52 58 66 55 61 70 59 65 73 62 68 75 64 70 77 66 72 96 85 91 94 83 89 92 81 87 89 78 84 85 74 80 82 71 77 80 69 75 78 67 73 65 54 60 65 54 60 65 54 60 65 54 60 65 54 60 65 54 60 65 54 60 65 54 60 69 58 64 71 60 66 73 62 68 76 65 71 80 69 75 83 72 78 85 74 80 88 75 82 100 80 89 99 78 87 97 76 85 94 73 82 90 69 78 87 66 75 85 64 73 83 62 71 87 66 75 89 68 77 91 70 79 94 73 82 98 77 86 101 80 89 103 82 91 104 84 93 89 74 81 85 72 79 83 70 77 80 67 74 76 63 70 73 60 67 71 58 65 69 56 63 76 63 70 76 63 70 76 63 70 76 63 70 76 63 70 76 63 70 76 63 70 75 63 73 57 49 64 54 47 65 52 45 63 49 42 60 45 38 56 42 35 53 40 33 51 38 31 49 41 34 52 41 34 52 41 34 52 41 34 52 41 34 52 41 34 52 41 34 52 39 35 52 49 46 63 48 47 63 48 47 63 48 47 63 48 47 63 48 47 63 48 47 63 48 47 63 36 35 51 36 35 51 36 35 51 36 35 51 36 35 51 36 35 51 36 35 51 36 35 51 43 40 57 43 40 57 43 40 57 43 40 57 43 40 57 43 40 57 43 40 57 43 40 57 46 43 60 48 45 62 53 50 67 60 57 74 66 63 80 73 70 87 78 75 92 83 77 91 94 81 88 96 80 83 94 78 81 91 75 78 89 73 76 86 70 73 84 68 71 83 67 70 96 80 83 96 80 83 96 80 83 96 80 83 96 80 83 96 80 83 96 80 83 98 79 83 101 73 85 103 73 85 103 73 85 103 73 85 103 73 85 103 73 85 103 73 85 103 73 85 99 69 81 99 69 81 99 69 81 99 69 81 99 69 81 99 69 81 99 69 81 100 68 81 100 66 83 102 65 83 102 65 83 102 65 83 102 65 83 102 65 83 102 65 83 102 65 83 104 67 85 104 67 85 104 67 85 104 67 85 104 67 85 104 67 85 104 67 85 107 66 84 106 52 75 107 52 73 107 52 73 105 54 73 105 54 73 102 55 73 100 56 73 98 57 73 93 57 71 88 56 69 82 52 64 72 46 57 66 40 51 56 35 44 51 30 39 45 30 37 37 32 39 36 35 41 38 37 43 41 40 46 45 44 50 48 47 53 50 49 55 52 51 57 37 36 42 35 34 40
89 80 83 89 80 83 89 80 83 89 80 83 89 80 85 84 77 84 82 75 83 80 73 81 77 70 78 73 66 74 70 63 71 68 61 69 66 59 67 57 50 58 57 50 58 57 50 58 57 50 58 57 50 58 57 50 58 57 50 58 57 50 57 59 48 56 61 50 56 63 52 58 66 55 61 70 59 65 73 62 68 75 64 70 77 66 72 92 81 87 91 80 86 89 78 84 85 74 80 82 71 77 79 68 74 76 65 71 75 64 70 65 54 60 65 54 60 65 54 60 65 54 60 65 54 60 65 54 60 65 54 60 65 54 60 69 58 64 71 60 66 73 62 68 76 65 71 80 69 75 83 72 78 85 74 80 88 75 82 96 76 85 96 75 84 94 73 82 90 69 78 87 66 75 84 63 72 81 60 69 80 59 68 87 66 75 89 68 77 91 70 79 94 73 82 98 77 86 101 80 89 103 82 91 104 84 93 89 74 81 85 72 79 83 70 77 80 67 74 76 63 70 73 60 67 71 58 65 69 56 63 76 63 70 76 63 70 76 63 70 76 63 70 76 63 70 76 63 70 76 63 70 75 63 73 57 49 64 54 47 65 52 45 63 49 42 60 45 38 56 42 35 53 40 33 51 38 31 49 44 37 55 44 37 55 44 37 55 44 37 55 44 37 55 44 37 55 44 37 55 42 38 55 49 46 63 48 47 63 48 47 63 48 47 63 48 47 63 48 47 63 48 47 63 48 47 63 36 35 51 36 35 51 36 35 51 36 35 51 36 35 51 36 35 51 36 35 51 36 35 51 43 40 57 43 40 57 43 40 57 43 40 57 43 40 57 43 40 57 43 40 57 43 40 57 46 43 60 48 45 62 53 50 67 60 57 74 66 63 80 73 70 87 78 75 92 83 77 91 89 76 83 92 76 79 91 75 78 90 74 77 90 74 77 89 73 76 88 72 75 88 72 75 96 80 83 96 80 83 96 80 83 96 80 83 96 80 83 96 80 83 96 80 83 98 79 83 101 73 85 103 73 85 103 73 85 103 73 85 103 73 85 103 73 85 103 73 85 103 73 85 99 69 81 99 69 81 99 69 81 99 69 81 99 69 81 99 69 81 99 69 81 100 68 81 100 66 83 102 65 83 102 65 83 102 65 83 102 65 83 102 65 83 102 65 83 102 65 83 104 67 85 104 67 85 104 67 85 104 67 85 104 67 85 104 67 85 104 67 85 107 66 84 106 52 75 107 52 73 107 52 73 105 54 73 105 54 73 102 55 73 100 56 73 98 57 73 93 57 71 88 56 69 82 52 64 72 46 57 66 40 51 56 35 44 51 30 39 45 30 37 37 32 39 36 35 41 38 37 43 41 40 46 45 44 50 48 47 53 50 49 55 52 51 57 37 36 42 35 34 40
89 80 83 89 80 83 89 80 83 89 80 83 89 80 85 84 77 84 82 75 83 80 73 81 77 70 78 73 66 74 70 63 71 68 61 69 66 59 67 57 50 58 57 50 58 57 50 58 57 50 58 57 50 58 57 50 58 57 50 58 57 50 57 59 48 56 61 50 56 63 52 58 66 55 61 70 59 65 73 62 68 75 64 70 77 66 72 89 78 84 88 77 83 85 74 80 82 71 77 79 68 74 75 64 70 73 62 68 72 61 67 65 54 60 65 54 60 65 54 60 65 54 60 65 54 60 65 54 60 65 54 60 65 54 60 69 58 64 71 60 66 73 62 68 76 65 71 80 69 75 83 72 78 85 74 80 88 75 82 93 73 82 93 72 81 90 69 78 87 66 75 84 63 72 80 59 68 78 57 66 77 56 65 87 66 75 89 68 77 91 70 79 94 73 82 98 77 86 101 80 89 103 82 91 104 84 93 89 74 81 85 72 79 83 70 77 80 67 74 76 63 70 73 60 67 71 58 65 69 56 63 76 63 70 76 63 70 76 63 70 76 63 70 76 63 70 76 63 70 76 63 70 75 63 73 57 49 64 54 47 65 52 45 63 49 42 60 45 38 56 42 35 53 40 33 51 38 31 49 48 41 59 48 41 59 48 41 59 48 41 59 48 41 59 48 41 59 48 41 59 46 42 59 49 46 63 48 47 63 48 47 63 48 47 63 48 47 63 48 47 63 48 47 63 48 47 63 36 35 51 36 35 51 36 35 51 36 35 51 36 35 51 36 35 51 36 35 51 36 35 51 43 40 57 43 40 57 43 40 57 43 40 57 43 40 57 43 40 57 43 40 57 43 40 57 46 43 60 48 45 62 53 50 67 60 57 74 66 63 80 73 70 87 78 75 92 83 77 91 85 72 79 88 72 75 89 73 76 90 74 77 90 74 77 91 75 78 92 76 79 92 76 79 96 80 83 96 80 83 96 80 83 96 80 83 96 80 83 96 80 83 96 80 83 98 79 83 101 73 85 103 73 85 103 73 85 103 73 85 103 73 85 103 73 85 103 73 85 103 73 85 99 69 81 99 69 81 99 69 81 99 69 81 99 69 81 99 69 81 99 69 81 100 68 81 100 66 83 102 65 83 102 65 83 102 65 83 102 65 83 102 65 83 102 65 83 102 65 83 104 67 85 104 67 85 104 67 85 104 67 85 104 67 85 104 67 85 104 67 85 107 66 84 106 52 75 107 52 73 107 52 73 105 54 73 105 54 73 102 55 73 100 56 73 98 57 73 93 57 71 88 56 69 82 52 64 72 46 57 66 40 51 56 35 44 51 30 39 45 30 37 37 32 39 36 35 41 38 37 43 41 40 46 45 44 50 48 47 53 50 49 55 52 51 57 37 36 42 35 34 40
89 80 83 89 80 83 89 80 83 89 80 83 89 80 85 84 77 84 82 75 83 80 73 81 77 70 78 73 66 74 70 63 71 68 61 69 66 59 67 57 50 58 57 50 58 57 50 58 57 50 58 57 50 58 57 50 58 57 50 58 57 50 57 59 48 56 61 50 56 63 52 58 66 55 61 70 59 65 73 62 68 75 64 70 77 66 72 86 75 81 84 73 79 82 71 77 79 68 74 75 64 70 72 61 67 70 59 65 68 57 63 65 54 60 65 54 60 65 54 60 65 54 60 65 54 60 65 54 60 65 54 60 65 54 60 69 58 64 71 60 66 73 62 68 76 65 71 80 69 75 83 72 78 85 74 80 88 75 82 90 70 79 89 68 77 87 66 75 84 63 72 80 59 68 77 56 65 75 54 63 73 52 61 87 66 75 89 68 77 91 70 79 94 73 82 98 77 86 101 80 89 103 82 91 104 84 93 89 74 81 85 72 79 83 70 77 80 67 74 76 63 70 73 60 67 71 58 65 69 56 63 76 63 70 76 63 70 76 63 70 76 63 70 76 63 70 76 63 70 76 63 70 75 63 73 57 49 64 54 47 65 52 45 63 49 42 60 45 38 56 42 35 53 40 33 51 38 31 49 51 44 62 51 44 62 51 44 62 51 44 62 51 44 62 51 44 62 51 44 62 49 45 62 49 46 63 48 47 63 48 47 63 48 47 63 48 47 63 48 47 63 48 47 63 48 47 63 36 35 51 36 35 51 36 35 51 36 35 51 36 35 51 36 35 51 36 35 51 36 35 51 43 40 57 43 40 57 43 40 57 43 40 57 43 40 57 43 40 57 43 40 57 43 40 57 46 43 60 48 45 62 53 50 67 60 57 74 66 63 80 73 70 87 78 75 92 83 77 91 80 67 74 84 68 71 86 70 73 89 73 76 91 75 78 94 78 81 96 80 83 97 81 84 96 80 83 96 80 83 96 80 83 96 80 83 96 80 83 96 80 83 96 80 83 98 79 83 101 73 85 103 73 85 103 73 85 103 73 85 103 73 85 103 73 85 103 73 85 103 73 85 99 69 81 99 69 81 99 69 81 99 69 81 99 69 81 99 69 81 99 69 81 100 68 81 100 66 83 102 65 83 102 65 83 102 65 83 102 65 83 102 65 83 102 65 83 102 65 83 104 67 85 104 67 85 104 67 85 104 67 85 104 67 85 104 67 85 104 67 85 107 66 84 106 52 75 107 52 73 107 52 73 105 54 73 105 54 73 102 55 73 100 56 73 98 57 73 93 57 71 88 56 69 82 52 64 72 46 57 66 40 51 56 35 44 51 30 39 45 30 37 37 32 39 36 35 41 38 37 43 41 40 46 45 44 50 48 47 53 50 49 55 52 51 57 37 36 42 35 34 40
89 80 83 89 80 83 89 80 83 89 80 83 89 80 85 84 77 84 82 75 83 80 73 81 77 70 78 73 66 74 70 63 71 68 61 69 66 59 67 57 50 58 57 50 58 57 50 58 57 50 58 57 50 58 57 50 58 57 50 58 57 50 57 59 48 56 61 50 56 63 52 58 66 55 61 70 59 65 73 62 68 75 64 70 77 66 72 83 72 78 82 71 77 80 69 75 76 65 71 73 62 68 70 59 65 67 56 62 66 55 61 65 54 60 65 54 60 65 54 60 65 54 60 65 54 60 65 54 60 65 54 60 65 54 60 69 58 64 71 60 66 73 62 68 76 65 71 80 69 75 83 72 78 85 74 80 88 75 82 87 67 76 87 66 75 85 64 73 81 60 69 78 57 66 75 54 63 72 51 60 71 50 59 87 66 75 89 68 77 91 70 79 94 73 82 98 77 86 101 80 89 103 82 91 104 84 93 89 74 81 85 72 79 83 70 77 80 67 74 76 63 70 73 60 67 71 58 65 69 56 63 76 63 70 76 63 70 76 63 70 76 63 70 76 63 70 76 63 70 76 63 70 75 63 73 57 49 64 54 47 65 52 45 63 49 42 60 45 38 56 42 35 53 40 33 51 38 31 49 53 46 64 53 46 64 53 46 64 53 46 64 53 46 64 53 46 64 53 46 64 51 47 64 49 46 63 48 47 63 48 47 63 48 47 63 48 47 63 48 47 63 48 47 63 48 47 63 36 35 51 36 35 51 36 35 51 36 35 51 36 35 51 36 35 51 36 35 51 36 35 51 43 40 57 43 40 57 43 40 57 43 40 57 43 40 57 43 40 57 43 40 57 43 40 57 46 43 60 48 45 62 53 50 67 60 57 74 66 63 80 73 70 87 78 75 92 83 77 91 77 64 71 81 65 68 84 68 71 88 72 75 92 76 79 96 80 83 99 83 86 100 84 87 96 80 83 96 80 83 96 80 83 96 80 83 96 80 83 96 80 83 96 80 83 98 79 83 101 73 85 103 73 85 103 73 85 103 73 85 103 73 85 103 73 85 103 73 85 103 73 85 99 69 81 99 69 81 99 69 81 99 69 81 99 69 81 99 69 81 99 69 81 100 68 81 100 66 83 102 65 83 102 65 83 102 65 83 102 65 83 102 65 83 102 65 83 102 65 83 104 67 85 104 67 85 104 67 85 104 67 85 104 67 85 104 67 85 104 67 85 107 66 84 106 52 75 107 52 73 107 52 73 105 54 73 105 54 73 102 55 73 100 56 73 98 57 73 93 57 71 88 56 69 82 52 64 72 46 57 66 40 51 56 35 44 51 30 39 45 30 37 37 32 39 36 35 41 38 37 43 41 40 46 45 44 50 48 47 53 50 49 55 52 51 57 37 36 42 35 34 40
89 80 83 89 80 83 89 80 83 89 80 83 89 80 85 84 77 84 82 75 83 80 73 81 77 70 78 73 66 74 70 63 71 68 61 69 66 59 67 57 50 58 57 50 58 57 50 58 57 50 58 57 50 58 57 50 58 57 50 58 57 50 57 59 48 56 61 50 56 63 52 58 66 55 61 70 59 65 73 62 68 75 64 70 77 66 72 82 71 77 81 70 76 78 67 73 75 64 70 72 61 67 68 57 63 66 55 61 65 54 60 65 54 60 65 54 60 65 54 60 65 54 60 65 54 60 65 54 60 65 54 60 65 54 60 69 58 64 71 60 66 73 62 68 76 65 71 80 69 75 83 72 78 85 74 80 88 75 82 86 66 75 86 65 74 83 62 71 80 59 68 77 56 65 73 52 61 71 50 59 70 49 58 87 66 75 89 68 77 91 70 79 94 73 82 98 77 86 101 80 89 103 82 91 104 84 93 89 74 81 85 72 79 83 70 77 80 67 74 76 63 70 73 60 67 71 58 65 69 56 63 76 63 70 76 63 70 76 63 70 76 63 70 76 63 70 76 63 70 76 63 70 75 63 73 57 49 64 54 47 65 52 45 63 49 42 60 45 38 56 42 35 53 40 33 51 38 31 49 55 48 66 55 48 66 55 48 66 55 48 66 55 48 66 55 48 66 55 48 66 53 49 66 49 46 63 48 47 63 48 47 63 48 47 63 48 47 63 48 47 63 48 47 63 48 47 63 36 35 51 36 35 51 36 35 51 36 35 51 36 35 51 36 35 51 36 35 51 36 35 51 43 40 57 43 40 57 43 40 57 43 40 57 43 40 57 43 40 57 43 40 57 43 40 57 46 43 60 48 45 62 53 50 67 60 57 74 66 63 80 73 70 87 78 75 92 83 77 91 75 62 69 80 64 67 83 67 70 88 72 75 92 76 79 97 81 84 100 84 87 102 86 89 96 80 83 96 80 83 96 80 83 96 80 83 96 80 83 96 80 83 96 80 83 98 79 83 101 73 85 103 73 85 103 73 85 103 73 85 103 73 85 103 73 85 103 73 85 103 73 85 99 69 81 99 69 81 99 69 81 99 69 81 99 69 81 99 69 81 99 69 81 100 68 81 100 66 83 102 65 83 102 65 83 102 65 83 102 65 83 102 65 83 102 65 83 102 65 83 104 67 85 104 67 85 104 67 85 104 67 85 104 67 85 104 67 85 104 67 85 107 66 84 106 52 75 107 52 73 107 52 73 105 54 73 105 54 73 102 55 73 100 56 73 98 57 73 93 57 71 88 56 69 82 52 64 72 46 57 66 40 51 56 35 44 51 30 39 45 30 37 37 32 39 36 35 41 38 37 43 41 40 46 45 44 50 48 47 53 50 49 55 52 51 57 37 36 42 35 34 40
67 58 61 67 58 61 67 58 61 67 58 61 67 58 63 64 57 64 64 57 65 64 57 65 64 57 65 64 57 65 64 57 65 64 57 65 64 57 65 60 53 61 60 53 61 60 53 61 60 53 61 60 53 61 60 53 61 60 53 61 60 53 60 61 50 58 61 50 56 61 50 56 61 50 56 61 50 56 61 50 56 61 50 56 61 50 56 61 50 56 61 50 56 61 50 56 61 50 56 61 50 56 61 50 56 61 50 56 61 50 56 69 58 64 69 58 64 69 58 64 69 58 64 69 58 64 69 58 64 69 58 64 69 58 64 76 65 71 76 65 71 76 65 71 76 65 71 76 65 71 76 65 71 76 65 71 77 64 71 75 55 64 76 55 64 76 55 64 76 55 64 76 55 64 76 55 64 76 55 64 76 55 64 81 60 69 83 62 71 85 64 73 88 67 76 92 71 80 95 74 83 97 76 85 98 78 87 90 75 82 86 73 80 84 71 78 81 68 75 77 64 71 74 61 68 72 59 66 70 57 64 71 58 65 71 58 65 71 58 65 71 58 65 71 58 65 71 58 65 71 58 65 70 58 68 45 37 52 45 38 56 47 40 58 51 44 62 54 47 65 57 50 68 60 53 71 61 54 72 75 68 86 73 66 84 71 64 82 68 61 79 64 57 75 61 54 72 59 52 70 55 51 68 61 58 75 58 57 73 56 55 71 53 52 68 49 48 64 46 45 61 44 43 59 42 41 57 40 39 55 40 39 55 40 39 55 40 39 55 40 39 55 40 39 55 40 39 55 40 39 55 41 38 55 43 40 57 45 42 59 48 45 62 52 49 66 55 52 69 57 54 71 59 56 73 60 57 74 61 58 75 63 60 77 67 64 81 70 67 84 73 70 87 76 73 90 80 74 88 96 83 90 99 83 86 99 83 86 99 83 86 99 83 86 99 83 86 99 83 86 99 83 86 97 81 84 97 81 84 97 81 84 97 81 84 97 81 84 97 81 84 97 81 84 99 80 84 99 71 83 101 71 83 101 71 83 101 71 83 101 71 83 101 71 83 101 71 83 101 71 83 96 66 78 96 66 78 96 66 78 96 66 78 96 66 78 96 66 78 96 66 78 97 65 78 95 61 78 97 60 78 97 60 78 97 60 78 97 60 78 97 60 78 97 60 78 97 60 78 101 64 82 101 64 82 101 64 82 101 64 82 101 64 82 101 64 82 101 64 82 104 63 81 106 52 75 107 52 73 107 52 73 105 54 73 105 54 73 102 55 73 100 56 73 98 57 73 91 55 69 86 54 67 80 50 62 70 44 55 64 38 49 54 33 42 49 28 37 43 28 35 46 41 48 43 42 48 43 42 48 43 42 48 43 42 48 43 42 48 43 42 48 43 42 48 26 25 31 26 25 31
67 58 61 67 58 61 67 58 61 67 58 61 67 58 63 64 57 64 64 57 65 64 57 65 64 57 65 64 57 65 64 57 65 64 57 65 64 57 65 60 53 61 60 53 61 60 53 61 60 53 61 60 53 61 60 53 61 60 53 61 60 53 60 61 50 58 61 50 56 61 50 56 61 50 56 61 50 56 61 50 56 61 50 56 61 50 56 61 50 56 61 50 56 61 50 56 61 50 56 61 50 56 61 50 56 61 50 56 61 50 56 69 58 64 69 58 64 69 58 64 69 58 64 69 58 64 69 58 64 69 58 64 69 58 64 76 65 71 76 65 71 76 65 71 76 65 71 76 65 71 76 65 71 76 65 71 77 64 71 75 55 64 76 55 64 76 55 64 76 55 64 76 55 64 76 55 64 76 55 64 76 55 64 81 60 69 83 62 71 85 64 73 88 67 76 92 71 80 95 74 83 97 76 85 98 78 87 90 75 82 86 73 80 84 71 78 81 68 75 77 64 71 74 61 68 72 59 66 70 57 64 71 58 65 71 58 65 71 58 65 71 58 65 71 58 65 71 58 65 71 58 65 70 58 68 46 38 53 46 39 57 49 42 60 52 45 63 55 48 66 59 52 70 61 54 72 62 55 73 75 68 86 73 66 84 71 64 82 68 61 79 64 57 75 61 54 72 59 52 70 55 51 68 61 58 75 58 57 73 56 55 71 53 52 68 49 48 64 46 45 61 44 43 59 42 41 57 40 39 55 40 39 55 40 39 55 40 39 55 40 39 55 40 39 55 40 39 55 40 39 55 41 38 55 43 40 57 45 42 59 48 45 62 52 49 66 55 52 69 57 54 71 59 56 73 61 58 75 62 59 76 65 62 79 68 65 82 71 68 85 75 72 89 77 74 91 81 75 89 96 83 90 99 83 86 99 83 86 99 83 86 99 83 86 99 83 86 99 83 86 99 83 86 97 81 84 97 81 84 97 81 84 97 81 84 97 81 84 97 81 84 97 81 84 99 80 84 99 71 83 101 71 83 101 71 83 101 71 83 101 71 83 101 71 83 101 71 83 101 71 83 96 66 78 96 66 78 96 66 78 96 66 78 96 66 78 96 66 78 96 66 78 97 65 78 95 61 78 97 60 78 97 60 78 97 60 78 97 60 78 97 60 78 97 60 78 97 60 78 101 64 82 101 64 82 101 64 82 101 64 82 101 64 82 101 64 82 101 64 82 104 63 81 106 52 75 107 52 73 107 52 73 105 54 73 105 54 73 102 55 73 100 56 73 98 57 73 91 55 69 86 54 67 80 50 62 70 44 55 64 38 49 54 33 42 49 28 37 43 28 35 46 41 48 43 42 48 43 42 48 43 42 48 43 42 48 43 42 48 43 42 48 43 42 48 26 25 31 26 25 31
67 58 61 67 58 61 67 58 61 67 58 61 67 58 63 64 57 64 64 57 65 64 57 65 64 57 65 64 57 65 64 57 65 64 57 65 64 57 65 60 53 61 60 53 61 60 53 61 60 53 61 60 53 61 60 53 61 60 53 61 60 53 60 61 50 58 61 50 56 61 50 56 61 50 56 61 50 56 61 50 56 61 50 56 61 50 56 61 50 56 61 50 56 61 50 56 61 50 56 61 50 56 61 50 56 61 50 56 61 50 56 69 58 64 69 58 64 69 58 64 69 58 64 69 58 64 69 58 64 69 58 64 69 58 64 76 65 71 76 65 71 76 65 71 76 65 71 76 65 71 76 65 71 76 65 71 77 64 71 75 55 64 76 55 64 76 55 64 76 55 64 76 55 64 76 55 64 76 55 64 76 55 64 81 60 69 83 62 71 85 64 73 88 67 76 92 71 80 95 74 83 97 76 85 98 78 87 90 75 82 86 73 80 84 71 78 81 68 75 77 64 71 74 61 68 72 59 66 70 57 64 71 58 65 71 58 65 71 58 65 71 58 65 71 58 65 71 58 65 71 58 65 70 58 68 48 40 55 49 42 60 51 44 62 54 47 65 58 51 69 61 54 72 63 56 74 65 58 76 75 68 86 73 66 84 71 64 82 68 61 79 64 57 75 61 54 72 59 52 70 55 51 68 61 58 75 58 57 73 56 55 71 53 52 68 49 48 64 46 45 61 44 43 59 42 41 57 40 39 55 40 39 55 40 39 55 40 39 55 40 39 55 40 39 55 40 39 55 40 39 55 41 38 55 43 40 57 45 42 59 48 45 62 52 49 66 55 52 69 57 54 71 59 56 73 63 60 77 65 62 79 67 64 81 70 67 84 74 71 88 77 74 91 79 76 93 84 78 92 96 83 90 99 83 86 99 83 86 99 83 86 99 83 86 99 83 86 99 83 86 99 83 86 97 81 84 97 81 84 97 81 84 97 81 84 97 81 84 97 81 84 97 81 84 99 80 84 99 71 83 101 71 83 101 71 83 101 71 83 101 71 83 101 71 83 101 71 83 101 71 83 96 66 78 96 66 78 96 66 78 96 66 78 96 66 78 96 66 78 96 66 78 97 65 78 95 61 78 97 60 78 97 60 78 97 60 78 97 60 78 97 60 78 97 60 78 97 60 78 101 64 82 101 64 82 101 64 82 101 64 82 101 64 82 101 64 82 101 64 82 104 63 81 106 52 75 107 52 73 107 52 73 105 54 73 105 54 73 102 55 73 100 56 73 98 57 73 91 55 69 86 54 67 80 50 62 70 44 55 64 38 49 54 33 42 49 28 37 43 28 35 46 41 48 43 42 48 43 42 48 43 42 48 43 42 48 43 42 48 43 42 48 43 42 48 26 25 31 26 25 31
67 58 61 67 58 61 67 58 61 67 58 61 67 58 63 64 57 64 64 57 65 64 57 65 64 57 65 64 57 65 64 57 65 64 57 65 64 57 65 60 53 61 60 53 61 60 53 61 60 53 61 60 53 61 60 53 61 60 53 61 60 53 60 61 50 58 61 50 56 61 50 56 61 50 56 61 50 56 61 50 56 61 50 56 61 50 56 61 50 56 61 50 56 61 50 56 61 50 56 61 50 56 61 50 56 61 50 56 61 50 56 69 58 64 69 58 64 69 58 64 69 58 64 69 58 64 69 58 64 69 58 64 69 58 64 76 65 71 76 65 71 76 65 71 76 65 71 76 65 71 76 65 71 76 65 71 77 64 71 75 55 64 76 55 64 76 55 64 76 55 64 76 55 64 76 55 64 76 55 64 76 55 64 81 60 69 83 62 71 85 64 73 88 67 76 92 71 80 95 74 83 97 76 85 98 78 87 90 75 82 86 73 80 84 71 78 81 68 75 77 64 71 74 61 68 72 59 66 70 57 64 71 58 65 71 58 65 71 58 65 71 58 65 71 58 65 71 58 65 71 58 65 70 58 68 52 44 59 52 45 63 54 47 65 58 51 69 61 54 72 64 57 75 67 60 78 68 61 79 75 68 86 73 66 84 71 64 82 68 61 79 64 57 75 61 54 72 59 52 70 55 51 68 61 58 75 58 57 73 56 55 71 53 52 68 49 48 64 46 45 61 44 43 59 42 41 57 40 39 55 40 39 55 40 39 55 40 39 55 40 39 55 40 39 55 40 39 55 40 39 55 41 38 55 43 40 57 45 42 59 48 45 62 52 49 66 55 52 69 57 54 71 59 56 73 67 64 81 68 65 82 70 67 84 74 71 88 77 74 91 80 77 94 83 80 97 87 81 95 96 83 90 99 83 86 99 83 86 99 83 86 99 83 86 99 83 86 99 83 86 99 83 86 97 81 84 97 81 84 97 81 84 97 81 84 97 81 84 97 81 84 97 81 84 99 80 84 99 71 83 101 71 83 101 71 83 101 71 83 101 71 83 101 71 83 101 71 83 101 71 83 96 66 78 96 66 78 96 66 78 96 66 78 96 66 78 96 66 78 96 66 78 97 65 78 95 61 78 97 60 78 97 60 78 97 60 78 97 60 78 97 60 78 97 60 78 97 60 78 101 64 82 101 64 82 101 64 82 101 64 82 101 64 82 101 64 82 101 64 82 104 63 81 106 52 75 107 52 73 107 52 73 105 54 73 105 54 73 102 55 73 100 56 73 98 57 73 91 55 69 86 54 67 80 50 62 70 44 55 64 38 49 54 33 42 49 28 37 43 28 35 46 41 48 43 42 48 43 42 48 43 42 48 43 42 48 43 42 48 43 42 48 43 42 48 26 25 31 26 25 31
67 58 61 67 58 61 67 58 61 67 58 61 67 58 63 64 57 64 64 57 65 64 57 65 64 57 65 64 57 65 64 57 65 64 57 65 64 57 65 60 53 61 60 53 61 60 53 61 60 53 61 60 53 61 60 53 61 60 53 61 60 53 60 61 50 58 61 50 56 61 50 56 61 50 56 61 50 56 61 50 56 61 50 56 61 50 56 61 50 56 61 50 56 61 50 56 61 50 56 61 50 56 61 50 56 61 50 56 61 50 56 69 58 64 69 58 64 69 58 64 69 58 64 69 58 64 69 58 64 69 58 64 69 58 64 76 65 71 76 65 71 76 65 71 76 65 71 76 65 71 76 65 71 76 65 71 77 64 71 75 55 64 76 55 64 76 55 64 76 55 64 76 55 64 76 55 64 76 55 64 76 55 64 81 60 69 83 62 71 85 64 73 88 67 76 92 71 80 95 74 83 97 76 85 98 78 87 90 75 82 86 73 80 84 71 78 81 68 75 77 64 71 74 61 68 72 59 66 70 57 64 71 58 65 71 58 65 71 58 65 71 58 65 71 58 65 71 58 65 71 58 65 70 58 68 55 47 62 55 48 66 58 51 69 61 54 72 64 57 75 68 61 79 70 63 81 71 64 82 75 68 86 73 66 84 71 64 82 68 61 79 64 57 75 61 54 72 59 52 70 55 51 68 61 58 75 58 57 73 56 55 71 53 52 68 49 48 64 46 45 61 44 43 59 42 41 57 40 39 55 40 39 55 40 39 55 40 39 55 40 39 55 40 39 55 40 39 55 40 39 55 41 38 55 43 40 57 45 42 59 48 45 62 52 49 66 55 52 69 57 54 71 59 56 73 70 67 84 71 68 85 74 71 88 77 74 91 80 77 94 84 81 98 86 83 100 90 84 98 96 83 90 99 83 86 99 83 86 99 83 86 99 83 86 99 83 86 99 83 86 99 83 86 97 81 84 97 81 84 97 81 84 97 81 84 97 81 84 97 81 84 97 81 84 99 80 84 99 71 83 101 71 83 101 71 83 101 71 83 101 71 83 101 71 83 101 71 83 101 71 83 96 66 78 96 66 78 96 66 78 96 66 78 96 66 78 96 66 78 96 66 78 97 65 78 95 61 78 97 60 78 97 60 78 97 60 78 97 60 78 97 60 78 97 60 78 97 60 78 101 64 82 101 64 82 101 64 82 101 64 82 101 64 82 101 64 82 101 64 82 104 63 81 106 52 75 107 52 73 107 52 73 105 54 73 105 54 73 102 55 73 100 56 73 98 57 73 91 55 69 86 54 67 80 50 62 70 44 55 64 38 49 54 33 42 49 28 37 43 28 35 46 41 48 43 42 48 43 42 48 43 42 48 43 42 48 43 42 48 43 42 48 43 42 48 26 25 31 26 25 31
67 58 61 67 58 61 67 58 61 67 58 61 67 58 63 64 57 64 64 57 65 64 57 65 64 57 65 64 57 65 64 57 65 64 57 65 64 57 65 60 53 61 60 53 61 60 53 61 60 53 61 60 53 61 60 53 61 60 53 61 60 53 60 61 50 58 61 50 56 61 50 56 61 50 56 61 50 56 61 50 56 61 50 56 61 50 56 61 50 56 61 50 56 61 50 56 61 50 56 61 50 56 61 50 56 61 50 56 61 50 56 69 58 64 69 58 64 69 58 64 69 58 64 69 58 64 69 58 64 69 58 64 69 58 64 76 65 71 76 65 71 76 65 71 76 65 71 76 65 71 76 65 71 76 65 71 77 64 71 75 55 64 76 55 64 76 55 64 76 55 64 76 55 64 76 55 64 76 55 64 76 55 64 81 60 69 83 62 71 85 64 73 88 67 76 92 71 80 95 74 83 97 76 85 98 78 87 90 75 82 86 73 80 84 71 78 81 68 75 77 64 71 74 61 68 72 59 66 70 57 64 71 58 65 71 58 65 71 58 65 71 58 65 71 58 65 71 58 65 71 58 65 70 58 68 58 50 65 59 52 70 61 54 72 64 57 75 68 61 79 71 64 82 73 66 84 75 68 86 75 68 86 73 66 84 71 64 82 68 61 79 64 57 75 61 54 72 59 52 70 55 51 68 61 58 75 58 57 73 56 55 71 53 52 68 49 48 64 46 45 61 44 43 59 42 41 57 40 39 55 40 39 55 40 39 55 40 39 55 40 39 55 40 39 55 40 39 55 40 39 55 41 38 55 43 40 57 45 42 59 48 45 62 52 49 66 55 52 69 57 54 71 59 56 73 73 70 87 75 72 89 77 74 91 80 77 94 84 81 98 87 84 101 89 86 103 94 88 102 96 83 90 99 83 86 99 83 86 99 83 86 99 83 86 99 83 86 99 83 86 99 83 86 97 81 84 97 81 84 97 81 84 97 81 84 97 81 84 97 81 84 97 81 84 99 80 84 99 71 83 101 71 83 101 71 83 101 71 83 101 71 83 101 71 83 101 71 83 101 71 83 96 66 78 96 66 78 96 66 78 96 66 78 96 66 78 96 66 78 96 66 78 97 65 78 95 61 78 97 60 78 97 60 78 97 60 78 97 60 78 97 60 78 97 60 78 97 60 78 101 64 82 101 64 82 101 64 82 101 64 82 101 64 82 101 64 82 101 64 82 104 63 81 106 52 75 107 52 73 107 52 73 105 54 73 105 54 73 102 55 73 100 56 73 98 57 73 91 55 69 86 54 67 80 50 62 70 44 55 64 38 49 54 33 42 49 28 37 43 28 35 46 41 48 43 42 48 43 42 48 43 42 48 43 42 48 43 42 48 43 42 48 43 42 48 26 25 31 26 25 31
67 58 61 67 58 61 67 58 61 67 58 61 67 58 63 64 57 64 64 57 65 64 57 65 64 57 65 64 57 65 64 57 65 64 57 65 64 57 65 60 53 61 60 53 61 60 53 61 60 53 61 60 53 61 60 53 61 60 53 61 60 53 60 61 50 58 61 50 56 61 50 56 61 50 56 61 50 56 61 50 56 61 50 56 61 50 56 61 50 56 61 50 56 61 50 56 61 50 56 61 50 56 61 50 56 61 50 56 61 50 56 69 58 64 69 58 64 69 58 64 69 58 64 69 58 64 69 58 64 69 58 64 69 58 64 76 65 71 76 65 71 76 65 71 76 65 71 76 65 71 76 65 71 76 65 71 77 64 71 75 55 64 76 55 64 76 55 64 76 55 64 76 55 64 76 55 64 76 55 64 76 55 64 81 60 69 83 62 71 85 64 73 88 67 76 92 71 80 95 74 83 97 76 85 98 78 87 90 75 82 86 73 80 84 71 78 81 68 75 77 64 71 74 61 68 72 59 66 70 57 64 71 58 65 71 58 65 71 58 65 71 58 65 71 58 65 71 58 65 71 58 65 70 58 68 61 53 68 61 54 72 63 56 74 67 60 78 70 63 81 73 66 84 76 69 87 77 70 88 75 68 86 73 66 84 71 64 82 68 61 79 64 57 75 61 54 72 59 52 70 55 51 68 61 58 75 58 57 73 56 55 71 53 52 68 49 48 64 46 45 61 44 43 59 42 41 57 40 39 55 40 39 55 40 39 55 40 39 55 40 39 55 40 39 55 40 39 55 40 39 55 41 38 55 43 40 57 45 42 59 48 45 62 52 49 66 55 52 69 57 54 71 59 56 73 76 73 90 77 74 91 79 76 93 83 80 97 86 83 100 89 86 103 92 89 106 96 90 104 96 83 90 99 83 86 99 83 86 99 83 86 99 83 86 99 83 86 99 83 86 99 83 86 97 81 84 97 81 84 97 81 84 97 81 84 97 81 84 97 81 84 97 81 84 99 80 84 99 71 83 101 71 83 101 71 83 101 71 83 101 71 83 101 71 83 101 71 83 101 71 83 96 66 78 96 66 78 96 66 78 96 66 78 96 66 78 96 66 78 96 66 78 97 65 78 95 61 78 97 60 78 97 60 78 97 60 78 97 60 78 97 60 78 97 60 78 97 60 78 101 64 82 101 64 82 101 64 82 101 64 82 101 64 82 101 64 82 101 64 82 104 63 81 106 52 75 107 52 73 107 52 73 105 54 73 105 54 73 102 55 73 100 56 73 98 57 73 91 55 69 86 54 67 80 50 62 70 44 55 64 38 49 54 33 42 49 28 37 43 28 35 46 41 48 43 42 48 43 42 48 43 42 48 43 42 48 43 42 48 43 42 48 43 42 48 26 25 31 26 25 31
65 59 63 65 59 63 65 59 63 65 59 63 65 59 63 64 57 64 64 57 65 64 57 65 64 57 65 64 57 65 64 57 65 64 57 65 64 57 65 60 53 61 60 53 61 60 53 61 60 53 61 60 53 61 60 53 61 60 53 61 60 53 61 60 50 58 60 51 56 60 50 58 60 51 56 60 50 58 60 51 56 60 50 58 60 51 56 60 50 58 60 51 56 60 50 58 60 51 56 60 50 58 60 51 56 60 50 58 60 51 56 69 58 64 69 58 64 69 58 64 69 58 64 69 58 64 69 58 64 69 58 64 69 58 64 76 65 71 76 65 71 76 65 71 76 65 71 76 65 71 76 65 71 76 65 71 77 64 71 73 56 64 73 56 64 75 55 66 73 56 64 75 55 66 73 56 64 75 55 66 73 56 64 80 60 71 80 63 71 84 64 75 85 68 76 91 71 82 92 75 83 96 76 87 96 79 87 88 75 82 85 74 80 84 71 78 80 69 75 77 64 71 73 62 68 72 59 66 69 58 64 71 58 65 70 59 65 71 58 65 70 59 65 71 58 65 70 59 65 71 58 65 70 58 68 62 54 67 63 54 71 66 57 74 69 60 77 72 63 80 76 67 84 78 69 86 79 70 87 76 67 84 74 65 82 72 63 80 69 60 77 65 56 73 62 53 70 60 51 68 57 50 66 62 58 73 59 57 71 58 54 69 54 52 66 51 47 62 47 45 59 46 42 57 43 41 55 42 38 53 41 39 53 42 38 53 41 39 53 42 38 53 41 39 53 42 38 53 41 39 53 42 38 53 43 41 55 46 42 57 48 46 60 53 49 64 55 53 67 58 54 69 59 57 71 78 74 89 78 76 90 82 78 93 84 82 96 88 84 99 91 89 103 94 90 105 97 91 103 96 83 90 99 83 86 99 82 88 99 83 86 99 82 88 99 83 86 99 82 88 99 83 86 97 80 86 97 81 84 97 80 86 97 81 84 97 80 86 97 81 84 97 80 86 99 80 86 98 72 83 99 71 83 99 71 83 99 71 83 99 71 83 99 71 83 99 71 83 99 71 83 94 66 78 94 66 78 94 66 78 94 66 78 94 66 78 94 66 78 94 66 78 96 66 78 95 61 77 95 61 77 95 61 78 95 61 77 95 61 78 95 61 77 95 61 78 95 61 77 99 65 82 99 65 81 99 65 82 99 65 81 99 65 82 99 65 81 99 65 82 104 63 81 103 54 75 106 53 73 105 53 75 103 54 73 102 55 75 100 56 73 98 57 75 95 59 73 89 55 71 85 55 67 77 51 64 68 45 55 61 39 51 53 33 42 46 29 39 40 29 37 46 41 48 42 43 48 43 42 48 42 43 48 43 42 48 42 43 48 43 42 48 42 43 48 26 25 31 25 26 31
66 61 67 66 61 67 66 61 67 66 61 67 66 61 67 74 69 76 74 69 76 74 69 76 74 69 76 74 69 76 74 69 76 74 69 76 74 69 76 64 59 66 64 59 66 64 59 66 64 59 66 64 59 66 64 59 66 64 59 66 64 59 66 58 51 59 58 51 58 58 51 59 58 51 58 58 51 59 58 51 58 58 51 59 58 51 58 58 51 59 60 53 60 62 55 63 65 58 65 69 62 70 72 65 72 74 67 75 76 69 76 70 59 67 71 58 67 71 58 67 71 58 67 71 58 67 71 58 67 71 58 67 71 58 67 59 46 55 61 48 57 64 51 60 69 56 65 73 60 69 78 65 74 81 68 77 83 70 79 73 60 69 72 61 69 73 60 70 72 61 69 73 60 70 72 61 69 73 60 70 72 61 69 73 60 70 73 62 70 77 64 74 79 68 76 83 70 80 86 75 83 89 76 86 89 78 86 81 70 78 78 68 76 77 66 74 73 63 71 70 59 67 66 56 64 65 54 62 62 52 60 67 56 64 66 56 64 67 56 64 66 56 64 67 56 64 66 56 64 67 56 64 66 56 64 70 60 71 71 61 72 74 64 75 77 67 78 80 70 81 84 74 85 86 76 87 87 77 88 67 57 68 67 57 68 67 57 68 67 57 68 67 57 68 67 57 68 67 57 68 67 57 68 68 57 71 66 58 71 68 57 71 66 58 71 68 57 71 66 58 71 68 57 71 66 58 71 54 43 57 52 44 57 54 43 57 52 44 57 54 43 57 52 44 57 54 43 57 52 44 57 43 37 51 44 40 54 52 46 60 58 54 68 68 62 76 74 70 84 82 76 90 83 79 93 92 86 100 90 86 100 92 86 100 90 86 100 92 86 100 90 86 100 92 86 100 93 85 96 105 89 99 108 89 95 108 88 97 108 89 95 108 88 97 108 89 95 108 88 97 108 89 95 102 82 91 102 83 89 102 82 91 102 83 89 102 82 91 102 83 89 102 82 91 102 82 91 90 67 77 92 66 77 92 66 77 92 66 77 92 66 77 92 66 77 92 66 77 92 66 77 77 51 62 77 51 62 77 51 62 77 51 62 77 51 62 77 51 62 77 51 62 77 51 62 80 50 62 81 49 62 81 49 64 81 49 62 81 49 64 81 49 62 81 49 64 81 49 62 96 64 79 96 64 77 96 64 79 96 64 77 96 64 79 96 64 77 96 64 79 99 62 79 103 58 78 105 58 78 103 58 79 102 59 78 101 59 79 99 60 78 96 62 79 94 63 78 75 47 62 70 46 59 66 46 58 61 44 54 56 40 51 51 38 47 48 36 46 43 36 44 32 31 37 35 38 45 45 45 53 49 52 59 51 51 59 43 46 53 37 37 45 29 32 39 27 27 35 25 28 35
64 61 68 64 61 68 64 61 68 64 61 68 64 61 68 74 69 76 74 69 76 74 69 76 74 69 76 74 69 76 74 69 76 74 69 76 74 69 76 64 59 66 64 59 66 64 59 66 64 59 66 64 59 66 64 59 66 64 59 66 64 59 66 57 52 59 57 52 59 57 52 59 57 52 59 57 52 59 57 52 59 57 52 59 57 52 59 57 52 59 59 54 61 61 56 63 64 59 66 68 63 70 71 66 73 73 68 75 76 69 77 70 59 67 71 58 67 71 58 67 71 58 67 71 58 67 71 58 67 71 58 67 71 58 67 61 48 57 62 49 58 65 52 61 69 56 65 73 60 69 77 64 73 80 67 76 80 69 77 70 58 68 69 59 68 69 59 68 69 59 68 69 59 68 69 59 68 69 59 68 69 59 68 70 60 69 71 61 70 73 63 72 77 67 76 80 70 79 83 73 82 86 76 85 87 77 86 80 70 78 78 68 76 76 66 74 73 63 71 69 59 67 66 56 64 64 54 62 62 52 60 66 56 64 66 56 64 66 56 64 66 56 64 66 56 64 66 56 64 66 56 64 66 56 64 70 58 68 71 59 69 73 61 71 77 65 75 80 68 78 83 71 81 86 74 84 87 75 85 68 56 66 68 56 66 68 56 66 68 56 66 68 56 66 68 56 66 68 56 66 68 56 66 69 57 69 69 57 69 69 57 69 69 57 69 69 57 69 69 57 69 69 57 69 69 57 69 57 45 57 57 45 57 57 45 57 57 45 57 57 45 57 57 45 57 57 45 57 56 46 57 46 38 51 48 42 54 53 47 59 60 54 66 68 62 74 75 69 81 80 74 86 83 77 89 95 89 101 95 89 101 95 89 101 95 89 101 95 89 101 95 89 101 95 89 101 98 88 99 103 87 97 106 86 95 106 86 95 106 86 95 106 86 95 106 86 95 106 86 95 106 86 95 100 80 89 100 80 89 100 80 89 100 80 89 100 80 89 100 80 89 100 80 89 100 80 89 88 65 75 88 65 75 88 65 75 88 65 75 88 65 75 88 65 75 88 65 75 88 65 75 75 52 62 75 52 62 75 52 62 75 52 62 75 52 62 75 52 62 75 52 62 77 51 62 78 50 62 80 50 62 80 50 62 80 50 62 80 50 62 80 50 62 80 50 62 80 50 62 95 65 77 95 65 77 95 65 77 95 65 77 95 65 77 95 65 77 95 65 77 97 63 77 101 59 79 102 59 79 102 59 79 99 60 79 99 60 79 96 62 79 95 62 79 92 64 79 72 48 62 68 48 60 64 46 58 58 45 55 54 41 51 49 39 48 47 37 46 42 37 44 31 31 39 35 38 45 43 46 53 49 52 59 49 52 59 43 46 53 35 38 45 29 32 39 25 28 35 25 28 35
64 61 68 64 61 68 64 61 68 64 61 68 64 61 68 74 69 76 74 69 76 74 69 76 74 69 76 74 69 76 74 69 76 74 69 76 74 69 76 64 59 66 64 59 66 64 59 66 64 59 66 64 59 66 64 59 66 64 59 66 64 59 66 57 52 59 57 52 59 57 52 59 57 52 59 57 52 59 57 52 59 57 52 59 57 52 59 57 52 59 59 54 61 61 56 63 64 59 66 68 63 70 71 66 73 73 68 75 76 69 77 70 59 67 71 58 67 71 58 67 71 58 67 71 58 67 71 58 67 71 58 67 71 58 67 64 51 60 65 52 61 67 54 63 70 57 66 72 59 68 75 62 71 77 64 73 77 66 74 68 56 66 67 57 66 67 57 66 67 57 66 67 57 66 67 57 66 67 57 66 67 57 66 67 57 66 69 59 68 71 61 70 74 64 73 78 68 77 81 71 80 83 73 82 85 75 84 80 70 78 78 68 76 76 66 74 73 63 71 69 59 67 66 56 64 64 54 62 62 52 60 66 56 64 66 56 64 66 56 64 66 56 64 66 56 64 66 56 64 66 56 64 66 56 64 67 55 65 69 57 67 71 59 69 74 62 72 78 66 76 81 69 79 83 71 81 85 73 83 68 56 66 68 56 66 68 56 66 68 56 66 68 56 66 68 56 66 68 56 66 68 56 66 69 57 69 69 57 69 69 57 69 69 57 69 69 57 69 69 57 69 69 57 69 69 57 69 59 47 59 59 47 59 59 47 59 59 47 59 59 47 59 59 47 59 59 47 59 58 48 59 50 42 55 51 45 57 55 49 61 61 55 67 67 61 73 73 67 79 77 71 83 79 73 85 98 92 104 98 92 104 98 92 104 98 92 104 98 92 104 98 92 104 98 92 104 101 91 102 98 82 92 101 81 90 101 81 90 101 81 90 101 81 90 101 81 90 101 81 90 101 81 90 98 78 87 98 78 87 98 78 87 98 78 87 98 78 87 98 78 87 98 78 87 98 78 87 86 63 73 86 63 73 86 63 73 86 63 73 86 63 73 86 63 73 86 63 73 86 63 73 75 52 62 75 52 62 75 52 62 75 52 62 75 52 62 75 52 62 75 52 62 77 51 62 78 50 62 80 50 62 80 50 62 80 50 62 80 50 62 80 50 62 80 50 62 80 50 62 95 65 77 95 65 77 95 65 77 95 65 77 95 65 77 95 65 77 95 65 77 97 63 77 101 59 79 102 59 79 102 59 79 99 60 79 99 60 79 96 62 79 95 62 79 92 64 79 72 48 62 68 48 60 64 46 58 58 45 55 54 41 51 49 39 48 47 37 46 42 37 44 31 31 39 35 38 45 43 46 53 49 52 59 49 52 59 43 46 53 35 38 45 29 32 39 25 28 35 25 28 35
64 61 68 64 61 68 64 61 68 64 61 68 64 61 68 74 69 76 74 69 76 74 69 76 74 69 76 74 69 76 74 69 76 74 69 76 74 69 76 64 59 66 64 59 66 64 59 66 64 59 66 64 59 66 64 59 66 64 59 66 64 59 66 57 52 59 57 52 59 57 52 59 57 52 59 57 52 59 57 52 59 57 52 59 57 52 59 57 52 59 59 54 61 61 56 63 64 59 66 68 63 70 71 66 73 73 68 75 76 69 77 70 59 67 71 58 67 71 58 67 71 58 67 71 58 67 71 58 67 71 58 67 71 58 67 69 56 65 69 56 65 70 57 66 71 58 67 71 58 67 72 59 68 73 60 69 72 61 69 65 53 63 64 54 63 64 54 63 64 54 63 64 54 63 64 54 63 64 54 63 64 54 63 64 54 63 65 55 64 68 58 67 71 61 70 74 64 73 78 68 77 80 70 79 81 71 80 80 70 78 78 68 76 76 66 74 73 63 71 69 59 67 66 56 64 64 54 62 62 52 60 66 56 64 66 56 64 66 56 64 66 56 64 66 56 64 66 56 64 66 56 64 66 56 64 64 52 62 65 53 63 68 56 66 71 59 69 74 62 72 78 66 76 80 68 78 81 69 79 68 56 66 68 56 66 68 56 66 68 56 66 68 56 66 68 56 66 68 56 66 68 56 66 69 57 69 69 57 69 69 57 69 69 57 69 69 57 69 69 57 69 69 57 69 69 57 69 62 50 62 62 50 62 62 50 62 62 50 62 62 50 62 62 50 62 62 50 62 61 51 62 54 46 59 55 49 61 58 52 64 62 56 68 66 60 72 70 64 76 73 67 79 75 69 81 97 91 103 97 91 103 97 91 103 97 91 103 97 91 103 97 91 103 97 91 103 100 90 101 91 75 85 94 74 83 94 74 83 94 74 83 94 74 83 94 74 83 94 74 83 94 74 83 95 75 84 95 75 84 95 75 84 95 75 84 95 75 84 95 75 84 95 75 84 95 75 84 83 60 70 83 60 70 83 60 70 83 60 70 83 60 70 83 60 70 83 60 70 83 60 70 75 52 62 75 52 62 75 52 62 75 52 62 75 52 62 75 52 62 75 52 62 77 51 62 78 50 62 80 50 62 80 50 62 80 50 62 80 50 62 80 50 62 80 50 62 80 50 62 95 65 77 95 65 77 95 65 77 95 65 77 95 65 77 95 65 77 95 65 77 97 63 77 101 59 79 102 59 79 102 59 79 99 60 79 99 60 79 96 62 79 95 62 79 92 64 79 72 48 62 68 48 60 64 46 58 58 45 55 54 41 51 49 39 48 47 37 46 42 37 44 31 31 39 35 38 45 43 46 53 49 52 59 49 52 59 43 46 53 35 38 45 29 32 39 25 28 35 25 28 35
64 61 68 64 61 68 64 61 68 64 61 68 64 61 68 74 69 76 74 69 76 74 69 76 74 69 76 74 69 76 74 69 76 74 69 76 74 69 76 64 59 66 64 59 66 64 59 66 64 59 66 64 59 66 64 59 66 64 59 66 64 59 66 57 52 59 57 52 59 57 52 59 57 52 59 57 52 59 57 52 59 57 52 59 57 52 59 57 52 59 59 54 61 61 56 63 64 59 66 68 63 70 71 66 73 73 68 75 76 69 77 70 59 67 71 58 67 71 58 67 71 58 67 71 58 67 71 58 67 71 58 67 71 58 67 73 60 69 73 60 69 72 59 68 71 58 67 71 58 67 70 57 66 69 56 65 68 57 65 61 49 59 60 50 59 60 50 59 60 50 59 60 50 59 60 50 59 60 50 59 60 50 59 61 51 60 62 52 61 64 54 63 68 58 67 71 61 70 74 64 73 77 67 76 78 68 77 80 70 78 78 68 76 76 66 74 73 63 71 69 59 67 66 56 64 64 54 62 62 52 60 66 56 64 66 56 64 66 56 64 66 56 64 66 56 64 66 56 64 66 56 64 66 56 64 61 49 59 62 50 60 64 52 62 68 56 66 71 59 69 74 62 72 77 65 75 78 66 76 68 56 66 68 56 66 68 56 66 68 56 66 68 56 66 68 56 66 68 56 66 68 56 66 69 57 69 69 57 69 69 57 69 69 57 69 69 57 69 69 57 69 69 57 69 69 57 69 66 54 66 66 54 66 66 54 66 66 54 66 66 54 66 66 54 66 66 54 66 65 55 66 59 51 64 59 53 65 60 54 66 63 57 69 65 59 71 68 62 74 69 63 75 70 64 76 90 84 96 90 84 96 90 84 96 90 84 96 90 84 96 90 84 96 90 84 96 93 83 94 85 69 79 88 68 77 88 68 77 88 68 77 88 68 77 88 68 77 88 68 77 88 68 77 91 71 80 91 71 80 91 71 80 91 71 80 91 71 80 91 71 80 91 71 80 91 71 80 79 56 66 79 56 66 79 56 66 79 56 66 79 56 66 79 56 66 79 56 66 79 56 66 75 52 62 75 52 62 75 52 62 75 52 62 75 52 62 75 52 62 75 52 62 77 51 62 78 50 62 80 50 62 80 50 62 80 50 62 80 50 62 80 50 62 80 50 62 80 50 62 95 65 77 95 65 77 95 65 77 95 65 77 95 65 77 95 65 77 95 65 77 97 63 77 101 59 79 102 59 79 102 59 79 99 60 79 99 60 79 96 62 79 95 62 79 92 64 79 72 48 62 68 48 60 64 46 58 58 45 55 54 41 51 49 39 48 47 37 46 42 37 44 31 31 39 35 38 45 43 46 53 49 52 59 49 52 59 43 46 53 35 38 45 29 32 39 25 28 35 25 28 35
64 61 68 64 61 68 64 61 68 64 61 68 64 61 68 74 69 76 74 69 76 74 69 76 74 69 76 74 69 76 74 69 76 74 69 76 74 69 76 64 59 66 64 59 66 64 59 66 64 59 66 64 59 66 64 59 66 64 59 66 64 59 66 57 52 59 57 52 59 57 52 59 57 52 59 57 52 59 57 52 59 57 52 59 57 52 59 57 52 59 59 54 61 61 56 63 64 59 66 68 63 70 71 66 73 73 68 75 76 69 77 70 59 67 71 58 67 71 58 67 71 58 67 71 58 67 71 58 67 71 58 67 71 58 67 78 65 74 77 64 73 75 62 71 72 59 68 70 57 66 67 54 63 65 52 61 63 52 60 58 46 56 57 47 56 57 47 56 57 47 56 57 47 56 57 47 56 57 47 56 57 47 56 57 47 56 59 49 58 61 51 60 64 54 63 68 58 67 71 61 70 73 63 72 75 65 74 80 70 78 78 68 76 76 66 74 73 63 71 69 59 67 66 56 64 64 54 62 62 52 60 66 56 64 66 56 64 66 56 64 66 56 64 66 56 64 66 56 64 66 56 64 66 56 64 57 45 55 59 47 57 61 49 59 64 52 62 68 56 66 71 59 69 73 61 71 75 63 73 68 56 66 68 56 66 68 56 66 68 56 66 68 56 66 68 56 66 68 56 66 68 56 66 69 57 69 69 57 69 69 57 69 69 57 69 69 57 69 69 57 69 69 57 69 69 57 69 69 57 69 69 57 69 69 57 69 69 57 69 69 57 69 69 57 69 69 57 69 68 58 69 63 55 68 62 56 68 63 57 69 64 58 70 64 58 70 65 59 71 66 60 72 66 60 72 78 72 84 78 72 84 78 72 84 78 72 84 78 72 84 78 72 84 78 72 84 81 71 82 78 62 72 81 61 70 81 61 70 81 61 70 81 61 70 81 61 70 81 61 70 81 61 70 88 68 77 88 68 77 88 68 77 88 68 77 88 68 77 88 68 77 88 68 77 88 68 77 76 53 63 76 53 63 76 53 63 76 53 63 76 53 63 76 53 63 76 53 63 76 53 63 75 52 62 75 52 62 75 52 62 75 52 62 75 52 62 75 52 62 75 52 62 77 51 62 78 50 62 80 50 62 80 50 62 80 50 62 80 50 62 80 50 62 80 50 62 80 50 62 95 65 77 95 65 77 95 65 77 95 65 77 95 65 77 95 65 77 95 65 77 97 63 77 101 59 79 102 59 79 102 59 79 99 60 79 99 60 79 96 62 79 95 62 79 92 64 79 72 48 62 68 48 60 64 46 58 58 45 55 54 41 51 49 39 48 47 37 46 42 37 44 31 31 39 35 38 45 43 46 53 49 52 59 49 52 59 43 46 53 35 38 45 29 32 39 25 28 35 25 28 35
64 61 68 64 61 68 64 61 68 64 61 68 64 61 68 74 69 76 74 69 76 74 69 76 74 69 76 74 69 76 74 69 76 74 69 76 74 69 76 64 59 66 64 59 66 64 59 66 64 59 66 64 59 66 64 59 66 64 59 66 64 59 66 57 52 59 57 52 59 57 52 59 57 52 59 57 52 59 57 52 59 57 52 59 57 52 59 57 52 59 59 54 61 61 56 63 64 59 66 68 63 70 71 66 73 73 68 75 76 69 77 70 59 67 71 58 67 71 58 67 71 58 67 71 58 67 71 58 67 71 58 67 71 58 67 81 68 77 80 67 76 77 64 73 73 60 69 69 56 65 65 52 61 62 49 58 60 49 57 56 44 54 55 45 54 55 45 54 55 45 54 55 45 54 55 45 54 55 45 54 55 45 54 55 45 54 56 46 55 59 49 58 62 52 61 65 55 64 69 59 68 71 61 70 72 62 71 80 70 78 78 68 76 76 66 74 73 63 71 69 59 67 66 56 64 64 54 62 62 52 60 66 56 64 66 56 64 66 56 64 66 56 64 66 56 64 66 56 64 66 56 64 66 56 64 55 43 53 56 44 54 59 47 57 62 50 60 65 53 63 69 57 67 71 59 69 72 60 70 68 56 66 68 56 66 68 56 66 68 56 66 68 56 66 68 56 66 68 56 66 68 56 66 69 57 69 69 57 69 69 57 69 69 57 69 69 57 69 69 57 69 69 57 69 69 57 69 71 59 71 71 59 71 71 59 71 71 59 71 71 59 71 71 59 71 71 59 71 70 60 71 67 59 72 65 59 71 65 59 71 64 58 70 64 58 70 63 57 69 63 57 69 62 56 68 65 59 71 65 59 71 65 59 71 65 59 71 65 59 71 65 59 71 65 59 71 68 58 69 73 57 67 76 56 65 76 56 65 76 56 65 76 56 65 76 56 65 76 56 65 76 56 65 86 66 75 86 66 75 86 66 75 86 66 75 86 66 75 86 66 75 86 66 75 86 66 75 74 51 61 74 51 61 74 51 61 74 51 61 74 51 61 74 51 61 74 51 61 74 51 61 75 52 62 75 52 62 75 52 62 75 52 62 75 52 62 75 52 62 75 52 62 77 51 62 78 50 62 80 50 62 80 50 62 80 50 62 80 50 62 80 50 62 80 50 62 80 50 62 95 65 77 95 65 77 95 65 77 95 65 77 95 65 77 95 65 77 95 65 77 97 63 77 101 59 79 102 59 79 102 59 79 99 60 79 99 60 79 96 62 79 95 62 79 92 64 79 72 48 62 68 48 60 64 46 58 58 45 55 54 41 51 49 39 48 47 37 46 42 37 44 31 31 39 35 38 45 43 46 53 49 52 59 49 52 59 43 46 53 35 38 45 29 32 39 25 28 35 25 28 35
64 61 68 64 61 68 64 61 68 64 61 68 64 61 68 74 69 76 74 69 76 74 69 76 74 69 76 74 69 76 74 69 76 74 69 76 74 69 76 64 59 66 64 59 66 64 59 66 64 59 66 64 59 66 64 59 66 64 59 66 64 59 66 57 52 59 57 52 59 57 52 59 57 52 59 57 52 59 57 52 59 57 52 59 57 52 59 57 52 59 59 54 61 61 56 63 64 59 66 68 63 70 71 66 73 73 68 75 76 69 77 70 59 67 71 58 67 71 58 67 71 58 67 71 58 67 71 58 67 71 58 67 71 58 67 83 70 79 81 68 77 78 65 74 73 60 69 69 56 65 64 51 60 61 48 57 58 47 55 54 42 52 53 43 52 53 43 52 53 43 52 53 43 52 53 43 52 53 43 52 53 43 52 54 44 53 55 45 54 57 47 56 61 51 60 64 54 63 67 57 66 70 60 69 71 61 70 80 70 78 78 68 76 76 66 74 73 63 71 69 59 67 66 56 64 64 54 62 62 52 60 66 56 64 66 56 64 66 56 64 66 56 64 66 56 64 66 56 64 66 56 64 66 56 64 54 42 52 55 43 53 57 45 55 61 49 59 64 52 62 67 55 65 70 58 68 71 59 69 68 56 66 68 56 66 68 56 66 68 56 66 68 56 66 68 56 66 68 56 66 68 56 66 69 57 69 69 57 69 69 57 69 69 57 69 69 57 69 69 57 69 69 57 69 69 57 69 73 61 73 73 61 73 73 61 73 73 61 73 73 61 73 73 61 73 73 61 73 72 62 73 68 60 73 67 61 73 66 60 72 65 59 71 63 57 69 62 56 68 61 55 67 61 55 67 57 51 63 57 51 63 57 51 63 57 51 63 57 51 63 57 51 63 57 51 63 60 50 61 71 55 65 74 54 63 74 54 63 74 54 63 74 54 63 74 54 63 74 54 63 74 54 63 84 64 73 84 64 73 84 64 73 84 64 73 84 64 73 84 64 73 84 64 73 84 64 73 72 49 59 72 49 59 72 49 59 72 49 59 72 49 59 72 49 59 72 49 59 72 49 59 75 52 62 75 52 62 75 52 62 75 52 62 75 52 62 75 52 62 75 52 62 77 51 62 78 50 62 80 50 62 80 50 62 80 50 62 80 50 62 80 50 62 80 50 62 80 50 62 95 65 77 95 65 77 95 65 77 95 65 77 95 65 77 95 65 77 95 65 77 97 63 77 101 59 79 102 59 79 102 59 79 99 60 79 99 60 79 96 62 79 95 62 79 92 64 79 72 48 62 68 48 60 64 46 58 58 45 55 54 41 51 49 39 48 47 37 46 42 37 44 31 31 39 35 38 45 43 46 53 49 52 59 49 52 59 43 46 53 35 38 45 29 32 39 25 28 35 25 28 35
71 68 75 71 68 75 71 68 75 71 68 75 71 68 75 75 70 77 75 70 77 75 70 77 75 70 77 75 70 77 75 70 77 75 70 77 75 70 77 85 80 87 83 78 85 81 76 83 78 73 80 74 69 76 71 66 73 69 64 71 67 62 69 60 55 62 60 55 62 60 55 62 60 55 62 60 55 62 60 55 62 60 55 62 60 55 62 68 63 70 68 63 70 68 63 70 68 63 70 68 63 70 68 63 70 68 63 70 69 62 70 69 58 66 72 59 68 74 61 70 77 64 73 81 68 77 84 71 80 86 73 82 88 75 84 68 55 64 68 55 64 68 55 64 68 55 64 68 55 64 68 55 64 68 55 64 67 56 64 49 37 47 49 39 48 49 39 48 51 41 50 52 42 51 53 43 52 54 44 53 55 45 54 52 42 51 52 42 51 52 42 51 52 42 51 52 42 51 52 42 51 52 42 51 52 42 51 53 43 51 55 45 53 57 47 55 60 50 58 64 54 62 67 57 65 69 59 67 71 61 69 78 68 76 76 66 74 74 64 72 71 61 69 67 57 65 64 54 62 62 52 60 60 50 58 57 45 55 57 45 55 57 45 55 57 45 55 57 45 55 57 45 55 57 45 55 57 45 55 64 52 62 66 54 64 68 56 66 71 59 69 75 63 73 78 66 76 80 68 78 82 70 80 78 66 78 78 66 78 78 66 78 78 66 78 78 66 78 78 66 78 78 66 78 78 66 78 80 68 80 78 66 78 76 64 76 73 61 73 69 57 69 66 54 66 64 52 64 61 51 62 53 45 58 52 46 58 52 46 58 52 46 58 52 46 58 52 46 58 52 46 58 52 46 58 48 42 54 48 42 54 48 42 54 48 42 54 48 42 54 48 42 54 48 42 54 51 41 52 68 52 62 71 51 60 71 51 60 71 51 60 71 51 60 71 51 60 71 51 60 71 51 60 80 60 69 80 60 69 80 60 69 80 60 69 80 60 69 80 60 69 80 60 69 80 60 69 64 41 51 64 41 51 64 41 51 64 41 51 64 41 51 64 41 51 64 41 51 64 41 51 68 45 55 68 45 55 68 45 55 68 45 55 68 45 55 68 45 55 68 45 55 70 44 55 85 57 69 87 57 69 87 57 69 87 57 69 87 57 69 87 57 69 87 57 69 87 57 69 81 51 63 83 53 65 85 55 67 88 58 70 92 62 74 95 65 77 97 67 79 101 67 81 103 61 81 104 61 81 104 61 81 101 62 81 101 62 81 98 64 81 97 64 81 94 66 81 70 46 60 66 46 58 62 44 56 56 43 53 52 39 49 47 37 46 45 35 44 40 35 42 50 50 58 46 49 56 44 47 54 41 44 51 37 40 47 34 37 44 32 35 42 30 33 40 25 28 35 25 28 35
73 70 77 73 70 77 73 70 77 73 70 77 73 70 77 75 70 77 75 70 77 75 70 77 75 70 77 75 70 77 75 70 77 75 70 77 75 70 77 85 80 87 83 78 85 81 76 83 78 73 80 74 69 76 71 66 73 69 64 71 67 62 69 60 55 62 60 55 62 60 55 62 60 55 62 60 55 62 60 55 62 60 55 62 60 55 62 68 63 70 68 63 70 68 63 70 68 63 70 68 63 70 68 63 70 68 63 70 69 62 70 69 58 66 72 59 68 74 61 70 77 64 73 81 68 77 84 71 80 86 73 82 88 75 84 70 57 66 70 57 66 70 57 66 70 57 66 70 57 66 70 57 66 70 57 66 69 58 66 52 40 50 51 41 50 52 42 51 52 42 51 53 43 52 54 44 53 54 44 53 54 44 53 52 42 51 52 42 51 52 42 51 52 42 51 52 42 51 52 42 51 52 42 51 52 42 51 53 43 51 55 45 53 57 47 55 60 50 58 64 54 62 67 57 65 69 59 67 71 61 69 78 68 76 76 66 74 74 64 72 71 61 69 67 57 65 64 54 62 62 52 60 60 50 58 57 45 55 57 45 55 57 45 55 57 45 55 57 45 55 57 45 55 57 45 55 57 45 55 64 52 62 66 54 64 68 56 66 71 59 69 75 63 73 78 66 76 80 68 78 82 70 80 78 66 78 78 66 78 78 66 78 78 66 78 78 66 78 78 66 78 78 66 78 78 66 78 80 68 80 78 66 78 76 64 76 73 61 73 69 57 69 66 54 66 64 52 64 61 51 62 53 45 58 52 46 58 52 46 58 52 46 58 52 46 58 52 46 58 52 46 58 52 46 58 48 42 54 48 42 54 48 42 54 48 42 54 48 42 54 48 42 54 48 42 54 51 41 52 68 52 62 71 51 60 71 51 60 71 51 60 71 51 60 71 51 60 71 51 60 71 51 60 78 58 67 78 58 67 78 58 67 78 58 67 78 58 67 78 58 67 78 58 67 78 58 67 66 43 53 66 43 53 66 43 53 66 43 53 66 43 53 66 43 53 66 43 53 66 43 53 70 47 57 70 47 57 70 47 57 70 47 57 70 47 57 70 47 57 70 47 57 72 46 57 85 57 69 87 57 69 87 57 69 87 57 69 87 57 69 87 57 69 87 57 69 87 57 69 81 51 63 83 53 65 85 55 67 88 58 70 92 62 74 95 65 77 97 67 79 101 67 81 103 61 81 104 61 81 104 61 81 101 62 81 101 62 81 98 64 81 97 64 81 94 66 81 70 46 60 66 46 58 62 44 56 56 43 53 52 39 49 47 37 46 45 35 44 40 35 42 50 50 58 46 49 56 44 47 54 41 44 51 37 40 47 34 37 44 32 35 42 30 33 40 25 28 35 25 28 35
75 72 79 75 72 79 75 72 79 75 72 79 75 72 79 75 70 77 75 70 77 75 70 77 75 70 77 75 70 77 75 70 77 75 70 77 75 70 77 85 80 87 83 78 85 81 76 83 78 73 80 74 69 76 71 66 73 69 64 71 67 62 69 60 55 62 60 55 62 60 55 62 60 55 62 60 55 62 60 55 62 60 55 62 60 55 62 68 63 70 68 63 70 68 63 70 68 63 70 68 63 70 68 63 70 68 63 70 69 62 70 69 58 66 72 59 68 74 61 70 77 64 73 81 68 77 84 71 80 86 73 82 88 75 84 75 62 71 75 62 71 75 62 71 75 62 71 75 62 71 75 62 71 75 62 71 74 63 71 58 46 56 57 47 56 56 46 55 55 45 54 55 45 54 54 44 53 54 44 53 53 43 52 52 42 51 52 42 51 52 42 51 52 42 51 52 42 51 52 42 51 52 42 51 52 42 51 53 43 51 55 45 53 57 47 55 60 50 58 64 54 62 67 57 65 69 59 67 71 61 69 78 68 76 76 66 74 74 64 72 71 61 69 67 57 65 64 54 62 62 52 60 60 50 58 57 45 55 57 45 55 57 45 55 57 45 55 57 45 55 57 45 55 57 45 55 57 45 55 64 52 62 66 54 64 68 56 66 71 59 69 75 63 73 78 66 76 80 68 78 82 70 80 78 66 78 78 66 78 78 66 78 78 66 78 78 66 78 78 66 78 78 66 78 78 66 78 80 68 80 78 66 78 76 64 76 73 61 73 69 57 69 66 54 66 64 52 64 61 51 62 53 45 58 52 46 58 52 46 58 52 46 58 52 46 58 52 46 58 52 46 58 52 46 58 48 42 54 48 42 54 48 42 54 48 42 54 48 42 54 48 42 54 48 42 54 51 41 52 68 52 62 71 51 60 71 51 60 71 51 60 71 51 60 71 51 60 71 51 60 71 51 60 76 56 65 76 56 65 76 56 65 76 56 65 76 56 65 76 56 65 76 56 65 76 56 65 68 45 55 68 45 55 68 45 55 68 45 55 68 45 55 68 45 55 68 45 55 68 45 55 72 49 59 72 49 59 72 49 59 72 49 59 72 49 59 72 49 59 72 49 59 74 48 59 85 57 69 87 57 69 87 57 69 87 57 69 87 57 69 87 57 69 87 57 69 87 57 69 81 51 63 83 53 65 85 55 67 88 58 70 92 62 74 95 65 77 97 67 79 101 67 81 103 61 81 104 61 81 104 61 81 101 62 81 101 62 81 98 64 81 97 64 81 94 66 81 70 46 60 66 46 58 62 44 56 56 43 53 52 39 49 47 37 46 45 35 44 40 35 42 50 50 58 46 49 56 44 47 54 41 44 51 37 40 47 34 37 44 32 35 42 30 33 40 25 28 35 25 28 35
78 75 82 78 75 82 78 75 82 78 75 82 78 75 82 75 70 77 75 70 77 75 70 77 75 70 77 75 70 77 75 70 77 75 70 77 75 70 77 85 80 87 83 78 85 81 76 83 78 73 80 74 69 76 71 66 73 69 64 71 67 62 69 60 55 62 60 55 62 60 55 62 60 55 62 60 55 62 60 55 62 60 55 62 60 55 62 68 63 70 68 63 70 68 63 70 68 63 70 68 63 70 68 63 70 68 63 70 69 62 70 69 58 66 72 59 68 74 61 70 77 64 73 81 68 77 84 71 80 86 73 82 88 75 84 82 69 78 82 69 78 82 69 78 82 69 78 82 69 78 82 69 78 82 69 78 81 70 78 66 54 64 64 54 63 62 52 61 60 50 59 57 47 56 55 45 54 53 43 52 52 42 51 52 42 51 52 42 51 52 42 51 52 42 51 52 42 51 52 42 51 52 42 51 52 42 51 53 43 51 55 45 53 57 47 55 60 50 58 64 54 62 67 57 65 69 59 67 71 61 69 78 68 76 76 66 74 74 64 72 71 61 69 67 57 65 64 54 62 62 52 60 60 50 58 57 45 55 57 45 55 57 45 55 57 45 55 57 45 55 57 45 55 57 45 55 57 45 55 64 52 62 66 54 64 68 56 66 71 59 69 75 63 73 78 66 76 80 68 78 82 70 80 78 66 78 78 66 78 78 66 78 78 66 78 78 66 78 78 66 78 78 66 78 78 66 78 80 68 80 78 66 78 76 64 76 73 61 73 69 57 69 66 54 66 64 52 64 61 51 62 53 45 58 52 46 58 52 46 58 52 46 58 52 46 58 52 46 58 52 46 58 52 46 58 48 42 54 48 42 54 48 42 54 48 42 54 48 42 54 48 42 54 48 42 54 51 41 52 68 52 62 71 51 60 71 51 60 71 51 60 71 51 60 71 51 60 71 51 60 71 51 60 73 53 62 73 53 62 73 53 62 73 53 62 73 53 62 73 53 62 73 53 62 73 53 62 71 48 58 71 48 58 71 48 58 71 48 58 71 48 58 71 48 58 71 48 58 71 48 58 75 52 62 75 52 62 75 52 62 75 52 62 75 52 62 75 52 62 75 52 62 77 51 62 85 57 69 87 57 69 87 57 69 87 57 69 87 57 69 87 57 69 87 57 69 87 57 69 81 51 63 83 53 65 85 55 67 88 58 70 92 62 74 95 65 77 97 67 79 101 67 81 103 61 81 104 61 81 104 61 81 101 62 81 101 62 81 98 64 81 97 64 81 94 66 81 70 46 60 66 46 58 62 44 56 56 43 53 52 39 49 47 37 46 45 35 44 40 35 42 50 50 58 46 49 56 44 47 54 41 44 51 37 40 47 34 37 44 32 35 42 30 33 40 25 28 35 25 28 35
82 79 86 82 79 86 82 79 86 82 79 86 82 79 86 75 70 77 75 70 77 75 70 77 75 70 77 75 70 77 75 70 77 75 70 77 75 70 77 85 80 87 83 78 85 81 76 83 78 73 80 74 69 76 71 66 73 69 64 71 67 62 69 60 55 62 60 55 62 60 55 62 60 55 62 60 55 62 60 55 62 60 55 62 60 55 62 68 63 70 68 63 70 68 63 70 68 63 70 68 63 70 68 63 70 68 63 70 69 62 70 69 58 66 72 59 68 74 61 70 77 64 73 81 68 77 84 71 80 86 73 82 88 75 84 88 75 84 88 75 84 88 75 84 88 75 84 88 75 84 88 75 84 88 75 84 87 76 84 74 62 72 71 61 70 68 58 67 64 54 63 60 50 59 55 45 54 52 42 51 51 41 50 52 42 51 52 42 51 52 42 51 52 42 51 52 42 51 52 42 51 52 42 51 52 42 51 53 43 51 55 45 53 57 47 55 60 50 58 64 54 62 67 57 65 69 59 67 71 61 69 78 68 76 76 66 74 74 64 72 71 61 69 67 57 65 64 54 62 62 52 60 60 50 58 57 45 55 57 45 55 57 45 55 57 45 55 57 45 55 57 45 55 57 45 55 57 45 55 64 52 62 66 54 64 68 56 66 71 59 69 75 63 73 78 66 76 80 68 78 82 70 80 78 66 78 78 66 78 78 66 78 78 66 78 78 66 78 78 66 78 78 66 78 78 66 78 80 68 80 78 66 78 76 64 76 73 61 73 69 57 69 66 54 66 64 52 64 61 51 62 53 45 58 52 46 58 52 46 58 52 46 58 52 46 58 52 46 58 52 46 58 52 46 58 48 42 54 48 42 54 48 42 54 48 42 54 48 42 54 48 42 54 48 42 54 51 41 52 68 52 62 71 51 60 71 51 60 71 51 60 71 51 60 71 51 60 71 51 60 71 51 60 69 49 58 69 49 58 69 49 58 69 49 58 69 49 58 69 49 58 69 49 58 69 49 58 75 52 62 75 52 62 75 52 62 75 52 62 75 52 62 75 52 62 75 52 62 75 52 62 79 56 66 79 56 66 79 56 66 79 56 66 79 56 66 79 56 66 79 56 66 81 55 66 85 57 69 87 57 69 87 57 69 87 57 69 87 57 69 87 57 69 87 57 69 87 57 69 81 51 63 83 53 65 85 55 67 88 58 70 92 62 74 95 65 77 97 67 79 101 67 81 103 61 81 104 61 81 104 61 81 101 62 81 101 62 81 98 64 81 97 64 81 94 66 81 70 46 60 66 46 58 62 44 56 56 43 53 52 39 49 47 37 46 45 35 44 40 35 42 50 50 58 46 49 56 44 47 54 41 44 51 37 40 47 34 37 44 32 35 42 30 33 40 25 28 35 25 28 35
85 82 89 85 82 89 85 82 89 85 82 89 85 82 89 75 70 77 75 70 77 75 70 77 75 70 77 75 70 77 75 70 77 75 70 77 75 70 77 85 80 87 83 78 85 81 76 83 78 73 80 74 69 76 71 66 73 69 64 71 67 62 69 60 55 62 60 55 62 60 55 62 60 55 62 60 55 62 60 55 62 60 55 62 60 55 62 68 63 70 68 63 70 68 63 70 68 63 70 68 63 70 68 63 70 68 63 70 69 62 70 69 58 66 72 59 68 74 61 70 77 64 73 81 68 77 84 71 80 86 73 82 88 75 84 95 82 91 95 82 91 95 82 91 95 82 91 95 82 91 95 82 91 95 82 91 94 83 91 81 69 79 78 68 77 74 64 73 68 58 67 62 52 61 56 46 55 52 42 51 49 39 48 52 42 51 52 42 51 52 42 51 52 42 51 52 42 51 52 42 51 52 42 51 52 42 51 53 43 51 55 45 53 57 47 55 60 50 58 64 54 62 67 57 65 69 59 67 71 61 69 78 68 76 76 66 74 74 64 72 71 61 69 67 57 65 64 54 62 62 52 60 60 50 58 57 45 55 57 45 55 57 45 55 57 45 55 57 45 55 57 45 55 57 45 55 57 45 55 64 52 62 66 54 64 68 56 66 71 59 69 75 63 73 78 66 76 80 68 78 82 70 80 78 66 78 78 66 78 78 66 78 78 66 78 78 66 78 78 66 78 78 66 78 78 66 78 80 68 80 78 66 78 76 64 76 73 61 73 69 57 69 66 54 66 64 52 64 61 51 62 53 45 58 52 46 58 52 46 58 52 46 58 52 46 58 52 46 58 52 46 58 52 46 58 48 42 54 48 42 54 48 42 54 48 42 54 48 42 54 48 42 54 48 42 54 51 41 52 68 52 62 71 51 60 71 51 60 71 51 60 71 51 60 71 51 60 71 51 60 71 51 60 66 46 55 66 46 55 66 46 55 66 46 55 66 46 55 66 46 55 66 46 55 66 46 55 78 55 65 78 55 65 78 55 65 78 55 65 78 55 65 78 55 65 78 55 65 78 55 65 82 59 69 82 59 69 82 59 69 82 59 69 82 59 69 82 59 69 82 59 69 84 58 69 85 57 69 87 57 69 87 57 69 87 57 69 87 57 69 87 57 69 87 57 69 87 57 69 81 51 63 83 53 65 85 55 67 88 58 70 92 62 74 95 65 77 97 67 79 101 67 81 103 61 81 104 61 81 104 61 81 101 62 81 101 62 81 98 64 81 97 64 81 94 66 81 70 46 60 66 46 58 62 44 56 56 43 53 52 39 49 47 37 46 45 35 44 40 35 42 50 50 58 46 49 56 44 47 54 41 44 51 37 40 47 34 37 44 32 35 42 30 33 40 25 28 35 25 28 35
87 84 91 87 84 91 87 84 91 87 84 91 87 84 91 75 70 77 75 70 77 75 70 77 75 70 77 75 70 77 75 70 77 75 70 77 75 70 77 85 80 87 83 78 85 81 76 83 78 73 80 74 69 76 71 66 73 69 64 71 67 62 69 60 55 62 60 55 62 60 55 62 60 55 62 60 55 62 60 55 62 60 55 62 60 55 62 68 63 70 68 63 70 68 63 70 68 63 70 68 63 70 68 63 70 68 63 70 69 62 70 69 58 66 72 59 68 74 61 70 77 64 73 81 68 77 84 71 80 86 73 82 88 75 84 100 87 96 100 87 96 100 87 96 100 87 96 100 87 96 100 87 96 100 87 96 99 88 96 87 75 85 83 73 82 78 68 77 71 61 70 64 54 63 57 47 56 51 41 50 48 38 47 52 42 51 52 42 51 52 42 51 52 42 51 52 42 51 52 42 51 52 42 51 52 42 51 53 43 51 55 45 53 57 47 55 60 50 58 64 54 62 67 57 65 69 59 67 71 61 69 78 68 76 76 66 74 74 64 72 71 61 69 67 57 65 64 54 62 62 52 60 60 50 58 57 45 55 57 45 55 57 45 55 57 45 55 57 45 55 57 45 55 57 45 55 57 45 55 64 52 62 66 54 64 68 56 66 71 59 69 75 63 73 78 66 76 80 68 78 82 70 80 78 66 78 78 66 78 78 66 78 78 66 78 78 66 78 78 66 78 78 66 78 78 66 78 80 68 80 78 66 78 76 64 76 73 61 73 69 57 69 66 54 66 64 52 64 61 51 62 53 45 58 52 46 58 52 46 58 52 46 58 52 46 58 52 46 58 52 46 58 52 46 58 48 42 54 48 42 54 48 42 54 48 42 54 48 42 54 48 42 54 48 42 54 51 41 52 68 52 62 71 51 60 71 51 60 71 51 60 71 51 60 71 51 60 71 51 60 71 51 60 64 44 53 64 44 53 64 44 53 64 44 53 64 44 53 64 44 53 64 44 53 64 44 53 80 57 67 80 57 67 80 57 67 80 57 67 80 57 67 80 57 67 80 57 67 80 57 67 84 61 71 84 61 71 84 61 71 84 61 71 84 61 71 84 61 71 84 61 71 86 60 71 85 57 69 87 57 69 87 57 69 87 57 69 87 57 69 87 57 69 87 57 69 87 57 69 81 51 63 83 53 65 85 55 67 88 58 70 92 62 74 95 65 77 97 67 79 101 67 81 103 61 81 104 61 81 104 61 81 101 62 81 101 62 81 98 64 81 97 64 81 94 66 81 70 46 60 66 46 58 62 44 56 56 43 53 52 39 49 47 37 46 45 35 44 40 35 42 50 50 58 46 49 56 44 47 54 41 44 51 37 40 47 34 37 44 32 35 42 30 33 40 25 28 35 25 28 35
88 87 95 88 87 95 88 87 95 88 87 95 88 87 95 73 70 79 73 70 79 73 70 79 73 70 79 73 70 79 73 70 79 73 70 79 73 70 79 83 80 89 81 78 87 79 76 85 76 73 82 72 69 78 69 66 75 67 64 73 65 62 71 60 54 64 60 54 64 60 54 64 60 54 64 60 54 64 60 54 64 60 54 64 60 54 64 68 62 72 68 62 72 68 62 72 68 62 72 68 62 72 68 62 72 68 62 72 69 61 72 69 57 67 71 59 69 73 61 71 76 64 74 80 68 78 83 71 81 85 73 83 87 75 85 101 89 99 101 89 99 101 89 99 101 89 99 101 89 99 101 89 99 101 89 99 101 89 99 89 79 88 84 77 85 78 71 79 71 64 72 63 56 64 55 48 56 49 42 50 46 39 47 50 43 51 50 43 51 50 43 51 50 43 51 50 43 51 50 43 51 50 43 51 50 43 51 53 43 52 55 45 53 57 47 56 60 50 58 64 54 63 67 57 65 69 59 68 71 61 69 78 68 77 76 66 74 74 64 73 71 61 69 67 57 66 64 54 62 62 52 61 60 50 59 57 45 55 57 45 55 57 45 55 57 45 55 57 45 55 57 45 55 57 45 55 57 45 55 64 52 62 66 54 64 68 56 66 71 59 69 75 63 73 78 66 76 80 68 78 82 70 80 78 66 78 77 67 78 78 66 78 77 67 78 78 66 78 77 67 78 78 66 78 77 67 78 80 68 80 77 67 78 76 64 76 72 62 73 69 57 69 65 55 66 64 52 64 61 51 62 52 46 58 52 46 58 52 46 58 52 46 58 52 46 58 52 46 58 52 46 58 52 46 58 48 42 54 48 42 54 48 42 54 48 42 54 48 42 54 48 42 54 48 42 54 49 41 52 66 53 62 69 52 60 69 52 60 69 52 60 69 52 60 69 52 60 69 52 60 69 52 60 60 43 51 60 43 51 60 43 51 60 43 51 60 43 51 60 43 51 60 43 51 60 43 51 81 60 69 81 60 69 81 60 69 81 60 69 81 60 69 81 60 69 81 60 69 81 60 69 85 64 73 85 64 73 85 64 73 85 64 73 85 64 73 85 64 73 85 64 73 86 63 73 84 58 69 85 57 69 85 57 69 85 57 69 85 57 69 85 57 69 85 57 69 85 57 69 79 51 63 81 53 65 83 55 67 86 58 70 90 62 74 93 65 77 95 67 79 100 68 83 101 62 81 103 61 81 103 61 81 100 63 81 100 63 81 97 64 81 96 65 81 93 66 81 69 47 60 64 46 58 61 45 56 55 43 53 51 39 49 45 38 46 43 36 44 38 35 44 50 50 58 46 49 58 44 47 56 41 44 53 37 40 49 34 37 46 32 35 44 30 33 42 25 28 37 25 28 37
96 96 108 96 96 108 96 96 108 96 96 108 96 96 108 75 73 87 75 73 87 75 73 87 75 73 87 75 73 87 75 73 87 75 73 87 75 73 87 74 72 86 74 72 86 74 72 86 74 72 86 74 72 86 74 72 86 74 72 86 74 72 86 66 60 74 67 59 74 67 59 74 67 59 74 67 59 74 67 59 74 67 59 74 67 59 74 71 63 78 71 63 78 71 63 78 71 63 78 71 63 78 71 63 78 71 63 78 71 63 78 76 65 79 78 68 79 80 70 81 83 73 84 87 77 88 90 80 91 92 82 93 94 84 95 95 85 96 95 85 96 95 85 96 95 85 96 95 85 96 95 85 96 95 85 96 93 85 96 80 74 84 79 73 83 76 70 80 73 67 77 70 64 74 66 60 70 64 58 68 63 57 67 54 48 58 54 48 58 54 48 58 54 48 58 54 48 58 54 48 58 54 48 58 54 48 58 69 61 72 69 62 70 69 61 72 69 62 70 69 61 72 69 62 70 69 61 72 69 62 70 72 64 75 70 63 71 68 60 71 65 58 66 61 53 64 58 51 59 56 48 59 54 47 55 55 45 54 57 47 56 59 49 58 62 52 61 66 56 65 69 59 68 71 61 70 73 63 72 77 67 76 77 67 76 77 67 76 77 67 76 77 67 76 77 67 76 77 67 76 77 67 76 84 74 83 82 75 83 84 74 83 82 75 83 84 74 83 82 75 83 84 74 83 82 75 83 80 70 79 78 71 79 80 70 79 78 71 79 80 70 79 78 71 79 80 70 79 78 70 81 54 48 60 52 48 62 52 48 62 52 48 62 52 48 62 52 48 62 52 48 62 52 48 62 47 43 57 47 43 57 47 43 57 47 43 57 47 43 57 47 43 57 47 43 57 49 43 55 73 62 70 74 61 68 74 61 68 74 61 68 74 61 68 74 61 68 74 61 68 74 61 68 64 51 58 64 51 58 64 51 58 64 51 58 64 51 58 64 51 58 64 51 58 64 51 58 79 62 68 79 62 68 79 62 68 79 62 68 79 62 68 79 62 68 79 62 68 79 62 68 86 69 75 86 69 75 86 69 75 86 69 75 86 69 75 86 69 75 86 69 75 88 68 77 87 66 75 88 64 77 88 64 77 88 64 77 88 64 77 88 64 77 88 64 77 88 64 77 86 62 75 86 62 75 86 62 75 86 62 75 86 62 75 86 62 75 86 62 75 89 61 75 100 66 83 100 62 83 98 60 81 92 59 78 88 55 74 82 53 71 79 52 69 74 51 67 56 38 52 53 39 52 52 40 52 49 41 52 49 41 52 46 43 52 46 43 52 44 44 52 49 51 63 46 50 61 44 48 59 41 45 56 37 41 52 34 38 49 32 36 47 30 34 45 25 29 40 25 29 40
92 94 107 92 94 107 92 94 107 92 94 107 92 94 107 74 73 89 74 73 89 74 73 89 74 73 89 74 73 89 74 73 89 74 73 89 74 73 89 73 72 88 73 72 88 73 72 88 73 72 88 73 72 88 73 72 88 73 72 88 74 71 88 66 59 75 67 58 75 67 58 75 67 58 75 67 58 75 67 58 75 67 58 75 67 58 75 71 62 79 71 62 79 71 62 79 71 62 79 71 62 79 71 62 79 71 62 79 71 63 78 74 66 81 76 68 81 78 70 83 81 73 86 85 77 90 88 80 93 90 82 95 92 84 97 93 85 98 93 85 98 93 85 98 93 85 98 93 85 98 93 85 98 93 85 98 92 86 98 81 75 85 78 75 84 76 73 82 72 69 78 69 66 75 66 63 72 63 60 69 62 59 68 52 49 58 52 49 58 52 49 58 52 49 58 52 49 58 52 49 58 52 49 58 52 49 58 69 61 72 69 61 72 69 61 72 69 61 72 69 61 72 69 61 72 69 61 72 69 61 72 72 64 75 70 62 73 68 60 71 65 57 68 61 53 64 58 50 61 56 48 59 54 46 57 55 45 54 57 47 56 59 49 58 62 52 61 66 56 65 69 59 68 71 61 70 73 63 72 77 67 76 77 67 76 77 67 76 77 67 76 77 67 76 77 67 76 77 67 76 77 67 76 82 75 83 82 75 83 82 75 83 82 75 83 82 75 83 82 75 83 82 75 83 82 75 83 78 71 79 78 71 79 78 71 79 78 71 79 78 71 79 78 71 79 78 71 79 77 71 81 56 50 62 54 50 64 54 50 64 54 50 64 54 50 64 54 50 64 54 50 64 54 50 64 49 45 59 49 45 59 49 45 59 49 45 59 49 45 59 49 45 59 49 45 59 51 45 57 72 62 70 73 62 68 73 62 68 73 62 68 73 62 68 73 62 68 73 62 68 73 62 68 63 52 58 63 52 58 63 52 58 63 52 58 63 52 58 63 52 58 63 52 58 63 52 58 78 63 68 78 63 68 78 63 68 78 63 68 78 63 68 78 63 68 78 63 68 78 63 68 85 70 75 85 70 75 85 70 75 85 70 75 85 70 75 85 70 75 85 70 75 86 69 75 86 66 77 87 65 77 87 65 77 87 65 77 87 65 77 87 65 77 87 65 77 87 65 77 85 63 75 85 63 75 85 63 75 85 63 75 85 63 75 85 63 75 85 63 75 88 62 75 99 66 85 98 63 83 96 61 81 91 60 78 87 56 74 81 54 71 77 53 69 73 52 67 55 39 52 52 40 52 51 41 52 48 42 52 48 42 52 45 44 52 45 44 52 42 45 54 49 51 63 46 50 62 44 48 60 41 45 57 37 41 53 34 38 50 32 36 48 30 34 46 25 29 41 25 29 41
90 92 105 90 92 105 90 92 105 90 92 105 90 92 105 74 73 89 74 73 89 74 73 89 74 73 89 74 73 89 74 73 89 74 73 89 74 73 89 73 72 88 73 72 88 73 72 88 73 72 88 73 72 88 73 72 88 73 72 88 74 71 88 66 59 75 67 58 75 67 58 75 67 58 75 67 58 75 67 58 75 67 58 75 67 58 75 71 62 79 71 62 79 71 62 79 71 62 79 71 62 79 71 62 79 71 62 79 71 63 78 74 66 81 76 68 81 78 70 83 81 73 86 85 77 90 88 80 93 90 82 95 92 84 97 93 85 98 93 85 98 93 85 98 93 85 98 93 85 98 93 85 98 93 85 98 92 86 98 84 78 88 80 77 86 78 75 84 75 72 81 71 68 77 68 65 74 66 63 72 64 61 70 52 49 58 52 49 58 52 49 58 52 49 58 52 49 58 52 49 58 52 49 58 52 49 58 69 61 72 69 61 72 69 61 72 69 61 72 69 61 72 69 61 72 69 61 72 69 61 72 72 64 75 70 62 73 68 60 71 65 57 68 61 53 64 58 50 61 56 48 59 54 46 57 55 45 54 57 47 56 59 49 58 62 52 61 66 56 65 69 59 68 71 61 70 73 63 72 77 67 76 77 67 76 77 67 76 77 67 76 77 67 76 77 67 76 77 67 76 77 67 76 82 75 83 82 75 83 82 75 83 82 75 83 82 75 83 82 75 83 82 75 83 82 75 83 78 71 79 78 71 79 78 71 79 78 71 79 78 71 79 78 71 79 78 71 79 77 71 81 58 52 64 56 52 66 56 52 66 56 52 66 56 52 66 56 52 66 56 52 66 56 52 66 51 47 61 51 47 61 51 47 61 51 47 61 51 47 61 51 47 61 51 47 61 53 47 59 72 62 70 73 62 68 73 62 68 73 62 68 73 62 68 73 62 68 73 62 68 73 62 68 63 52 58 63 52 58 63 52 58 63 52 58 63 52 58 63 52 58 63 52 58 63 52 58 78 63 68 78 63 68 78 63 68 78 63 68 78 63 68 78 63 68 78 63 68 78 63 68 85 70 75 85 70 75 85 70 75 85 70 75 85 70 75 85 70 75 85 70 75 86 69 75 86 66 77 87 65 77 87 65 77 87 65 77 87 65 77 87 65 77 87 65 77 87 65 77 85 63 75 85 63 75 85 63 75 85 63 75 85 63 75 85 63 75 85 63 75 88 62 75 99 66 85 98 63 83 96 61 81 91 60 78 87 56 74 81 54 71 77 53 69 73 52 67 55 39 52 52 40 52 51 41 52 48 42 52 48 42 52 45 44 52 45 44 52 42 45 54 49 51 63 46 50 62 44 48 60 41 45 57 37 41 53 34 38 50 32 36 48 30 34 46 25 29 41 25 29 41
87 89 102 87 89 102 87 89 102 87 89 102 87 89 102 74 73 89 74 73 89 74 73 89 74 73 89 74 73 89 74 73 89 74 73 89 74 73 89 73 72 88 73 72 88 73 72 88 73 72 88 73 72 88 73 72 88 73 72 88 74 71 88 66 59 75 67 58 75 67 58 75 67 58 75 67 58 75 67 58 75 67 58 75 67 58 75 71 62 79 71 62 79 71 62 79 71 62 79 71 62 79 71 62 79 71 62 79 71 63 78 74 66 81 76 68 81 78 70 83 81 73 86 85 77 90 88 80 93 90 82 95 92 84 97 93 85 98 93 85 98 93 85 98 93 85 98 93 85 98 93 85 98 93 85 98 92 86 98 87 81 91 84 81 90 81 78 87 78 75 84 75 72 81 71 68 77 69 66 75 68 65 74 52 49 58 52 49 58 52 49 58 52 49 58 52 49 58 52 49 58 52 49 58 52 49 58 69 61 72 69 61 72 69 61 72 69 61 72 69 61 72 69 61 72 69 61 72 69 61 72 72 64 75 70 62 73 68 60 71 65 57 68 61 53 64 58 50 61 56 48 59 54 46 57 55 45 54 57 47 56 59 49 58 62 52 61 66 56 65 69 59 68 71 61 70 73 63 72 77 67 76 77 67 76 77 67 76 77 67 76 77 67 76 77 67 76 77 67 76 77 67 76 82 75 83 82 75 83 82 75 83 82 75 83 82 75 83 82 75 83 82 75 83 82 75 83 78 71 79 78 71 79 78 71 79 78 71 79 78 71 79 78 71 79 78 71 79 77 71 81 61 55 67 59 55 69 59 55 69 59 55 69 59 55 69 59 55 69 59 55 69 59 55 69 54 50 64 54 50 64 54 50 64 54 50 64 54 50 64 54 50 64 54 50 64 56 50 62 72 62 70 73 62 68 73 62 68 73 62 68 73 62 68 73 62 68 73 62 68 73 62 68 63 52 58 63 52 58 63 52 58 63 52 58 63 52 58 63 52 58 63 52 58 63 52 58 78 63 68 78 63 68 78 63 68 78 63 68 78 63 68 78 63 68 78 63 68 78 63 68 85 70 75 85 70 75 85 70 75 85 70 75 85 70 75 85 70 75 85 70 75 86 69 75 86 66 77 87 65 77 87 65 77 87 65 77 87 65 77 87 65 77 87 65 77 87 65 77 85 63 75 85 63 75 85 63 75 85 63 75 85 63 75 85 63 75 85 63 75 88 62 75 99 66 85 98 63 83 96 61 81 91 60 78 87 56 74 81 54 71 77 53 69 73 52 67 55 39 52 52 40 52 51 41 52 48 42 52 48 42 52 45 44 52 45 44 52 42 45 54 49 51 63 46 50 62 44 48 60 41 45 57 37 41 53 34 38 50 32 36 48 30 34 46 25 29 41 25 29 41
83 85 98 83 85 98 83 85 98 83 85 98 83 85 98 74 73 89 74 73 89 74 73 89 74 73 89 74 73 89 74 73 89 74 73 89 74 73 89 73 72 88 73 72 88 73 72 88 73 72 88 73 72 88 73 72 88 73 72 88 74 71 88 66 59 75 67 58 75 67 58 75 67 58 75 67 58 75 67 58 75 67 58 75 67 58 75 71 62 79 71 62 79 71 62 79 71 62 79 71 62 79 71 62 79 71 62 79 71 63 78 74 66 81 76 68 81 78 70 83 81 73 86 85 77 90 88 80 93 90 82 95 92 84 97 93 85 98 93 85 98 93 85 98 93 85 98 93 85 98 93 85 98 93 85 98 92 86 98 90 84 94 87 84 93 85 82 91 81 78 87 78 75 84 75 72 81 72 69 78 71 68 77 52 49 58 52 49 58 52 49 58 52 49 58 52 49 58 52 49 58 52 49 58 52 49 58 69 61 72 69 61 72 69 61 72 69 61 72 69 61 72 69 61 72 69 61 72 69 61 72 72 64 75 70 62 73 68 60 71 65 57 68 61 53 64 58 50 61 56 48 59 54 46 57 55 45 54 57 47 56 59 49 58 62 52 61 66 56 65 69 59 68 71 61 70 73 63 72 77 67 76 77 67 76 77 67 76 77 67 76 77 67 76 77 67 76 77 67 76 77 67 76 82 75 83 82 75 83 82 75 83 82 75 83 82 75 83 82 75 83 82 75 83 82 75 83 78 71 79 78 71 79 78 71 79 78 71 79 78 71 79 78 71 79 78 71 79 77 71 81 65 59 71 63 59 73 63 59 73 63 59 73 63 59 73 63 59 73 63 59 73 63 59 73 58 54 68 58 54 68 58 54 68 58 54 68 58 54 68 58 54 68 58 54 68 60 54 66 72 62 70 73 62 68 73 62 68 73 62 68 73 62 68 73 62 68 73 62 68 73 62 68 63 52 58 63 52 58 63 52 58 63 52 58 63 52 58 63 52 58 63 52 58 63 52 58 78 63 68 78 63 68 78 63 68 78 63 68 78 63 68 78 63 68 78 63 68 78 63 68 85 70 75 85 70 75 85 70 75 85 70 75 85 70 75 85 70 75 85 70 75 86 69 75 86 66 77 87 65 77 87 65 77 87 65 77 87 65 77 87 65 77 87 65 77 87 65 77 85 63 75 85 63 75 85 63 75 85 63 75 85 63 75 85 63 75 85 63 75 88 62 75 99 66 85 98 63 83 96 61 81 91 60 78 87 56 74 81 54 71 77 53 69 73 52 67 55 39 52 52 40 52 51 41 52 48 42 52 48 42 52 45 44 52 45 44 52 42 45 54 49 51 63 46 50 62 44 48 60 41 45 57 37 41 53 34 38 50 32 36 48 30 34 46 25 29 41 25 29 41
80 82 95 80 82 95 80 82 95 80 82 95 80 82 95 74 73 89 74 73 89 74 73 89 74 73 89 74 73 89 74 73 89 74 73 89 74 73 89 73 72 88 73 72 88 73 72 88 73 72 88 73 72 88 73 72 88 73 72 88 74 71 88 66 59 75 67 58 75 67 58 75 67 58 75 67 58 75 67 58 75 67 58 75 67 58 75 71 62 79 71 62 79 71 62 79 71 62 79 71 62 79 71 62 79 71 62 79 71 63 78 74 66 81 76 68 81 78 70 83 81 73 86 85 77 90 88 80 93 90 82 95 92 84 97 93 85 98 93 85 98 93 85 98 93 85 98 93 85 98 93 85 98 93 85 98 92 86 98 94 88 98 90 87 96 88 85 94 85 82 91 81 78 87 78 75 84 76 73 82 74 71 80 52 49 58 52 49 58 52 49 58 52 49 58 52 49 58 52 49 58 52 49 58 52 49 58 69 61 72 69 61 72 69 61 72 69 61 72 69 61 72 69 61 72 69 61 72 69 61 72 72 64 75 70 62 73 68 60 71 65 57 68 61 53 64 58 50 61 56 48 59 54 46 57 55 45 54 57 47 56 59 49 58 62 52 61 66 56 65 69 59 68 71 61 70 73 63 72 77 67 76 77 67 76 77 67 76 77 67 76 77 67 76 77 67 76 77 67 76 77 67 76 82 75 83 82 75 83 82 75 83 82 75 83 82 75 83 82 75 83 82 75 83 82 75 83 78 71 79 78 71 79 78 71 79 78 71 79 78 71 79 78 71 79 78 71 79 77 71 81 68 62 74 66 62 76 66 62 76 66 62 76 66 62 76 66 62 76 66 62 76 66 62 76 61 57 71 61 57 71 61 57 71 61 57 71 61 57 71 61 57 71 61 57 71 63 57 69 72 62 70 73 62 68 73 62 68 73 62 68 73 62 68 73 62 68 73 62 68 73 62 68 63 52 58 63 52 58 63 52 58 63 52 58 63 52 58 63 52 58 63 52 58 63 52 58 78 63 68 78 63 68 78 63 68 78 63 68 78 63 68 78 63 68 78 63 68 78 63 68 85 70 75 85 70 75 85 70 75 85 70 75 85 70 75 85 70 75 85 70 75 86 69 75 86 66 77 87 65 77 87 65 77 87 65 77 87 65 77 87 65 77 87 65 77 87 65 77 85 63 75 85 63 75 85 63 75 85 63 75 85 63 75 85 63 75 85 63 75 88 62 75 99 66 85 98 63 83 96 61 81 91 60 78 87 56 74 81 54 71 77 53 69 73 52 67 55 39 52 52 40 52 51 41 52 48 42 52 48 42 52 45 44 52 45 44 52 42 45 54 49 51 63 46 50 62 44 48 60 41 45 57 37 41 53 34 38 50 32 36 48 30 34 46 25 29 41 25 29 41
78 80 93 78 80 93 78 80 93 78 80 93 78 80 93 74 73 89 74 73 89 74 73 89 74 73 89 74 73 89 74 73 89 74 73 89 74 73 89 73 72 88 73 72 88 73 72 88 73 72 88 73 72 88 73 72 88 73 72 88 74 71 88 66 59 75 67 58 75 67 58 75 67 58 75 67 58 75 67 58 75 67 58 75 67 58 75 71 62 79 71 62 79 71 62 79 71 62 79 71 62 79 71 62 79 71 62 79 71 63 78 74 66 81 76 68 81 78 70 83 81 73 86 85 77 90 88 80 93 90 82 95 92 84 97 93 85 98 93 85 98 93 85 98 93 85 98 93 85 98 93 85 98 93 85 98 92 86 98 96 90 100 93 90 99 90 87 96 87 84 93 84 81 90 80 77 86 78 75 84 77 74 83 52 49 58 52 49 58 52 49 58 52 49 58 52 49 58 52 49 58 52 49 58 52 49 58 69 61 72 69 61 72 69 61 72 69 61 72 69 61 72 69 61 72 69 61 72 69 61 72 72 64 75 70 62 73 68 60 71 65 57 68 61 53 64 58 50 61 56 48 59 54 46 57 55 45 54 57 47 56 59 49 58 62 52 61 66 56 65 69 59 68 71 61 70 73 63 72 77 67 76 77 67 76 77 67 76 77 67 76 77 67 76 77 67 76 77 67 76 77 67 76 82 75 83 82 75 83 82 75 83 82 75 83 82 75 83 82 75 83 82 75 83 82 75 83 78 71 79 78 71 79 78 71 79 78 71 79 78 71 79 78 71 79 78 71 79 77 71 81 70 64 76 68 64 78 68 64 78 68 64 78 68 64 78 68 64 78 68 64 78 68 64 78 63 59 73 63 59 73 63 59 73 63 59 73 63 59 73 63 59 73 63 59 73 65 59 71 72 62 70 73 62 68 73 62 68 73 62 68 73 62 68 73 62 68 73 62 68 73 62 68 63 52 58 63 52 58 63 52 58 63 52 58 63 52 58 63 52 58 63 52 58 63 52 58 78 63 68 78 63 68 78 63 68 78 63 68 78 63 68 78 63 68 78 63 68 78 63 68 85 70 75 85 70 75 85 70 75 85 70 75 85 70 75 85 70 75 85 70 75 86 69 75 86 66 77 87 65 77 87 65 77 87 65 77 87 65 77 87 65 77 87 65 77 87 65 77 85 63 75 85 63 75 85 63 75 85 63 75 85 63 75 85 63 75 85 63 75 88 62 75 99 66 85 98 63 83 96 61 81 91 60 78 87 56 74 81 54 71 77 53 69 73 52 67 55 39 52 52 40 52 51 41 52 48 42 52 48 42 52 45 44 52 45 44 52 42 45 54 49 51 63 46 50 62 44 48 60 41 45 57 37 41 53 34 38 50 32 36 48 30 34 46 25 29 41 25 29 41
76 78 91 76 78 91 76 78 91 76 78 91 76 78 91 74 73 89 74 73 89 74 73 89 74 73 89 74 73 89 74 73 89 74 73 89 74 73 89 73 72 88 73 72 88 73 72 88 73 72 88 73 72 88 73 72 88 73 72 88 74 71 88 66 59 75 67 58 75 67 58 75 67 58 75 67 58 75 67 58 75 67 58 75 67 58 75 71 62 79 71 62 79 71 62 79 71 62 79 71 62 79 71 62 79 71 62 79 71 63 78 74 66 81 76 68 81 78 70 83 81 73 86 85 77 90 88 80 93 90 82 95 92 84 97 93 85 98 93 85 98 93 85 98 93 85 98 93 85 98 93 85 98 93 85 98 92 86 98 97 91 101 94 91 100 92 89 98 88 85 94 85 82 91 82 79 88 79 76 85 78 75 84 52 49 58 52 49 58 52 49 58 52 49 58 52 49 58 52 49 58 52 49 58 52 49 58 69 61 72 69 61 72 69 61 72 69 61 72 69 61 72 69 61 72 69 61 72 69 61 72 72 64 75 70 62 73 68 60 71 65 57 68 61 53 64 58 50 61 56 48 59 54 46 57 55 45 54 57 47 56 59 49 58 62 52 61 66 56 65 69 59 68 71 61 70 73 63 72 77 67 76 77 67 76 77 67 76 77 67 76 77 67 76 77 67 76 77 67 76 77 67 76 82 75 83 82 75 83 82 75 83 82 75 83 82 75 83 82 75 83 82 75 83 82 75 83 78 71 79 78 71 79 78 71 79 78 71 79 78 71 79 78 71 79 78 71 79 77 71 81 72 66 78 70 66 80 70 66 80 70 66 80 70 66 80 70 66 80 70 66 80 70 66 80 65 61 75 65 61 75 65 61 75 65 61 75 65 61 75 65 61 75 65 61 75 67 61 73 72 62 70 73 62 68 73 62 68 73 62 68 73 62 68 73 62 68 73 62 68 73 62 68 63 52 58 63 52 58 63 52 58 63 52 58 63 52 58 63 52 58 63 52 58 63 52 58 78 63 68 78 63 68 78 63 68 78 63 68 78 63 68 78 63 68 78 63 68 78 63 68 85 70 75 85 70 75 85 70 75 85 70 75 85 70 75 85 70 75 85 70 75 86 69 75 86 66 77 87 65 77 87 65 77 87 65 77 87 65 77 87 65 77 87 65 77 87 65 77 85 63 75 85 63 75 85 63 75 85 63 75 85 63 75 85 63 75 85 63 75 88 62 75 99 66 85 98 63 83 96 61 81 91 60 78 87 56 74 81 54 71 77 53 69 73 52 67 55 39 52 52 40 52 51 41 52 48 42 52 48 42 52 45 44 52 45 44 52 42 45 54 49 51 63 46 50 62 44 48 60 41 45 57 37 41 53 34 38 50 32 36 48 30 34 46 25 29 41 25 29 41
61 63 76 61 63 76 61 63 76 61 63 76 61 63 76 62 61 77 62 61 77 62 61 77 62 61 77 62 61 77 62 61 77 62 61 77 62 61 77 69 68 84 69 68 84 69 68 84 69 68 84 69 68 84 69 68 84 69 68 84 70 67 84 72 65 81 73 64 81 73 64 81 73 64 81 73 64 81 73 64 81 73 64 81 73 64 81 71 62 79 71 62 79 71 62 79 71 62 79 71 62 79 71 62 79 71 62 79 71 63 78 74 66 81 74 66 79 74 66 79 74 66 79 74 66 79 74 66 79 74 66 79 74 66 79 89 81 94 89 81 94 89 81 94 89 81 94 89 81 94 89 81 94 89 81 94 88 82 94 81 75 85 79 76 85 79 76 85 79 76 85 79 76 85 79 76 85 79 76 85 79 76 85 49 46 55 50 47 56 52 49 58 56 53 62 59 56 65 62 59 68 65 62 71 66 63 72 80 72 83 78 70 81 76 68 79 73 65 76 69 61 72 66 58 69 64 56 67 62 54 65 56 48 59 56 48 59 56 48 59 56 48 59 56 48 59 56 48 59 56 48 59 56 48 59 66 56 65 66 56 65 66 56 65 66 56 65 66 56 65 66 56 65 66 56 65 66 56 65 77 67 76 77 67 76 77 67 76 77 67 76 77 67 76 77 67 76 77 67 76 77 67 76 86 79 87 86 79 87 86 79 87 86 79 87 86 79 87 86 79 87 86 79 87 86 79 87 87 80 88 87 80 88 87 80 88 87 80 88 87 80 88 87 80 88 87 80 88 86 80 90 72 66 78 70 66 80 70 66 80 70 66 80 70 66 80 70 66 80 70 66 80 70 66 80 84 80 94 84 80 94 84 80 94 84 80 94 84 80 94 84 80 94 84 80 94 86 80 92 80 70 78 81 70 76 81 70 76 81 70 76 81 70 76 81 70 76 81 70 76 81 70 76 74 63 69 74 63 69 74 63 69 74 63 69 74 63 69 74 63 69 74 63 69 74 63 69 84 69 74 84 69 74 84 69 74 84 69 74 84 69 74 84 69 74 84 69 74 84 69 74 81 66 71 81 66 71 81 66 71 81 66 71 81 66 71 81 66 71 81 66 71 82 65 71 93 73 84 94 72 84 94 72 84 94 72 84 94 72 84 94 72 84 94 72 84 94 72 84 85 63 75 85 63 75 85 63 75 85 63 75 85 63 75 85 63 75 85 63 75 88 62 75 93 60 79 92 57 77 90 55 75 85 54 72 81 50 68 75 48 65 71 47 63 67 46 61 55 39 52 52 40 52 51 41 52 48 42 52 48 42 52 45 44 52 45 44 52 42 45 54 45 47 59 42 46 58 40 44 56 37 41 53 33 37 49 30 34 46 28 32 44 26 30 42 25 29 41 25 29 41
61 63 76 61 63 76 61 63 76 61 63 76 61 63 76 62 61 77 62 61 77 62 61 77 62 61 77 62 61 77 62 61 77 62 61 77 62 61 77 69 68 84 69 68 84 69 68 84 69 68 84 69 68 84 69 68 84 69 68 84 70 67 84 72 65 81 73 64 81 73 64 81 73 64 81 73 64 81 73 64 81 73 64 81 73 64 81 71 62 79 71 62 79 71 62 79 71 62 79 71 62 79 71 62 79 71 62 79 71 63 78 74 66 81 74 66 79 74 66 79 74 66 79 74 66 79 74 66 79 74 66 79 74 66 79 87 79 92 87 79 92 87 79 92 87 79 92 87 79 92 87 79 92 87 79 92 86 80 92 79 73 83 77 74 83 77 74 83 77 74 83 77 74 83 77 74 83 77 74 83 77 74 83 50 47 56 51 48 57 54 51 60 57 54 63 60 57 66 64 61 70 66 63 72 67 64 73 80 72 83 78 70 81 76 68 79 73 65 76 69 61 72 66 58 69 64 56 67 62 54 65 53 45 56 53 45 56 53 45 56 53 45 56 53 45 56 53 45 56 53 45 56 53 45 56 62 52 61 62 52 61 62 52 61 62 52 61 62 52 61 62 52 61 62 52 61 62 52 61 71 61 70 71 61 70 71 61 70 71 61 70 71 61 70 71 61 70 71 61 70 71 61 70 84 77 85 84 77 85 84 77 85 84 77 85 84 77 85 84 77 85 84 77 85 84 77 85 85 78 86 85 78 86 85 78 86 85 78 86 85 78 86 85 78 86 85 78 86 84 78 88 76 70 82 74 70 84 74 70 84 74 70 84 74 70 84 74 70 84 74 70 84 74 70 84 82 78 92 82 78 92 82 78 92 82 78 92 82 78 92 82 78 92 82 78 92 84 78 90 80 70 78 81 70 76 81 70 76 81 70 76 81 70 76 81 70 76 81 70 76 81 70 76 74 63 69 74 63 69 74 63 69 74 63 69 74 63 69 74 63 69 74 63 69 74 63 69 84 69 74 84 69 74 84 69 74 84 69 74 84 69 74 84 69 74 84 69 74 84 69 74 83 68 73 83 68 73 83 68 73 83 68 73 83 68 73 83 68 73 83 68 73 84 67 73 93 73 84 94 72 84 94 72 84 94 72 84 94 72 84 94 72 84 94 72 84 94 72 84 85 63 75 85 63 75 85 63 75 85 63 75 85 63 75 85 63 75 85 63 75 88 62 75 93 60 79 92 57 77 90 55 75 85 54 72 81 50 68 75 48 65 71 47 63 67 46 61 55 39 52 52 40 52 51 41 52 48 42 52 48 42 52 45 44 52 45 44 52 42 45 54 45 47 59 42 46 58 40 44 56 37 41 53 33 37 49 30 34 46 28 32 44 26 30 42 25 29 41 25 29 41
61 63 76 61 63 76 61 63 76 61 63 76 61 63 76 62 61 77 62 61 77 62 61 77 62 61 77 62 61 77 62 61 77 62 61 77 62 61 77 69 68 84 69 68 84 69 68 84 69 68 84 69 68 84 69 68 84 69 68 84 70 67 84 72 65 81 73 64 81 73 64 81 73 64 81 73 64 81 73 64 81 73 64 81 73 64 81 71 62 79 71 62 79 71 62 79 71 62 79 71 62 79 71 62 79 71 62 79 71 63 78 74 66 81 74 66 79 74 66 79 74 66 79 74 66 79 74 66 79 74 66 79 74 66 79 85 77 90 85 77 90 85 77 90 85 77 90 85 77 90 85 77 90 85 77 90 84 78 90 77 71 81 75 72 81 75 72 81 75 72 81 75 72 81 75 72 81 75 72 81 75 72 81 52 49 58 54 51 60 56 53 62 59 56 65 63 60 69 66 63 72 68 65 74 70 67 76 80 72 83 78 70 81 76 68 79 73 65 76 69 61 72 66 58 69 64 56 67 62 54 65 50 42 53 50 42 53 50 42 53 50 42 53 50 42 53 50 42 53 50 42 53 50 42 53 56 46 55 56 46 55 56 46 55 56 46 55 56 46 55 56 46 55 56 46 55 56 46 55 63 53 62 63 53 62 63 53 62 63 53 62 63 53 62 63 53 62 63 53 62 63 53 62 79 72 80 79 72 80 79 72 80 79 72 80 79 72 80 79 72 80 79 72 80 79 72 80 80 73 81 80 73 81 80 73 81 80 73 81 80 73 81 80 73 81 80 73 81 79 73 83 82 76 88 80 76 90 80 76 90 80 76 90 80 76 90 80 76 90 80 76 90 80 76 90 80 76 90 80 76 90 80 76 90 80 76 90 80 76 90 80 76 90 80 76 90 82 76 88 80 70 78 81 70 76 81 70 76 81 70 76 81 70 76 81 70 76 81 70 76 81 70 76 74 63 69 74 63 69 74 63 69 74 63 69 74 63 69 74 63 69 74 63 69 74 63 69 84 69 74 84 69 74 84 69 74 84 69 74 84 69 74 84 69 74 84 69 74 84 69 74 85 70 75 85 70 75 85 70 75 85 70 75 85 70 75 85 70 75 85 70 75 86 69 75 93 73 84 94 72 84 94 72 84 94 72 84 94 72 84 94 72 84 94 72 84 94 72 84 85 63 75 85 63 75 85 63 75 85 63 75 85 63 75 85 63 75 85 63 75 88 62 75 93 60 79 92 57 77 90 55 75 85 54 72 81 50 68 75 48 65 71 47 63 67 46 61 55 39 52 52 40 52 51 41 52 48 42 52 48 42 52 45 44 52 45 44 52 42 45 54 45 47 59 42 46 58 40 44 56 37 41 53 33 37 49 30 34 46 28 32 44 26 30 42 25 29 41 25 29 41
61 63 76 61 63 76 61 63 76 61 63 76 61 63 76 62 61 77 62 61 77 62 61 77 62 61 77 62 61 77 62 61 77 62 61 77 62 61 77 69 68 84 69 68 84 69 68 84 69 68 84 69 68 84 69 68 84 69 68 84 70 67 84 72 65 81 73 64 81 73 64 81 73 64 81 73 64 81 73 64 81 73 64 81 73 64 81 71 62 79 71 62 79 71 62 79 71 62 79 71 62 79 71 62 79 71 62 79 71 63 78 74 66 81 74 66 79 74 66 79 74 66 79 74 66 79 74 66 79 74 66 79 74 66 79 82 74 87 82 74 87 82 74 87 82 74 87 82 74 87 82 74 87 82 74 87 81 75 87 74 68 78 72 69 78 72 69 78 72 69 78 72 69 78 72 69 78 72 69 78 72 69 78 56 53 62 57 54 63 59 56 65 63 60 69 66 63 72 69 66 75 72 69 78 73 70 79 80 72 83 78 70 81 76 68 79 73 65 76 69 61 72 66 58 69 64 56 67 62 54 65 51 43 54 51 43 54 51 43 54 51 43 54 51 43 54 51 43 54 51 43 54 51 43 54 54 44 53 54 44 53 54 44 53 54 44 53 54 44 53 54 44 53 54 44 53 54 44 53 57 47 56 57 47 56 57 47 56 57 47 56 57 47 56 57 47 56 57 47 56 57 47 56 72 65 73 72 65 73 72 65 73 72 65 73 72 65 73 72 65 73 72 65 73 72 65 73 73 66 74 73 66 74 73 66 74 73 66 74 73 66 74 73 66 74 73 66 74 72 66 76 84 78 90 82 78 92 82 78 92 82 78 92 82 78 92 82 78 92 82 78 92 82 78 92 77 73 87 77 73 87 77 73 87 77 73 87 77 73 87 77 73 87 77 73 87 79 73 85 80 70 78 81 70 76 81 70 76 81 70 76 81 70 76 81 70 76 81 70 76 81 70 76 74 63 69 74 63 69 74 63 69 74 63 69 74 63 69 74 63 69 74 63 69 74 63 69 84 69 74 84 69 74 84 69 74 84 69 74 84 69 74 84 69 74 84 69 74 84 69 74 88 73 78 88 73 78 88 73 78 88 73 78 88 73 78 88 73 78 88 73 78 89 72 78 93 73 84 94 72 84 94 72 84 94 72 84 94 72 84 94 72 84 94 72 84 94 72 84 85 63 75 85 63 75 85 63 75 85 63 75 85 63 75 85 63 75 85 63 75 88 62 75 93 60 79 92 57 77 90 55 75 85 54 72 81 50 68 75 48 65 71 47 63 67 46 61 55 39 52 52 40 52 51 41 52 48 42 52 48 42 52 45 44 52 45 44 52 42 45 54 45 47 59 42 46 58 40 44 56 37 41 53 33 37 49 30 34 46 28 32 44 26 30 42 25 29 41 25 29 41
61 63 76 61 63 76 61 63 76 61 63 76 61 63 76 62 61 77 62 61 77 62 61 77 62 61 77 62 61 77 62 61 77 62 61 77 62 61 77 69 68 84 69 68 84 69 68 84 69 68 84 69 68 84 69 68 84 69 68 84 70 67 84 72 65 81 73 64 81 73 64 81 73 64 81 73 64 81 73 64 81 73 64 81 73 64 81 71 62 79 71 62 79 71 62 79 71 62 79 71 62 79 71 62 79 71 62 79 71 63 78 74 66 81 74 66 79 74 66 79 74 66 79 74 66 79 74 66 79 74 66 79 74 66 79 78 70 83 78 70 83 78 70 83 78 70 83 78 70 83 78 70 83 78 70 83 77 71 83 70 64 74 68 65 74 68 65 74 68 65 74 68 65 74 68 65 74 68 65 74 68 65 74 59 56 65 60 57 66 63 60 69 66 63 72 69 66 75 73 70 79 75 72 81 76 73 82 80 72 83 78 70 81 76 68 79 73 65 76 69 61 72 66 58 69 64 56 67 62 54 65 58 50 61 58 50 61 58 50 61 58 50 61 58 50 61 58 50 61 58 50 61 58 50 61 57 47 56 57 47 56 57 47 56 57 47 56 57 47 56 57 47 56 57 47 56 57 47 56 57 47 56 57 47 56 57 47 56 57 47 56 57 47 56 57 47 56 57 47 56 57 47 56 66 59 67 66 59 67 66 59 67 66 59 67 66 59 67 66 59 67 66 59 67 66 59 67 67 60 68 67 60 68 67 60 68 67 60 68 67 60 68 67 60 68 67 60 68 66 60 70 81 75 87 79 75 89 79 75 89 79 75 89 79 75 89 79 75 89 79 75 89 79 75 89 73 69 83 73 69 83 73 69 83 73 69 83 73 69 83 73 69 83 73 69 83 75 69 81 80 70 78 81 70 76 81 70 76 81 70 76 81 70 76 81 70 76 81 70 76 81 70 76 74 63 69 74 63 69 74 63 69 74 63 69 74 63 69 74 63 69 74 63 69 74 63 69 84 69 74 84 69 74 84 69 74 84 69 74 84 69 74 84 69 74 84 69 74 84 69 74 92 77 82 92 77 82 92 77 82 92 77 82 92 77 82 92 77 82 92 77 82 93 76 82 93 73 84 94 72 84 94 72 84 94 72 84 94 72 84 94 72 84 94 72 84 94 72 84 85 63 75 85 63 75 85 63 75 85 63 75 85 63 75 85 63 75 85 63 75 88 62 75 93 60 79 92 57 77 90 55 75 85 54 72 81 50 68 75 48 65 71 47 63 67 46 61 55 39 52 52 40 52 51 41 52 48 42 52 48 42 52 45 44 52 45 44 52 42 45 54 45 47 59 42 46 58 40 44 56 37 41 53 33 37 49 30 34 46 28 32 44 26 30 42 25 29 41 25 29 41
61 63 76 61 63 76 61 63 76 61 63 76 61 63 76 62 61 77 62 61 77 62 61 77 62 61 77 62 61 77 62 61 77 62 61 77 62 61 77 69 68 84 69 68 84 69 68 84 69 68 84 69 68 84 69 68 84 69 68 84 70 67 84 72 65 81 73 64 81 73 64 81 73 64 81 73 64 81 73 64 81 73 64 81 73 64 81 71 62 79 71 62 79 71 62 79 71 62 79 71 62 79 71 62 79 71 62 79 71 63 78 74 66 81 74 66 79 74 66 79 74 66 79 74 66 79 74 66 79 74 66 79 74 66 79 75 67 80 75 67 80 75 67 80 75 67 80 75 67 80 75 67 80 75 67 80 74 68 80 67 61 71 65 62 71 65 62 71 65 62 71 65 62 71 65 62 71 65 62 71 65 62 71 62 59 68 64 61 70 66 63 72 69 66 75 73 70 79 76 73 82 78 75 84 80 77 86 80 72 83 78 70 81 76 68 79 73 65 76 69 61 72 66 58 69 64 56 67 62 54 65 70 62 73 70 62 73 70 62 73 70 62 73 70 62 73 70 62 73 70 62 73 70 62 73 66 56 65 66 56 65 66 56 65 66 56 65 66 56 65 66 56 65 66 56 65 66 56 65 63 53 62 63 53 62 63 53 62 63 53 62 63 53 62 63 53 62 63 53 62 63 53 62 59 52 60 59 52 60 59 52 60 59 52 60 59 52 60 59 52 60 59 52 60 59 52 60 60 53 61 60 53 61 60 53 61 60 53 61 60 53 61 60 53 61 60 53 61 59 53 63 72 66 78 70 66 80 70 66 80 70 66 80 70 66 80 70 66 80 70 66 80 70 66 80 70 66 80 70 66 80 70 66 80 70 66 80 70 66 80 70 66 80 70 66 80 72 66 78 80 70 78 81 70 76 81 70 76 81 70 76 81 70 76 81 70 76 81 70 76 81 70 76 74 63 69 74 63 69 74 63 69 74 63 69 74 63 69 74 63 69 74 63 69 74 63 69 84 69 74 84 69 74 84 69 74 84 69 74 84 69 74 84 69 74 84 69 74 84 69 74 95 80 85 95 80 85 95 80 85 95 80 85 95 80 85 95 80 85 95 80 85 96 79 85 93 73 84 94 72 84 94 72 84 94 72 84 94 72 84 94 72 84 94 72 84 94 72 84 85 63 75 85 63 75 85 63 75 85 63 75 85 63 75 85 63 75 85 63 75 88 62 75 93 60 79 92 57 77 90 55 75 85 54 72 81 50 68 75 48 65 71 47 63 67 46 61 55 39 52 52 40 52 51 41 52 48 42 52 48 42 52 45 44 52 45 44 52 42 45 54 45 47 59 42 46 58 40 44 56 37 41 53 33 37 49 30 34 46 28 32 44 26 30 42 25 29 41 25 29 41
61 63 76 61 63 76 61 63 76 61 63 76 61 63 76 62 61 77 62 61 77 62 61 77 62 61 77 62 61 77 62 61 77 62 61 77 62 61 77 69 68 84 69 68 84 69 68 84 69 68 84 69 68 84 69 68 84 69 68 84 70 67 84 72 65 81 73 64 81 73 64 81 73 64 81 73 64 81 73 64 81 73 64 81 73 64 81 71 62 79 71 62 79 71 62 79 71 62 79 71 62 79 71 62 79 71 62 79 71 63 78 74 66 81 74 66 79 74 66 79 74 66 79 74 66 79 74 66 79 74 66 79 74 66 79 73 65 78 73 65 78 73 65 78 73 65 78 73 65 78 73 65 78 73 65 78 72 66 78 65 59 69 63 60 69 63 60 69 63 60 69 63 60 69 63 60 69 63 60 69 63 60 69 65 62 71 66 63 72 68 65 74 72 69 78 75 72 81 78 75 84 81 78 87 82 79 88 80 72 83 78 70 81 76 68 79 73 65 76 69 61 72 66 58 69 64 56 67 62 54 65 83 75 86 83 75 86 83 75 86 83 75 86 83 75 86 83 75 86 83 75 86 83 75 86 76 66 75 76 66 75 76 66 75 76 66 75 76 66 75 76 66 75 76 66 75 76 66 75 71 61 70 71 61 70 71 61 70 71 61 70 71 61 70 71 61 70 71 61 70 71 61 70 54 47 55 54 47 55 54 47 55 54 47 55 54 47 55 54 47 55 54 47 55 54 47 55 55 48 56 55 48 56 55 48 56 55 48 56 55 48 56 55 48 56 55 48 56 54 48 58 62 56 68 60 56 70 60 56 70 60 56 70 60 56 70 60 56 70 60 56 70 60 56 70 68 64 78 68 64 78 68 64 78 68 64 78 68 64 78 68 64 78 68 64 78 70 64 76 80 70 78 81 70 76 81 70 76 81 70 76 81 70 76 81 70 76 81 70 76 81 70 76 74 63 69 74 63 69 74 63 69 74 63 69 74 63 69 74 63 69 74 63 69 74 63 69 84 69 74 84 69 74 84 69 74 84 69 74 84 69 74 84 69 74 84 69 74 84 69 74 97 82 87 97 82 87 97 82 87 97 82 87 97 82 87 97 82 87 97 82 87 98 81 87 93 73 84 94 72 84 94 72 84 94 72 84 94 72 84 94 72 84 94 72 84 94 72 84 85 63 75 85 63 75 85 63 75 85 63 75 85 63 75 85 63 75 85 63 75 88 62 75 93 60 79 92 57 77 90 55 75 85 54 72 81 50 68 75 48 65 71 47 63 67 46 61 55 39 52 52 40 52 51 41 52 48 42 52 48 42 52 45 44 52 45 44 52 42 45 54 45 47 59 42 46 58 40 44 56 37 41 53 33 37 49 30 34 46 28 32 44 26 30 42 25 29 41 25 29 41
58 63 82 58 63 82 58 63 82 58 63 82 58 63 82 59 62 81 59 62 81 59 62 81 59 62 81 59 62 81 59 62 81 59 62 81 59 62 81 66 69 88 66 69 88 66 69 88 66 69 88 66 69 88 66 69 88 66 69 88 67 68 88 69 66 87 70 65 85 72 64 85 70 65 85 72 64 85 70 65 85 72 64 85 70 65 85 70 62 83 68 63 83 70 62 83 68 63 83 70 62 83 68 63 83 70 62 83 68 64 81 73 67 81 71 68 77 73 67 77 71 68 77 73 67 77 71 68 77 73 67 77 71 68 77 70 64 74 68 65 74 70 64 74 68 65 74 70 64 74 68 65 74 70 64 74 68 65 74 61 58 69 61 58 69 61 58 69 61 58 69 61 58 69 61 58 69 61 58 69 61 58 69 66 63 74 67 64 75 70 67 78 73 70 81 76 73 84 80 77 88 82 79 90 85 79 91 80 72 85 80 70 81 78 67 81 75 65 76 71 60 74 68 58 69 66 55 69 64 54 65 93 82 96 93 83 94 93 82 96 93 83 94 93 82 96 93 83 94 93 82 96 93 83 94 84 72 84 84 72 84 84 72 84 84 72 84 84 72 84 84 72 84 84 72 84 84 72 84 78 66 78 78 66 78 78 66 78 78 66 78 78 66 78 78 66 78 78 66 78 78 66 78 55 43 55 55 43 53 55 43 55 55 43 53 55 43 55 55 43 53 55 43 55 55 43 53 56 44 56 56 44 54 56 44 56 56 44 54 56 44 56 56 44 54 56 44 56 55 45 56 58 47 61 58 47 61 58 47 63 58 47 61 58 47 63 58 47 61 58 47 63 58 47 61 71 60 76 71 60 74 71 60 76 71 60 74 71 60 76 71 60 74 71 60 76 71 61 72 80 70 79 80 71 76 80 70 78 80 71 76 80 70 78 80 71 76 80 70 78 80 71 76 73 63 71 73 64 69 73 63 71 73 64 69 73 63 71 73 64 69 73 63 71 73 64 69 81 70 76 81 70 76 81 70 76 81 70 76 81 70 76 81 70 76 81 70 76 81 70 76 96 85 91 96 85 91 96 85 91 96 85 91 96 85 91 96 85 91 96 85 91 97 84 91 91 74 84 91 74 84 91 73 85 91 74 84 91 73 85 91 74 84 91 73 85 91 74 84 82 64 76 82 65 75 82 64 76 82 65 75 82 64 76 82 65 75 82 64 76 85 63 76 90 61 79 90 59 77 86 57 75 82 55 72 78 51 68 73 49 65 70 47 63 65 47 61 55 39 52 52 40 52 51 41 52 49 41 52 49 41 52 48 42 52 46 43 52 45 43 54 45 47 59 42 46 58 40 44 56 37 41 53 33 37 49 30 34 46 28 32 44 26 30 42 25 29 41 25 29 41
53 64 92 53 64 92 53 64 92 53 64 92 53 64 92 53 63 90 55 62 90 55 62 90 55 62 90 55 62 90 55 62 90 55 62 90 55 62 90 57 64 92 57 64 92 57 64 92 57 64 92 57 64 92 57 64 92 57 64 92 58 64 90 59 60 88 60 60 88 62 59 88 60 60 88 62 59 88 60 60 88 62 59 88 60 60 88 66 63 92 64 64 92 66 63 92 64 64 92 66 63 92 64 64 92 66 63 92 64 65 86 72 72 84 70 73 78 72 73 78 70 73 78 72 73 78 70 73 78 72 73 78 70 73 78 76 77 82 74 77 82 76 77 82 74 77 82 76 77 82 74 77 82 76 77 82 76 76 84 64 62 75 64 62 76 64 62 76 64 62 76 64 62 76 64 62 76 64 62 76 64 62 76 80 78 92 80 78 92 80 78 92 80 78 92 80 78 92 80 78 92 80 78 92 83 76 92 100 87 104 93 79 94 82 68 85 72 58 73 67 53 70 68 54 69 73 59 76 77 63 78 89 75 92 87 73 88 85 71 88 82 68 83 78 64 81 75 61 76 73 59 76 71 57 72 82 65 81 82 65 81 82 65 81 82 65 81 82 65 81 82 65 81 82 65 81 82 65 81 94 77 93 94 77 93 94 77 93 94 77 93 94 77 93 94 77 93 94 77 93 94 77 93 88 70 86 88 70 84 88 70 86 88 70 84 88 70 86 88 70 84 88 70 86 88 70 84 70 52 68 70 52 66 70 52 68 70 52 66 70 52 68 70 52 66 70 52 68 70 52 66 63 42 59 63 42 57 63 42 59 63 42 57 63 42 59 63 42 57 63 42 59 63 42 57 72 51 68 72 51 66 72 51 68 72 51 66 72 51 68 72 51 66 72 51 68 69 53 66 60 53 61 57 55 60 57 54 61 57 55 60 57 54 61 57 55 60 57 54 61 57 55 60 62 59 66 62 60 65 62 59 66 62 60 65 62 59 66 62 60 65 62 59 66 62 60 65 81 76 82 81 76 82 81 76 82 81 76 82 81 76 82 81 76 82 81 76 82 81 76 82 84 79 85 84 79 85 84 79 85 84 79 85 84 79 85 84 79 85 84 79 85 84 79 86 90 80 89 91 79 89 91 79 91 91 79 89 91 79 91 91 79 89 91 79 91 91 79 89 83 71 83 83 71 81 83 71 83 83 71 81 83 71 83 83 71 81 83 71 83 84 70 83 81 63 77 81 60 75 77 59 73 74 56 70 70 52 66 67 49 63 64 48 61 62 46 59 54 40 53 54 40 53 53 41 53 53 41 53 53 41 53 53 41 53 52 42 53 49 43 55 46 45 59 41 44 59 39 42 57 36 39 54 32 35 50 29 32 47 27 30 45 25 28 43 26 29 44 26 29 44
50 65 98 50 65 98 50 65 98 50 65 98 50 65 96 52 63 95 52 63 93 52 63 93 52 63 93 52 63 93 52 63 93 52 63 93 52 63 93 54 65 95 54 65 95 54 65 95 54 65 95 54 65 95 54 65 95 54 65 95 55 64 95 57 60 91 59 60 91 59 60 91 59 60 91 59 60 91 59 60 91 59 60 91 59 60 91 63 64 95 63 64 95 63 64 95 63 64 95 63 64 95 63 64 95 63 64 95 63 65 90 69 73 84 69 74 77 69 74 78 69 74 77 69 74 78 69 74 77 69 74 78 69 74 77 73 78 82 73 78 81 73 78 82 73 78 81 73 78 82 73 78 81 73 78 82 74 77 84 63 62 76 64 61 78 64 61 78 64 61 78 64 61 78 64 61 78 64 61 78 64 61 78 80 77 94 80 77 94 80 77 94 80 77 94 80 77 94 80 77 94 80 77 94 83 76 92 98 85 103 94 77 95 83 66 84 73 56 74 69 52 70 71 54 72 76 59 77 80 63 81 91 74 92 89 72 90 87 70 88 84 67 85 80 63 81 77 60 78 75 58 76 73 56 74 81 62 81 81 62 81 81 62 81 81 62 81 81 62 81 81 62 81 81 62 81 81 62 81 93 74 93 93 74 93 93 74 93 93 74 93 93 74 93 93 74 93 93 74 93 93 74 93 89 66 84 89 66 84 89 66 84 89 66 84 89 66 84 89 66 84 89 66 84 89 66 84 79 56 74 79 56 74 79 56 74 79 56 74 79 56 74 79 56 74 79 56 74 79 56 74 74 47 64 74 47 64 74 47 64 74 47 64 74 47 64 74 47 64 74 47 64 74 47 64 66 39 56 66 39 56 66 39 56 66 39 56 66 39 56 66 39 56 66 39 56 62 41 56 57 50 58 53 52 58 54 51 58 53 52 58 54 51 58 53 52 58 54 51 58 53 52 58 58 55 62 57 56 62 58 55 62 57 56 62 58 55 62 57 56 62 58 55 62 57 56 62 72 69 76 71 70 76 72 69 76 71 70 76 72 69 76 71 70 76 72 69 76 71 70 76 80 77 84 79 78 84 80 77 84 79 78 84 80 77 84 79 78 84 80 77 84 80 77 84 86 78 89 86 78 89 88 78 89 86 78 89 88 78 89 86 78 89 88 78 89 86 78 89 80 70 81 78 70 81 80 70 81 78 70 81 80 70 81 78 70 81 80 70 81 80 70 81 77 65 77 76 62 75 74 60 73 71 57 70 67 53 66 64 50 63 62 48 61 60 46 59 54 40 53 54 40 53 54 40 53 54 40 53 54 40 53 54 40 53 54 40 53 52 41 55 46 45 59 41 44 59 39 42 57 36 39 54 32 35 50 29 32 47 27 30 45 25 28 43 26 29 44 26 29 44
50 65 98 50 65 98 50 65 98 50 65 98 50 65 96 52 63 95 52 63 93 52 63 93 52 63 93 52 63 93 52 63 93 52 63 93 52 63 93 54 65 95 54 65 95 54 65 95 54 65 95 54 65 95 54 65 95 54 65 95 55 64 95 57 60 91 59 60 91 59 60 91 59 60 91 59 60 91 59 60 91 59 60 91 59 60 91 63 64 95 63 64 95 63 64 95 63 64 95 63 64 95 63 64 95 63 64 95 63 65 90 69 73 85 69 74 78 69 74 80 69 74 78 69 74 80 69 74 78 69 74 80 69 74 78 73 78 84 73 78 82 73 78 84 73 78 82 73 78 84 73 78 82 73 78 84 74 77 86 63 62 76 64 61 78 64 61 78 64 61 78 64 61 78 64 61 78 64 61 78 64 61 78 80 77 94 80 77 94 80 77 94 80 77 94 80 77 94 80 77 94 80 77 94 83 76 92 94 81 99 91 74 92 81 64 82 73 56 74 70 53 71 73 56 74 79 62 80 84 67 85 91 74 92 89 72 90 87 70 88 84 67 85 80 63 81 77 60 78 75 58 76 73 56 74 79 60 79 79 60 79 79 60 79 79 60 79 79 60 79 79 60 79 79 60 79 79 60 79 88 69 88 88 69 88 88 69 88 88 69 88 88 69 88 88 69 88 88 69 88 88 69 88 87 64 82 87 64 82 87 64 82 87 64 82 87 64 82 87 64 82 87 64 82 87 64 82 87 64 82 87 64 82 87 64 82 87 64 82 87 64 82 87 64 82 87 64 82 87 64 82 84 57 74 84 57 74 84 57 74 84 57 74 84 57 74 84 57 74 84 57 74 84 57 74 61 34 51 61 34 51 61 34 51 61 34 51 61 34 51 61 34 51 61 34 51 57 36 51 56 46 55 51 48 55 53 48 55 51 48 55 53 48 55 51 48 55 53 48 55 51 48 55 54 49 56 52 49 56 54 49 56 52 49 56 54 49 56 52 49 56 54 49 56 52 49 56 64 59 66 62 59 66 64 59 66 62 59 66 64 59 66 62 59 66 64 59 66 62 59 66 77 72 79 75 72 79 77 72 79 75 72 79 77 72 79 75 72 79 77 72 79 77 72 79 83 73 84 83 73 84 84 72 84 83 73 84 84 72 84 83 73 84 84 72 84 83 73 84 79 67 79 78 68 79 79 67 79 78 68 79 79 67 79 78 68 79 79 67 79 79 67 79 78 64 77 76 62 75 74 60 73 71 57 70 67 53 66 64 50 63 62 48 61 60 46 59 54 40 53 54 40 53 54 40 53 54 40 53 54 40 53 54 40 53 54 40 53 52 41 55 46 45 59 41 44 59 39 42 57 36 39 54 32 35 50 29 32 47 27 30 45 25 28 43 26 29 44 26 29 44
50 65 98 50 65 98 50 65 98 50 65 98 50 65 96 52 63 95 52 63 93 52 63 93 52 63 93 52 63 93 52 63 93 52 63 93 52 63 93 54 65 95 54 65 95 54 65 95 54 65 95 54 65 95 54 65 95 54 65 95 55 64 95 57 60 91 59 60 91 59 60 91 59 60 91 59 60 91 59 60 91 59 60 91 59 60 91 63 64 95 63 64 95 63 64 95 63 64 95 63 64 95 63 64 95 63 64 95 63 65 90 69 73 85 69 74 80 69 73 82 69 74 80 69 73 82 69 74 80 69 73 82 69 74 80 73 77 86 73 78 84 73 77 86 73 78 84 73 77 86 73 78 84 73 77 86 74 77 86 63 62 76 64 61 78 64 61 78 64 61 78 64 61 78 64 61 78 64 61 78 64 61 78 80 77 94 80 77 94 80 77 94 80 77 94 80 77 94 80 77 94 80 77 94 83 76 92 90 77 95 87 70 88 78 61 79 72 55 73 71 54 72 76 59 77 83 66 84 88 71 89 91 74 92 89 72 90 87 70 88 84 67 85 80 63 81 77 60 78 75 58 76 73 56 74 76 57 76 76 57 76 76 57 76 76 57 76 76 57 76 76 57 76 76 57 76 76 57 76 81 62 81 81 62 81 81 62 81 81 62 81 81 62 81 81 62 81 81 62 81 81 62 81 84 61 79 84 61 79 84 61 79 84 61 79 84 61 79 84 61 79 84 61 79 84 61 79 93 70 88 93 70 88 93 70 88 93 70 88 93 70 88 93 70 88 93 70 88 93 70 88 93 66 83 93 66 83 93 66 83 93 66 83 93 66 83 93 66 83 93 66 83 93 66 83 73 46 63 73 46 63 73 46 63 73 46 63 73 46 63 73 46 63 73 46 63 70 47 63 58 46 56 54 49 56 55 48 56 54 49 56 55 48 56 54 49 56 55 48 56 54 49 56 53 46 54 52 47 54 53 46 54 52 47 54 53 46 54 52 47 54 53 46 54 52 47 54 56 49 57 55 50 57 56 49 57 55 50 57 56 49 57 55 50 57 56 49 57 55 50 57 71 64 72 70 65 72 71 64 72 70 65 72 71 64 72 70 65 72 71 64 72 71 64 72 77 65 77 77 65 77 78 64 77 77 65 77 78 64 77 77 65 77 78 64 77 77 65 77 77 63 76 76 64 76 77 63 76 76 64 76 77 63 76 76 64 76 77 63 76 77 63 76 78 64 77 76 62 75 74 60 73 71 57 70 67 53 66 64 50 63 62 48 61 60 46 59 54 40 53 54 40 53 54 40 53 54 40 53 54 40 53 54 40 53 54 40 53 52 41 55 46 45 59 41 44 59 39 42 57 36 39 54 32 35 50 29 32 47 27 30 45 25 28 43 26 29 44 26 29 44
50 65 98 50 65 98 50 65 98 50 65 98 50 65 96 52 63 95 52 63 93 52 63 93 52 63 93 52 63 93 52 63 93 52 63 93 52 63 93 54 65 95 54 65 95 54 65 95 54 65 95 54 65 95 54 65 95 54 65 95 55 64 95 57 60 91 59 60 91 59 60 91 59 60 91 59 60 91 59 60 91 59 60 91 59 60 91 63 64 95 63 64 95 63 64 95 63 64 95 63 64 95 63 64 95 63 64 95 63 65 90 69 72 87 69 73 82 69 73 84 69 73 82 69 73 84 69 73 82 69 73 84 69 73 82 73 77 88 73 77 86 73 77 88 73 77 86 73 77 88 73 77 86 73 77 88 74 76 88 63 62 76 64 61 78 64 61 78 64 61 78 64 61 78 64 61 78 64 61 78 64 61 78 80 77 94 80 77 94 80 77 94 80 77 94 80 77 94 80 77 94 80 77 94 83 76 92 85 72 90 83 66 84 76 59 77 71 54 72 72 55 73 78 61 79 87 70 88 93 76 94 91 74 92 89 72 90 87 70 88 84 67 85 80 63 81 77 60 78 75 58 76 73 56 74 72 53 72 72 53 72 72 53 72 72 53 72 72 53 72 72 53 72 72 53 72 72 53 72 75 56 75 75 56 75 75 56 75 75 56 75 75 56 75 75 56 75 75 56 75 75 56 75 80 57 75 80 57 75 80 57 75 80 57 75 80 57 75 80 57 75 80 57 75 80 57 75 93 70 88 93 70 88 93 70 88 93 70 88 93 70 88 93 70 88 93 70 88 93 70 88 96 69 86 96 69 86 96 69 86 96 69 86 96 69 86 96 69 86 96 69 86 96 69 86 93 66 83 93 66 83 93 66 83 93 66 83 93 66 83 93 66 83 93 66 83 90 67 83 66 53 63 62 55 63 64 54 63 62 55 63 64 54 63 62 55 63 64 54 63 62 55 63 58 48 57 56 49 57 58 48 57 56 49 57 58 48 57 56 49 57 58 48 57 56 49 57 55 45 54 53 46 54 55 45 54 53 46 54 55 45 54 53 46 54 55 45 54 53 46 54 67 57 66 65 58 66 67 57 66 65 58 66 67 57 66 65 58 66 67 57 66 67 57 66 72 58 71 72 58 71 74 58 71 72 58 71 74 58 71 72 58 71 74 58 71 72 58 71 75 59 72 73 59 72 75 59 72 73 59 72 75 59 72 73 59 72 75 59 72 73 59 72 78 64 77 76 62 75 74 60 73 71 57 70 67 53 66 64 50 63 62 48 61 60 46 59 54 40 53 54 40 53 54 40 53 54 40 53 54 40 53 54 40 53 54 40 53 52 41 55 46 45 59 41 44 59 39 42 57 36 39 54 32 35 50 29 32 47 27 30 45 25 28 43 26 29 44 26 29 44
50 65 98 50 65 98 50 65 98 50 65 98 50 65 96 52 63 95 52 63 93 52 63 93 52 63 93 52 63 93 52 63 93 52 63 93 52 63 93 54 65 95 54 65 95 54 65 95 54 65 95 54 65 95 54 65 95 54 65 95 55 64 95 57 60 91 59 60 91 59 60 91 59 60 91 59 60 91 59 60 91 59 60 91 59 60 91 63 64 95 63 64 95 63 64 95 63 64 95 63 64 95 63 64 95 63 64 95 63 64 92 69 72 89 69 73 85 69 73 85 69 73 85 69 73 85 69 73 85 69 73 85 69 73 85 73 77 89 73 77 89 73 77 89 73 77 89 73 77 89 73 77 89 73 77 89 74 76 89 63 62 78 64 61 78 64 61 78 64 61 78 64 61 78 64 61 78 64 61 78 64 61 78 80 77 94 80 77 94 80 77 94 80 77 94 80 77 94 80 77 94 80 77 94 83 76 92 81 68 86 79 62 80 73 56 74 70 53 71 73 56 74 81 64 82 91 74 92 97 80 98 91 74 92 89 72 90 87 70 88 84 67 85 80 63 81 77 60 78 75 58 76 73 56 74 69 50 69 69 50 69 69 50 69 69 50 69 69 50 69 69 50 69 69 50 69 69 50 69 68 49 68 68 49 68 68 49 68 68 49 68 68 49 68 68 49 68 68 49 68 68 49 68 77 54 72 77 54 72 77 54 72 77 54 72 77 54 72 77 54 72 77 54 72 77 54 72 87 64 82 87 64 82 87 64 82 87 64 82 87 64 82 87 64 82 87 64 82 87 64 82 94 67 84 94 67 84 94 67 84 94 67 84 94 67 84 94 67 84 94 67 84 94 67 84 105 78 95 105 78 95 105 78 95 105 78 95 105 78 95 105 78 95 105 78 95 102 79 95 80 64 75 77 65 75 77 65 75 77 65 75 77 65 75 77 65 75 77 65 75 77 65 75 68 56 66 68 56 66 68 56 66 68 56 66 68 56 66 68 56 66 68 56 66 68 56 66 58 46 56 58 46 56 58 46 56 58 46 56 58 46 56 58 46 56 58 46 56 58 46 56 61 49 59 61 49 59 61 49 59 61 49 59 61 49 59 61 49 59 61 49 59 61 49 59 67 51 64 68 50 64 68 50 64 68 50 64 68 50 64 68 50 64 68 50 64 68 50 64 73 55 69 73 55 69 73 55 69 73 55 69 73 55 69 73 55 69 73 55 69 72 56 69 78 64 77 76 62 75 74 60 73 71 57 70 67 53 66 64 50 63 62 48 61 60 46 59 54 40 53 54 40 53 54 40 53 54 40 53 54 40 53 54 40 53 54 40 53 52 41 55 46 45 59 41 44 59 39 42 57 36 39 54 32 35 50 29 32 47 27 30 45 25 28 43 26 29 44 26 29 44
50 65 98 50 65 98 50 65 98 50 65 98 50 65 96 52 63 95 52 63 93 52 63 93 52 63 93 52 63 93 52 63 93 52 63 93 52 63 93 54 65 95 54 65 95 54 65 95 54 65 95 54 65 95 54 65 95 54 65 95 55 64 95 57 60 91 59 60 91 59 60 91 59 60 91 59 60 91 59 60 91 59 60 91 59 60 91 63 64 95 63 64 95 63 64 95 63 64 95 63 64 95 63 64 95 63 64 95 63 64 92 69 72 91 69 72 87 69 72 87 69 72 87 69 72 87 69 72 87 69 72 87 69 72 87 73 76 91 73 76 91 73 76 91 73 76 91 73 76 91 73 76 91 73 76 91 74 76 91 63 62 78 64 61 78 64 61 78 64 61 78 64 61 78 64 61 78 64 61 78 64 61 78 80 77 94 80 77 94 80 77 94 80 77 94 80 77 94 80 77 94 80 77 94 83 76 92 77 64 82 76 59 77 71 54 72 69 52 70 73 56 74 83 66 84 94 77 95 101 84 102 91 74 92 89 72 90 87 70 88 84 67 85 80 63 81 77 60 78 75 58 76 73 56 74 67 48 67 67 48 67 67 48 67 67 48 67 67 48 67 67 48 67 67 48 67 67 48 67 63 44 63 63 44 63 63 44 63 63 44 63 63 44 63 63 44 63 63 44 63 63 44 63 75 52 70 75 52 70 75 52 70 75 52 70 75 52 70 75 52 70 75 52 70 75 52 70 79 56 74 79 56 74 79 56 74 79 56 74 79 56 74 79 56 74 79 56 74 79 56 74 88 61 78 88 61 78 88 61 78 88 61 78 88 61 78 88 61 78 88 61 78 88 61 78 100 73 90 100 73 90 100 73 90 100 73 90 100 73 90 100 73 90 100 73 90 98 74 90 94 76 88 91 78 88 91 78 88 91 78 88 91 78 88 91 78 88 91 78 88 91 78 88 79 66 76 79 66 76 79 66 76 79 66 76 79 66 76 79 66 76 79 66 76 79 66 76 65 52 62 65 52 62 65 52 62 65 52 62 65 52 62 65 52 62 65 52 62 65 52 62 57 44 54 57 44 54 57 44 54 57 44 54 57 44 54 57 44 54 57 44 54 59 43 54 65 44 59 65 44 59 65 44 59 65 44 59 65 44 59 65 44 59 65 44 59 65 44 59 73 52 67 73 52 67 73 52 67 73 52 67 73 52 67 73 52 67 73 52 67 71 53 67 80 64 77 76 62 75 74 60 73 71 57 70 67 53 66 64 50 63 62 48 61 60 46 59 54 40 53 54 40 53 54 40 53 54 40 53 54 40 53 54 40 53 54 40 53 52 41 55 46 45 59 41 44 59 39 42 57 36 39 54 32 35 50 29 32 47 27 30 45 25 28 43 26 29 44 26 29 44
50 65 98 50 65 98 50 65 98 50 65 98 50 65 96 52 63 95 52 63 93 52 63 93 52 63 93 52 63 93 52 63 93 52 63 93 52 63 93 54 65 95 54 65 95 54 65 95 54 65 95 54 65 95 54 65 95 54 65 95 55 64 95 57 60 91 59 60 91 59 60 91 59 60 91 59 60 91 59 60 91 59 60 91 59 60 91 63 64 95 63 64 95 63 64 95 63 64 95 63 64 95 63 64 95 63 64 95 63 64 92 69 71 94 69 72 91 69 72 91 69 72 91 69 72 91 69 72 91 69 72 91 69 72 91 73 76 95 73 76 95 73 76 95 73 76 95 73 76 95 73 76 95 73 76 95 74 75 93 63 62 80 64 61 78 64 61 78 64 61 78 64 61 78 64 61 78 64 61 78 64 61 78 80 77 94 80 77 94 80 77 94 80 77 94 80 77 94 80 77 94 80 77 94 83 76 92 76 63 81 75 58 76 70 53 71 69 52 70 74 57 75 84 67 85 95 78 96 103 86 104 91 74 92 89 72 90 87 70 88 84 67 85 80 63 81 77 60 78 75 58 76 73 56 74 65 46 65 65 46 65 65 46 65 65 46 65 65 46 65 65 46 65 65 46 65 65 46 65 61 42 61 61 42 61 61 42 61 61 42 61 61 42 61 61 42 61 61 42 61 61 42 61 73 50 68 73 50 68 73 50 68 73 50 68 73 50 68 73 50 68 73 50 68 73 50 68 73 50 68 73 50 68 73 50 68 73 50 68 73 50 68 73 50 68 73 50 68 73 50 68 84 57 74 84 57 74 84 57 74 84 57 74 84 57 74 84 57 74 84 57 74 84 57 74 90 63 80 90 63 80 90 63 80 90 63 80 90 63 80 90 63 80 90 63 80 88 64 80 104 84 96 102 84 96 102 84 96 102 84 96 102 84 96 102 84 96 102 84 96 102 84 96 89 71 83 89 71 83 89 71 83 89 71 83 89 71 83 89 71 83 89 71 83 89 71 83 72 54 66 72 54 66 72 54 66 72 54 66 72 54 66 72 54 66 72 54 66 72 54 66 58 40 52 58 40 52 58 40 52 58 40 52 58 40 52 58 40 52 58 40 52 60 40 52 64 41 57 65 41 57 65 41 57 65 41 57 65 41 57 65 41 57 65 41 57 65 41 57 73 49 65 73 49 65 73 49 65 73 49 65 73 49 65 73 49 65 73 49 65 72 49 65 80 64 77 76 62 75 74 60 73 71 57 70 67 53 66 64 50 63 62 48 61 60 46 59 54 40 53 54 40 53 54 40 53 54 40 53 54 40 53 54 40 53 54 40 53 52 41 55 46 45 59 41 44 59 39 42 57 36 39 54 32 35 50 29 32 47 27 30 45 25 28 43 26 29 44 26 29 44
55 70 103 55 70 103 55 70 103 55 70 103 55 70 101 49 60 92 49 60 90 49 60 90 49 60 90 49 60 90 49 60 90 49 60 90 49 60 90 55 66 96 55 66 96 55 66 96 55 66 96 55 66 96 55 66 96 55 66 96 56 65 96 58 61 92 60 61 92 60 61 92 60 61 92 60 61 92 60 61 92 60 61 92 60 61 92 61 62 93 61 62 93 61 62 93 61 62 93 61 62 93 61 62 93 61 62 93 61 62 92 61 63 88 61 63 86 61 63 86 61 63 86 61 63 86 61 63 86 61 63 86 61 63 86 59 61 84 59 61 84 59 61 84 59 61 84 59 61 84 59 61 84 59 61 84 60 61 82 63 62 80 64 61 78 64 61 78 64 61 78 64 61 78 64 61 78 64 61 78 64 61 78 78 75 92 78 75 92 78 75 92 78 75 92 78 75 92 78 75 92 78 75 92 81 74 90 70 57 75 75 58 76 77 60 78 80 63 81 84 67 85 87 70 88 89 72 90 91 74 92 89 72 90 87 70 88 85 68 86 82 65 83 78 61 79 75 58 76 73 56 74 71 54 72 69 50 69 69 50 69 69 50 69 69 50 69 69 50 69 69 50 69 69 50 69 69 50 69 67 48 67 67 48 67 67 48 67 67 48 67 67 48 67 67 48 67 67 48 67 67 48 67 72 49 67 72 49 67 72 49 67 72 49 67 72 49 67 72 49 67 72 49 67 72 49 67 75 52 70 75 52 70 75 52 70 75 52 70 75 52 70 75 52 70 75 52 70 75 52 70 81 54 71 81 54 71 81 54 71 81 54 71 81 54 71 81 54 71 81 54 71 81 54 71 82 55 72 82 55 72 82 55 72 82 55 72 82 55 72 82 55 72 82 55 72 80 56 72 83 59 73 82 60 73 82 60 73 82 60 73 82 60 73 82 60 73 82 60 73 82 60 73 95 73 86 95 73 86 95 73 86 95 73 86 95 73 86 95 73 86 95 73 86 95 73 86 99 77 90 99 77 90 99 77 90 99 77 90 99 77 90 99 77 90 99 77 90 99 77 90 78 56 69 78 56 69 78 56 69 78 56 69 78 56 69 78 56 69 78 56 69 79 55 69 70 43 60 71 42 60 71 42 60 71 42 60 71 42 60 71 42 60 71 42 60 71 42 60 69 40 58 69 40 58 69 40 58 69 40 58 69 40 58 69 40 58 69 40 58 66 42 58 61 43 57 58 44 57 58 44 57 58 44 57 58 44 57 58 44 57 58 44 57 58 44 57 59 45 58 59 45 58 59 45 58 59 45 58 59 45 58 59 45 58 59 45 58 57 46 60 43 42 56 40 43 58 40 43 58 40 43 58 40 43 58 40 43 58 40 43 58 40 43 58 29 32 47 29 32 47
52 67 100 52 67 100 52 67 100 52 67 100 52 67 98 51 62 94 51 62 92 51 62 92 51 62 92 51 62 92 51 62 92 51 62 92 51 62 92 55 66 96 55 66 96 55 66 96 55 66 96 55 66 96 55 66 96 55 66 96 56 65 96 58 61 92 60 61 92 60 61 92 60 61 92 60 61 92 60 61 92 60 61 92 60 61 92 61 62 93 61 62 93 61 62 93 61 62 93 61 62 93 61 62 93 61 62 93 61 62 92 61 62 90 61 62 90 61 62 90 61 62 90 61 62 90 61 62 90 61 62 90 61 62 90 59 60 88 59 60 88 59 60 88 59 60 88 59 60 88 59 60 88 59 60 88 60 60 84 63 62 80 64 61 78 64 61 78 64 61 78 64 61 78 64 61 78 64 61 78 64 61 78 76 73 90 76 73 90 76 73 90 76 73 90 76 73 90 76 73 90 76 73 90 79 72 88 70 57 75 75 58 76 77 60 78 80 63 81 84 67 85 87 70 88 89 72 90 91 74 92 89 72 90 87 70 88 85 68 86 82 65 83 78 61 79 75 58 76 73 56 74 71 54 72 69 50 69 69 50 69 69 50 69 69 50 69 69 50 69 69 50 69 69 50 69 69 50 69 67 48 67 67 48 67 67 48 67 67 48 67 67 48 67 67 48 67 67 48 67 67 48 67 72 49 67 72 49 67 72 49 67 72 49 67 72 49 67 72 49 67 72 49 67 72 49 67 75 52 70 75 52 70 75 52 70 75 52 70 75 52 70 75 52 70 75 52 70 75 52 70 81 54 71 81 54 71 81 54 71 81 54 71 81 54 71 81 54 71 81 54 71 81 54 71 82 55 72 82 55 72 82 55 72 82 55 72 82 55 72 82 55 72 82 55 72 82 55 72 85 58 73 85 58 73 85 58 73 85 58 73 85 58 73 85 58 73 85 58 73 85 58 73 96 69 84 96 69 84 96 69 84 96 69 84 96 69 84 96 69 84 96 69 84 96 69 84 100 73 88 100 73 88 100 73 88 100 73 88 100 73 88 100 73 88 100 73 88 100 73 88 87 60 75 87 60 75 87 60 75 87 60 75 87 60 75 87 60 75 87 60 75 87 60 75 80 49 67 81 48 67 81 48 67 81 48 67 81 48 67 81 48 67 81 48 67 81 48 67 68 35 54 68 35 54 68 35 54 68 35 54 68 35 54 68 35 54 68 35 54 65 36 54 53 35 49 50 36 49 50 36 49 50 36 49 50 36 49 50 36 49 50 36 49 50 36 49 56 42 55 56 42 55 56 42 55 56 42 55 56 42 55 56 42 55 56 42 55 54 43 57 40 39 53 37 40 55 37 40 55 37 40 55 37 40 55 37 40 55 37 40 55 37 40 55 31 34 49 31 34 49
49 64 97 49 64 97 49 64 97 49 64 97 49 64 95 53 64 96 53 64 94 53 64 94 53 64 94 53 64 94 53 64 94 53 64 94 53 64 94 55 66 96 55 66 96 55 66 96 55 66 96 55 66 96 55 66 96 55 66 96 56 65 96 58 61 92 60 61 92 60 61 92 60 61 92 60 61 92 60 61 92 60 61 92 60 61 92 61 62 93 61 62 93 61 62 93 61 62 93 61 62 93 61 62 93 61 62 93 61 62 93 61 62 92 61 62 92 61 62 92 61 62 92 61 62 92 61 62 92 61 62 92 61 62 92 59 60 90 59 60 90 59 60 90 59 60 90 59 60 90 59 60 90 59 60 90 60 60 86 63 61 82 64 61 78 64 61 78 64 61 78 64 61 78 64 61 78 64 61 78 64 61 78 74 71 88 74 71 88 74 71 88 74 71 88 74 71 88 74 71 88 74 71 88 77 70 86 70 57 75 75 58 76 77 60 78 80 63 81 84 67 85 87 70 88 89 72 90 91 74 92 89 72 90 87 70 88 85 68 86 82 65 83 78 61 79 75 58 76 73 56 74 71 54 72 69 50 69 69 50 69 69 50 69 69 50 69 69 50 69 69 50 69 69 50 69 69 50 69 67 48 67 67 48 67 67 48 67 67 48 67 67 48 67 67 48 67 67 48 67 67 48 67 72 49 67 72 49 67 72 49 67 72 49 67 72 49 67 72 49 67 72 49 67 72 49 67 75 52 70 75 52 70 75 52 70 75 52 70 75 52 70 75 52 70 75 52 70 75 52 70 81 54 71 81 54 71 81 54 71 81 54 71 81 54 71 81 54 71 81 54 71 81 54 71 82 55 72 82 55 72 82 55 72 82 55 72 82 55 72 82 55 72 82 55 72 82 55 72 86 58 73 86 58 73 86 58 73 86 58 73 86 58 73 86 58 73 86 58 73 86 58 73 95 67 82 95 67 82 95 67 82 95 67 82 95 67 82 95 67 82 95 67 82 95 67 82 99 71 86 99 71 86 99 71 86 99 71 86 99 71 86 99 71 86 99 71 86 99 71 86 96 68 83 96 68 83 96 68 83 96 68 83 96 68 83 96 68 83 96 68 83 98 67 83 92 57 77 92 57 77 92 57 77 92 57 77 92 57 77 92 57 77 92 57 77 92 57 77 72 37 57 72 37 57 72 37 57 72 37 57 72 37 57 72 37 57 72 37 57 70 39 57 52 31 46 47 33 46 47 33 46 47 33 46 47 33 46 47 33 46 47 33 46 47 33 46 53 39 52 53 39 52 53 39 52 53 39 52 53 39 52 53 39 52 53 39 52 51 40 54 37 36 50 34 37 52 34 37 52 34 37 52 34 37 52 34 37 52 34 37 52 34 37 52 33 36 51 33 36 51
50 65 98 50 65 98 50 65 98 50 65 98 50 65 96 56 67 99 56 67 97 56 67 97 56 67 97 56 67 97 56 67 97 56 67 97 56 67 97 55 66 96 55 66 96 55 66 96 55 66 96 55 66 96 55 66 96 55 66 96 56 65 96 58 61 92 60 61 92 60 61 92 60 61 92 60 61 92 60 61 92 60 61 92 60 61 92 61 62 93 61 62 93 61 62 93 61 62 93 61 62 93 61 62 93 61 62 93 61 62 93 61 62 93 61 62 93 61 61 95 61 62 93 61 61 95 61 62 93 61 61 95 61 62 93 59 59 93 59 60 91 59 59 93 59 60 91 59 59 93 59 60 91 59 59 93 60 60 88 63 61 82 64 61 78 64 61 78 64 61 78 64 61 78 64 61 78 64 61 78 64 61 78 71 68 85 71 68 85 71 68 85 71 68 85 71 68 85 71 68 85 71 68 85 74 67 83 70 57 75 75 58 76 77 60 78 80 63 81 84 67 85 87 70 88 89 72 90 91 74 92 89 72 90 87 70 88 85 68 86 82 65 83 78 61 79 75 58 76 73 56 74 71 54 72 69 50 69 69 50 69 69 50 69 69 50 69 69 50 69 69 50 69 69 50 69 69 50 69 67 48 67 67 48 67 67 48 67 67 48 67 67 48 67 67 48 67 67 48 67 67 48 67 72 49 67 72 49 67 72 49 67 72 49 67 72 49 67 72 49 67 72 49 67 72 49 67 75 52 70 75 52 70 75 52 70 75 52 70 75 52 70 75 52 70 75 52 70 75 52 70 81 54 71 81 54 71 81 54 71 81 54 71 81 54 71 81 54 71 81 54 71 81 54 71 82 55 72 82 55 72 82 55 72 82 55 72 82 55 72 82 55 72 82 55 72 83 54 72 88 57 73 88 57 73 89 56 73 88 57 73 89 56 73 88 57 73 89 56 73 88 57 73 95 62 79 94 63 79 95 62 79 94 63 79 95 62 79 94 63 79 95 62 79 94 63 79 99 66 83 98 67 83 99 66 83 98 67 83 99 66 83 98 67 83 99 66 83 98 67 83 105 72 89 104 73 89 105 72 89 104 73 89 105 72 89 104 73 89 105 72 89 105 72 89 103 65 86 103 65 86 104 65 86 103 65 86 104 65 86 103 65 86 104 65 86 103 65 86 93 54 75 92 54 75 93 54 75 92 54 75 93 54 75 92 54 75 93 54 75 89 56 75 67 46 61 62 48 61 62 48 61 62 48 61 62 48 61 62 48 61 62 48 61 62 48 61 54 40 53 54 40 53 54 40 53 54 40 53 54 40 53 54 40 53 54 40 53 52 41 55 38 37 51 35 38 53 35 38 53 35 38 53 35 38 53 35 38 53 35 38 53 35 38 53 36 39 54 36 39 54
57 72 105 57 72 105 57 72 105 57 72 105 57 72 103 60 71 103 60 71 101 60 71 101 60 71 101 60 71 101 60 71 101 60 71 101 60 71 101 55 66 96 55 66 96 55 66 96 55 66 96 55 66 96 55 66 96 55 66 96 56 65 96 58 61 92 60 61 92 60 61 92 60 61 92 60 61 92 60 61 92 60 61 92 60 61 92 61 62 93 61 62 93 61 62 93 61 62 93 61 62 93 61 62 93 61 62 93 61 62 93 61 61 95 61 61 95 61 61 97 61 61 95 61 61 97 61 61 95 61 61 97 61 61 95 59 59 95 59 59 93 59 59 95 59 59 93 59 59 95 59 59 93 59 59 95 60 59 90 63 61 82 64 61 78 64 61 78 64 61 78 64 61 78 64 61 78 64 61 78 64 61 78 67 64 81 67 64 81 67 64 81 67 64 81 67 64 81 67 64 81 67 64 81 70 63 79 70 57 75 75 58 76 77 60 78 80 63 81 84 67 85 87 70 88 89 72 90 91 74 92 89 72 90 87 70 88 85 68 86 82 65 83 78 61 79 75 58 76 73 56 74 71 54 72 69 50 69 69 50 69 69 50 69 69 50 69 69 50 69 69 50 69 69 50 69 69 50 69 67 48 67 67 48 67 67 48 67 67 48 67 67 48 67 67 48 67 67 48 67 67 48 67 72 49 67 72 49 67 72 49 67 72 49 67 72 49 67 72 49 67 72 49 67 72 49 67 75 52 70 75 52 70 75 52 70 75 52 70 75 52 70 75 52 70 75 52 70 75 52 70 81 54 71 81 54 71 81 54 71 81 54 71 81 54 71 81 54 71 81 54 71 81 54 71 82 55 72 82 55 72 82 55 72 82 55 72 82 55 72 82 55 72 82 55 72 83 54 72 89 56 73 89 56 73 90 56 73 89 56 73 90 56 73 89 56 73 90 56 73 89 56 73 92 58 75 91 58 75 92 58 75 91 58 75 92 58 75 91 58 75 92 58 75 91 58 75 96 62 79 95 62 79 96 62 79 95 62 79 96 62 79 95 62 79 96 62 79 95 62 79 106 72 89 105 72 89 106 72 89 105 72 89 106 72 89 105 72 89 106 72 89 106 72 89 107 68 89 107 68 89 109 67 89 107 68 89 109 67 89 107 68 89 109 67 89 107 68 89 115 73 95 113 74 95 115 73 95 113 74 95 115 73 95 113 74 95 115 73 95 109 76 95 91 70 85 86 72 85 86 72 85 86 72 85 86 72 85 86 72 85 86 72 85 86 72 85 61 47 60 61 47 60 61 47 60 61 47 60 61 47 60 61 47 60 61 47 60 59 48 62 45 44 58 42 45 60 42 45 60 42 45 60 42 45 60 42 45 60 42 45 60 42 45 60 40 43 58 40 43 58
69 84 117 69 84 117 69 84 117 69 84 117 69 84 115 63 74 106 63 74 104 63 74 104 63 74 104 63 74 104 63 74 104 63 74 104 63 74 104 55 66 96 55 66 96 55 66 96 55 66 96 55 66 96 55 66 96 55 66 96 56 65 96 58 61 92 60 61 92 60 61 92 60 61 92 60 61 92 60 61 92 60 61 92 60 61 92 61 62 93 61 62 93 61 62 93 61 62 93 61 62 93 61 62 93 61 62 93 61 61 95 61 61 97 61 61 97 61 61 99 61 61 97 61 61 99 61 61 97 61 61 99 61 61 97 59 59 97 59 59 95 59 59 97 59 59 95 59 59 97 59 59 95 59 59 97 60 59 91 63 61 83 64 61 78 64 61 78 64 61 78 64 61 78 64 61 78 64 61 78 64 61 78 64 61 78 64 61 78 64 61 78 64 61 78 64 61 78 64 61 78 64 61 78 67 60 76 70 57 75 75 58 76 77 60 78 80 63 81 84 67 85 87 70 88 89 72 90 91 74 92 89 72 90 87 70 88 85 68 86 82 65 83 78 61 79 75 58 76 73 56 74 71 54 72 69 50 69 69 50 69 69 50 69 69 50 69 69 50 69 69 50 69 69 50 69 69 50 69 67 48 67 67 48 67 67 48 67 67 48 67 67 48 67 67 48 67 67 48 67 67 48 67 72 49 67 72 49 67 72 49 67 72 49 67 72 49 67 72 49 67 72 49 67 72 49 67 75 52 70 75 52 70 75 52 70 75 52 70 75 52 70 75 52 70 75 52 70 75 52 70 81 54 71 81 54 71 81 54 71 81 54 71 81 54 71 81 54 71 81 54 71 81 54 71 82 55 72 82 55 72 82 55 72 82 55 72 82 55 72 82 55 72 82 55 72 83 54 72 89 56 73 90 56 73 92 55 73 90 56 73 92 55 73 90 56 73 92 55 73 90 56 73 91 54 72 89 55 72 91 54 72 89 55 72 91 54 72 89 55 72 91 54 72 89 55 72 95 58 76 93 59 76 95 58 76 93 59 76 95 58 76 93 59 76 95 58 76 93 59 76 102 65 83 100 66 83 102 65 83 100 66 83 102 65 83 100 66 83 102 65 83 102 65 83 107 65 87 107 65 87 108 64 87 107 65 87 108 64 87 107 65 87 108 64 87 107 65 87 122 78 101 121 79 101 122 78 101 121 79 101 122 78 101 121 79 101 122 78 101 116 81 101 106 85 100 101 87 100 101 87 100 101 87 100 101 87 100 101 87 100 101 87 100 101 87 100 73 59 72 73 59 72 73 59 72 73 59 72 73 59 72 73 59 72 73 59 72 71 60 74 57 56 70 54 57 72 54 57 72 54 57 72 54 57 72 54 57 72 54 57 72 54 57 72 43 46 61 43 46 61
82 97 130 82 97 130 82 97 130 82 97 130 82 97 128 65 76 108 65 76 106 65 76 106 65 76 106 65 76 106 65 76 106 65 76 106 65 76 106 55 66 96 55 66 96 55 66 96 55 66 96 55 66 96 55 66 96 55 66 96 56 65 96 58 61 92 60 61 92 60 61 92 60 61 92 60 61 92 60 61 92 60 61 92 60 61 92 61 62 93 61 62 93 61 62 93 61 62 93 61 62 93 61 62 93 61 62 93 61 61 95 61 61 99 61 61 99 61 60 100 61 61 99 61 60 100 61 61 99 61 60 100 61 61 99 59 58 98 59 59 97 59 58 98 59 59 97 59 58 98 59 59 97 59 58 98 60 59 93 63 61 83 64 61 78 64 61 78 64 61 78 64 61 78 64 61 78 64 61 78 64 61 78 62 59 76 62 59 76 62 59 76 62 59 76 62 59 76 62 59 76 62 59 76 65 58 74 70 57 75 75 58 76 77 60 78 80 63 81 84 67 85 87 70 88 89 72 90 91 74 92 89 72 90 87 70 88 85 68 86 82 65 83 78 61 79 75 58 76 73 56 74 71 54 72 69 50 69 69 50 69 69 50 69 69 50 69 69 50 69 69 50 69 69 50 69 69 50 69 67 48 67 67 48 67 67 48 67 67 48 67 67 48 67 67 48 67 67 48 67 67 48 67 72 49 67 72 49 67 72 49 67 72 49 67 72 49 67 72 49 67 72 49 67 72 49 67 75 52 70 75 52 70 75 52 70 75 52 70 75 52 70 75 52 70 75 52 70 75 52 70 81 54 71 81 54 71 81 54 71 81 54 71 81 54 71 81 54 71 81 54 71 81 54 71 82 55 72 82 55 72 82 55 72 82 55 72 82 55 72 82 55 72 82 55 72 83 54 72 90 56 73 92 55 73 93 54 73 92 55 73 93 54 73 92 55 73 93 54 73 92 55 73 90 51 70 89 52 70 90 51 70 89 52 70 90 51 70 89 52 70 90 51 70 89 52 70 94 55 74 93 56 74 94 55 74 93 56 74 94 55 74 93 56 74 94 55 74 93 56 74 95 56 75 94 57 75 95 56 75 94 57 75 95 56 75 94 57 75 95 56 75 95 56 75 102 58 81 102 58 81 103 58 81 102 58 81 103 58 81 102 58 81 103 58 81 102 58 81 110 65 88 109 65 88 110 65 88 109 65 88 110 65 88 109 65 88 110 65 88 105 67 88 104 81 97 98 84 97 98 84 97 98 84 97 98 84 97 98 84 97 98 84 97 98 84 97 86 72 85 86 72 85 86 72 85 86 72 85 86 72 85 86 72 85 86 72 85 84 73 87 70 69 83 67 70 85 67 70 85 67 70 85 67 70 85 67 70 85 67 70 85 67 70 85 45 48 63 45 48 63
87 106 139 89 105 139 87 106 139 89 105 139 89 105 139 64 78 113 64 79 112 64 78 113 64 79 112 64 78 113 64 79 112 64 78 113 64 79 112 52 66 101 52 67 100 52 66 101 52 67 100 52 66 101 52 67 100 52 66 101 53 66 100 54 63 96 56 62 94 56 62 96 56 62 94 56 62 96 56 62 94 56 62 96 56 62 94 57 63 97 57 63 95 57 63 97 57 63 95 57 63 97 57 63 95 57 63 97 57 63 97 58 62 100 58 61 102 58 61 102 58 61 102 58 61 102 58 61 102 58 61 102 58 61 102 56 59 100 56 59 100 56 59 100 56 59 100 56 59 100 56 59 100 56 59 100 56 60 95 60 62 87 60 62 83 61 62 83 60 62 83 61 62 83 60 62 83 61 62 83 60 62 83 57 58 79 56 58 79 57 58 79 56 58 79 57 58 79 56 58 79 57 58 79 59 57 78 66 58 81 69 60 81 73 61 83 74 65 86 80 68 90 81 72 93 85 73 95 85 76 97 85 73 95 81 72 93 81 69 91 76 67 88 74 62 84 69 60 81 69 57 79 67 55 77 65 52 72 65 52 72 65 52 72 65 52 72 65 52 72 65 52 72 65 52 72 65 52 72 63 50 70 63 50 70 63 50 70 63 50 70 63 50 70 63 50 70 63 50 70 64 49 70 69 50 70 71 49 70 72 48 70 71 49 70 72 48 70 71 49 70 72 48 70 71 49 70 75 51 73 74 52 73 75 51 73 74 52 73 75 51 73 74 52 73 75 51 73 75 51 73 81 53 75 81 54 73 81 53 75 81 54 73 81 53 75 81 54 73 81 53 75 81 54 73 82 54 76 82 55 74 82 54 76 82 55 74 82 54 76 82 55 74 82 54 76 85 53 74 90 55 75 92 54 75 93 54 75 92 54 75 93 54 75 92 54 75 93 54 75 92 54 75 88 49 70 87 49 70 88 49 70 87 49 70 88 49 70 87 49 70 88 49 70 88 49 70 92 53 74 92 53 74 92 53 74 92 53 74 92 53 74 92 53 74 92 53 74 92 53 74 89 50 71 89 50 71 89 50 71 89 50 71 89 50 71 89 50 71 89 50 71 91 49 71 98 54 77 99 54 77 99 54 77 99 54 77 99 54 77 99 54 77 99 54 77 99 54 77 95 50 73 95 50 73 95 50 73 95 50 73 95 50 73 95 50 73 95 50 73 91 52 73 97 73 89 93 75 89 93 75 89 93 75 89 93 75 89 93 75 89 93 75 89 93 75 89 97 79 93 97 79 93 97 79 93 97 79 93 97 79 93 97 79 93 97 79 93 94 80 95 83 75 90 80 76 91 80 76 91 80 76 91 80 76 91 80 76 91 80 76 91 80 76 91 52 48 63 52 48 63
92 116 150 93 116 150 92 116 150 93 116 150 93 115 152 85 107 148 87 106 148 87 106 149 87 106 148 87 106 149 87 106 148 87 106 149 87 106 148 63 82 125 63 82 124 63 82 125 63 82 124 63 82 125 63 82 124 63 82 125 63 82 122 55 73 111 55 74 107 55 73 109 55 74 107 55 73 109 55 74 107 55 73 109 55 74 107 53 71 107 53 72 105 53 71 107 53 72 105 53 71 107 53 72 105 53 71 107 55 71 107 48 62 101 48 62 101 48 62 101 48 62 101 48 62 101 48 62 101 48 62 101 48 62 101 51 65 104 51 65 104 51 65 104 51 65 104 51 65 104 51 65 104 51 65 104 52 64 102 52 63 95 52 63 93 53 62 93 52 63 93 53 62 93 52 63 93 53 62 93 52 63 93 51 60 91 50 61 91 51 60 91 50 61 91 51 60 91 50 61 91 51 60 91 51 60 89 55 58 89 55 59 88 57 58 88 55 59 88 57 58 88 55 59 88 57 58 88 55 59 88 57 58 88 55 59 88 57 58 88 55 59 88 57 58 88 55 59 88 57 58 88 57 58 86 58 55 82 59 55 82 59 55 82 59 55 82 59 55 82 59 55 82 59 55 82 59 55 82 59 55 82 59 55 82 59 55 82 59 55 82 59 55 82 59 55 82 59 55 82 62 53 80 71 55 82 74 54 82 76 53 82 74 54 82 76 53 82 74 54 82 76 53 82 74 54 82 75 52 81 73 53 81 75 52 81 73 53 81 75 52 81 73 53 81 75 52 81 76 51 80 79 50 78 80 50 76 80 50 78 80 50 76 80 50 78 80 50 76 80 50 78 80 50 76 81 51 79 81 51 77 81 51 79 81 51 77 81 51 79 81 51 77 81 51 79 83 50 77 89 53 79 89 54 78 91 53 78 89 54 78 91 53 78 89 54 78 91 53 78 89 54 78 92 54 79 90 55 79 92 54 79 90 55 79 92 54 79 90 55 79 92 54 79 92 54 79 93 54 81 93 54 81 93 54 81 93 54 81 93 54 81 93 54 81 93 54 81 93 54 81 89 50 77 89 50 77 89 50 77 89 50 77 89 50 77 89 50 77 89 50 77 90 50 76 91 47 72 92 47 70 92 47 70 92 47 70 92 47 70 92 47 70 92 47 70 92 47 70 92 47 70 92 47 70 92 47 70 92 47 70 92 47 70 92 47 70 92 47 70 90 48 70 86 55 71 81 57 71 81 57 71 81 57 71 81 57 71 81 57 71 81 57 71 81 57 71 94 70 84 94 70 84 94 70 84 94 70 84 94 70 84 94 70 84 94 70 84 93 70 86 115 94 111 113 95 111 113 95 111 113 95 111 113 95 111 113 95 111 113 95 111 113 95 111 102 84 100 102 84 100
87 113 146 87 113 148 87 113 146 87 113 148 87 113 150 84 107 149 84 107 151 84 106 153 84 107 151 84 106 153 84 107 151 84 106 153 84 107 151 67 89 136 67 90 134 67 89 136 67 90 134 67 89 136 67 90 134 67 89 136 67 90 132 53 77 115 53 77 113 53 77 113 53 77 113 53 77 113 53 77 113 53 77 113 53 77 113 46 70 106 46 70 106 46 70 106 46 70 106 46 70 106 46 70 106 46 70 106 47 69 106 46 65 105 47 65 105 47 65 105 47 65 105 47 65 105 47 65 105 47 65 105 47 65 105 48 66 106 48 66 106 48 66 106 48 66 106 48 66 106 48 66 106 48 66 106 48 66 104 49 63 100 49 63 98 49 63 98 49 63 98 49 63 98 49 63 98 49 63 98 49 63 98 47 61 96 47 61 96 47 61 96 47 61 96 47 61 96 47 61 96 47 61 96 48 61 95 50 60 95 51 60 93 51 60 93 51 60 93 51 60 93 51 60 93 51 60 93 51 60 93 51 60 93 51 60 93 51 60 93 51 60 93 51 60 93 51 60 93 51 60 93 53 59 91 53 56 87 55 56 86 55 56 86 55 56 86 55 56 86 55 56 86 55 56 86 55 56 86 55 56 86 55 56 86 55 56 86 55 56 86 55 56 86 55 56 86 55 56 86 59 54 84 70 55 88 73 54 86 74 53 86 73 54 86 74 53 86 73 54 86 74 53 86 73 54 86 73 52 85 72 53 85 73 52 85 72 53 85 73 52 85 72 53 85 73 52 85 75 51 83 77 50 81 79 50 80 80 49 80 79 50 80 80 49 80 79 50 80 80 49 80 79 50 80 81 50 81 80 51 81 81 50 81 80 51 81 81 50 81 80 51 81 81 50 81 81 51 79 88 54 81 88 54 79 89 53 79 88 54 79 89 53 79 88 54 79 89 53 79 88 54 79 90 54 80 89 55 80 90 54 80 89 55 80 90 54 80 89 55 80 90 54 80 90 54 80 91 55 83 91 55 83 93 54 83 91 55 83 93 54 83 91 55 83 93 54 83 91 55 83 89 50 79 87 51 79 89 50 79 87 51 79 89 50 79 87 51 79 89 50 79 89 50 77 91 47 72 91 47 70 92 47 70 91 47 70 92 47 70 91 47 70 92 47 70 91 47 70 92 47 70 91 47 70 92 47 70 91 47 70 92 47 70 91 47 70 92 47 70 90 48 70 87 54 71 84 56 71 84 56 71 84 56 71 84 56 71 84 56 71 84 56 71 84 56 71 95 67 82 95 67 82 95 67 82 95 67 82 95 67 82 95 67 82 95 67 82 95 67 82 111 84 101 111 84 101 111 84 101 111 84 101 111 84 101 111 84 101 111 84 101 111 84 101 106 79 96 106 79 96
81 108 138 81 107 140 81 108 138 81 107 140 81 107 142 84 107 148 84 107 149 84 107 151 84 107 149 84 107 151 84 107 149 84 107 151 84 107 149 77 100 144 77 100 142 77 100 144 77 100 142 77 100 144 77 100 142 77 100 144 77 100 142 58 82 120 58 82 118 58 82 118 58 82 118 58 82 118 58 82 118 58 82 118 58 82 118 43 67 103 43 67 103 43 67 103 43 67 103 43 67 103 43 67 103 43 67 103 44 66 103 48 67 107 49 67 107 49 67 107 49 67 107 49 67 107 49 67 107 49 67 107 49 67 107 48 66 106 48 66 106 48 66 106 48 66 106 48 66 106 48 66 106 48 66 106 48 66 104 49 63 100 49 63 98 49 63 98 49 63 98 49 63 98 49 63 98 49 63 98 49 63 98 47 61 96 47 61 96 47 61 96 47 61 96 47 61 96 47 61 96 47 61 96 48 61 95 50 60 95 51 60 93 51 60 93 51 60 93 51 60 93 51 60 93 51 60 93 51 60 93 51 60 93 51 60 93 51 60 93 51 60 93 51 60 93 51 60 93 51 60 93 53 59 91 53 56 87 55 56 86 55 56 86 55 56 86 55 56 86 55 56 86 55 56 86 55 56 86 55 56 86 55 56 86 55 56 86 55 56 86 55 56 86 55 56 86 55 56 86 58 55 84 69 55 88 71 54 86 73 54 86 71 54 86 73 54 86 71 54 86 73 54 86 71 54 86 72 53 85 70 53 85 72 53 85 70 53 85 72 53 85 70 53 85 72 53 85 73 52 83 76 51 81 77 51 80 79 50 80 77 51 80 79 50 80 77 51 80 79 50 80 77 51 80 80 51 81 78 52 81 80 51 81 78 52 81 80 51 81 78 52 81 80 51 81 80 51 79 87 54 81 87 55 79 88 54 79 87 55 79 88 54 79 87 55 79 88 54 79 87 55 79 89 55 80 88 56 80 89 55 80 88 56 80 89 55 80 88 56 80 89 55 80 89 55 80 90 56 83 90 56 83 91 55 83 90 56 83 91 55 83 90 56 83 91 55 83 90 56 83 87 51 79 86 52 79 87 51 79 86 52 79 87 51 79 86 52 79 87 51 79 87 51 77 90 48 72 90 48 70 91 47 70 90 48 70 91 47 70 90 48 70 91 47 70 90 48 70 91 47 70 90 48 70 91 47 70 90 48 70 91 47 70 90 48 70 91 47 70 88 49 70 87 54 71 84 56 71 84 56 71 84 56 71 84 56 71 84 56 71 84 56 71 84 56 71 93 65 80 93 65 80 93 65 80 93 65 80 93 65 80 93 65 80 93 65 80 93 65 80 98 71 88 98 71 88 98 71 88 98 71 88 98 71 88 98 71 88 98 71 88 98 71 88 101 74 91 101 74 91
79 106 135 79 106 136 79 106 135 79 106 136 79 105 138 84 108 146 84 107 148 84 107 149 84 107 148 84 107 149 84 107 148 84 107 149 84 107 148 86 109 151 86 109 150 86 109 151 86 109 150 86 109 151 86 109 150 86 109 151 86 109 150 65 89 127 65 89 125 65 89 125 65 89 125 65 89 125 65 89 125 65 89 125 65 89 125 44 68 104 44 68 104 44 68 104 44 68 104 44 68 104 44 68 104 44 68 104 45 67 104 51 70 110 52 70 110 52 70 110 52 70 110 52 70 110 52 70 110 52 70 110 52 70 110 48 66 106 48 66 106 48 66 106 48 66 106 48 66 106 48 66 106 48 66 106 48 66 104 49 63 100 49 63 98 49 63 98 49 63 98 49 63 98 49 63 98 49 63 98 49 63 98 47 61 96 47 61 96 47 61 96 47 61 96 47 61 96 47 61 96 47 61 96 48 61 95 50 60 95 51 60 93 51 60 93 51 60 93 51 60 93 51 60 93 51 60 93 51 60 93 51 60 93 51 60 93 51 60 93 51 60 93 51 60 93 51 60 93 51 60 93 53 59 91 53 56 87 55 56 86 55 56 86 55 56 86 55 56 86 55 56 86 55 56 86 55 56 86 55 56 86 55 56 86 55 56 86 55 56 86 55 56 86 55 56 86 55 56 86 58 55 84 67 56 88 70 55 86 71 54 86 70 55 86 71 54 86 70 55 86 71 54 86 70 55 86 70 53 85 69 54 85 70 53 85 69 54 85 70 53 85 69 54 85 70 53 85 72 53 83 75 52 81 76 51 80 77 51 80 76 51 80 77 51 80 76 51 80 77 51 80 76 51 80 78 52 81 77 52 81 78 52 81 77 52 81 78 52 81 77 52 81 78 52 81 78 52 79 85 55 81 85 55 79 87 55 79 85 55 79 87 55 79 85 55 79 87 55 79 85 55 79 88 56 80 86 56 80 88 56 80 86 56 80 88 56 80 86 56 80 88 56 80 88 56 80 89 56 83 89 56 83 90 56 83 89 56 83 90 56 83 89 56 83 90 56 83 89 56 83 86 52 79 85 52 79 86 52 79 85 52 79 86 52 79 85 52 79 86 52 79 86 52 77 88 48 72 88 49 70 90 48 70 88 49 70 90 48 70 88 49 70 90 48 70 88 49 70 90 48 70 88 49 70 90 48 70 88 49 70 90 48 70 88 49 70 90 48 70 87 49 70 86 55 71 84 56 71 84 56 71 84 56 71 84 56 71 84 56 71 84 56 71 84 56 71 90 62 77 90 62 77 90 62 77 90 62 77 90 62 77 90 62 77 90 62 77 90 62 77 86 59 76 86 59 76 86 59 76 86 59 76 86 59 76 86 59 76 86 59 76 86 59 76 94 67 84 94 67 84
82 109 136 82 109 138 82 109 136 82 109 138 82 109 139 84 108 144 84 108 146 84 107 148 84 108 146 84 107 148 84 108 146 84 107 148 84 108 146 89 112 153 89 113 151 89 112 153 89 113 151 89 112 153 89 113 151 89 112 153 89 113 151 71 95 131 71 95 131 71 95 131 71 95 131 71 95 131 71 95 131 71 95 131 71 95 131 51 75 111 51 75 111 51 75 111 51 75 111 51 75 111 51 75 111 51 75 111 52 74 111 55 74 114 56 74 114 56 74 114 56 74 114 56 74 114 56 74 114 56 74 114 56 74 114 48 66 106 48 66 106 48 66 106 48 66 106 48 66 106 48 66 106 48 66 106 48 66 104 49 63 100 49 63 98 49 63 98 49 63 98 49 63 98 49 63 98 49 63 98 49 63 98 47 61 96 47 61 96 47 61 96 47 61 96 47 61 96 47 61 96 47 61 96 48 61 95 50 60 95 51 60 93 51 60 93 51 60 93 51 60 93 51 60 93 51 60 93 51 60 93 51 60 93 51 60 93 51 60 93 51 60 93 51 60 93 51 60 93 51 60 93 53 59 91 53 56 87 55 56 86 55 56 86 55 56 86 55 56 86 55 56 86 55 56 86 55 56 86 55 56 86 55 56 86 55 56 86 55 56 86 55 56 86 55 56 86 55 56 86 58 55 84 67 56 88 69 56 86 70 55 86 69 56 86 70 55 86 69 56 86 70 55 86 69 56 86 69 54 85 68 55 85 69 54 85 68 55 85 69 54 85 68 55 85 69 54 85 70 54 83 73 53 81 75 52 80 76 51 80 75 52 80 76 51 80 75 52 80 76 51 80 75 52 80 77 52 81 76 53 81 77 52 81 76 53 81 77 52 81 76 53 81 77 52 81 77 53 79 84 56 81 84 56 79 85 55 79 84 56 79 85 55 79 84 56 79 85 55 79 84 56 79 86 56 80 85 57 80 86 56 80 85 57 80 86 56 80 85 57 80 86 56 80 86 56 80 87 57 83 87 57 83 89 56 83 87 57 83 89 56 83 87 57 83 89 56 83 87 57 83 85 52 79 83 53 79 85 52 79 83 53 79 85 52 79 83 53 79 85 52 79 85 53 77 87 49 72 87 49 70 88 49 70 87 49 70 88 49 70 87 49 70 88 49 70 87 49 70 88 49 70 87 49 70 88 49 70 87 49 70 88 49 70 87 49 70 88 49 70 85 50 70 86 55 71 84 56 71 84 56 71 84 56 71 84 56 71 84 56 71 84 56 71 84 56 71 86 58 73 86 58 73 86 58 73 86 58 73 86 58 73 86 58 73 86 58 73 86 58 73 79 52 69 79 52 69 79 52 69 79 52 69 79 52 69 79 52 69 79 52 69 79 52 69 88 61 78 88 61 78
91 119 143 91 119 143 91 119 143 91 119 143 91 118 145 84 108 142 84 108 144 84 108 144 84 108 144 84 108 144 84 108 144 84 108 144 84 108 144 87 111 147 87 111 147 87 111 147 87 111 147 87 111 147 87 111 147 87 111 147 87 111 147 78 102 138 78 102 138 78 102 138 78 102 138 78 102 138 78 102 138 78 102 138 78 102 138 63 87 123 63 87 123 63 87 123 63 87 123 63 87 123 63 87 123 63 87 123 64 86 123 58 77 117 59 77 117 59 77 117 59 77 117 59 77 117 59 77 117 59 77 117 59 77 117 48 66 106 48 66 106 48 66 106 48 66 106 48 66 106 48 66 106 48 66 106 48 66 104 49 63 100 49 63 98 49 63 98 49 63 98 49 63 98 49 63 98 49 63 98 49 63 98 47 61 96 47 61 96 47 61 96 47 61 96 47 61 96 47 61 96 47 61 96 48 61 95 50 60 95 51 60 93 51 60 93 51 60 93 51 60 93 51 60 93 51 60 93 51 60 93 51 60 93 51 60 93 51 60 93 51 60 93 51 60 93 51 60 93 51 60 93 53 59 91 53 56 87 55 56 86 55 56 86 55 56 86 55 56 86 55 56 86 55 56 86 55 56 86 55 56 86 55 56 86 55 56 86 55 56 86 55 56 86 55 56 86 55 56 86 58 55 84 66 57 88 67 56 86 67 56 86 67 56 86 67 56 86 67 56 86 67 56 86 67 56 86 66 55 85 66 55 85 66 55 85 66 55 85 66 55 85 66 55 85 66 55 85 68 55 83 72 53 81 73 53 80 73 53 80 73 53 80 73 53 80 73 53 80 73 53 80 73 53 80 74 54 81 74 54 81 74 54 81 74 54 81 74 54 81 74 54 81 74 54 81 76 53 79 82 56 81 82 57 79 82 57 79 82 57 79 82 57 79 82 57 79 82 57 79 82 57 79 83 58 80 83 58 80 83 58 80 83 58 80 83 58 80 83 58 80 83 58 80 83 58 80 86 58 83 86 58 83 86 58 83 86 58 83 86 58 83 86 58 83 86 58 83 86 58 83 82 54 79 82 54 79 82 54 79 82 54 79 82 54 79 82 54 79 82 54 79 83 53 77 84 51 72 85 50 70 85 50 70 85 50 70 85 50 70 85 50 70 85 50 70 85 50 70 85 50 70 85 50 70 85 50 70 85 50 70 85 50 70 85 50 70 85 50 70 84 51 70 86 55 71 84 56 71 84 56 71 84 56 71 84 56 71 84 56 71 84 56 71 84 56 71 83 55 70 83 55 70 83 55 70 83 55 70 83 55 70 83 55 70 83 55 70 83 55 70 78 51 68 78 51 68 78 51 68 78 51 68 78 51 68 78 51 68 78 51 68 78 51 68 81 54 71 81 54 71
101 129 151 101 129 151 101 129 151 101 129 151 101 129 153 84 109 140 84 108 142 84 108 142 84 108 142 84 108 142 84 108 142 84 108 142 84 108 142 81 105 139 81 105 139 81 105 139 81 105 139 81 105 139 81 105 139 81 105 139 81 105 139 83 107 143 83 107 143 83 107 143 83 107 143 83 107 143 83 107 143 83 107 143 83 107 143 76 100 136 76 100 136 76 100 136 76 100 136 76 100 136 76 100 136 76 100 136 77 99 136 60 79 119 61 79 119 61 79 119 61 79 119 61 79 119 61 79 119 61 79 119 61 79 119 48 66 106 48 66 106 48 66 106 48 66 106 48 66 106 48 66 106 48 66 106 48 66 104 49 63 100 49 63 98 49 63 98 49 63 98 49 63 98 49 63 98 49 63 98 49 63 98 47 61 96 47 61 96 47 61 96 47 61 96 47 61 96 47 61 96 47 61 96 48 61 95 50 60 95 51 60 93 51 60 93 51 60 93 51 60 93 51 60 93 51 60 93 51 60 93 51 60 93 51 60 93 51 60 93 51 60 93 51 60 93 51 60 93 51 60 93 53 59 91 53 56 87 55 56 86 55 56 86 55 56 86 55 56 86 55 56 86 55 56 86 55 56 86 55 56 86 55 56 86 55 56 86 55 56 86 55 56 86 55 56 86 55 56 86 56 56 84 64 57 88 66 57 86 66 57 86 66 57 86 66 57 86 66 57 86 66 57 86 66 57 86 65 56 85 65 56 85 65 56 85 65 56 85 65 56 85 65 56 85 65 56 85 66 56 83 70 54 81 72 54 80 72 54 80 72 54 80 72 54 80 72 54 80 72 54 80 72 54 80 73 55 81 73 55 81 73 55 81 73 55 81 73 55 81 73 55 81 73 55 81 73 55 79 80 58 81 81 57 79 81 57 79 81 57 79 81 57 79 81 57 79 81 57 79 81 57 79 82 58 80 82 58 80 82 58 80 82 58 80 82 58 80 82 58 80 82 58 80 82 58 80 84 58 83 84 58 83 84 58 83 84 58 83 84 58 83 84 58 83 84 58 83 84 58 83 80 54 79 80 54 79 80 54 79 80 54 79 80 54 79 80 54 79 80 54 79 82 54 77 83 51 72 84 51 70 84 51 70 84 51 70 84 51 70 84 51 70 84 51 70 84 51 70 84 51 70 84 51 70 84 51 70 84 51 70 84 51 70 84 51 70 84 51 70 83 52 70 84 56 71 84 56 71 84 56 71 84 56 71 84 56 71 84 56 71 84 56 71 84 56 71 81 53 68 81 53 68 81 53 68 81 53 68 81 53 68 81 53 68 81 53 68 81 53 68 81 54 71 81 54 71 81 54 71 81 54 71 81 54 71 81 54 71 81 54 71 81 54 71 76 49 66 76 49 66
108 137 155 108 137 155 108 137 155 108 137 155 108 136 157 84 110 137 84 109 139 84 109 139 84 109 139 84 109 139 84 109 139 84 109 139 84 109 139 77 102 132 77 102 132 77 102 132 77 102 132 77 102 132 77 102 132 77 102 132 77 102 133 85 109 143 85 109 145 85 109 145 85 109 145 85 109 145 85 109 145 85 109 145 85 109 145 84 108 144 84 108 144 84 108 144 84 108 144 84 108 144 84 108 144 84 108 144 85 107 144 62 81 121 63 81 121 63 81 121 63 81 121 63 81 121 63 81 121 63 81 121 63 81 121 48 66 106 48 66 106 48 66 106 48 66 106 48 66 106 48 66 106 48 66 106 48 66 104 49 63 100 49 63 98 49 63 98 49 63 98 49 63 98 49 63 98 49 63 98 49 63 98 47 61 96 47 61 96 47 61 96 47 61 96 47 61 96 47 61 96 47 61 96 48 61 95 50 60 95 51 60 93 51 60 93 51 60 93 51 60 93 51 60 93 51 60 93 51 60 93 51 60 93 51 60 93 51 60 93 51 60 93 51 60 93 51 60 93 51 60 93 53 59 91 53 56 87 55 56 86 55 56 86 55 56 86 55 56 86 55 56 86 55 56 86 55 56 86 55 56 86 55 56 86 55 56 86 55 56 86 55 56 86 55 56 86 55 56 86 56 56 84 62 59 88 63 59 86 63 59 86 63 59 86 63 59 86 63 59 86 63 59 86 63 59 86 62 58 85 62 58 85 62 58 85 62 58 85 62 58 85 62 58 85 62 58 85 63 57 83 68 55 81 69 55 80 69 55 80 69 55 80 69 55 80 69 55 80 69 55 80 69 55 80 70 56 81 70 56 81 70 56 81 70 56 81 70 56 81 70 56 81 70 56 81 71 56 79 77 59 81 78 59 79 78 59 79 78 59 79 78 59 79 78 59 79 78 59 79 78 59 79 79 60 80 79 60 80 79 60 80 79 60 80 79 60 80 79 60 80 79 60 80 79 60 80 82 60 83 82 60 83 82 60 83 82 60 83 82 60 83 82 60 83 82 60 83 82 60 83 78 56 79 78 56 79 78 56 79 78 56 79 78 56 79 78 56 79 78 56 79 79 55 77 80 53 72 81 52 70 81 52 70 81 52 70 81 52 70 81 52 70 81 52 70 81 52 70 81 52 70 81 52 70 81 52 70 81 52 70 81 52 70 81 52 70 81 52 70 81 52 70 84 56 71 84 56 71 84 56 71 84 56 71 84 56 71 84 56 71 84 56 71 84 56 71 79 51 66 79 51 66 79 51 66 79 51 66 79 51 66 79 51 66 79 51 66 79 51 66 84 57 74 84 57 74 84 57 74 84 57 74 84 57 74 84 57 74 84 57 74 84 57 74 74 47 64 74 47 64
