P3
172 37
255
139 123 136 139 123 136 139 123 136 139 123 136 133 117 130 134 118 131 136 120 133 140 124 137 143 127 140 146 130 143 149 133 146 150 134 147 144 128 141 144 128 141 144 128 141 144 128 141 144 128 141 144 128 141 144 128 141 144 128 141 135 119 132 135 119 132 135 119 132 135 119 132 135 119 132 135 119 132 135 119 132 135 119 132 120 104 117 120 104 117 120 104 117 120 104 117 120 104 117 120 104 117 120 104 117 120 104 117 123 107 120 121 105 118 119 103 116 116 100 113 112 96 109 109 93 106 107 91 104 105 89 102 95 81 96 94 80 95 92 78 93 88 74 89 85 71 86 82 68 83 79 65 80 78 64 79 80 66 81 80 66 81 80 66 81 80 66 81 80 66 81 80 66 81 80 66 81 80 66 81 80 65 84 80 65 84 80 65 84 80 65 84 80 65 84 80 65 84 80 65 84 80 65 84 72 57 76 72 57 76 72 57 76 72 57 76 72 57 76 72 57 76 72 57 76 72 58 75 61 48 65 61 49 63 61 49 63 61 49 63 61 49 63 61 49 63 61 49 63 61 49 63 54 42 56 54 42 56 54 42 56 54 42 56 54 42 56 54 42 56 54 42 56 53 42 56 44 34 45 42 34 45 42 34 45 42 34 45 42 34 45 42 34 45 42 34 45 42 34 45 25 17 28 25 17 28 25 17 28 25 17 28 25 17 28 25 17 28 25 17 28 24 18 28 8 5 12 7 6 12 7 6 12 7 6 12 7 6 12 7 6 12 7 6 12 7 6 12 16 15 21 16 15 21 16 15 21 16 15 21 16 15 21 16 15 21 16 15 21 16 15 20 14 12 17 16 14 17 18 16 19 21 19 22 25 23 26 28 26 29 30 28 31 32 30 33 53 51 54 56 54 57 63 61 64 72 70 73 82 80 83 91 89 92 98 96 99 101 99 102 113 111 114 102 100 103 85 83 86 66 64 67 52 50 53 45 43 46 44 42 45 44 42 45 42 40 43 42 40 43 42 40 43 42 40 43 42 40 43 42 40 43 42 40 43 42 40 43 39 37 40 39 37 40 39 37 40 39 37 40 39 37 40 39 37 40 39 37 40 39 37 40 43 41 44 43 41 44 43 41 44 43 41 44 43 41 44 43 41 44 43 41 44 43 41 44
141 124 140 139 125 140 141 124 140 139 125 140 134 117 133 133 119 134 138 121 137 139 125 140 144 127 143 146 132 147 150 133 149 151 134 150 144 127 143 144 127 143 144 127 145 144 127 143 144 127 145 144 127 143 144 127 145 144 127 143 133 116 134 133 116 132 133 116 134 133 116 132 133 116 134 133 116 132 133 116 134 133 116 132 118 101 117 118 101 117 118 101 117 118 101 117 118 101 117 118 101 117 118 101 117 118 101 117 123 106 122 121 104 120 119 102 118 116 99 115 112 95 111 109 92 108 107 90 106 103 89 104 93 80 97 92 79 96 89 76 93 86 73 90 83 70 87 79 66 83 77 64 81 76 63 80 79 66 83 79 66 83 79 66 83 79 66 83 79 66 83 79 66 83 79 66 83 79 66 83 79 66 84 78 67 84 79 66 84 78 67 84 79 66 84 78 67 84 79 66 84 78 67 84 69 56 74 68 57 74 69 56 74 68 57 74 69 56 74 68 57 74 69 56 74 68 57 74 58 47 63 56 48 61 56 48 61 56 48 61 56 48 61 56 48 61 56 48 61 56 48 61 49 41 54 49 41 54 49 41 54 49 41 54 49 41 54 49 41 54 49 41 54 49 41 54 39 33 43 37 34 43 39 33 43 37 34 43 39 33 43 37 34 43 39 33 43 37 34 43 22 16 26 20 17 26 22 16 26 20 17 26 22 16 26 20 17 26 22 16 26 20 17 26 5 4 10 4 5 10 5 4 10 4 5 10 5 4 10 4 5 10 5 4 10 4 5 10 16 15 21 15 16 21 16 15 21 15 16 21 16 15 21 15 16 21 16 15 21 16 15 20 13 13 15 15 15 17 17 17 19 20 20 22 24 24 26 27 27 29 29 29 31 31 31 33 53 53 55 57 57 59 63 63 65 71 71 73 81 81 83 89 89 91 95 95 97 99 99 101 113 111 112 102 100 101 85 83 84 66 64 65 52 50 51 45 43 44 44 42 43 44 42 43 42 40 41 42 40 41 42 40 41 42 40 41 42 40 41 42 40 41 42 40 41 42 40 41 39 37 40 39 37 40 39 37 40 39 37 40 39 37 40 39 37 40 39 37 40 39 37 40 43 41 44 43 41 44 43 41 44 43 41 44 43 41 44 43 41 44 43 41 44 43 41 44
148 133 154 147 134 154 148 133 154 147 134 154 147 132 153 146 133 153 147 132 153 146 133 153 147 132 153 146 133 153 147 132 153 147 132 153 140 125 146 140 125 146 140 125 148 140 125 146 140 125 148 140 125 146 140 125 148 140 125 146 129 114 137 129 114 135 129 114 137 129 114 135 129 114 137 129 114 135 129 114 137 129 114 135 128 113 132 126 111 130 124 109 128 121 106 125 117 102 121 114 99 118 112 97 116 110 95 114 115 100 119 114 99 118 112 97 116 108 93 112 105 90 109 102 87 106 99 84 103 97 84 102 93 84 101 89 82 98 84 77 93 78 71 87 71 64 80 65 58 74 60 53 69 57 50 66 76 69 85 76 69 85 76 69 85 76 69 85 76 69 85 76 69 85 76 69 85 76 69 85 59 52 68 57 53 68 59 52 68 57 53 68 59 52 68 57 53 68 59 52 68 57 53 68 54 47 63 52 48 63 54 47 63 52 48 63 54 47 63 52 48 63 54 47 63 52 48 63 44 42 55 44 42 55 44 42 55 44 42 55 44 42 55 44 42 55 44 42 55 44 42 55 24 22 35 24 22 35 24 22 35 24 22 35 24 22 35 24 22 35 24 22 35 23 23 33 13 13 21 11 14 21 13 13 21 11 14 21 13 13 21 11 14 21 13 13 21 11 14 21 21 21 29 17 20 27 17 17 25 12 15 22 10 10 18 5 8 15 5 5 13 1 4 11 1 2 7 0 3 6 1 2 6 0 3 6 1 2 6 0 3 6 1 2 6 0 3 6 9 10 14 7 11 14 9 10 14 7 11 14 9 10 14 7 11 14 9 10 14 9 10 14 18 19 21 20 21 23 22 23 25 25 26 28 29 30 32 32 33 35 34 35 37 36 37 39 53 54 56 55 56 58 60 61 63 67 68 70 73 74 76 80 81 83 85 86 88 87 89 88 89 89 87 86 85 83 79 78 76 69 68 66 59 58 56 49 48 46 42 41 39 38 37 35 42 41 39 42 41 39 42 41 39 42 41 39 42 41 39 42 41 39 42 41 39 42 41 39 39 37 38 39 37 38 39 37 38 39 37 38 39 37 38 39 37 38 39 37 38 39 37 38 39 37 38 39 37 38 39 37 38 39 37 38 39 37 38 39 37 38 39 37 38 39 37 38
147 133 156 147 133 156 147 133 156 147 133 156 146 132 155 146 132 155 146 132 155 146 132 155 146 132 155 146 132 155 146 132 155 146 132 155 140 124 150 140 124 150 140 124 150 140 124 150 140 124 150 140 124 150 140 124 150 140 124 150 129 113 139 129 113 139 129 113 139 129 113 139 129 113 139 129 113 139 129 113 139 129 114 137 128 113 136 126 111 132 124 109 130 121 106 127 117 102 123 114 99 120 112 97 118 110 95 116 114 99 120 113 98 119 110 95 116 107 92 113 104 89 110 100 85 106 98 83 104 96 83 103 93 86 104 89 85 102 84 80 97 78 74 91 71 67 84 64 60 77 59 55 72 57 53 70 68 64 81 68 64 81 68 64 81 68 64 81 68 64 81 68 64 81 68 64 81 68 64 81 52 50 64 52 50 64 52 50 64 52 50 64 52 50 64 52 50 64 52 50 64 52 50 64 43 41 55 43 41 55 43 41 55 43 41 55 43 41 55 43 41 55 43 41 55 42 41 55 35 35 47 33 35 47 33 35 47 33 35 47 33 35 47 33 35 47 33 35 47 33 35 47 19 21 33 19 21 33 19 21 33 19 21 33 19 21 33 19 21 33 19 21 33 19 22 31 10 14 23 10 15 21 10 15 21 10 15 21 10 15 21 10 15 21 10 15 21 10 15 21 18 23 29 16 21 27 14 19 25 11 16 22 7 12 18 4 9 15 2 7 13 0 5 9 0 2 7 0 3 6 0 3 6 0 3 6 0 3 6 0 3 6 0 3 6 0 3 6 7 11 14 7 11 14 7 11 14 7 11 14 7 11 14 7 11 14 7 11 14 7 11 14 16 20 21 18 22 23 20 24 25 23 27 28 27 31 32 30 34 35 32 36 37 34 38 39 51 55 56 53 57 58 58 62 63 65 69 70 71 75 76 78 82 83 83 87 88 87 89 88 89 89 87 86 85 81 79 78 74 69 68 64 59 58 54 49 48 44 42 41 37 38 37 33 42 41 37 42 41 37 42 41 37 42 41 37 42 41 37 42 41 37 42 41 37 42 41 37 39 37 38 39 37 38 39 37 38 39 37 38 39 37 38 39 37 38 39 37 38 39 37 38 39 37 38 39 37 38 39 37 38 39 37 38 39 37 38 39 37 38 39 37 38 39 37 38
147 133 156 147 133 156 147 133 156 147 133 156 146 132 155 146 132 155 146 132 155 146 132 155 146 132 155 146 132 155 146 132 155 146 132 155 140 124 150 140 124 150 140 124 150 140 124 150 140 124 150 140 124 150 140 124 150 140 124 150 129 113 139 129 113 139 129 113 139 129 113 139 129 113 139 129 113 139 129 113 139 129 114 137 128 113 136 126 111 132 124 109 130 121 106 127 117 102 123 114 99 120 112 97 118 110 95 116 112 97 118 110 95 116 108 93 114 105 90 111 101 86 107 98 83 104 96 81 102 93 80 100 94 87 105 89 85 102 85 81 98 78 74 91 71 67 84 65 61 78 60 56 73 57 53 70 59 55 72 59 55 72 59 55 72 59 55 72 59 55 72 59 55 72 59 55 72 59 55 72 45 43 57 45 43 57 45 43 57 45 43 57 45 43 57 45 43 57 45 43 57 45 43 57 30 28 42 30 28 42 30 28 42 30 28 42 30 28 42 30 28 42 30 28 42 29 28 42 22 22 34 20 22 34 20 22 34 20 22 34 20 22 34 20 22 34 20 22 34 20 22 34 17 19 31 17 19 31 17 19 31 17 19 31 17 19 31 17 19 31 17 19 31 17 20 29 10 14 23 10 15 21 10 15 21 10 15 21 10 15 21 10 15 21 10 15 21 10 15 21 18 23 29 16 21 27 14 19 25 11 16 22 7 12 18 4 9 15 2 7 13 0 5 9 0 2 7 0 3 6 0 3 6 0 3 6 0 3 6 0 3 6 0 3 6 0 3 6 7 11 14 7 11 14 7 11 14 7 11 14 7 11 14 7 11 14 7 11 14 7 11 14 16 20 21 18 22 23 20 24 25 23 27 28 27 31 32 30 34 35 32 36 37 34 38 39 51 55 56 53 57 58 58 62 63 65 69 70 71 75 76 78 82 83 83 87 88 87 89 88 89 89 87 86 85 81 79 78 74 69 68 64 59 58 54 49 48 44 42 41 37 38 37 33 42 41 37 42 41 37 42 41 37 42 41 37 42 41 37 42 41 37 42 41 37 42 41 37 39 37 38 39 37 38 39 37 38 39 37 38 39 37 38 39 37 38 39 37 38 39 37 38 39 37 38 39 37 38 39 37 38 39 37 38 39 37 38 39 37 38 39 37 38 39 37 38
147 133 156 147 133 156 147 133 156 147 133 156 146 132 155 146 132 155 146 132 155 146 132 155 146 132 155 146 132 155 146 132 155 146 132 155 140 124 150 140 124 150 140 124 150 140 124 150 140 124 150 140 124 150 140 124 150 140 124 150 129 113 139 129 113 139 129 113 139 129 113 139 129 113 139 129 113 139 129 113 139 129 114 137 128 113 136 126 111 132 124 109 130 121 106 127 117 102 123 114 99 120 112 97 118 110 95 116 108 93 114 107 92 113 105 90 111 101 86 107 98 83 104 95 80 101 92 77 98 90 77 97 90 83 101 86 82 99 81 77 94 74 70 87 67 63 80 61 57 74 56 52 69 53 49 66 46 42 59 46 42 59 46 42 59 46 42 59 46 42 59 46 42 59 46 42 59 46 42 59 35 33 47 35 33 47 35 33 47 35 33 47 35 33 47 35 33 47 35 33 47 35 33 47 18 16 30 18 16 30 18 16 30 18 16 30 18 16 30 18 16 30 18 16 30 17 16 30 10 10 22 8 10 22 8 10 22 8 10 22 8 10 22 8 10 22 8 10 22 8 10 22 14 16 28 14 16 28 14 16 28 14 16 28 14 16 28 14 16 28 14 16 28 14 17 26 10 14 23 10 15 21 10 15 21 10 15 21 10 15 21 10 15 21 10 15 21 10 15 21 18 23 29 16 21 27 14 19 25 11 16 22 7 12 18 4 9 15 2 7 13 0 5 9 0 2 7 0 3 6 0 3 6 0 3 6 0 3 6 0 3 6 0 3 6 0 3 6 7 11 14 7 11 14 7 11 14 7 11 14 7 11 14 7 11 14 7 11 14 7 11 14 16 20 21 18 22 23 20 24 25 23 27 28 27 31 32 30 34 35 32 36 37 34 38 39 51 55 56 53 57 58 58 62 63 65 69 70 71 75 76 78 82 83 83 87 88 87 89 88 89 89 87 86 85 81 79 78 74 69 68 64 59 58 54 49 48 44 42 41 37 38 37 33 42 41 37 42 41 37 42 41 37 42 41 37 42 41 37 42 41 37 42 41 37 42 41 37 39 37 38 39 37 38 39 37 38 39 37 38 39 37 38 39 37 38 39 37 38 39 37 38 39 37 38 39 37 38 39 37 38 39 37 38 39 37 38 39 37 38 39 37 38 39 37 38
147 133 156 147 133 156 147 133 156 147 133 156 146 132 155 146 132 155 146 132 155 146 132 155 146 132 155 146 132 155 146 132 155 146 132 155 140 124 150 140 124 150 140 124 150 140 124 150 140 124 150 140 124 150 140 124 150 140 124 150 129 113 139 129 113 139 129 113 139 129 113 139 129 113 139 129 113 139 129 113 139 129 114 137 128 113 136 126 111 132 124 109 130 121 106 127 117 102 123 114 99 120 112 97 118 110 95 116 105 90 111 104 89 110 101 86 107 98 83 104 95 80 101 91 76 97 89 74 95 87 74 94 80 73 91 75 71 88 70 66 83 64 60 77 57 53 70 51 47 64 46 42 59 43 39 56 32 28 45 32 28 45 32 28 45 32 28 45 32 28 45 32 28 45 32 28 45 32 28 45 25 23 37 25 23 37 25 23 37 25 23 37 25 23 37 25 23 37 25 23 37 25 23 37 11 9 23 11 9 23 11 9 23 11 9 23 11 9 23 11 9 23 11 9 23 10 9 23 3 3 15 1 3 15 1 3 15 1 3 15 1 3 15 1 3 15 1 3 15 1 3 15 10 12 24 10 12 24 10 12 24 10 12 24 10 12 24 10 12 24 10 12 24 10 13 22 10 14 23 10 15 21 10 15 21 10 15 21 10 15 21 10 15 21 10 15 21 10 15 21 18 23 29 16 21 27 14 19 25 11 16 22 7 12 18 4 9 15 2 7 13 0 5 9 0 2 7 0 3 6 0 3 6 0 3 6 0 3 6 0 3 6 0 3 6 0 3 6 7 11 14 7 11 14 7 11 14 7 11 14 7 11 14 7 11 14 7 11 14 7 11 14 16 20 21 18 22 23 20 24 25 23 27 28 27 31 32 30 34 35 32 36 37 34 38 39 51 55 56 53 57 58 58 62 63 65 69 70 71 75 76 78 82 83 83 87 88 87 89 88 89 89 87 86 85 81 79 78 74 69 68 64 59 58 54 49 48 44 42 41 37 38 37 33 42 41 37 42 41 37 42 41 37 42 41 37 42 41 37 42 41 37 42 41 37 42 41 37 39 37 38 39 37 38 39 37 38 39 37 38 39 37 38 39 37 38 39 37 38 39 37 38 39 37 38 39 37 38 39 37 38 39 37 38 39 37 38 39 37 38 39 37 38 39 37 38
147 133 156 147 133 156 147 133 156 147 133 156 146 132 155 146 132 155 146 132 155 146 132 155 146 132 155 146 132 155 146 132 155 146 132 155 140 124 150 140 124 150 140 124 150 140 124 150 140 124 150 140 124 150 140 124 150 140 124 150 129 113 139 129 113 139 129 113 139 129 113 139 129 113 139 129 113 139 129 113 139 129 114 137 128 113 136 126 111 132 124 109 130 121 106 127 117 102 123 114 99 120 112 97 118 110 95 116 102 87 108 100 85 106 98 83 104 95 80 101 91 76 97 88 73 94 86 71 92 83 70 90 65 58 76 60 56 73 55 51 68 49 45 62 42 38 55 35 31 48 31 27 44 28 24 41 19 15 32 19 15 32 19 15 32 19 15 32 19 15 32 19 15 32 19 15 32 19 15 32 15 13 27 15 13 27 15 13 27 15 13 27 15 13 27 15 13 27 15 13 27 15 13 27 10 8 22 10 8 22 10 8 22 10 8 22 10 8 22 10 8 22 10 8 22 9 8 22 2 2 14 0 2 14 0 2 14 0 2 14 0 2 14 0 2 14 0 2 14 0 2 14 7 9 21 7 9 21 7 9 21 7 9 21 7 9 21 7 9 21 7 9 21 7 10 19 10 14 23 10 15 21 10 15 21 10 15 21 10 15 21 10 15 21 10 15 21 10 15 21 18 23 29 16 21 27 14 19 25 11 16 22 7 12 18 4 9 15 2 7 13 0 5 9 0 2 7 0 3 6 0 3 6 0 3 6 0 3 6 0 3 6 0 3 6 0 3 6 7 11 14 7 11 14 7 11 14 7 11 14 7 11 14 7 11 14 7 11 14 7 11 14 16 20 21 18 22 23 20 24 25 23 27 28 27 31 32 30 34 35 32 36 37 34 38 39 51 55 56 53 57 58 58 62 63 65 69 70 71 75 76 78 82 83 83 87 88 87 89 88 89 89 87 86 85 81 79 78 74 69 68 64 59 58 54 49 48 44 42 41 37 38 37 33 42 41 37 42 41 37 42 41 37 42 41 37 42 41 37 42 41 37 42 41 37 42 41 37 39 37 38 39 37 38 39 37 38 39 37 38 39 37 38 39 37 38 39 37 38 39 37 38 39 37 38 39 37 38 39 37 38 39 37 38 39 37 38 39 37 38 39 37 38 39 37 38
147 133 156 147 133 156 147 133 156 147 133 156 146 132 155 146 132 155 146 132 155 146 132 155 146 132 155 146 132 155 146 132 155 146 132 155 140 124 150 140 124 150 140 124 150 140 124 150 140 124 150 140 124 150 140 124 150 140 124 150 129 113 139 129 113 139 129 113 139 129 113 139 129 113 139 129 113 139 129 113 139 129 114 137 128 113 136 126 111 132 124 109 130 121 106 127 117 102 123 114 99 120 112 97 118 110 95 116 99 84 105 98 83 104 96 81 102 92 77 98 89 74 95 86 71 92 83 68 89 81 68 88 49 42 60 45 41 58 40 36 53 33 29 46 27 23 40 20 16 33 15 11 28 13 9 26 10 6 23 10 6 23 10 6 23 10 6 23 10 6 23 10 6 23 10 6 23 10 6 23 8 6 20 8 6 20 8 6 20 8 6 20 8 6 20 8 6 20 8 6 20 8 6 20 13 11 25 13 11 25 13 11 25 13 11 25 13 11 25 13 11 25 13 11 25 12 11 25 5 5 17 3 5 17 3 5 17 3 5 17 3 5 17 3 5 17 3 5 17 3 5 17 5 7 19 5 7 19 5 7 19 5 7 19 5 7 19 5 7 19 5 7 19 5 8 17 10 14 23 10 15 21 10 15 21 10 15 21 10 15 21 10 15 21 10 15 21 10 15 21 18 23 29 16 21 27 14 19 25 11 16 22 7 12 18 4 9 15 2 7 13 0 5 9 0 2 7 0 3 6 0 3 6 0 3 6 0 3 6 0 3 6 0 3 6 0 3 6 7 11 14 7 11 14 7 11 14 7 11 14 7 11 14 7 11 14 7 11 14 7 11 14 16 20 21 18 22 23 20 24 25 23 27 28 27 31 32 30 34 35 32 36 37 34 38 39 51 55 56 53 57 58 58 62 63 65 69 70 71 75 76 78 82 83 83 87 88 87 89 88 89 89 87 86 85 81 79 78 74 69 68 64 59 58 54 49 48 44 42 41 37 38 37 33 42 41 37 42 41 37 42 41 37 42 41 37 42 41 37 42 41 37 42 41 37 42 41 37 39 37 38 39 37 38 39 37 38 39 37 38 39 37 38 39 37 38 39 37 38 39 37 38 39 37 38 39 37 38 39 37 38 39 37 38 39 37 38 39 37 38 39 37 38 39 37 38
147 133 156 147 133 156 147 133 156 147 133 156 146 132 155 146 132 155 146 132 155 146 132 155 146 132 155 146 132 155 146 132 155 146 132 155 140 124 150 140 124 150 140 124 150 140 124 150 140 124 150 140 124 150 140 124 150 140 124 150 129 113 139 129 113 139 129 113 139 129 113 139 129 113 139 129 113 139 129 113 139 129 114 137 128 113 136 126 111 132 124 109 130 121 106 127 117 102 123 114 99 120 112 97 118 110 95 116 98 83 104 97 82 103 94 79 100 91 76 97 88 73 94 84 69 90 82 67 88 80 67 87 40 33 51 35 31 48 30 26 43 24 20 37 17 13 30 11 7 24 6 2 19 3 0 16 4 0 17 4 0 17 4 0 17 4 0 17 4 0 17 4 0 17 4 0 17 4 0 17 4 2 16 4 2 16 4 2 16 4 2 16 4 2 16 4 2 16 4 2 16 4 2 16 16 14 28 16 14 28 16 14 28 16 14 28 16 14 28 16 14 28 16 14 28 15 14 28 8 8 20 6 8 20 6 8 20 6 8 20 6 8 20 6 8 20 6 8 20 6 8 20 3 5 17 3 5 17 3 5 17 3 5 17 3 5 17 3 5 17 3 5 17 3 6 15 10 14 23 10 15 21 10 15 21 10 15 21 10 15 21 10 15 21 10 15 21 10 15 21 18 23 29 16 21 27 14 19 25 11 16 22 7 12 18 4 9 15 2 7 13 0 5 9 0 2 7 0 3 6 0 3 6 0 3 6 0 3 6 0 3 6 0 3 6 0 3 6 7 11 14 7 11 14 7 11 14 7 11 14 7 11 14 7 11 14 7 11 14 7 11 14 16 20 21 18 22 23 20 24 25 23 27 28 27 31 32 30 34 35 32 36 37 34 38 39 51 55 56 53 57 58 58 62 63 65 69 70 71 75 76 78 82 83 83 87 88 87 89 88 89 89 87 86 85 81 79 78 74 69 68 64 59 58 54 49 48 44 42 41 37 38 37 33 42 41 37 42 41 37 42 41 37 42 41 37 42 41 37 42 41 37 42 41 37 42 41 37 39 37 38 39 37 38 39 37 38 39 37 38 39 37 38 39 37 38 39 37 38 39 37 38 39 37 38 39 37 38 39 37 38 39 37 38 39 37 38 39 37 38 39 37 38 39 37 38
151 137 160 151 137 160 151 137 160 151 137 160 139 125 148 139 125 148 139 125 148 139 125 148 139 125 148 139 125 148 139 125 148 139 125 148 132 116 142 132 116 142 132 116 142 132 116 142 132 116 142 132 116 142 132 116 142 132 116 142 132 116 142 131 115 141 129 113 139 125 109 135 122 106 132 119 103 129 116 100 126 115 100 123 113 98 121 112 97 118 110 95 116 106 91 112 103 88 109 100 85 106 97 82 103 96 81 102 95 80 101 93 78 99 88 73 94 81 66 87 75 60 81 68 53 74 63 48 69 60 47 67 14 7 25 12 8 25 12 8 25 12 8 25 12 8 25 12 8 25 12 8 25 12 8 25 9 5 22 9 5 22 9 5 22 9 5 22 9 5 22 9 5 22 9 5 22 9 5 22 8 6 20 8 6 20 8 6 20 8 6 20 8 6 20 8 6 20 8 6 20 8 6 20 9 7 21 9 7 21 9 7 21 9 7 21 9 7 21 9 7 21 9 7 21 8 7 21 8 8 20 6 8 20 6 8 20 6 8 20 6 8 20 6 8 20 6 8 20 6 8 20 9 11 23 9 11 23 9 11 23 9 11 23 9 11 23 9 11 23 9 11 23 9 12 21 5 9 18 6 11 17 8 13 19 12 17 23 15 20 26 18 23 29 21 26 32 22 27 33 20 25 31 18 23 29 16 21 27 13 18 24 9 14 20 6 11 17 4 9 15 2 7 11 0 2 7 0 3 6 0 3 6 0 3 6 0 3 6 0 3 6 0 3 6 0 3 6 0 2 5 0 4 7 2 6 9 5 9 12 9 13 16 12 16 19 14 18 21 16 20 23 23 27 28 25 29 30 27 31 32 30 34 35 34 38 39 37 41 42 39 43 44 41 45 46 55 59 60 56 60 61 59 63 64 62 66 67 65 69 70 69 73 74 71 75 76 74 76 75 70 70 68 69 68 64 64 63 59 57 56 52 51 50 46 44 43 39 39 38 34 37 36 32 35 34 30 35 34 30 35 34 30 35 34 30 35 34 30 35 34 30 35 34 30 35 34 30 35 33 34 35 33 34 35 33 34 35 33 34 35 33 34 35 33 34 35 33 34 35 33 34 38 36 37 38 36 37 38 36 37 38 36 37 38 36 37 38 36 37 38 36 37 38 36 37
149 135 158 149 135 158 149 135 158 149 135 158 139 125 148 139 125 148 139 125 148 139 125 148 139 125 148 139 125 148 139 125 148 139 125 148 132 116 142 132 116 142 132 116 142 132 116 142 132 116 142 132 116 142 132 116 142 132 116 142 131 115 141 130 114 140 127 111 137 124 108 134 121 105 131 117 101 127 115 99 125 114 99 122 112 97 120 111 96 117 108 93 114 105 90 111 102 87 108 98 83 104 96 81 102 95 80 101 91 76 97 89 74 95 84 69 90 78 63 84 71 56 77 64 49 70 59 44 65 56 43 63 14 7 25 12 8 25 12 8 25 12 8 25 12 8 25 12 8 25 12 8 25 12 8 25 9 5 22 9 5 22 9 5 22 9 5 22 9 5 22 9 5 22 9 5 22 9 5 22 8 6 20 8 6 20 8 6 20 8 6 20 8 6 20 8 6 20 8 6 20 8 6 20 9 7 21 9 7 21 9 7 21 9 7 21 9 7 21 9 7 21 9 7 21 8 7 21 8 8 20 6 8 20 6 8 20 6 8 20 6 8 20 6 8 20 6 8 20 6 8 20 9 11 23 9 11 23 9 11 23 9 11 23 9 11 23 9 11 23 9 11 23 9 12 21 6 10 19 7 12 18 10 15 21 13 18 24 16 21 27 20 25 31 22 27 33 23 28 34 20 25 31 18 23 29 16 21 27 13 18 24 9 14 20 6 11 17 4 9 15 2 7 11 0 2 7 0 3 6 0 3 6 0 3 6 0 3 6 0 3 6 0 3 6 0 3 6 0 2 5 0 4 7 2 6 9 5 9 12 9 13 16 12 16 19 14 18 21 16 20 23 23 27 28 25 29 30 27 31 32 30 34 35 34 38 39 37 41 42 39 43 44 41 45 46 54 58 59 55 59 60 57 61 62 61 65 66 64 68 69 67 71 72 70 74 75 73 75 74 70 70 68 69 68 64 64 63 59 57 56 52 51 50 46 44 43 39 39 38 34 37 36 32 35 34 30 35 34 30 35 34 30 35 34 30 35 34 30 35 34 30 35 34 30 35 34 30 35 33 34 35 33 34 35 33 34 35 33 34 35 33 34 35 33 34 35 33 34 35 33 34 38 36 37 38 36 37 38 36 37 38 36 37 38 36 37 38 36 37 38 36 37 38 36 37
147 133 156 147 133 156 147 133 156 147 133 156 139 125 148 139 125 148 139 125 148 139 125 148 139 125 148 139 125 148 139 125 148 139 125 148 132 116 142 132 116 142 132 116 142 132 116 142 132 116 142 132 116 142 132 116 142 132 116 142 129 113 139 127 111 137 125 109 135 122 106 132 118 102 128 115 99 125 113 97 123 111 96 119 110 95 118 108 93 114 106 91 112 103 88 109 99 84 105 96 81 102 94 79 100 92 77 98 84 69 90 81 66 87 77 62 83 70 55 76 63 48 69 57 42 63 52 37 58 48 35 55 14 7 25 12 8 25 12 8 25 12 8 25 12 8 25 12 8 25 12 8 25 12 8 25 9 5 22 9 5 22 9 5 22 9 5 22 9 5 22 9 5 22 9 5 22 9 5 22 8 6 20 8 6 20 8 6 20 8 6 20 8 6 20 8 6 20 8 6 20 8 6 20 9 7 21 9 7 21 9 7 21 9 7 21 9 7 21 9 7 21 9 7 21 8 7 21 8 8 20 6 8 20 6 8 20 6 8 20 6 8 20 6 8 20 6 8 20 6 8 20 9 11 23 9 11 23 9 11 23 9 11 23 9 11 23 9 11 23 9 11 23 9 12 21 8 12 21 10 15 21 12 17 23 15 20 26 19 24 30 22 27 33 24 29 35 26 31 37 20 25 31 18 23 29 16 21 27 13 18 24 9 14 20 6 11 17 4 9 15 2 7 11 0 2 7 0 3 6 0 3 6 0 3 6 0 3 6 0 3 6 0 3 6 0 3 6 0 2 5 0 4 7 2 6 9 5 9 12 9 13 16 12 16 19 14 18 21 16 20 23 23 27 28 25 29 30 27 31 32 30 34 35 34 38 39 37 41 42 39 43 44 41 45 46 51 55 56 53 57 58 55 59 60 58 62 63 62 66 67 65 69 70 67 71 72 71 73 72 70 70 68 69 68 64 64 63 59 57 56 52 51 50 46 44 43 39 39 38 34 37 36 32 35 34 30 35 34 30 35 34 30 35 34 30 35 34 30 35 34 30 35 34 30 35 34 30 35 33 34 35 33 34 35 33 34 35 33 34 35 33 34 35 33 34 35 33 34 35 33 34 38 36 37 38 36 37 38 36 37 38 36 37 38 36 37 38 36 37 38 36 37 38 36 37
144 130 153 144 130 153 144 130 153 144 130 153 139 125 148 139 125 148 139 125 148 139 125 148 139 125 148 139 125 148 139 125 148 139 125 148 132 116 142 132 116 142 132 116 142 132 116 142 132 116 142 132 116 142 132 116 142 132 116 142 125 109 135 124 108 134 122 106 132 118 102 128 115 99 125 112 96 122 109 93 119 108 93 116 106 91 114 105 90 111 103 88 109 99 84 105 96 81 102 93 78 99 90 75 96 89 74 95 75 60 81 72 57 78 67 52 73 61 46 67 54 39 60 47 32 53 42 27 48 39 26 46 14 7 25 12 8 25 12 8 25 12 8 25 12 8 25 12 8 25 12 8 25 12 8 25 9 5 22 9 5 22 9 5 22 9 5 22 9 5 22 9 5 22 9 5 22 9 5 22 8 6 20 8 6 20 8 6 20 8 6 20 8 6 20 8 6 20 8 6 20 8 6 20 9 7 21 9 7 21 9 7 21 9 7 21 9 7 21 9 7 21 9 7 21 8 7 21 8 8 20 6 8 20 6 8 20 6 8 20 6 8 20 6 8 20 6 8 20 6 8 20 9 11 23 9 11 23 9 11 23 9 11 23 9 11 23 9 11 23 9 11 23 9 12 21 12 16 25 13 18 24 15 20 26 19 24 30 22 27 33 25 30 36 28 33 39 29 34 40 20 25 31 18 23 29 16 21 27 13 18 24 9 14 20 6 11 17 4 9 15 2 7 11 0 2 7 0 3 6 0 3 6 0 3 6 0 3 6 0 3 6 0 3 6 0 3 6 0 2 5 0 4 7 2 6 9 5 9 12 9 13 16 12 16 19 14 18 21 16 20 23 23 27 28 25 29 30 27 31 32 30 34 35 34 38 39 37 41 42 39 43 44 41 45 46 48 52 53 49 53 54 52 56 57 55 59 60 58 62 63 62 66 67 64 68 69 67 69 68 70 70 68 69 68 64 64 63 59 57 56 52 51 50 46 44 43 39 39 38 34 37 36 32 35 34 30 35 34 30 35 34 30 35 34 30 35 34 30 35 34 30 35 34 30 35 34 30 35 33 34 35 33 34 35 33 34 35 33 34 35 33 34 35 33 34 35 33 34 35 33 34 38 36 37 38 36 37 38 36 37 38 36 37 38 36 37 38 36 37 38 36 37 38 36 37
140 126 149 140 126 149 140 126 149 140 126 149 139 125 148 139 125 148 139 125 148 139 125 148 139 125 148 139 125 148 139 125 148 139 125 148 132 116 142 132 116 142 132 116 142 132 116 142 132 116 142 132 116 142 132 116 142 132 116 142 122 106 132 121 105 131 118 102 128 115 99 125 112 96 122 108 92 118 106 90 116 105 90 113 103 88 111 102 87 108 99 84 105 96 81 102 93 78 99 89 74 95 87 72 93 86 71 92 64 49 70 62 47 68 57 42 63 50 35 56 43 28 49 37 22 43 32 17 38 28 15 35 14 7 25 12 8 25 12 8 25 12 8 25 12 8 25 12 8 25 12 8 25 12 8 25 9 5 22 9 5 22 9 5 22 9 5 22 9 5 22 9 5 22 9 5 22 9 5 22 8 6 20 8 6 20 8 6 20 8 6 20 8 6 20 8 6 20 8 6 20 8 6 20 9 7 21 9 7 21 9 7 21 9 7 21 9 7 21 9 7 21 9 7 21 8 7 21 8 8 20 6 8 20 6 8 20 6 8 20 6 8 20 6 8 20 6 8 20 6 8 20 9 11 23 9 11 23 9 11 23 9 11 23 9 11 23 9 11 23 9 11 23 9 12 21 15 19 28 16 21 27 19 24 30 22 27 33 25 30 36 29 34 40 31 36 42 32 37 43 20 25 31 18 23 29 16 21 27 13 18 24 9 14 20 6 11 17 4 9 15 2 7 11 0 2 7 0 3 6 0 3 6 0 3 6 0 3 6 0 3 6 0 3 6 0 3 6 0 2 5 0 4 7 2 6 9 5 9 12 9 13 16 12 16 19 14 18 21 16 20 23 23 27 28 25 29 30 27 31 32 30 34 35 34 38 39 37 41 42 39 43 44 41 45 46 45 49 50 46 50 51 48 52 53 52 56 57 55 59 60 58 62 63 61 65 66 64 66 65 70 70 68 69 68 64 64 63 59 57 56 52 51 50 46 44 43 39 39 38 34 37 36 32 35 34 30 35 34 30 35 34 30 35 34 30 35 34 30 35 34 30 35 34 30 35 34 30 35 33 34 35 33 34 35 33 34 35 33 34 35 33 34 35 33 34 35 33 34 35 33 34 38 36 37 38 36 37 38 36 37 38 36 37 38 36 37 38 36 37 38 36 37 38 36 37
137 123 146 137 123 146 137 123 146 137 123 146 139 125 148 139 125 148 139 125 148 139 125 148 139 125 148 139 125 148 139 125 148 139 125 148 132 116 142 132 116 142 132 116 142 132 116 142 132 116 142 132 116 142 132 116 142 132 116 142 119 103 129 117 101 127 115 99 125 112 96 122 108 92 118 105 89 115 103 87 113 101 86 109 100 85 108 98 83 104 96 81 102 93 78 99 89 74 95 86 71 92 84 69 90 82 67 88 55 40 61 52 37 58 47 32 53 41 26 47 34 19 40 27 12 33 23 8 29 19 6 26 14 7 25 12 8 25 12 8 25 12 8 25 12 8 25 12 8 25 12 8 25 12 8 25 9 5 22 9 5 22 9 5 22 9 5 22 9 5 22 9 5 22 9 5 22 9 5 22 8 6 20 8 6 20 8 6 20 8 6 20 8 6 20 8 6 20 8 6 20 8 6 20 9 7 21 9 7 21 9 7 21 9 7 21 9 7 21 9 7 21 9 7 21 8 7 21 8 8 20 6 8 20 6 8 20 6 8 20 6 8 20 6 8 20 6 8 20 6 8 20 9 11 23 9 11 23 9 11 23 9 11 23 9 11 23 9 11 23 9 11 23 9 12 21 18 22 31 20 25 31 22 27 33 25 30 36 29 34 40 32 37 43 34 39 45 36 41 47 20 25 31 18 23 29 16 21 27 13 18 24 9 14 20 6 11 17 4 9 15 2 7 11 0 2 7 0 3 6 0 3 6 0 3 6 0 3 6 0 3 6 0 3 6 0 3 6 0 2 5 0 4 7 2 6 9 5 9 12 9 13 16 12 16 19 14 18 21 16 20 23 23 27 28 25 29 30 27 31 32 30 34 35 34 38 39 37 41 42 39 43 44 41 45 46 41 45 46 43 47 48 45 49 50 48 52 53 52 56 57 55 59 60 57 61 62 61 63 62 70 70 68 69 68 64 64 63 59 57 56 52 51 50 46 44 43 39 39 38 34 37 36 32 35 34 30 35 34 30 35 34 30 35 34 30 35 34 30 35 34 30 35 34 30 35 34 30 35 33 34 35 33 34 35 33 34 35 33 34 35 33 34 35 33 34 35 33 34 35 33 34 38 36 37 38 36 37 38 36 37 38 36 37 38 36 37 38 36 37 38 36 37 38 36 37
135 121 144 135 121 144 135 121 144 135 121 144 139 125 148 139 125 148 139 125 148 139 125 148 139 125 148 139 125 148 139 125 148 139 125 148 132 116 142 132 116 142 132 116 142 132 116 142 132 116 142 132 116 142 132 116 142 132 116 142 116 100 126 115 99 125 113 97 123 109 93 119 106 90 116 103 87 113 100 84 110 99 84 107 97 82 105 96 81 102 94 79 100 90 75 96 87 72 93 84 69 90 81 66 87 80 65 86 47 32 53 45 30 51 40 25 46 33 18 39 26 11 32 20 5 26 15 0 21 12 0 19 14 7 25 12 8 25 12 8 25 12 8 25 12 8 25 12 8 25 12 8 25 12 8 25 9 5 22 9 5 22 9 5 22 9 5 22 9 5 22 9 5 22 9 5 22 9 5 22 8 6 20 8 6 20 8 6 20 8 6 20 8 6 20 8 6 20 8 6 20 8 6 20 9 7 21 9 7 21 9 7 21 9 7 21 9 7 21 9 7 21 9 7 21 8 7 21 8 8 20 6 8 20 6 8 20 6 8 20 6 8 20 6 8 20 6 8 20 6 8 20 9 11 23 9 11 23 9 11 23 9 11 23 9 11 23 9 11 23 9 11 23 9 12 21 21 25 34 22 27 33 24 29 35 28 33 39 31 36 42 34 39 45 37 42 48 38 43 49 20 25 31 18 23 29 16 21 27 13 18 24 9 14 20 6 11 17 4 9 15 2 7 11 0 2 7 0 3 6 0 3 6 0 3 6 0 3 6 0 3 6 0 3 6 0 3 6 0 2 5 0 4 7 2 6 9 5 9 12 9 13 16 12 16 19 14 18 21 16 20 23 23 27 28 25 29 30 27 31 32 30 34 35 34 38 39 37 41 42 39 43 44 41 45 46 39 43 44 40 44 45 43 47 48 46 50 51 49 53 54 53 57 58 55 59 60 58 60 59 70 70 68 69 68 64 64 63 59 57 56 52 51 50 46 44 43 39 39 38 34 37 36 32 35 34 30 35 34 30 35 34 30 35 34 30 35 34 30 35 34 30 35 34 30 35 34 30 35 33 34 35 33 34 35 33 34 35 33 34 35 33 34 35 33 34 35 33 34 35 33 34 38 36 37 38 36 37 38 36 37 38 36 37 38 36 37 38 36 37 38 36 37 38 36 37
132 120 142 132 120 142 132 120 142 132 120 142 138 126 148 138 126 148 138 126 148 138 126 148 138 126 148 138 126 148 138 126 148 138 126 148 131 117 142 131 117 142 131 117 142 131 117 142 131 117 142 131 117 142 131 117 142 131 117 142 114 100 125 113 99 124 110 96 121 107 93 118 104 90 115 100 86 111 98 84 109 97 83 108 95 81 104 94 81 101 91 77 100 88 75 95 85 71 94 81 68 88 79 65 88 78 65 85 42 28 51 40 27 47 35 21 44 28 15 35 22 8 31 15 2 22 10 0 19 7 0 15 14 7 25 11 8 25 12 8 25 11 8 25 12 8 25 11 8 25 12 8 25 11 8 25 9 5 22 8 5 22 9 5 22 8 5 22 9 5 22 8 5 22 9 5 22 8 6 20 8 6 20 7 6 20 7 6 20 7 6 20 7 6 20 7 6 20 7 6 20 7 6 20 8 7 21 8 7 21 8 7 21 8 7 21 8 7 21 8 7 21 8 7 21 8 8 20 6 8 20 5 9 18 6 8 20 5 9 18 6 8 20 5 9 18 6 8 20 5 9 18 9 11 23 8 12 21 9 11 23 8 12 21 9 11 23 8 12 21 9 11 23 8 12 21 22 27 33 23 28 34 26 31 37 29 34 40 32 37 43 36 41 47 38 43 49 39 44 50 20 25 31 18 23 29 16 21 27 13 18 24 9 14 20 6 11 17 4 9 15 2 7 13 0 2 7 0 3 6 0 3 6 0 3 6 0 3 6 0 3 6 0 3 6 0 3 6 0 2 5 0 4 7 2 6 9 5 9 12 9 13 16 12 16 19 14 18 21 16 20 23 23 27 30 25 29 30 27 31 32 30 34 35 34 38 39 37 41 42 39 43 44 41 45 46 38 42 43 39 43 44 41 45 46 45 49 50 48 52 53 51 55 56 54 58 59 57 59 58 70 70 68 69 68 64 64 63 59 57 56 52 51 50 46 44 43 39 39 38 34 37 36 32 35 34 30 35 34 30 35 34 30 35 34 30 35 34 30 35 34 30 35 34 30 35 34 32 35 34 32 35 33 34 37 33 34 35 33 34 37 33 34 35 33 34 37 33 34 35 33 34 40 36 37 38 36 37 40 36 37 38 36 37 40 36 37 38 36 37 40 36 37 38 36 37
138 128 152 138 128 152 138 128 152 138 128 152 126 116 140 127 117 141 128 118 142 129 119 143 130 120 144 132 122 146 133 123 147 133 123 147 132 122 146 129 119 143 124 114 138 118 108 132 111 101 125 105 95 119 100 90 114 97 87 111 118 108 132 114 104 128 109 99 123 101 91 115 93 83 107 85 75 99 79 69 93 76 66 90 67 59 82 63 55 76 58 50 73 50 42 63 42 34 57 34 26 47 28 20 43 25 17 38 12 4 27 12 4 25 12 4 27 12 4 25 12 4 27 12 4 25 12 4 27 12 4 25 8 5 22 7 6 20 8 6 20 7 6 20 8 6 20 7 6 20 8 6 20 7 6 20 8 6 20 7 6 20 8 6 20 7 6 20 8 6 20 7 6 20 8 6 20 7 6 20 6 8 21 6 8 20 6 8 20 6 8 20 6 8 20 6 8 20 6 8 20 6 8 20 6 8 20 6 8 20 6 8 20 6 8 20 6 8 20 6 8 20 6 8 20 5 9 20 8 12 21 6 13 19 8 12 21 6 13 19 8 12 21 6 13 19 8 12 21 6 13 19 9 13 22 8 15 21 12 16 25 14 21 27 19 23 32 20 27 33 25 29 38 24 31 37 36 43 49 36 43 49 36 43 49 36 43 49 36 43 49 36 43 49 36 43 49 36 43 49 33 40 46 31 38 44 26 33 39 19 26 32 13 20 26 6 13 19 1 8 14 0 6 12 3 8 12 3 8 12 3 8 12 3 8 12 3 8 12 3 8 12 3 8 12 3 8 12 3 8 12 5 10 14 7 12 16 10 15 19 14 19 23 17 22 26 19 24 28 21 26 29 22 27 30 24 29 32 26 31 34 29 34 37 33 38 41 36 41 44 38 43 46 40 45 48 42 47 50 42 47 50 42 47 50 42 47 50 42 47 50 42 47 50 42 47 50 43 47 48 51 51 51 50 49 47 48 47 45 45 44 42 41 40 38 38 37 35 36 35 33 34 33 31 33 32 30 33 32 30 33 32 30 33 32 30 33 32 30 33 32 30 33 32 30 33 32 30 36 32 31 36 32 31 37 31 31 36 32 31 37 31 31 36 32 31 37 31 31 36 32 31 38 32 32 37 33 32 38 32 32 37 33 32 38 32 32 37 33 32 38 32 32 37 33 32
137 129 152 137 129 152 137 129 152 137 129 152 130 122 145 130 122 145 131 123 146 131 123 146 132 124 147 133 125 148 133 125 148 133 125 148 128 120 143 126 118 141 121 113 136 115 107 130 108 100 123 101 93 116 96 88 111 94 86 109 103 95 118 100 92 115 94 86 109 88 80 103 80 72 95 73 65 88 68 60 83 65 57 80 55 50 72 52 47 69 46 41 63 39 34 56 32 27 49 25 20 42 20 15 37 17 12 34 10 5 27 10 5 27 10 5 27 10 5 27 10 5 27 10 5 27 10 5 27 9 6 25 8 5 22 7 6 20 7 6 20 7 6 20 7 6 20 7 6 20 7 6 20 7 6 20 7 6 20 7 6 20 7 6 20 7 6 20 7 6 20 7 6 20 7 6 20 5 7 20 6 8 20 5 9 20 5 9 20 5 9 20 5 9 20 5 9 20 5 9 20 5 9 20 5 9 20 5 9 20 5 9 20 5 9 20 5 9 20 5 9 20 5 9 20 5 9 18 6 13 21 6 13 19 6 13 19 6 13 19 6 13 19 6 13 19 6 13 19 6 13 19 8 15 21 9 16 22 12 19 25 15 22 28 18 25 31 22 29 35 24 31 37 25 32 38 36 43 49 36 43 49 36 43 49 36 43 49 36 43 49 36 43 49 36 43 49 36 43 49 33 40 46 31 38 44 26 33 39 19 26 32 13 20 26 6 13 19 1 8 14 0 6 12 3 8 12 3 8 12 3 8 12 3 8 12 3 8 12 3 8 12 3 8 12 3 8 12 3 8 12 5 10 14 7 12 16 10 15 19 14 19 23 17 22 26 19 24 28 21 26 30 22 27 30 24 29 32 26 31 34 29 34 37 33 38 41 36 41 44 38 43 46 40 45 48 42 47 50 42 47 50 42 47 50 42 47 50 42 47 50 42 47 50 42 47 50 43 47 48 51 51 51 50 49 47 48 47 45 45 44 42 41 40 38 38 37 35 36 35 33 34 33 31 33 32 30 33 32 30 33 32 30 33 32 30 33 32 30 33 32 30 33 32 30 33 32 30 37 31 31 37 31 31 37 31 31 37 31 31 37 31 31 37 31 31 37 31 31 37 31 31 38 32 32 38 32 32 38 32 32 38 32 32 38 32 32 38 32 32 38 32 32 38 32 32
137 129 152 137 129 152 137 129 152 137 129 152 137 129 152 136 128 151 136 128 151 135 127 150 134 126 149 134 126 149 133 125 148 133 125 148 122 114 137 119 111 134 114 106 129 108 100 123 101 93 116 95 87 110 90 82 105 87 79 102 79 71 94 77 69 92 72 64 87 67 59 82 60 52 75 55 47 70 50 42 65 48 40 63 38 33 55 36 31 53 32 27 49 26 21 43 20 15 37 14 9 31 10 5 27 7 2 24 10 5 27 10 5 27 10 5 27 10 5 27 10 5 27 10 5 27 10 5 27 9 6 25 8 5 22 7 6 20 7 6 20 7 6 20 7 6 20 7 6 20 7 6 20 7 6 20 7 6 20 7 6 20 7 6 20 7 6 20 7 6 20 7 6 20 7 6 20 5 7 20 6 8 20 5 9 20 5 9 20 5 9 20 5 9 20 5 9 20 5 9 20 5 9 20 5 9 20 5 9 20 5 9 20 5 9 20 5 9 20 5 9 20 5 9 20 5 9 18 6 13 21 6 13 19 6 13 19 6 13 19 6 13 19 6 13 19 6 13 19 6 13 19 10 17 23 12 19 25 14 21 27 17 24 30 21 28 34 24 31 37 26 33 39 28 35 41 36 43 49 36 43 49 36 43 49 36 43 49 36 43 49 36 43 49 36 43 49 36 43 49 33 40 46 31 38 44 26 33 39 19 26 32 13 20 26 6 13 19 1 8 14 0 6 12 3 8 12 3 8 12 3 8 12 3 8 12 3 8 12 3 8 12 3 8 12 3 8 12 3 8 12 5 10 14 7 12 16 10 15 19 14 19 23 17 22 26 19 24 28 21 26 30 22 27 30 24 29 32 26 31 34 29 34 37 33 38 41 36 41 44 38 43 46 40 45 48 42 47 50 42 47 50 42 47 50 42 47 50 42 47 50 42 47 50 42 47 50 43 47 48 51 51 51 50 49 47 48 47 45 45 44 42 41 40 38 38 37 35 36 35 33 34 33 31 33 32 30 33 32 30 33 32 30 33 32 30 33 32 30 33 32 30 33 32 30 33 32 30 37 31 31 37 31 31 37 31 31 37 31 31 37 31 31 37 31 31 37 31 31 37 31 31 38 32 32 38 32 32 38 32 32 38 32 32 38 32 32 38 32 32 38 32 32 38 32 32
137 129 152 137 129 152 137 129 152 137 129 152 140 132 155 139 131 154 138 130 153 135 127 150 133 125 148 131 123 146 129 121 144 128 120 143 108 100 123 106 98 121 101 93 116 94 86 109 88 80 103 81 73 96 76 68 91 74 66 89 53 45 68 51 43 66 48 40 63 44 36 59 40 32 55 36 28 51 33 25 48 31 23 46 22 17 39 20 15 37 17 12 34 13 8 30 9 4 26 5 0 22 1 0 18 1 0 18 10 5 27 10 5 27 10 5 27 10 5 27 10 5 27 10 5 27 10 5 27 9 6 25 8 5 22 7 6 20 7 6 20 7 6 20 7 6 20 7 6 20 7 6 20 7 6 20 7 6 20 7 6 20 7 6 20 7 6 20 7 6 20 7 6 20 7 6 20 5 7 20 6 8 20 5 9 20 5 9 20 5 9 20 5 9 20 5 9 20 5 9 20 5 9 20 5 9 20 5 9 20 5 9 20 5 9 20 5 9 20 5 9 20 5 9 20 5 9 18 6 13 21 6 13 19 6 13 19 6 13 19 6 13 19 6 13 19 6 13 19 6 13 19 14 21 27 15 22 28 17 24 30 21 28 34 24 31 37 27 34 40 30 37 43 31 38 44 36 43 49 36 43 49 36 43 49 36 43 49 36 43 49 36 43 49 36 43 49 36 43 49 33 40 46 31 38 44 26 33 39 19 26 32 13 20 26 6 13 19 1 8 14 0 6 12 3 8 12 3 8 12 3 8 12 3 8 12 3 8 12 3 8 12 3 8 12 3 8 12 3 8 12 5 10 14 7 12 16 10 15 19 14 19 23 17 22 26 19 24 28 21 26 30 22 27 30 24 29 32 26 31 34 29 34 37 33 38 41 36 41 44 38 43 46 40 45 48 42 47 50 42 47 50 42 47 50 42 47 50 42 47 50 42 47 50 42 47 50 43 47 48 51 51 51 50 49 47 48 47 45 45 44 42 41 40 38 38 37 35 36 35 33 34 33 31 33 32 30 33 32 30 33 32 30 33 32 30 33 32 30 33 32 30 33 32 30 33 32 30 37 31 31 37 31 31 37 31 31 37 31 31 37 31 31 37 31 31 37 31 31 37 31 31 38 32 32 38 32 32 38 32 32 38 32 32 38 32 32 38 32 32 38 32 32 38 32 32
137 129 152 137 129 152 137 129 152 137 129 152 138 130 153 137 129 152 133 125 148 129 121 144 125 117 140 121 113 136 118 110 133 116 108 131 88 80 103 85 77 100 80 72 95 74 66 89 67 59 82 60 52 75 56 48 71 53 45 68 31 23 46 30 22 45 28 20 43 26 18 41 23 15 38 21 13 36 19 11 34 18 10 33 10 5 27 9 4 26 7 2 24 5 0 22 3 0 20 1 0 18 1 0 18 1 0 18 10 5 27 10 5 27 10 5 27 10 5 27 10 5 27 10 5 27 10 5 27 9 6 25 8 5 22 7 6 20 7 6 20 7 6 20 7 6 20 7 6 20 7 6 20 7 6 20 7 6 20 7 6 20 7 6 20 7 6 20 7 6 20 7 6 20 7 6 20 5 7 20 6 8 20 5 9 20 5 9 20 5 9 20 5 9 20 5 9 20 5 9 20 5 9 20 5 9 20 5 9 20 5 9 20 5 9 20 5 9 20 5 9 20 5 9 20 5 9 18 6 13 21 6 13 19 6 13 19 6 13 19 6 13 19 6 13 19 6 13 19 6 13 19 17 24 30 18 25 31 21 28 34 24 31 37 27 34 40 31 38 44 33 40 46 34 41 47 36 43 49 36 43 49 36 43 49 36 43 49 36 43 49 36 43 49 36 43 49 36 43 49 33 40 46 31 38 44 26 33 39 19 26 32 13 20 26 6 13 19 1 8 14 0 6 12 3 8 12 3 8 12 3 8 12 3 8 12 3 8 12 3 8 12 3 8 12 3 8 12 3 8 12 5 10 14 7 12 16 10 15 19 14 19 23 17 22 26 19 24 28 21 26 30 22 27 30 24 29 32 26 31 34 29 34 37 33 38 41 36 41 44 38 43 46 40 45 48 42 47 50 42 47 50 42 47 50 42 47 50 42 47 50 42 47 50 42 47 50 43 47 48 51 51 51 50 49 47 48 47 45 45 44 42 41 40 38 38 37 35 36 35 33 34 33 31 33 32 30 33 32 30 33 32 30 33 32 30 33 32 30 33 32 30 33 32 30 33 32 30 37 31 31 37 31 31 37 31 31 37 31 31 37 31 31 37 31 31 37 31 31 37 31 31 38 32 32 38 32 32 38 32 32 38 32 32 38 32 32 38 32 32 38 32 32 38 32 32
137 129 152 137 129 152 137 129 152 137 129 152 131 123 146 128 120 143 124 116 139 118 110 133 112 104 127 106 98 121 102 94 117 100 92 115 63 55 78 60 52 75 55 47 70 49 41 64 42 34 57 36 28 51 31 23 46 28 20 43 16 8 31 16 8 31 16 8 31 15 7 30 14 6 29 13 5 28 13 5 28 13 5 28 5 0 22 5 0 22 4 0 21 4 0 21 3 0 20 2 0 19 2 0 19 1 0 18 10 5 27 10 5 27 10 5 27 10 5 27 10 5 27 10 5 27 10 5 27 9 6 25 8 5 22 7 6 20 7 6 20 7 6 20 7 6 20 7 6 20 7 6 20 7 6 20 7 6 20 7 6 20 7 6 20 7 6 20 7 6 20 7 6 20 7 6 20 5 7 20 6 8 20 5 9 20 5 9 20 5 9 20 5 9 20 5 9 20 5 9 20 5 9 20 5 9 20 5 9 20 5 9 20 5 9 20 5 9 20 5 9 20 5 9 20 5 9 18 6 13 21 6 13 19 6 13 19 6 13 19 6 13 19 6 13 19 6 13 19 6 13 19 20 27 33 22 29 35 24 31 37 27 34 40 31 38 44 34 41 47 36 43 49 38 45 51 36 43 49 36 43 49 36 43 49 36 43 49 36 43 49 36 43 49 36 43 49 36 43 49 33 40 46 31 38 44 26 33 39 19 26 32 13 20 26 6 13 19 1 8 14 0 6 12 3 8 12 3 8 12 3 8 12 3 8 12 3 8 12 3 8 12 3 8 12 3 8 12 3 8 12 5 10 14 7 12 16 10 15 19 14 19 23 17 22 26 19 24 28 21 26 30 22 27 30 24 29 32 26 31 34 29 34 37 33 38 41 36 41 44 38 43 46 40 45 48 42 47 50 42 47 50 42 47 50 42 47 50 42 47 50 42 47 50 42 47 50 43 47 48 51 51 51 50 49 47 48 47 45 45 44 42 41 40 38 38 37 35 36 35 33 34 33 31 33 32 30 33 32 30 33 32 30 33 32 30 33 32 30 33 32 30 33 32 30 33 32 30 37 31 31 37 31 31 37 31 31 37 31 31 37 31 31 37 31 31 37 31 31 37 31 31 38 32 32 38 32 32 38 32 32 38 32 32 38 32 32 38 32 32 38 32 32 38 32 32
137 129 152 137 129 152 137 129 152 137 129 152 121 113 136 118 110 133 113 105 128 106 98 121 99 91 114 92 84 107 86 78 101 83 75 98 40 32 55 38 30 53 33 25 48 26 18 41 19 11 34 13 5 28 8 0 23 6 0 21 9 1 24 9 1 24 9 1 24 10 2 25 11 3 26 11 3 26 12 4 27 12 4 27 5 0 22 5 0 22 5 0 22 6 1 23 7 2 24 7 2 24 8 3 25 8 3 25 10 5 27 10 5 27 10 5 27 10 5 27 10 5 27 10 5 27 10 5 27 9 6 25 8 5 22 7 6 20 7 6 20 7 6 20 7 6 20 7 6 20 7 6 20 7 6 20 7 6 20 7 6 20 7 6 20 7 6 20 7 6 20 7 6 20 7 6 20 5 7 20 6 8 20 5 9 20 5 9 20 5 9 20 5 9 20 5 9 20 5 9 20 5 9 20 5 9 20 5 9 20 5 9 20 5 9 20 5 9 20 5 9 20 5 9 20 5 9 18 6 13 21 6 13 19 6 13 19 6 13 19 6 13 19 6 13 19 6 13 19 6 13 19 23 30 36 24 31 37 26 33 39 30 37 43 33 40 46 36 43 49 39 46 52 40 47 53 36 43 49 36 43 49 36 43 49 36 43 49 36 43 49 36 43 49 36 43 49 36 43 49 33 40 46 31 38 44 26 33 39 19 26 32 13 20 26 6 13 19 1 8 14 0 6 12 3 8 12 3 8 12 3 8 12 3 8 12 3 8 12 3 8 12 3 8 12 3 8 12 3 8 12 5 10 14 7 12 16 10 15 19 14 19 23 17 22 26 19 24 28 21 26 30 22 27 30 24 29 32 26 31 34 29 34 37 33 38 41 36 41 44 38 43 46 40 45 48 42 47 50 42 47 50 42 47 50 42 47 50 42 47 50 42 47 50 42 47 50 43 47 48 51 51 51 50 49 47 48 47 45 45 44 42 41 40 38 38 37 35 36 35 33 34 33 31 33 32 30 33 32 30 33 32 30 33 32 30 33 32 30 33 32 30 33 32 30 33 32 30 37 31 31 37 31 31 37 31 31 37 31 31 37 31 31 37 31 31 37 31 31 37 31 31 38 32 32 38 32 32 38 32 32 38 32 32 38 32 32 38 32 32 38 32 32 38 32 32
137 129 152 137 129 152 137 129 152 137 129 152 115 107 130 112 104 127 106 98 121 98 90 113 90 82 105 82 74 97 77 69 92 73 65 88 27 19 42 24 16 39 19 11 34 13 5 28 6 0 21 3 0 18 3 0 18 3 0 18 6 0 21 6 0 21 7 0 22 9 1 24 10 2 25 11 3 26 12 4 27 13 5 28 6 1 23 6 1 23 7 2 24 9 4 26 10 5 27 11 6 28 12 7 29 13 8 30 10 5 27 10 5 27 10 5 27 10 5 27 10 5 27 10 5 27 10 5 27 9 6 25 8 5 22 7 6 20 7 6 20 7 6 20 7 6 20 7 6 20 7 6 20 7 6 20 7 6 20 7 6 20 7 6 20 7 6 20 7 6 20 7 6 20 7 6 20 5 7 20 6 8 20 5 9 20 5 9 20 5 9 20 5 9 20 5 9 20 5 9 20 5 9 20 5 9 20 5 9 20 5 9 20 5 9 20 5 9 20 5 9 20 5 9 20 5 9 18 6 13 21 6 13 19 6 13 19 6 13 19 6 13 19 6 13 19 6 13 19 6 13 19 24 31 37 25 32 38 28 35 41 31 38 44 34 41 47 38 45 51 40 47 53 41 48 54 36 43 49 36 43 49 36 43 49 36 43 49 36 43 49 36 43 49 36 43 49 36 43 49 33 40 46 31 38 44 26 33 39 19 26 32 13 20 26 6 13 19 1 8 14 0 6 12 3 8 12 3 8 12 3 8 12 3 8 12 3 8 12 3 8 12 3 8 12 3 8 12 3 8 12 5 10 14 7 12 16 10 15 19 14 19 23 17 22 26 19 24 28 21 26 30 22 27 30 24 29 32 26 31 34 29 34 37 33 38 41 36 41 44 38 43 46 40 45 48 42 47 50 42 47 50 42 47 50 42 47 50 42 47 50 42 47 50 42 47 50 43 47 48 51 51 51 50 49 47 48 47 45 45 44 42 41 40 38 38 37 35 36 35 33 34 33 31 33 32 30 33 32 30 33 32 30 33 32 30 33 32 30 33 32 30 33 32 30 33 32 30 37 31 31 37 31 31 37 31 31 37 31 31 37 31 31 37 31 31 37 31 31 37 31 31 38 32 32 38 32 32 38 32 32 38 32 32 38 32 32 38 32 32 38 32 32 38 32 32
127 119 142 119 111 134 113 105 128 110 102 125 93 85 108 88 80 103 77 69 92 64 56 79 50 42 65 37 29 52 26 18 41 21 13 36 9 1 24 9 1 24 9 1 24 9 1 24 9 1 24 9 1 24 9 1 24 9 1 24 10 2 25 10 2 25 10 2 25 10 2 25 10 2 25 10 2 25 10 2 25 10 2 25 7 2 24 7 2 24 7 2 24 7 2 24 7 2 24 7 2 24 7 2 24 7 2 24 7 2 24 7 2 24 7 2 24 7 2 24 7 2 24 7 2 24 7 2 24 6 3 22 7 4 21 6 5 19 6 5 19 6 5 19 6 5 19 6 5 19 6 5 19 6 5 19 7 6 20 7 6 20 7 6 20 7 6 20 7 6 20 7 6 20 7 6 20 5 7 20 5 7 19 4 8 19 4 8 19 4 8 19 4 8 19 4 8 19 4 8 19 4 8 19 7 11 22 7 11 22 7 11 22 7 11 22 7 11 22 7 11 22 7 11 22 7 11 20 0 6 14 0 7 13 3 10 16 6 13 19 9 16 22 13 20 26 15 22 28 16 23 29 43 50 56 43 50 56 43 50 56 43 50 56 43 50 56 43 50 56 43 50 56 43 50 56 38 45 51 38 45 51 38 45 51 38 45 51 38 45 51 38 45 51 38 45 51 38 45 51 23 30 36 21 28 34 19 26 32 16 23 29 12 19 25 9 16 22 7 14 20 5 12 18 6 11 15 6 11 15 6 11 15 6 11 15 6 11 15 6 11 15 6 11 15 6 11 15 8 13 17 10 15 19 12 17 21 15 20 24 19 24 28 22 27 31 24 29 33 26 31 35 26 31 34 26 31 34 26 31 34 26 31 34 26 31 34 26 31 34 26 31 34 26 31 34 30 35 38 30 35 38 30 35 38 30 35 38 30 35 38 30 35 38 30 35 38 31 35 36 31 31 31 32 31 29 32 31 29 32 31 29 32 31 29 32 31 29 32 31 29 32 31 29 31 30 28 31 30 28 31 30 28 31 30 28 31 30 28 31 30 28 31 30 28 31 30 28 35 29 29 35 29 29 35 29 29 35 29 29 35 29 29 35 29 29 35 29 29 35 29 29 37 31 31 37 31 31 37 31 31 37 31 31 37 31 31 37 31 31 37 31 31 37 31 31
107 99 122 100 92 115 94 86 109 92 84 107 62 54 77 58 50 73 51 43 66 41 33 56 31 23 46 22 14 37 15 7 30 11 3 26 9 1 24 9 1 24 9 1 24 9 1 24 9 1 24 9 1 24 9 1 24 9 1 24 10 2 25 10 2 25 10 2 25 10 2 25 10 2 25 10 2 25 10 2 25 10 2 25 7 2 24 7 2 24 7 2 24 7 2 24 7 2 24 7 2 24 7 2 24 7 2 24 7 2 24 7 2 24 7 2 24 7 2 24 7 2 24 7 2 24 7 2 24 6 3 22 7 4 21 6 5 19 6 5 19 6 5 19 6 5 19 6 5 19 6 5 19 6 5 19 7 6 20 7 6 20 7 6 20 7 6 20 7 6 20 7 6 20 7 6 20 5 7 20 5 7 19 4 8 19 4 8 19 4 8 19 4 8 19 4 8 19 4 8 19 4 8 19 7 11 22 7 11 22 7 11 22 7 11 22 7 11 22 7 11 22 7 11 22 7 11 20 2 9 17 3 10 16 5 12 18 9 16 22 12 19 25 15 22 28 18 25 31 19 26 32 43 50 56 43 50 56 43 50 56 43 50 56 43 50 56 43 50 56 43 50 56 43 50 56 38 45 51 38 45 51 38 45 51 38 45 51 38 45 51 38 45 51 38 45 51 38 45 51 23 30 36 21 28 34 19 26 32 16 23 29 12 19 25 9 16 22 7 14 20 5 12 18 6 11 15 6 11 15 6 11 15 6 11 15 6 11 15 6 11 15 6 11 15 6 11 15 8 13 17 10 15 19 12 17 21 15 20 24 19 24 28 22 27 31 24 29 33 26 31 35 26 31 34 26 31 34 26 31 34 26 31 34 26 31 34 26 31 34 26 31 34 26 31 34 30 35 38 30 35 38 30 35 38 30 35 38 30 35 38 30 35 38 30 35 38 31 35 36 31 31 31 32 31 29 32 31 29 32 31 29 32 31 29 32 31 29 32 31 29 32 31 29 31 30 28 31 30 28 31 30 28 31 30 28 31 30 28 31 30 28 31 30 28 31 30 28 35 29 29 35 29 29 35 29 29 35 29 29 35 29 29 35 29 29 35 29 29 35 29 29 37 31 31 37 31 31 37 31 31 37 31 31 37 31 31 37 31 31 37 31 31 37 31 31
74 66 89 69 61 84 64 56 79 62 54 77 23 15 38 22 14 37 19 11 34 16 8 31 12 4 27 9 1 24 6 0 21 5 0 20 9 1 24 9 1 24 9 1 24 9 1 24 9 1 24 9 1 24 9 1 24 9 1 24 10 2 25 10 2 25 10 2 25 10 2 25 10 2 25 10 2 25 10 2 25 10 2 25 7 2 24 7 2 24 7 2 24 7 2 24 7 2 24 7 2 24 7 2 24 7 2 24 7 2 24 7 2 24 7 2 24 7 2 24 7 2 24 7 2 24 7 2 24 6 3 22 7 4 21 6 5 19 6 5 19 6 5 19 6 5 19 6 5 19 6 5 19 6 5 19 7 6 20 7 6 20 7 6 20 7 6 20 7 6 20 7 6 20 7 6 20 5 7 20 5 7 19 4 8 19 4 8 19 4 8 19 4 8 19 4 8 19 4 8 19 4 8 19 7 11 22 7 11 22 7 11 22 7 11 22 7 11 22 7 11 22 7 11 22 7 11 20 7 14 22 8 15 21 10 17 23 13 20 26 17 24 30 20 27 33 23 30 36 24 31 37 43 50 56 43 50 56 43 50 56 43 50 56 43 50 56 43 50 56 43 50 56 43 50 56 38 45 51 38 45 51 38 45 51 38 45 51 38 45 51 38 45 51 38 45 51 38 45 51 23 30 36 21 28 34 19 26 32 16 23 29 12 19 25 9 16 22 7 14 20 5 12 18 6 11 15 6 11 15 6 11 15 6 11 15 6 11 15 6 11 15 6 11 15 6 11 15 8 13 17 10 15 19 12 17 21 15 20 24 19 24 28 22 27 31 24 29 33 26 31 35 26 31 34 26 31 34 26 31 34 26 31 34 26 31 34 26 31 34 26 31 34 26 31 34 30 35 38 30 35 38 30 35 38 30 35 38 30 35 38 30 35 38 30 35 38 31 35 36 31 31 31 32 31 29 32 31 29 32 31 29 32 31 29 32 31 29 32 31 29 32 31 29 31 30 28 31 30 28 31 30 28 31 30 28 31 30 28 31 30 28 31 30 28 31 30 28 35 29 29 35 29 29 35 29 29 35 29 29 35 29 29 35 29 29 35 29 29 35 29 29 37 31 31 37 31 31 37 31 31 37 31 31 37 31 31 37 31 31 37 31 31 37 31 31
42 34 57 38 30 53 34 26 49 33 25 48 3 0 18 3 0 18 5 0 20 6 0 21 8 0 23 10 2 25 11 3 26 11 3 26 9 1 24 9 1 24 9 1 24 9 1 24 9 1 24 9 1 24 9 1 24 9 1 24 10 2 25 10 2 25 10 2 25 10 2 25 10 2 25 10 2 25 10 2 25 10 2 25 7 2 24 7 2 24 7 2 24 7 2 24 7 2 24 7 2 24 7 2 24 7 2 24 7 2 24 7 2 24 7 2 24 7 2 24 7 2 24 7 2 24 7 2 24 6 3 22 7 4 21 6 5 19 6 5 19 6 5 19 6 5 19 6 5 19 6 5 19 6 5 19 7 6 20 7 6 20 7 6 20 7 6 20 7 6 20 7 6 20 7 6 20 5 7 20 5 7 19 4 8 19 4 8 19 4 8 19 4 8 19 4 8 19 4 8 19 4 8 19 7 11 22 7 11 22 7 11 22 7 11 22 7 11 22 7 11 22 7 11 22 7 11 20 13 20 28 14 21 27 17 24 30 20 27 33 23 30 36 26 33 39 29 36 42 30 37 43 43 50 56 43 50 56 43 50 56 43 50 56 43 50 56 43 50 56 43 50 56 43 50 56 38 45 51 38 45 51 38 45 51 38 45 51 38 45 51 38 45 51 38 45 51 38 45 51 23 30 36 21 28 34 19 26 32 16 23 29 12 19 25 9 16 22 7 14 20 5 12 18 6 11 15 6 11 15 6 11 15 6 11 15 6 11 15 6 11 15 6 11 15 6 11 15 8 13 17 10 15 19 12 17 21 15 20 24 19 24 28 22 27 31 24 29 33 26 31 35 26 31 34 26 31 34 26 31 34 26 31 34 26 31 34 26 31 34 26 31 34 26 31 34 30 35 38 30 35 38 30 35 38 30 35 38 30 35 38 30 35 38 30 35 38 31 35 36 31 31 31 32 31 29 32 31 29 32 31 29 32 31 29 32 31 29 32 31 29 32 31 29 31 30 28 31 30 28 31 30 28 31 30 28 31 30 28 31 30 28 31 30 28 31 30 28 35 29 29 35 29 29 35 29 29 35 29 29 35 29 29 35 29 29 35 29 29 35 29 29 37 31 31 37 31 31 37 31 31 37 31 31 37 31 31 37 31 31 37 31 31 37 31 31
18 10 33 16 8 31 14 6 29 13 5 28 4 0 19 6 0 21 8 0 23 12 4 27 15 7 30 19 11 34 21 13 36 23 15 38 9 1 24 9 1 24 9 1 24 9 1 24 9 1 24 9 1 24 9 1 24 9 1 24 10 2 25 10 2 25 10 2 25 10 2 25 10 2 25 10 2 25 10 2 25 10 2 25 7 2 24 7 2 24 7 2 24 7 2 24 7 2 24 7 2 24 7 2 24 7 2 24 7 2 24 7 2 24 7 2 24 7 2 24 7 2 24 7 2 24 7 2 24 6 3 22 7 4 21 6 5 19 6 5 19 6 5 19 6 5 19 6 5 19 6 5 19 6 5 19 7 6 20 7 6 20 7 6 20 7 6 20 7 6 20 7 6 20 7 6 20 5 7 20 5 7 19 4 8 19 4 8 19 4 8 19 4 8 19 4 8 19 4 8 19 4 8 19 7 11 22 7 11 22 7 11 22 7 11 22 7 11 22 7 11 22 7 11 22 7 11 20 20 27 35 21 28 34 24 31 37 27 34 40 30 37 43 33 40 46 36 43 49 37 44 50 43 50 56 43 50 56 43 50 56 43 50 56 43 50 56 43 50 56 43 50 56 43 50 56 38 45 51 38 45 51 38 45 51 38 45 51 38 45 51 38 45 51 38 45 51 38 45 51 23 30 36 21 28 34 19 26 32 16 23 29 12 19 25 9 16 22 7 14 20 5 12 18 6 11 15 6 11 15 6 11 15 6 11 15 6 11 15 6 11 15 6 11 15 6 11 15 8 13 17 10 15 19 12 17 21 15 20 24 19 24 28 22 27 31 24 29 33 26 31 35 26 31 34 26 31 34 26 31 34 26 31 34 26 31 34 26 31 34 26 31 34 26 31 34 30 35 38 30 35 38 30 35 38 30 35 38 30 35 38 30 35 38 30 35 38 31 35 36 31 31 31 32 31 29 32 31 29 32 31 29 32 31 29 32 31 29 32 31 29 32 31 29 31 30 28 31 30 28 31 30 28 31 30 28 31 30 28 31 30 28 31 30 28 31 30 28 35 29 29 35 29 29 35 29 29 35 29 29 35 29 29 35 29 29 35 29 29 35 29 29 37 31 31 37 31 31 37 31 31 37 31 31 37 31 31 37 31 31 37 31 31 37 31 31
8 0 23 8 0 23 7 0 22 7 0 22 13 5 28 14 6 29 15 7 30 17 9 32 19 11 34 21 13 36 22 14 37 22 14 37 9 1 24 9 1 24 9 1 24 9 1 24 9 1 24 9 1 24 9 1 24 9 1 24 10 2 25 10 2 25 10 2 25 10 2 25 10 2 25 10 2 25 10 2 25 10 2 25 7 2 24 7 2 24 7 2 24 7 2 24 7 2 24 7 2 24 7 2 24 7 2 24 7 2 24 7 2 24 7 2 24 7 2 24 7 2 24 7 2 24 7 2 24 6 3 22 7 4 21 6 5 19 6 5 19 6 5 19 6 5 19 6 5 19 6 5 19 6 5 19 7 6 20 7 6 20 7 6 20 7 6 20 7 6 20 7 6 20 7 6 20 5 7 20 5 7 19 4 8 19 4 8 19 4 8 19 4 8 19 4 8 19 4 8 19 4 8 19 7 11 22 7 11 22 7 11 22 7 11 22 7 11 22 7 11 22 7 11 22 7 11 20 26 33 41 27 34 40 30 37 43 33 40 46 37 44 50 40 47 53 42 49 55 43 50 56 43 50 56 43 50 56 43 50 56 43 50 56 43 50 56 43 50 56 43 50 56 43 50 56 38 45 51 38 45 51 38 45 51 38 45 51 38 45 51 38 45 51 38 45 51 38 45 51 23 30 36 21 28 34 19 26 32 16 23 29 12 19 25 9 16 22 7 14 20 5 12 18 6 11 15 6 11 15 6 11 15 6 11 15 6 11 15 6 11 15 6 11 15 6 11 15 8 13 17 10 15 19 12 17 21 15 20 24 19 24 28 22 27 31 24 29 33 26 31 35 26 31 34 26 31 34 26 31 34 26 31 34 26 31 34 26 31 34 26 31 34 26 31 34 30 35 38 30 35 38 30 35 38 30 35 38 30 35 38 30 35 38 30 35 38 31 35 36 31 31 31 32 31 29 32 31 29 32 31 29 32 31 29 32 31 29 32 31 29 32 31 29 31 30 28 31 30 28 31 30 28 31 30 28 31 30 28 31 30 28 31 30 28 31 30 28 35 29 29 35 29 29 35 29 29 35 29 29 35 29 29 35 29 29 35 29 29 35 29 29 37 31 31 37 31 31 37 31 31 37 31 31 37 31 31 37 31 31 37 31 31 37 31 31
8 0 23 8 0 23 9 1 24 9 1 24 16 8 31 16 8 31 14 6 29 13 5 28 11 3 26 9 1 24 8 0 23 7 0 22 9 1 24 9 1 24 9 1 24 9 1 24 9 1 24 9 1 24 9 1 24 9 1 24 10 2 25 10 2 25 10 2 25 10 2 25 10 2 25 10 2 25 10 2 25 10 2 25 7 2 24 7 2 24 7 2 24 7 2 24 7 2 24 7 2 24 7 2 24 7 2 24 7 2 24 7 2 24 7 2 24 7 2 24 7 2 24 7 2 24 7 2 24 6 3 22 7 4 21 6 5 19 6 5 19 6 5 19 6 5 19 6 5 19 6 5 19 6 5 19 7 6 20 7 6 20 7 6 20 7 6 20 7 6 20 7 6 20 7 6 20 5 7 20 5 7 19 4 8 19 4 8 19 4 8 19 4 8 19 4 8 19 4 8 19 4 8 19 7 11 22 7 11 22 7 11 22 7 11 22 7 11 22 7 11 22 7 11 22 7 11 20 31 38 46 32 39 45 35 42 48 38 45 51 41 48 54 45 52 58 47 54 60 48 55 61 43 50 56 43 50 56 43 50 56 43 50 56 43 50 56 43 50 56 43 50 56 43 50 56 38 45 51 38 45 51 38 45 51 38 45 51 38 45 51 38 45 51 38 45 51 38 45 51 23 30 36 21 28 34 19 26 32 16 23 29 12 19 25 9 16 22 7 14 20 5 12 18 6 11 15 6 11 15 6 11 15 6 11 15 6 11 15 6 11 15 6 11 15 6 11 15 8 13 17 10 15 19 12 17 21 15 20 24 19 24 28 22 27 31 24 29 33 26 31 35 26 31 34 26 31 34 26 31 34 26 31 34 26 31 34 26 31 34 26 31 34 26 31 34 30 35 38 30 35 38 30 35 38 30 35 38 30 35 38 30 35 38 30 35 38 31 35 36 31 31 31 32 31 29 32 31 29 32 31 29 32 31 29 32 31 29 32 31 29 32 31 29 31 30 28 31 30 28 31 30 28 31 30 28 31 30 28 31 30 28 31 30 28 31 30 28 35 29 29 35 29 29 35 29 29 35 29 29 35 29 29 35 29 29 35 29 29 35 29 29 37 31 31 37 31 31 37 31 31 37 31 31 37 31 31 37 31 31 37 31 31 37 31 31
10 2 23 11 3 24 12 4 25 13 5 26 14 6 27 13 5 26 9 1 22 5 0 18 3 0 16 3 0 16 3 0 16 3 0 16 9 1 22 9 1 22 9 1 24 9 1 22 9 1 24 9 1 22 9 1 24 9 1 22 10 2 25 10 2 23 10 2 25 10 2 23 10 2 25 10 2 23 10 2 25 10 2 23 7 2 22 7 2 22 7 2 22 7 2 22 7 2 22 7 2 22 7 2 22 7 2 22 7 2 22 7 2 22 7 2 22 7 2 22 7 2 22 7 2 22 7 2 22 6 3 20 6 5 21 6 5 19 6 5 19 6 5 19 6 5 19 6 5 19 6 5 19 6 5 19 7 6 20 7 6 20 7 6 20 7 6 20 7 6 20 7 6 20 7 6 20 5 7 20 4 8 19 4 8 17 4 8 19 4 8 17 4 8 19 4 8 17 4 8 19 4 8 17 7 11 22 7 11 20 7 11 22 7 11 20 7 11 22 7 11 20 7 11 22 7 11 20 34 41 47 35 42 48 37 44 50 41 48 54 44 51 57 47 54 60 50 57 63 51 58 64 43 50 56 43 50 56 43 50 56 43 50 56 43 50 56 43 50 56 43 50 56 43 50 56 38 45 51 38 45 51 38 45 51 38 45 51 38 45 51 38 45 51 38 45 51 38 45 51 23 30 36 21 28 34 19 26 32 16 23 29 12 19 25 9 16 22 7 14 20 5 12 18 6 11 15 6 11 15 6 11 15 6 11 15 6 11 15 6 11 15 6 11 15 6 11 15 8 13 17 10 15 19 12 17 21 15 20 24 19 24 28 22 27 31 24 29 33 26 31 35 26 31 34 26 31 34 26 31 34 26 31 34 26 31 34 26 31 34 26 31 34 26 31 34 30 35 38 30 35 38 30 35 38 30 35 38 30 35 38 30 35 38 30 35 38 31 35 36 31 31 31 32 31 29 34 30 29 32 31 29 34 30 29 32 31 29 34 30 29 32 31 29 33 29 28 31 30 28 33 29 28 31 30 28 33 29 28 31 30 28 33 29 28 33 29 28 35 29 29 35 29 29 35 29 29 35 29 29 35 29 29 35 29 29 35 29 29 35 29 29 37 31 31 37 31 31 37 31 31 37 31 31 37 31 31 37 31 31 37 31 31 37 31 31
6 2 19 6 2 19 6 2 19 6 2 19 6 2 19 6 2 19 6 2 19 6 2 19 6 2 19 6 2 19 6 2 19 6 2 19 6 2 19 6 2 19 6 1 21 6 2 19 6 1 21 6 2 19 6 1 21 6 2 19 6 1 21 6 2 19 6 1 21 6 2 19 6 1 21 6 2 19 6 1 21 6 2 19 5 1 16 5 1 16 5 1 16 5 1 16 5 1 16 5 1 16 5 1 16 5 1 16 6 2 17 6 2 17 6 2 17 6 2 17 6 2 17 6 2 17 6 2 17 5 3 17 5 4 18 3 5 18 3 5 18 3 5 18 3 5 18 3 5 18 3 5 18 3 5 18 6 8 21 6 8 21 6 8 21 6 8 21 6 8 21 6 8 21 6 8 21 6 8 20 13 17 26 11 18 24 10 17 25 9 16 22 7 14 22 6 13 19 5 12 20 5 12 18 13 20 28 14 21 27 16 23 31 20 27 33 23 30 38 26 33 39 29 36 44 30 37 43 47 54 60 47 54 60 47 54 60 47 54 60 47 54 60 47 54 60 47 54 60 47 54 60 43 50 56 43 50 56 43 50 56 43 50 56 43 50 56 43 50 56 43 50 56 43 50 56 48 55 61 48 55 61 48 55 61 48 55 61 48 55 61 48 55 61 48 55 61 48 55 61 31 38 44 30 37 43 28 35 41 26 33 39 24 31 37 22 29 35 21 28 34 20 27 33 9 16 22 9 16 22 9 16 22 9 16 22 9 16 22 9 16 22 9 16 22 9 16 22 11 18 24 11 18 24 11 18 24 11 18 24 11 18 24 11 18 24 11 18 24 11 19 22 30 38 40 30 38 40 30 38 40 30 38 40 30 38 40 30 38 40 30 38 40 30 38 40 28 36 38 28 36 38 28 36 38 28 36 38 28 36 38 28 36 38 28 36 38 31 35 36 28 26 27 30 26 25 31 25 25 30 26 25 31 25 25 30 26 25 31 25 25 30 26 25 35 29 29 34 30 29 35 29 29 34 30 29 35 29 29 34 30 29 35 29 29 35 29 29 35 29 31 37 28 31 37 28 31 37 28 31 37 28 31 37 28 31 37 28 31 37 28 31 38 29 32 38 29 32 38 29 32 38 29 32 38 29 32 38 29 32 38 29 32 36 30 30
6 2 17 6 2 17 6 2 17 6 2 17 6 2 17 6 2 17 6 2 17 6 2 17 6 2 17 6 2 17 6 2 17 6 2 17 6 2 19 6 2 19 6 2 19 6 2 19 6 2 19 6 2 19 6 2 19 6 2 19 6 2 19 6 2 19 6 2 19 6 2 19 6 2 19 6 2 19 6 2 19 6 2 17 5 1 16 5 1 15 5 1 15 5 1 15 5 1 15 5 1 15 5 1 15 5 1 15 6 2 16 6 2 16 6 2 16 6 2 16 6 2 16 6 2 16 6 2 16 5 3 16 5 4 18 3 5 18 3 5 18 3 5 18 3 5 18 3 5 18 3 5 18 3 5 18 6 8 21 6 8 21 6 8 21 6 8 21 6 8 21 6 8 21 6 8 21 5 9 20 12 16 25 9 16 22 9 16 22 8 15 21 8 15 21 7 14 20 7 14 20 6 13 19 14 21 27 15 22 28 18 25 31 21 28 34 24 31 37 28 35 41 30 37 43 31 38 44 47 54 60 47 54 60 47 54 60 47 54 60 47 54 60 47 54 60 47 54 60 47 54 60 45 52 58 45 52 58 45 52 58 45 52 58 45 52 58 45 52 58 45 52 58 45 52 58 50 57 63 50 57 63 50 57 63 50 57 63 50 57 63 50 57 63 50 57 63 50 57 63 34 41 47 33 40 46 31 38 44 28 35 41 25 32 38 23 30 36 21 28 34 20 27 33 11 18 24 11 18 24 11 18 24 11 18 24 11 18 24 11 18 24 11 18 24 11 18 24 11 18 24 11 18 24 11 18 24 11 18 24 11 18 24 11 18 24 11 18 24 11 19 22 28 36 39 28 36 38 28 36 38 28 36 38 28 36 38 28 36 38 28 36 38 28 36 38 26 34 36 26 34 36 26 34 36 26 34 36 26 34 36 26 34 36 26 34 36 29 33 34 28 26 27 31 25 25 31 25 25 31 25 25 31 25 25 31 25 25 31 25 25 31 25 25 35 29 29 35 29 29 35 29 29 35 29 29 35 29 29 35 29 29 35 29 29 35 29 29 37 28 31 37 28 31 37 28 31 37 28 31 37 28 31 37 28 31 37 28 31 37 28 31 38 29 32 38 29 32 38 29 32 38 29 32 38 29 32 38 29 32 38 29 32 38 29 30
6 2 17 6 2 17 6 2 17 6 2 17 6 2 17 6 2 17 6 2 17 6 2 17 6 2 17 6 2 17 6 2 17 6 2 17 6 2 19 6 2 19 6 2 19 6 2 19 6 2 19 6 2 19 6 2 19 6 2 19 6 2 19 6 2 19 6 2 19 6 2 19 6 2 19 6 2 19 6 2 19 6 2 17 5 1 16 5 1 15 5 1 15 5 1 15 5 1 15 5 1 15 5 1 15 5 1 15 6 2 16 6 2 16 6 2 16 6 2 16 6 2 16 6 2 16 6 2 16 5 3 16 5 4 18 3 5 18 3 5 18 3 5 18 3 5 18 3 5 18 3 5 18 3 5 18 6 8 21 6 8 21 6 8 21 6 8 21 6 8 21 6 8 21 6 8 21 5 9 20 8 12 21 6 13 19 7 14 20 8 15 21 8 15 21 9 16 22 10 17 23 10 17 23 16 23 29 18 25 31 20 27 33 23 30 36 27 34 40 30 37 43 32 39 45 34 41 47 47 54 60 47 54 60 47 54 60 47 54 60 47 54 60 47 54 60 47 54 60 47 54 60 47 54 60 47 54 60 47 54 60 47 54 60 47 54 60 47 54 60 47 54 60 47 54 60 52 59 65 52 59 65 52 59 65 52 59 65 52 59 65 52 59 65 52 59 65 52 59 65 40 47 53 38 45 51 35 42 48 31 38 44 27 34 40 23 30 36 20 27 33 19 26 32 13 20 26 13 20 26 13 20 26 13 20 26 13 20 26 13 20 26 13 20 26 13 20 26 11 18 24 11 18 24 11 18 24 11 18 24 11 18 24 11 18 24 11 18 24 11 19 22 26 34 37 26 34 36 26 34 36 26 34 36 26 34 36 26 34 36 26 34 36 26 34 36 24 32 34 24 32 34 24 32 34 24 32 34 24 32 34 24 32 34 24 32 34 27 31 32 28 26 27 31 25 25 31 25 25 31 25 25 31 25 25 31 25 25 31 25 25 31 25 25 35 29 29 35 29 29 35 29 29 35 29 29 35 29 29 35 29 29 35 29 29 35 29 29 37 28 31 37 28 31 37 28 31 37 28 31 37 28 31 37 28 31 37 28 31 37 28 31 38 29 32 38 29 32 38 29 32 38 29 32 38 29 32 38 29 32 38 29 32 38 29 30
