P3
172 37
255
113 95 95 114 98 98 118 100 100 118 102 102 107 89 89 105 89 89 107 89 89 105 89 89 107 89 89 105 89 89 107 89 89 107 89 89 106 86 88 106 86 88 106 86 88 106 86 88 106 86 88 106 86 88 106 86 88 106 86 88 109 89 91 109 89 91 109 89 91 109 89 91 109 89 91 109 89 91 109 89 91 108 89 91 122 103 105 122 106 107 124 108 109 127 111 112 131 115 116 134 118 119 136 120 121 138 122 123 140 124 125 139 123 124 136 120 121 133 117 118 130 114 115 126 110 111 124 108 109 123 107 108 90 75 80 88 73 78 83 68 73 76 61 66 70 55 60 63 48 53 58 43 48 56 41 46 67 52 57 69 54 59 71 56 61 74 59 64 78 63 68 81 66 71 83 68 73 85 70 75 84 71 80 84 71 80 84 71 80 84 71 80 84 71 80 84 71 80 84 71 80 84 71 80 73 60 69 73 60 69 73 60 69 73 60 69 73 60 69 73 60 69 73 60 69 73 59 72 67 54 74 67 53 76 67 53 78 67 53 76 67 53 78 67 53 76 67 53 78 67 53 76 63 49 74 63 49 72 63 49 74 63 49 72 63 49 74 63 49 72 63 49 74 63 50 68 43 33 42 43 34 39 43 34 39 43 34 39 43 34 39 43 34 39 43 34 39 43 34 39 27 18 23 25 16 21 23 14 19 20 11 16 16 7 12 13 4 9 11 2 7 7 1 5 3 1 2 1 3 2 2 2 2 1 3 2 2 2 2 1 3 2 2 2 2 1 3 2 15 15 15 14 16 15 15 15 15 14 16 15 15 15 15 14 16 15 15 15 15 11 17 15 5 25 16 3 29 18 8 34 23 15 41 30 21 47 36 28 54 43 33 59 48 35 61 50 53 79 68 56 82 71 61 87 76 67 93 82 74 100 89 80 106 95 85 111 100 88 114 103 99 123 110 88 112 99 71 95 82 52 76 63 38 62 49 31 55 42 30 54 41 30 54 41 25 49 36 25 49 36 25 49 36 25 49 36 25 49 36 25 49 36 25 49 36 25 49 36 22 43 34 22 43 34 22 43 34 22 43 34 22 43 34 22 43 34 22 43 34 22 43 34 26 47 38 26 47 38 26 47 38 26 47 38 26 47 38 26 47 38 26 47 38 26 47 38
115 93 95 118 96 98 120 98 100 122 100 102 107 85 87 107 85 87 107 85 87 107 85 87 107 85 87 107 85 87 107 85 87 107 85 88 105 83 86 104 84 86 105 82 88 104 84 86 105 82 88 104 84 86 105 82 88 104 84 86 108 85 91 107 87 89 108 85 91 107 87 89 108 85 91 107 87 89 108 85 91 106 87 89 119 105 105 119 107 107 121 109 109 124 112 112 128 116 116 131 119 119 133 121 121 135 123 123 138 126 126 137 125 125 135 123 123 131 119 119 128 116 116 125 113 113 122 110 110 121 109 111 87 76 80 84 75 78 79 70 73 72 63 66 66 57 60 59 50 53 54 45 48 52 43 46 63 54 57 65 56 59 67 58 61 70 61 64 74 65 68 77 68 71 79 70 73 81 72 77 80 73 80 80 73 81 80 73 81 80 73 81 80 73 81 80 73 81 80 73 81 80 73 81 67 60 68 67 60 68 67 60 68 67 60 68 67 60 68 67 60 68 67 60 68 66 60 70 61 54 70 59 54 74 61 53 74 59 54 74 61 53 74 59 54 74 61 53 74 59 54 74 57 49 70 55 50 70 57 49 70 55 50 70 57 49 70 55 50 70 57 49 70 55 51 66 36 33 42 35 34 39 36 34 39 35 34 39 36 34 39 35 34 39 36 34 39 35 34 39 18 16 21 15 14 19 14 12 17 10 9 14 7 5 10 3 2 7 2 0 5 0 0 2 0 0 2 0 1 0 0 0 2 0 1 0 0 0 2 0 1 0 0 0 2 0 1 0 14 15 17 14 16 15 14 15 17 14 16 15 14 15 17 14 16 15 14 15 17 9 18 15 5 24 18 3 29 18 8 34 25 15 41 30 21 47 38 28 54 43 33 59 50 35 61 50 52 78 69 55 81 70 60 86 77 66 92 81 73 99 90 79 105 94 84 110 101 87 113 102 99 122 112 89 110 101 72 93 84 53 74 65 39 60 51 32 53 44 31 52 43 31 52 43 26 47 38 26 47 38 26 47 38 26 47 38 26 47 38 26 47 38 26 47 38 26 47 38 22 43 34 22 43 34 23 42 36 22 43 34 23 42 36 22 43 34 23 42 36 22 43 34 27 46 40 26 47 38 27 46 40 26 47 38 27 46 40 26 47 38 27 46 40 26 47 38
118 93 97 118 93 97 118 93 97 118 93 97 120 95 99 119 94 98 116 91 95 113 88 92 110 85 89 106 81 85 104 79 83 106 77 82 110 77 86 110 74 84 107 69 82 102 66 76 98 60 73 93 57 67 90 52 65 88 52 62 100 62 75 101 65 75 104 66 79 106 70 80 111 73 86 113 77 87 116 78 91 114 83 91 114 91 97 114 95 99 119 100 104 126 107 111 132 113 117 139 120 124 144 125 129 146 127 131 149 130 134 147 128 132 145 126 130 142 123 127 138 119 123 135 116 120 133 114 118 129 113 116 83 72 76 74 65 70 61 52 57 49 40 45 42 33 38 42 33 38 45 36 41 48 39 44 65 56 61 65 56 61 65 56 61 65 56 61 65 56 61 65 56 61 65 56 61 65 55 63 72 65 73 71 65 75 71 65 75 71 65 75 71 65 75 71 65 75 71 65 75 71 65 75 58 52 62 58 52 62 58 52 62 58 52 62 58 52 62 58 52 62 58 52 62 58 52 64 44 40 54 43 41 54 44 40 54 43 41 54 44 40 54 43 41 54 44 40 54 43 41 54 35 31 45 34 32 45 35 31 45 34 32 45 35 31 45 34 32 45 35 31 45 34 32 43 13 12 20 12 13 18 13 12 18 12 13 18 13 12 18 12 13 18 13 12 18 12 13 18 20 19 25 17 18 23 16 15 21 12 13 18 9 8 14 5 6 11 4 3 9 1 2 7 0 1 5 0 1 3 0 1 5 0 1 3 0 1 5 0 1 3 0 1 5 0 1 3 0 1 5 2 3 5 4 5 9 7 8 10 11 12 16 14 15 17 16 17 21 16 20 21 15 25 24 16 28 24 21 33 31 28 40 36 34 46 44 41 53 49 46 58 56 48 60 56 68 80 78 69 81 77 72 84 82 75 87 83 78 90 88 82 94 90 84 96 94 86 97 93 83 92 89 81 87 85 74 80 78 64 70 68 54 60 58 44 50 48 37 43 41 33 39 37 34 40 38 34 40 38 34 40 38 34 40 38 34 40 38 34 40 38 34 40 38 34 40 38 32 38 36 32 38 36 33 37 38 32 38 36 33 37 38 32 38 36 33 37 38 32 38 36 32 36 37 31 37 35 32 36 37 31 37 35 32 36 37 31 37 35 32 36 37 31 37 35
117 90 95 117 90 95 117 90 95 117 90 95 118 91 96 117 90 95 115 88 93 111 84 89 108 81 86 105 78 83 102 75 80 104 73 79 112 71 85 111 69 83 109 65 80 104 62 76 101 57 72 97 55 69 95 51 66 92 50 64 104 60 75 105 63 77 108 64 79 110 68 82 115 71 86 117 75 89 120 76 91 118 80 93 117 90 97 115 94 99 120 99 104 127 106 111 133 112 117 140 119 124 145 124 129 147 126 131 150 129 134 148 127 132 146 125 130 143 122 127 139 118 123 136 115 120 134 113 118 129 113 116 86 73 80 75 66 71 62 53 58 50 41 46 44 35 40 43 34 39 46 37 42 49 40 45 63 54 59 63 54 59 63 54 59 63 54 59 63 54 59 63 54 59 63 54 59 61 54 61 70 62 73 69 63 75 69 63 75 69 63 75 69 63 75 69 63 75 69 63 75 69 63 75 56 50 62 56 50 62 56 50 62 56 50 62 56 50 62 56 50 62 56 50 62 54 51 62 42 39 50 41 39 50 41 39 50 41 39 50 41 39 50 41 39 50 41 39 50 41 39 50 32 30 41 32 30 41 32 30 41 32 30 41 32 30 41 32 30 41 32 30 41 32 30 41 12 12 20 12 12 20 12 12 20 12 12 20 12 12 20 12 12 20 12 12 20 12 12 20 19 19 27 17 17 25 15 15 23 12 12 20 8 8 16 5 5 13 3 3 11 1 2 7 0 1 6 0 1 5 0 1 5 0 1 5 0 1 5 0 1 5 0 1 5 0 1 5 0 1 5 2 3 7 4 5 9 7 8 12 11 12 16 14 15 19 16 17 21 16 20 23 19 23 24 20 26 26 25 31 31 32 38 38 38 44 44 45 51 51 50 56 56 52 58 58 71 77 77 72 78 78 74 80 80 78 84 84 81 87 87 84 90 90 87 93 93 89 93 94 89 89 91 86 84 87 79 77 80 69 67 70 59 57 60 49 47 50 42 40 43 38 36 39 39 37 40 39 37 40 39 37 40 39 37 40 39 37 40 39 37 40 39 37 40 39 37 40 37 35 38 37 35 38 37 35 38 37 35 38 37 35 38 37 35 38 37 35 38 37 35 38 36 34 37 36 34 37 36 34 37 36 34 37 36 34 37 36 34 37 36 34 37 36 34 37
115 88 93 115 88 93 115 88 93 115 88 93 113 86 91 112 85 90 110 83 88 107 80 85 103 76 81 100 73 78 97 70 75 99 68 74 104 66 79 105 64 78 104 62 76 100 59 73 99 57 71 95 54 68 94 52 66 92 51 65 103 61 75 104 63 77 107 65 79 109 68 82 114 72 86 116 75 89 119 77 91 117 81 93 116 91 97 115 94 99 120 99 104 127 106 111 133 112 117 140 119 124 145 124 129 147 126 131 150 129 134 148 127 132 146 125 130 143 122 127 139 118 123 136 115 120 134 113 118 129 113 116 88 75 82 78 69 74 65 56 61 53 44 49 46 37 42 45 36 41 48 39 44 51 42 47 61 52 57 61 52 57 61 52 57 61 52 57 61 52 57 61 52 57 61 52 57 59 52 59 65 57 68 64 58 70 64 58 70 64 58 70 64 58 70 64 58 70 64 58 70 64 58 70 51 45 57 51 45 57 51 45 57 51 45 57 51 45 57 51 45 57 51 45 57 49 46 57 37 34 45 36 34 45 36 34 45 36 34 45 36 34 45 36 34 45 36 34 45 36 34 45 27 25 36 27 25 36 27 25 36 27 25 36 27 25 36 27 25 36 27 25 36 27 25 36 12 12 20 12 12 20 12 12 20 12 12 20 12 12 20 12 12 20 12 12 20 12 12 20 19 19 27 17 17 25 15 15 23 12 12 20 8 8 16 5 5 13 3 3 11 1 2 7 0 1 6 0 1 5 0 1 5 0 1 5 0 1 5 0 1 5 0 1 5 0 1 5 0 1 5 2 3 7 4 5 9 7 8 12 11 12 16 14 15 19 16 17 21 16 20 23 19 23 24 20 26 26 25 31 31 32 38 38 38 44 44 45 51 51 50 56 56 52 58 58 68 74 74 70 76 76 72 78 78 75 81 81 79 85 85 82 88 88 84 90 90 87 91 92 89 89 91 86 84 87 79 77 80 69 67 70 59 57 60 49 47 50 42 40 43 38 36 39 39 37 40 39 37 40 39 37 40 39 37 40 39 37 40 39 37 40 39 37 40 39 37 40 37 35 38 37 35 38 37 35 38 37 35 38 37 35 38 37 35 38 37 35 38 37 35 38 36 34 37 36 34 37 36 34 37 36 34 37 36 34 37 36 34 37 36 34 37 36 34 37
112 85 90 112 85 90 112 85 90 112 85 90 107 80 85 106 79 84 103 76 81 100 73 78 97 70 75 94 67 72 91 64 69 92 63 68 95 59 71 96 58 71 97 56 70 94 56 69 95 54 68 92 54 67 94 53 67 91 53 66 102 61 75 102 64 77 106 65 79 107 69 82 113 72 86 114 76 89 118 77 91 115 82 93 116 91 97 115 94 99 120 99 104 127 106 111 133 112 117 140 119 124 145 124 129 147 126 131 150 129 134 148 127 132 146 125 130 143 122 127 139 118 123 136 115 120 134 113 118 129 113 116 91 78 85 81 72 77 68 59 64 56 47 52 49 40 45 48 39 44 52 43 48 55 46 51 58 49 54 58 49 54 58 49 54 58 49 54 58 49 54 58 49 54 58 49 54 56 49 56 58 50 61 57 51 63 57 51 63 57 51 63 57 51 63 57 51 63 57 51 63 57 51 63 44 38 50 44 38 50 44 38 50 44 38 50 44 38 50 44 38 50 44 38 50 42 39 50 30 27 38 29 27 38 29 27 38 29 27 38 29 27 38 29 27 38 29 27 38 29 27 38 20 18 29 20 18 29 20 18 29 20 18 29 20 18 29 20 18 29 20 18 29 20 18 29 12 12 20 12 12 20 12 12 20 12 12 20 12 12 20 12 12 20 12 12 20 12 12 20 19 19 27 17 17 25 15 15 23 12 12 20 8 8 16 5 5 13 3 3 11 1 2 7 0 1 6 0 1 5 0 1 5 0 1 5 0 1 5 0 1 5 0 1 5 0 1 5 0 1 5 2 3 7 4 5 9 7 8 12 11 12 16 14 15 19 16 17 21 16 20 23 19 23 24 20 26 26 25 31 31 32 38 38 38 44 44 45 51 51 50 56 56 52 58 58 65 71 71 66 72 72 69 75 75 72 78 78 75 81 81 79 85 85 81 87 87 83 87 88 89 89 91 86 84 87 79 77 80 69 67 70 59 57 60 49 47 50 42 40 43 38 36 39 39 37 40 39 37 40 39 37 40 39 37 40 39 37 40 39 37 40 39 37 40 39 37 40 37 35 38 37 35 38 37 35 38 37 35 38 37 35 38 37 35 38 37 35 38 37 35 38 36 34 37 36 34 37 36 34 37 36 34 37 36 34 37 36 34 37 36 34 37 36 34 37
108 81 86 108 81 86 108 81 86 108 81 86 100 73 78 99 72 77 96 69 74 93 66 71 90 63 68 87 60 65 84 57 62 85 56 61 85 52 63 87 51 63 89 51 64 89 53 65 91 53 66 91 55 67 92 54 67 92 56 68 100 62 75 101 65 77 104 66 79 106 70 82 111 73 86 113 77 89 116 78 91 115 82 93 116 91 97 115 94 99 120 99 104 127 106 111 133 112 117 140 119 124 145 124 129 147 126 131 150 129 134 148 127 132 146 125 130 143 122 127 139 118 123 136 115 120 134 113 118 129 113 116 95 82 89 84 75 80 72 63 68 60 51 56 53 44 49 52 43 48 55 46 51 58 49 54 54 45 50 54 45 50 54 45 50 54 45 50 54 45 50 54 45 50 54 45 50 52 45 52 52 44 55 51 45 57 51 45 57 51 45 57 51 45 57 51 45 57 51 45 57 51 45 57 38 32 44 38 32 44 38 32 44 38 32 44 38 32 44 38 32 44 38 32 44 36 33 44 24 21 32 23 21 32 23 21 32 23 21 32 23 21 32 23 21 32 23 21 32 23 21 32 14 12 23 14 12 23 14 12 23 14 12 23 14 12 23 14 12 23 14 12 23 14 12 23 12 12 20 12 12 20 12 12 20 12 12 20 12 12 20 12 12 20 12 12 20 12 12 20 19 19 27 17 17 25 15 15 23 12 12 20 8 8 16 5 5 13 3 3 11 1 2 7 0 1 6 0 1 5 0 1 5 0 1 5 0 1 5 0 1 5 0 1 5 0 1 5 0 1 5 2 3 7 4 5 9 7 8 12 11 12 16 14 15 19 16 17 21 16 20 23 19 23 24 20 26 26 25 31 31 32 38 38 38 44 44 45 51 51 50 56 56 52 58 58 62 68 68 63 69 69 65 71 71 69 75 75 72 78 78 75 81 81 78 84 84 80 84 85 89 89 91 86 84 87 79 77 80 69 67 70 59 57 60 49 47 50 42 40 43 38 36 39 39 37 40 39 37 40 39 37 40 39 37 40 39 37 40 39 37 40 39 37 40 39 37 40 37 35 38 37 35 38 37 35 38 37 35 38 37 35 38 37 35 38 37 35 38 37 35 38 36 34 37 36 34 37 36 34 37 36 34 37 36 34 37 36 34 37 36 34 37 36 34 37
105 78 83 105 78 83 105 78 83 105 78 83 94 67 72 93 66 71 90 63 68 87 60 65 83 56 61 80 53 58 78 51 56 79 50 55 76 44 55 78 45 56 80 47 58 83 50 61 85 52 63 88 55 66 90 57 68 91 58 69 97 64 75 99 66 77 101 68 79 104 71 82 108 75 86 111 78 89 113 80 91 114 82 93 116 91 97 115 94 99 120 99 104 127 106 111 133 112 117 140 119 124 145 124 129 147 126 131 150 129 134 148 127 132 146 125 130 143 122 127 139 118 123 136 115 120 134 113 118 129 113 116 98 85 92 88 79 84 75 66 71 63 54 59 56 47 52 55 46 51 58 49 54 61 52 57 51 42 47 51 42 47 51 42 47 51 42 47 51 42 47 51 42 47 51 42 47 49 42 49 45 37 48 44 38 50 44 38 50 44 38 50 44 38 50 44 38 50 44 38 50 44 38 50 31 25 37 31 25 37 31 25 37 31 25 37 31 25 37 31 25 37 31 25 37 29 26 37 17 14 25 16 14 25 16 14 25 16 14 25 16 14 25 16 14 25 16 14 25 16 14 25 7 5 16 7 5 16 7 5 16 7 5 16 7 5 16 7 5 16 7 5 16 7 5 16 12 12 20 12 12 20 12 12 20 12 12 20 12 12 20 12 12 20 12 12 20 12 12 20 19 19 27 17 17 25 15 15 23 12 12 20 8 8 16 5 5 13 3 3 11 1 2 7 0 1 6 0 1 5 0 1 5 0 1 5 0 1 5 0 1 5 0 1 5 0 1 5 0 1 5 2 3 7 4 5 9 7 8 12 11 12 16 14 15 19 16 17 21 16 20 23 19 23 24 20 26 26 25 31 31 32 38 38 38 44 44 45 51 51 50 56 56 52 58 58 58 64 64 60 66 66 62 68 68 65 71 71 69 75 75 72 78 78 74 80 80 77 81 82 89 89 91 86 84 87 79 77 80 69 67 70 59 57 60 49 47 50 42 40 43 38 36 39 39 37 40 39 37 40 39 37 40 39 37 40 39 37 40 39 37 40 39 37 40 39 37 40 37 35 38 37 35 38 37 35 38 37 35 38 37 35 38 37 35 38 37 35 38 37 35 38 36 34 37 36 34 37 36 34 37 36 34 37 36 34 37 36 34 37 36 34 37 36 34 37
103 76 81 103 76 81 103 76 81 103 76 81 89 62 67 88 61 66 85 58 63 82 55 60 79 52 57 75 48 53 73 46 51 72 45 50 69 39 49 72 40 51 75 43 54 79 47 58 83 51 62 86 54 65 89 57 68 91 59 70 96 64 75 98 66 77 100 68 79 103 71 82 107 75 86 110 78 89 112 80 91 113 83 93 114 91 97 115 94 99 120 99 104 127 106 111 133 112 117 140 119 124 145 124 129 147 126 131 150 129 134 148 127 132 146 125 130 143 122 127 139 118 123 136 115 120 134 113 118 129 113 116 100 87 94 90 81 86 77 68 73 65 56 61 58 49 54 58 49 54 61 52 57 64 55 60 49 40 45 49 40 45 49 40 45 49 40 45 49 40 45 49 40 45 49 40 45 47 40 47 40 32 43 39 33 45 39 33 45 39 33 45 39 33 45 39 33 45 39 33 45 39 33 45 26 20 32 26 20 32 26 20 32 26 20 32 26 20 32 26 20 32 26 20 32 24 21 32 12 9 20 11 9 20 11 9 20 11 9 20 11 9 20 11 9 20 11 9 20 11 9 20 2 0 11 2 0 11 2 0 11 2 0 11 2 0 11 2 0 11 2 0 11 2 0 11 12 12 20 12 12 20 12 12 20 12 12 20 12 12 20 12 12 20 12 12 20 12 12 20 19 19 27 17 17 25 15 15 23 12 12 20 8 8 16 5 5 13 3 3 11 1 2 7 0 1 6 0 1 5 0 1 5 0 1 5 0 1 5 0 1 5 0 1 5 0 1 5 0 1 5 2 3 7 4 5 9 7 8 12 11 12 16 14 15 19 16 17 21 16 20 23 19 23 24 20 26 26 25 31 31 32 38 38 38 44 44 45 51 51 50 56 56 52 58 58 56 62 62 57 63 63 60 66 66 63 69 69 66 72 72 70 76 76 72 78 78 74 78 79 89 89 91 86 84 87 79 77 80 69 67 70 59 57 60 49 47 50 42 40 43 38 36 39 39 37 40 39 37 40 39 37 40 39 37 40 39 37 40 39 37 40 39 37 40 39 37 40 37 35 38 37 35 38 37 35 38 37 35 38 37 35 38 37 35 38 37 35 38 37 35 38 36 34 37 36 34 37 36 34 37 36 34 37 36 34 37 36 34 37 36 34 37 36 34 37
101 74 79 101 74 79 101 74 79 101 74 79 86 59 64 85 58 63 83 56 61 79 52 57 76 49 54 73 46 51 70 43 48 69 42 47 64 37 46 66 39 48 70 43 52 74 47 56 79 52 61 83 56 65 87 60 69 88 61 70 93 66 75 95 68 77 97 70 79 100 73 82 104 77 86 107 80 89 109 82 91 110 84 93 114 91 97 115 94 99 120 99 104 127 106 111 133 112 117 140 119 124 145 124 129 147 126 131 150 129 134 148 127 132 146 125 130 143 122 127 139 118 123 136 115 120 134 113 118 129 113 116 102 89 96 91 82 87 78 69 74 66 57 62 60 51 56 59 50 55 62 53 58 65 56 61 47 38 43 47 38 43 47 38 43 47 38 43 47 38 43 47 38 43 47 38 43 45 38 45 38 30 41 37 31 43 37 31 43 37 31 43 37 31 43 37 31 43 37 31 43 37 31 43 24 18 30 24 18 30 24 18 30 24 18 30 24 18 30 24 18 30 24 18 30 22 19 30 10 7 18 9 7 18 9 7 18 9 7 18 9 7 18 9 7 18 9 7 18 9 7 18 0 0 9 0 0 9 0 0 9 0 0 9 0 0 9 0 0 9 0 0 9 0 0 9 12 12 20 12 12 20 12 12 20 12 12 20 12 12 20 12 12 20 12 12 20 12 12 20 19 19 27 17 17 25 15 15 23 12 12 20 8 8 16 5 5 13 3 3 11 1 2 7 0 1 6 0 1 5 0 1 5 0 1 5 0 1 5 0 1 5 0 1 5 0 1 5 0 1 5 2 3 7 4 5 9 7 8 12 11 12 16 14 15 19 16 17 21 16 20 23 19 23 24 20 26 26 25 31 31 32 38 38 38 44 44 45 51 51 50 56 56 52 58 58 55 61 61 56 62 62 58 64 64 62 68 68 65 71 71 68 74 74 71 77 77 73 77 78 89 89 91 86 84 87 79 77 80 69 67 70 59 57 60 49 47 50 42 40 43 38 36 39 39 37 40 39 37 40 39 37 40 39 37 40 39 37 40 39 37 40 39 37 40 39 37 40 37 35 38 37 35 38 37 35 38 37 35 38 37 35 38 37 35 38 37 35 38 37 35 38 36 34 37 36 34 37 36 34 37 36 34 37 36 34 37 36 34 37 36 34 37 36 34 37
92 65 70 89 62 67 86 59 64 85 58 63 61 34 39 61 34 39 61 34 39 61 34 39 61 34 39 61 34 39 61 34 39 60 35 39 88 62 71 86 63 71 86 63 71 86 63 71 86 63 71 86 63 71 86 63 71 86 63 71 85 62 70 86 63 71 88 65 73 92 69 77 95 72 80 98 75 83 101 78 86 102 79 87 122 101 106 122 101 106 124 103 108 126 105 110 128 107 112 130 109 114 131 110 115 132 111 116 126 105 110 126 105 110 126 105 110 126 105 110 126 105 110 126 105 110 126 105 110 123 107 110 105 92 99 76 67 72 44 35 40 29 20 25 34 25 30 42 33 38 42 33 38 37 28 33 26 17 22 26 17 22 26 17 22 26 17 22 26 17 22 26 17 22 26 17 22 24 17 24 20 12 23 19 13 25 19 13 25 19 13 25 19 13 25 19 13 25 19 13 25 19 13 25 8 2 14 8 2 14 8 2 14 8 2 14 8 2 14 8 2 14 8 2 14 6 3 14 7 4 15 6 4 15 6 4 15 6 4 15 6 4 15 6 4 15 6 4 15 6 4 15 9 7 18 9 7 18 9 7 18 9 7 18 9 7 18 9 7 18 9 7 18 9 7 18 8 8 16 9 9 17 11 11 19 15 15 23 18 18 26 21 21 29 24 24 32 25 25 33 21 21 29 19 19 27 17 17 25 14 14 22 10 10 18 7 7 15 5 5 13 3 4 9 1 2 7 1 2 6 1 2 6 1 2 6 1 2 6 1 2 6 1 2 6 1 2 6 0 1 5 2 3 7 4 5 9 7 8 12 11 12 16 14 15 19 16 17 21 16 20 23 26 30 31 27 33 33 29 35 35 32 38 38 36 42 42 39 45 45 41 47 47 43 49 49 64 70 70 64 70 70 64 70 70 64 70 70 64 70 70 64 70 70 64 70 70 65 69 70 69 69 71 68 66 69 63 61 64 56 54 57 50 48 51 43 41 44 38 36 39 36 34 37 33 31 34 33 31 34 33 31 34 33 31 34 33 31 34 33 31 34 33 31 34 33 31 34 33 31 34 33 31 34 33 31 34 33 31 34 33 31 34 33 31 34 33 31 34 33 31 34 36 34 37 36 34 37 36 34 37 36 34 37 36 34 37 36 34 37 36 34 37 36 34 37
91 64 69 87 60 65 85 58 63 84 57 62 61 34 39 61 34 39 61 34 39 61 34 39 61 34 39 61 34 39 61 34 39 60 35 39 83 62 69 82 63 69 82 63 69 82 63 69 82 63 69 82 63 69 82 63 69 82 63 69 80 61 67 81 62 68 84 65 71 87 68 74 90 71 77 94 75 81 96 77 83 97 78 84 116 95 100 117 96 101 119 98 103 121 100 105 124 103 108 127 106 111 129 108 113 130 109 114 128 107 112 128 107 112 128 107 112 128 107 112 128 107 112 128 107 112 128 107 112 125 109 112 105 92 99 76 67 72 43 34 39 28 19 24 32 23 28 39 30 35 39 30 35 34 25 30 24 15 20 24 15 20 24 15 20 24 15 20 24 15 20 24 15 20 24 15 20 22 15 22 18 10 21 17 11 23 17 11 23 17 11 23 17 11 23 17 11 23 17 11 23 17 11 23 8 2 14 8 2 14 8 2 14 8 2 14 8 2 14 8 2 14 8 2 14 6 3 14 7 4 15 6 4 15 6 4 15 6 4 15 6 4 15 6 4 15 6 4 15 6 4 15 9 7 18 9 7 18 9 7 18 9 7 18 9 7 18 9 7 18 9 7 18 9 7 18 9 9 17 10 10 18 13 13 21 16 16 24 19 19 27 23 23 31 25 25 33 26 26 34 21 21 29 19 19 27 17 17 25 14 14 22 10 10 18 7 7 15 5 5 13 3 4 9 1 2 7 1 2 6 1 2 6 1 2 6 1 2 6 1 2 6 1 2 6 1 2 6 0 1 5 2 3 7 4 5 9 7 8 12 11 12 16 14 15 19 16 17 21 16 20 23 26 30 31 27 33 33 29 35 35 32 38 38 36 42 42 39 45 45 41 47 47 43 49 49 62 68 68 62 68 68 62 68 68 62 68 68 62 68 68 62 68 68 62 68 68 63 67 68 69 69 71 68 66 69 63 61 64 56 54 57 50 48 51 43 41 44 38 36 39 36 34 37 33 31 34 33 31 34 33 31 34 33 31 34 33 31 34 33 31 34 33 31 34 33 31 34 33 31 34 33 31 34 33 31 34 33 31 34 33 31 34 33 31 34 33 31 34 33 31 34 36 34 37 36 34 37 36 34 37 36 34 37 36 34 37 36 34 37 36 34 37 36 34 37
88 61 66 85 58 63 83 56 61 81 54 59 61 34 39 61 34 39 61 34 39 61 34 39 61 34 39 61 34 39 61 34 39 60 35 39 77 58 64 75 58 64 75 58 64 75 58 64 75 58 64 75 58 64 75 58 64 75 58 64 73 56 62 74 57 63 77 60 66 80 63 69 84 67 73 87 70 76 89 72 78 90 73 79 106 87 91 108 87 92 111 90 95 115 94 99 119 98 103 123 102 107 126 105 110 128 107 112 133 112 117 133 112 117 133 112 117 133 112 117 133 112 117 133 112 117 133 112 117 130 114 117 106 93 100 76 67 72 43 34 39 27 18 23 29 20 25 35 26 31 34 25 30 28 19 24 22 13 18 22 13 18 22 13 18 22 13 18 22 13 18 22 13 18 22 13 18 20 13 20 16 8 19 15 9 21 15 9 21 15 9 21 15 9 21 15 9 21 15 9 21 15 9 21 8 2 14 8 2 14 8 2 14 8 2 14 8 2 14 8 2 14 8 2 14 6 3 14 7 4 15 6 4 15 6 4 15 6 4 15 6 4 15 6 4 15 6 4 15 6 4 15 9 7 18 9 7 18 9 7 18 9 7 18 9 7 18 9 7 18 9 7 18 9 7 18 11 11 19 13 13 21 15 15 23 18 18 26 22 22 30 25 25 33 27 27 35 29 29 37 21 21 29 19 19 27 17 17 25 14 14 22 10 10 18 7 7 15 5 5 13 3 4 9 1 2 7 1 2 6 1 2 6 1 2 6 1 2 6 1 2 6 1 2 6 1 2 6 0 1 5 2 3 7 4 5 9 7 8 12 11 12 16 14 15 19 16 17 21 16 20 23 26 30 31 27 33 33 29 35 35 32 38 38 36 42 42 39 45 45 41 47 47 43 49 49 60 66 66 60 66 66 60 66 66 60 66 66 60 66 66 60 66 66 60 66 66 61 65 66 69 69 71 68 66 69 63 61 64 56 54 57 50 48 51 43 41 44 38 36 39 36 34 37 33 31 34 33 31 34 33 31 34 33 31 34 33 31 34 33 31 34 33 31 34 33 31 34 33 31 34 33 31 34 33 31 34 33 31 34 33 31 34 33 31 34 33 31 34 33 31 34 36 34 37 36 34 37 36 34 37 36 34 37 36 34 37 36 34 37 36 34 37 36 34 37
85 58 63 82 55 60 79 52 57 78 51 56 61 34 39 61 34 39 61 34 39 61 34 39 61 34 39 61 34 39 61 34 39 58 36 39 68 51 57 65 53 57 67 52 57 65 53 57 67 52 57 65 53 57 67 52 57 65 53 57 66 51 56 65 53 57 70 55 60 71 59 63 76 61 66 77 65 69 82 67 72 83 68 73 99 80 84 102 81 86 106 85 90 112 91 96 118 97 102 123 102 107 127 106 111 130 109 114 140 119 124 140 119 124 140 119 124 140 119 124 140 119 124 140 119 124 140 119 124 137 121 124 107 94 101 77 68 73 42 33 38 24 15 20 25 16 21 29 20 25 27 18 23 21 12 17 19 10 15 19 10 15 19 10 15 19 10 15 19 10 15 19 10 15 19 10 15 17 10 17 13 5 16 12 6 18 12 6 18 12 6 18 12 6 18 12 6 18 12 6 18 12 6 18 8 2 14 8 2 14 8 2 14 8 2 14 8 2 14 8 2 14 8 2 14 6 3 14 7 4 15 6 4 15 6 4 15 6 4 15 6 4 15 6 4 15 6 4 15 6 4 15 9 7 18 9 7 18 9 7 18 9 7 18 9 7 18 9 7 18 9 7 18 9 7 18 15 15 23 16 16 24 18 18 26 22 22 30 25 25 33 28 28 36 31 31 39 32 32 40 21 21 29 19 19 27 17 17 25 14 14 22 10 10 18 7 7 15 5 5 13 3 4 9 1 2 7 1 2 6 1 2 6 1 2 6 1 2 6 1 2 6 1 2 6 1 2 6 0 1 5 2 3 7 4 5 9 7 8 12 11 12 16 14 15 19 16 17 21 16 20 23 26 30 31 27 33 33 29 35 35 32 38 38 36 42 42 39 45 45 41 47 47 43 49 49 57 63 63 57 63 63 57 63 63 57 63 63 57 63 63 57 63 63 57 63 63 58 62 63 69 69 71 68 66 69 63 61 64 56 54 57 50 48 51 43 41 44 38 36 39 36 34 37 33 31 34 33 31 34 33 31 34 33 31 34 33 31 34 33 31 34 33 31 34 33 31 34 33 31 34 33 31 34 33 31 34 33 31 34 33 31 34 33 31 34 33 31 34 33 31 34 36 34 37 36 34 37 36 34 37 36 34 37 36 34 37 36 34 37 36 34 37 36 34 37
82 55 60 78 51 56 76 49 54 75 48 53 61 34 39 61 34 39 61 34 39 61 34 39 61 34 39 61 34 39 61 34 39 58 36 39 61 46 51 58 47 51 59 47 51 58 47 51 59 47 51 58 47 51 59 47 51 58 47 51 57 45 49 57 46 50 61 49 53 63 52 56 67 55 59 69 58 62 73 61 65 76 61 66 97 78 82 101 80 85 107 86 91 114 93 98 122 101 106 129 108 113 135 114 119 138 117 122 146 125 130 146 125 130 146 125 130 146 125 130 146 125 130 146 125 130 146 125 130 143 127 130 109 96 103 77 68 73 42 33 38 22 13 18 20 11 16 23 14 19 19 10 15 12 3 8 15 6 11 15 6 11 15 6 11 15 6 11 15 6 11 15 6 11 15 6 11 13 6 13 9 1 12 8 2 14 8 2 14 8 2 14 8 2 14 8 2 14 8 2 14 8 2 14 8 2 14 8 2 14 8 2 14 8 2 14 8 2 14 8 2 14 8 2 14 6 3 14 7 4 15 6 4 15 6 4 15 6 4 15 6 4 15 6 4 15 6 4 15 6 4 15 9 7 18 9 7 18 9 7 18 9 7 18 9 7 18 9 7 18 9 7 18 9 7 18 18 18 26 19 19 27 22 22 30 25 25 33 28 28 36 32 32 40 34 34 42 35 35 43 21 21 29 19 19 27 17 17 25 14 14 22 10 10 18 7 7 15 5 5 13 3 4 9 1 2 7 1 2 6 1 2 6 1 2 6 1 2 6 1 2 6 1 2 6 1 2 6 0 1 5 2 3 7 4 5 9 7 8 12 11 12 16 14 15 19 16 17 21 16 20 23 26 30 31 27 33 33 29 35 35 32 38 38 36 42 42 39 45 45 41 47 47 43 49 49 53 59 59 53 59 59 53 59 59 53 59 59 53 59 59 53 59 59 53 59 59 54 58 59 69 69 71 68 66 69 63 61 64 56 54 57 50 48 51 43 41 44 38 36 39 36 34 37 33 31 34 33 31 34 33 31 34 33 31 34 33 31 34 33 31 34 33 31 34 33 31 34 33 31 34 33 31 34 33 31 34 33 31 34 33 31 34 33 31 34 33 31 34 33 31 34 36 34 37 36 34 37 36 34 37 36 34 37 36 34 37 36 34 37 36 34 37 36 34 37
78 51 56 75 48 53 73 46 51 71 44 49 61 34 39 61 34 39 61 34 39 61 34 39 61 34 39 61 34 39 61 34 39 58 36 39 54 39 44 50 41 44 51 40 44 50 41 44 51 40 44 50 41 44 51 40 44 50 41 44 50 39 43 50 41 44 53 42 46 55 46 49 60 49 53 62 53 56 66 55 59 68 56 60 102 83 87 106 85 90 113 92 97 122 101 106 132 111 116 141 120 125 147 126 131 151 130 135 153 132 137 153 132 137 153 132 137 153 132 137 153 132 137 153 132 137 153 132 137 150 134 137 110 97 104 78 69 74 41 32 37 19 10 15 16 7 12 17 8 13 12 3 8 6 0 2 12 3 8 12 3 8 12 3 8 12 3 8 12 3 8 12 3 8 12 3 8 10 3 10 6 0 9 5 0 11 5 0 11 5 0 11 5 0 11 5 0 11 5 0 11 5 0 11 8 2 14 8 2 14 8 2 14 8 2 14 8 2 14 8 2 14 8 2 14 6 3 14 7 4 15 6 4 15 6 4 15 6 4 15 6 4 15 6 4 15 6 4 15 6 4 15 9 7 18 9 7 18 9 7 18 9 7 18 9 7 18 9 7 18 9 7 18 9 7 18 21 21 29 23 23 31 25 25 33 28 28 36 32 32 40 35 35 43 37 37 45 39 39 47 21 21 29 19 19 27 17 17 25 14 14 22 10 10 18 7 7 15 5 5 13 3 4 9 1 2 7 1 2 6 1 2 6 1 2 6 1 2 6 1 2 6 1 2 6 1 2 6 0 1 5 2 3 7 4 5 9 7 8 12 11 12 16 14 15 19 16 17 21 16 20 23 26 30 31 27 33 33 29 35 35 32 38 38 36 42 42 39 45 45 41 47 47 43 49 49 50 56 56 50 56 56 50 56 56 50 56 56 50 56 56 50 56 56 50 56 56 51 55 56 69 69 71 68 66 69 63 61 64 56 54 57 50 48 51 43 41 44 38 36 39 36 34 37 33 31 34 33 31 34 33 31 34 33 31 34 33 31 34 33 31 34 33 31 34 33 31 34 33 31 34 33 31 34 33 31 34 33 31 34 33 31 34 33 31 34 33 31 34 33 31 34 36 34 37 36 34 37 36 34 37 36 34 37 36 34 37 36 34 37 36 34 37 36 34 37
76 49 54 73 46 51 70 43 48 69 42 47 61 34 39 61 34 39 61 34 39 61 34 39 61 34 39 61 34 39 61 34 39 58 36 39 47 35 39 43 37 39 45 36 39 43 37 39 45 36 39 43 37 39 45 36 39 43 37 39 44 35 38 43 37 39 47 38 41 49 43 45 54 45 48 55 49 51 60 51 54 62 51 55 107 91 94 114 93 98 122 101 106 132 111 116 143 122 127 153 132 137 161 140 145 165 144 149 158 137 142 158 137 142 158 137 142 158 137 142 158 137 142 158 137 142 158 137 142 155 139 142 111 98 105 78 69 74 40 31 36 18 9 14 13 4 9 13 4 9 7 0 3 6 0 2 10 1 6 10 1 6 10 1 6 10 1 6 10 1 6 10 1 6 10 1 6 8 1 8 4 0 7 3 0 9 3 0 9 3 0 9 3 0 9 3 0 9 3 0 9 3 0 9 8 2 14 8 2 14 8 2 14 8 2 14 8 2 14 8 2 14 8 2 14 6 3 14 7 4 15 6 4 15 6 4 15 6 4 15 6 4 15 6 4 15 6 4 15 6 4 15 9 7 18 9 7 18 9 7 18 9 7 18 9 7 18 9 7 18 9 7 18 9 7 18 24 24 32 25 25 33 27 27 35 31 31 39 34 34 42 37 37 45 40 40 48 41 41 49 21 21 29 19 19 27 17 17 25 14 14 22 10 10 18 7 7 15 5 5 13 3 4 9 1 2 7 1 2 6 1 2 6 1 2 6 1 2 6 1 2 6 1 2 6 1 2 6 0 1 5 2 3 7 4 5 9 7 8 12 11 12 16 14 15 19 16 17 21 16 20 23 26 30 31 27 33 33 29 35 35 32 38 38 36 42 42 39 45 45 41 47 47 43 49 49 48 54 54 48 54 54 48 54 54 48 54 54 48 54 54 48 54 54 48 54 54 49 53 54 69 69 71 68 66 69 63 61 64 56 54 57 50 48 51 43 41 44 38 36 39 36 34 37 33 31 34 33 31 34 33 31 34 33 31 34 33 31 34 33 31 34 33 31 34 33 31 34 33 31 34 33 31 34 33 31 34 33 31 34 33 31 34 33 31 34 33 31 34 33 31 34 36 34 37 36 34 37 36 34 37 36 34 37 36 34 37 36 34 37 36 34 37 36 34 37
72 49 59 67 46 53 66 43 53 64 43 50 58 35 45 57 36 43 58 35 45 57 36 43 58 35 45 57 36 43 58 35 45 56 36 45 44 33 39 41 35 39 43 34 39 41 35 39 43 34 39 41 35 39 43 34 39 41 35 39 41 32 37 40 34 38 45 36 41 46 40 44 51 42 47 53 47 51 57 48 53 59 48 54 112 95 101 118 99 105 128 107 114 137 118 124 150 129 136 160 141 147 169 148 155 173 154 160 160 139 146 159 140 146 160 139 146 159 140 146 160 139 146 159 140 146 160 139 146 157 140 146 110 99 105 77 70 77 38 31 38 15 8 15 9 2 9 9 2 9 4 0 4 4 0 4 6 0 6 6 0 6 6 0 6 6 0 6 6 0 6 6 0 6 6 0 6 6 0 7 3 0 7 1 0 9 1 0 9 1 0 9 1 0 9 1 0 9 1 0 9 1 0 9 6 3 14 6 3 14 6 3 14 6 3 14 6 3 14 6 3 14 6 3 14 6 3 14 6 4 15 5 5 15 5 5 15 5 5 15 5 5 15 5 5 15 5 5 15 5 5 15 8 8 18 8 8 18 8 8 18 8 8 18 8 8 18 8 8 18 8 8 18 8 8 16 25 25 33 24 27 34 27 30 37 30 33 40 33 36 43 37 40 47 39 42 49 40 43 50 19 22 29 17 20 27 15 18 25 12 15 22 8 11 18 5 8 15 3 6 13 1 4 9 0 3 6 0 3 6 1 2 6 0 3 6 1 2 6 0 3 6 1 2 6 0 3 6 0 1 5 0 4 7 4 5 9 5 9 12 11 12 16 12 16 19 16 17 21 16 20 23 25 31 31 27 33 33 29 35 35 32 38 38 36 42 42 39 45 45 41 47 47 43 49 49 46 52 52 46 52 52 46 52 52 46 52 52 46 52 52 46 52 52 46 52 52 47 51 52 69 69 71 68 66 67 63 61 64 56 54 55 50 48 51 43 41 42 38 36 39 36 34 35 33 31 34 33 31 32 33 31 34 33 31 32 33 31 34 33 31 32 33 31 34 33 31 32 33 31 32 33 31 32 33 31 32 33 31 32 33 31 32 33 31 32 33 31 32 33 31 32 36 34 35 36 34 35 36 34 35 36 34 35 36 34 35 36 34 35 36 34 35 36 34 35
45 31 48 44 32 46 45 31 48 44 32 46 63 49 66 62 50 64 63 49 66 62 50 64 63 49 66 62 50 64 63 49 66 62 50 64 39 27 39 39 29 40 43 31 43 45 35 46 49 37 49 52 42 53 55 43 55 55 45 56 45 33 45 41 31 42 38 26 38 38 28 39 46 34 46 57 47 58 71 59 71 79 67 77 127 110 120 130 113 121 138 118 127 144 127 135 154 134 143 160 143 151 168 148 157 169 152 160 155 135 144 153 136 144 155 135 144 153 136 144 155 135 144 153 136 144 155 135 144 152 136 146 130 123 131 62 56 66 9 3 13 10 4 14 23 17 27 17 11 21 12 6 16 19 13 23 8 2 12 8 2 12 8 2 12 8 2 12 8 2 12 8 2 12 8 2 12 6 3 12 4 2 13 3 3 13 3 3 13 3 3 13 3 3 13 3 3 13 3 3 13 3 3 13 5 5 15 5 5 15 5 5 15 5 5 15 5 5 15 5 5 15 5 5 15 5 5 15 0 2 9 0 2 9 0 2 9 0 2 9 0 2 9 0 2 9 0 2 9 0 2 9 14 17 24 15 18 25 17 20 27 21 24 31 24 27 34 27 30 37 30 33 40 30 35 41 36 41 47 36 41 45 36 41 45 36 41 45 36 41 45 36 41 45 36 41 45 36 41 45 31 36 40 29 34 38 24 29 33 17 22 26 11 16 20 4 9 13 0 4 8 0 2 6 1 6 9 1 6 9 2 6 9 1 6 9 2 6 9 1 6 9 2 6 9 1 6 9 3 7 10 4 9 12 7 11 14 9 14 17 14 18 21 16 21 24 19 23 26 20 25 28 22 28 28 24 30 30 26 32 32 29 35 35 33 39 39 36 42 42 38 44 44 40 46 46 40 46 46 40 46 46 40 46 46 40 46 46 40 46 46 40 46 46 40 46 46 41 45 46 48 48 48 47 46 44 45 43 44 42 41 39 38 36 37 35 34 32 33 31 32 31 30 28 31 29 30 31 30 28 31 29 30 31 30 28 31 29 30 31 30 28 31 29 30 31 30 28 33 29 28 33 29 28 33 29 28 33 29 28 33 29 28 33 29 28 33 29 28 33 29 28 36 32 31 36 32 31 36 32 31 36 32 31 36 32 31 36 32 31 36 32 31 36 32 31
49 40 59 49 40 59 49 40 59 49 40 59 49 40 59 49 40 59 49 40 59 49 40 59 49 40 59 49 40 59 49 40 59 49 40 57 37 24 41 39 27 41 41 29 43 44 32 46 48 36 50 51 39 53 53 41 55 55 43 57 50 38 52 47 35 49 44 32 46 45 33 47 51 39 53 63 51 65 76 64 78 86 72 85 128 112 123 132 115 125 137 120 130 144 127 137 152 135 145 159 142 152 164 147 157 167 150 160 153 136 146 153 136 146 153 136 146 153 136 146 153 136 146 153 136 146 153 136 146 150 137 147 130 122 133 60 57 68 7 4 15 8 5 16 21 18 29 15 12 23 10 7 18 17 14 25 6 3 14 6 3 14 6 3 14 6 3 14 6 3 14 6 3 14 6 3 14 5 3 14 3 3 13 1 4 13 1 4 13 1 4 13 1 4 13 1 4 13 1 4 13 1 4 13 3 6 15 3 6 15 3 6 15 3 6 15 3 6 15 3 6 15 3 6 15 3 6 15 0 5 11 0 5 11 0 5 11 0 5 11 0 5 11 0 5 11 0 5 11 0 5 11 14 19 25 15 20 26 18 23 29 21 26 32 24 29 35 28 33 39 30 35 41 31 36 42 34 42 45 34 42 45 34 42 45 34 42 45 34 42 45 34 42 45 34 42 45 34 42 45 29 37 40 27 35 38 22 30 33 15 23 26 9 17 20 2 10 13 0 5 8 0 3 6 1 6 9 1 6 9 1 6 9 1 6 9 1 6 9 1 6 9 1 6 9 1 6 9 2 7 10 4 9 12 6 11 14 9 14 17 13 18 21 16 21 24 18 23 26 20 25 28 22 28 28 24 30 30 26 32 32 29 35 35 33 39 39 36 42 42 38 44 44 40 46 46 40 46 46 40 46 46 40 46 46 40 46 46 40 46 46 40 46 46 40 46 46 41 45 44 48 48 48 47 46 44 45 44 42 42 41 39 38 37 35 35 34 32 33 32 30 31 30 28 31 30 28 31 30 28 31 30 28 31 30 28 31 30 28 31 30 28 31 30 28 31 30 28 33 29 26 33 29 26 33 29 26 33 29 26 33 29 26 33 29 26 33 29 26 33 29 26 36 32 29 36 32 29 36 32 29 36 32 29 36 32 29 36 32 29 36 32 29 36 32 29
53 44 63 53 44 63 53 44 63 53 44 63 35 26 45 35 26 45 35 26 45 35 26 45 35 26 45 35 26 45 35 26 45 35 26 43 37 24 41 38 26 40 40 28 42 44 32 46 47 35 49 50 38 52 53 41 55 54 42 56 60 48 62 57 45 59 54 42 56 54 42 56 61 49 63 73 61 75 86 74 88 95 81 94 132 116 127 135 118 128 139 122 132 145 128 138 151 134 144 157 140 150 161 144 154 163 146 156 153 136 146 153 136 146 153 136 146 153 136 146 153 136 146 153 136 146 153 136 146 150 137 147 130 122 133 60 57 68 7 4 15 8 5 16 21 18 29 15 12 23 10 7 18 17 14 25 6 3 14 6 3 14 6 3 14 6 3 14 6 3 14 6 3 14 6 3 14 5 3 14 3 3 13 1 4 13 1 4 13 1 4 13 1 4 13 1 4 13 1 4 13 1 4 13 3 6 15 3 6 15 3 6 15 3 6 15 3 6 15 3 6 15 3 6 15 3 6 15 2 7 13 2 7 13 2 7 13 2 7 13 2 7 13 2 7 13 2 7 13 2 7 13 16 21 27 18 23 29 20 25 31 23 28 34 27 32 38 30 35 41 32 37 43 34 39 45 34 42 45 34 42 45 34 42 45 34 42 45 34 42 45 34 42 45 34 42 45 34 42 45 29 37 40 27 35 38 22 30 33 15 23 26 9 17 20 2 10 13 0 5 8 0 3 6 1 6 9 1 6 9 1 6 9 1 6 9 1 6 9 1 6 9 1 6 9 1 6 9 2 7 10 4 9 12 6 11 14 9 14 17 13 18 21 16 21 24 18 23 26 20 25 28 22 28 28 24 30 30 26 32 32 29 35 35 33 39 39 36 42 42 38 44 44 40 46 46 40 46 46 40 46 46 40 46 46 40 46 46 40 46 46 40 46 46 40 46 46 41 45 44 48 48 48 47 46 44 45 44 42 42 41 39 38 37 35 35 34 32 33 32 30 31 30 28 31 30 28 31 30 28 31 30 28 31 30 28 31 30 28 31 30 28 31 30 28 31 30 28 33 29 26 33 29 26 33 29 26 33 29 26 33 29 26 33 29 26 33 29 26 33 29 26 36 32 29 36 32 29 36 32 29 36 32 29 36 32 29 36 32 29 36 32 29 36 32 29
45 36 55 45 36 55 45 36 55 45 36 55 27 18 37 27 18 37 27 18 37 27 18 37 27 18 37 27 18 37 27 18 37 27 18 35 41 28 45 42 30 44 44 32 46 47 35 49 51 39 53 54 42 56 57 45 59 58 46 60 72 60 74 69 57 71 66 54 68 67 55 69 74 62 76 86 74 88 99 87 101 108 94 107 136 120 131 139 122 132 142 125 135 146 129 139 150 133 143 154 137 147 157 140 150 159 142 152 153 136 146 153 136 146 153 136 146 153 136 146 153 136 146 153 136 146 153 136 146 150 137 147 130 122 133 60 57 68 7 4 15 8 5 16 21 18 29 15 12 23 10 7 18 17 14 25 6 3 14 6 3 14 6 3 14 6 3 14 6 3 14 6 3 14 6 3 14 5 3 14 3 3 13 1 4 13 1 4 13 1 4 13 1 4 13 1 4 13 1 4 13 1 4 13 3 6 15 3 6 15 3 6 15 3 6 15 3 6 15 3 6 15 3 6 15 3 6 15 5 10 16 5 10 16 5 10 16 5 10 16 5 10 16 5 10 16 5 10 16 5 10 16 20 25 31 21 26 32 23 28 34 27 32 38 30 35 41 33 38 44 36 41 47 37 42 48 34 42 45 34 42 45 34 42 45 34 42 45 34 42 45 34 42 45 34 42 45 34 42 45 29 37 40 27 35 38 22 30 33 15 23 26 9 17 20 2 10 13 0 5 8 0 3 6 1 6 9 1 6 9 1 6 9 1 6 9 1 6 9 1 6 9 1 6 9 1 6 9 2 7 10 4 9 12 6 11 14 9 14 17 13 18 21 16 21 24 18 23 26 20 25 28 22 28 28 24 30 30 26 32 32 29 35 35 33 39 39 36 42 42 38 44 44 40 46 46 40 46 46 40 46 46 40 46 46 40 46 46 40 46 46 40 46 46 40 46 46 41 45 44 48 48 48 47 46 44 45 44 42 42 41 39 38 37 35 35 34 32 33 32 30 31 30 28 31 30 28 31 30 28 31 30 28 31 30 28 31 30 28 31 30 28 31 30 28 31 30 28 33 29 26 33 29 26 33 29 26 33 29 26 33 29 26 33 29 26 33 29 26 33 29 26 36 32 29 36 32 29 36 32 29 36 32 29 36 32 29 36 32 29 36 32 29 36 32 29
35 26 45 35 26 45 35 26 45 35 26 45 30 21 40 30 21 40 30 21 40 30 21 40 30 21 40 30 21 40 30 21 40 30 21 38 51 38 55 52 40 54 55 43 57 58 46 60 61 49 63 64 52 66 67 55 69 68 56 70 86 74 88 83 71 85 80 68 82 81 69 83 88 76 90 100 88 102 113 101 115 122 108 121 141 125 136 143 126 136 144 127 137 147 130 140 149 132 142 152 135 145 153 136 146 154 137 147 153 136 146 153 136 146 153 136 146 153 136 146 153 136 146 153 136 146 153 136 146 150 137 147 130 122 133 60 57 68 7 4 15 8 5 16 21 18 29 15 12 23 10 7 18 17 14 25 6 3 14 6 3 14 6 3 14 6 3 14 6 3 14 6 3 14 6 3 14 5 3 14 3 3 13 1 4 13 1 4 13 1 4 13 1 4 13 1 4 13 1 4 13 1 4 13 3 6 15 3 6 15 3 6 15 3 6 15 3 6 15 3 6 15 3 6 15 3 6 15 9 14 20 9 14 20 9 14 20 9 14 20 9 14 20 9 14 20 9 14 20 9 14 20 23 28 34 24 29 35 27 32 38 30 35 41 33 38 44 37 42 48 39 44 50 40 45 51 34 42 45 34 42 45 34 42 45 34 42 45 34 42 45 34 42 45 34 42 45 34 42 45 29 37 40 27 35 38 22 30 33 15 23 26 9 17 20 2 10 13 0 5 8 0 3 6 1 6 9 1 6 9 1 6 9 1 6 9 1 6 9 1 6 9 1 6 9 1 6 9 2 7 10 4 9 12 6 11 14 9 14 17 13 18 21 16 21 24 18 23 26 20 25 28 22 28 28 24 30 30 26 32 32 29 35 35 33 39 39 36 42 42 38 44 44 40 46 46 40 46 46 40 46 46 40 46 46 40 46 46 40 46 46 40 46 46 40 46 46 41 45 44 48 48 48 47 46 44 45 44 42 42 41 39 38 37 35 35 34 32 33 32 30 31 30 28 31 30 28 31 30 28 31 30 28 31 30 28 31 30 28 31 30 28 31 30 28 31 30 28 33 29 26 33 29 26 33 29 26 33 29 26 33 29 26 33 29 26 33 29 26 33 29 26 36 32 29 36 32 29 36 32 29 36 32 29 36 32 29 36 32 29 36 32 29 36 32 29
39 30 49 39 30 49 39 30 49 39 30 49 45 36 55 45 36 55 45 36 55 45 36 55 45 36 55 45 36 55 45 36 55 45 36 53 66 53 70 67 55 69 70 58 72 73 61 75 76 64 78 80 68 82 82 70 84 83 71 85 99 87 101 96 84 98 93 81 95 94 82 96 100 88 102 112 100 114 125 113 127 135 121 134 145 129 140 146 129 139 147 130 140 148 131 141 148 131 141 149 132 142 150 133 143 150 133 143 153 136 146 153 136 146 153 136 146 153 136 146 153 136 146 153 136 146 153 136 146 150 137 147 130 122 133 60 57 68 7 4 15 8 5 16 21 18 29 15 12 23 10 7 18 17 14 25 6 3 14 6 3 14 6 3 14 6 3 14 6 3 14 6 3 14 6 3 14 5 3 14 3 3 13 1 4 13 1 4 13 1 4 13 1 4 13 1 4 13 1 4 13 1 4 13 3 6 15 3 6 15 3 6 15 3 6 15 3 6 15 3 6 15 3 6 15 3 6 15 12 17 23 12 17 23 12 17 23 12 17 23 12 17 23 12 17 23 12 17 23 12 17 23 26 31 37 28 33 39 30 35 41 33 38 44 37 42 48 40 45 51 42 47 53 44 49 55 34 42 45 34 42 45 34 42 45 34 42 45 34 42 45 34 42 45 34 42 45 34 42 45 29 37 40 27 35 38 22 30 33 15 23 26 9 17 20 2 10 13 0 5 8 0 3 6 1 6 9 1 6 9 1 6 9 1 6 9 1 6 9 1 6 9 1 6 9 1 6 9 2 7 10 4 9 12 6 11 14 9 14 17 13 18 21 16 21 24 18 23 26 20 25 28 22 28 28 24 30 30 26 32 32 29 35 35 33 39 39 36 42 42 38 44 44 40 46 46 40 46 46 40 46 46 40 46 46 40 46 46 40 46 46 40 46 46 40 46 46 41 45 44 48 48 48 47 46 44 45 44 42 42 41 39 38 37 35 35 34 32 33 32 30 31 30 28 31 30 28 31 30 28 31 30 28 31 30 28 31 30 28 31 30 28 31 30 28 31 30 28 33 29 26 33 29 26 33 29 26 33 29 26 33 29 26 33 29 26 33 29 26 33 29 26 36 32 29 36 32 29 36 32 29 36 32 29 36 32 29 36 32 29 36 32 29 36 32 29
59 50 69 59 50 69 59 50 69 59 50 69 63 54 73 63 54 73 63 54 73 63 54 73 63 54 73 63 54 73 63 54 73 63 54 71 81 68 85 83 71 85 85 73 87 88 76 90 92 80 94 95 83 97 97 85 99 99 87 101 109 97 111 106 94 108 103 91 105 103 91 105 110 98 112 122 110 124 135 123 137 144 130 143 149 133 144 149 132 142 149 132 142 148 131 141 148 131 141 147 130 140 147 130 140 146 129 139 153 136 146 153 136 146 153 136 146 153 136 146 153 136 146 153 136 146 153 136 146 150 137 147 130 122 133 60 57 68 7 4 15 8 5 16 21 18 29 15 12 23 10 7 18 17 14 25 6 3 14 6 3 14 6 3 14 6 3 14 6 3 14 6 3 14 6 3 14 5 3 14 3 3 13 1 4 13 1 4 13 1 4 13 1 4 13 1 4 13 1 4 13 1 4 13 3 6 15 3 6 15 3 6 15 3 6 15 3 6 15 3 6 15 3 6 15 3 6 15 14 19 25 14 19 25 14 19 25 14 19 25 14 19 25 14 19 25 14 19 25 14 19 25 29 34 40 30 35 41 32 37 43 36 41 47 39 44 50 42 47 53 45 50 56 46 51 57 34 42 45 34 42 45 34 42 45 34 42 45 34 42 45 34 42 45 34 42 45 34 42 45 29 37 40 27 35 38 22 30 33 15 23 26 9 17 20 2 10 13 0 5 8 0 3 6 1 6 9 1 6 9 1 6 9 1 6 9 1 6 9 1 6 9 1 6 9 1 6 9 2 7 10 4 9 12 6 11 14 9 14 17 13 18 21 16 21 24 18 23 26 20 25 28 22 28 28 24 30 30 26 32 32 29 35 35 33 39 39 36 42 42 38 44 44 40 46 46 40 46 46 40 46 46 40 46 46 40 46 46 40 46 46 40 46 46 40 46 46 41 45 44 48 48 48 47 46 44 45 44 42 42 41 39 38 37 35 35 34 32 33 32 30 31 30 28 31 30 28 31 30 28 31 30 28 31 30 28 31 30 28 31 30 28 31 30 28 31 30 28 33 29 26 33 29 26 33 29 26 33 29 26 33 29 26 33 29 26 33 29 26 33 29 26 36 32 29 36 32 29 36 32 29 36 32 29 36 32 29 36 32 29 36 32 29 36 32 29
78 69 88 78 69 88 78 69 88 78 69 88 76 67 86 76 67 86 76 67 86 76 67 86 76 67 86 76 67 86 76 67 86 76 67 84 91 78 95 92 80 94 95 83 97 98 86 100 101 89 103 105 93 107 107 95 109 108 96 110 114 102 116 111 99 113 108 96 110 109 97 111 116 104 118 128 116 130 140 128 142 150 136 149 150 134 145 151 134 144 150 133 143 149 132 142 147 130 140 146 129 139 145 128 138 145 128 138 153 136 146 153 136 146 153 136 146 153 136 146 153 136 146 153 136 146 153 136 146 150 137 147 130 122 133 60 57 68 7 4 15 8 5 16 21 18 29 15 12 23 10 7 18 17 14 25 6 3 14 6 3 14 6 3 14 6 3 14 6 3 14 6 3 14 6 3 14 5 3 14 3 3 13 1 4 13 1 4 13 1 4 13 1 4 13 1 4 13 1 4 13 1 4 13 3 6 15 3 6 15 3 6 15 3 6 15 3 6 15 3 6 15 3 6 15 3 6 15 16 21 27 16 21 27 16 21 27 16 21 27 16 21 27 16 21 27 16 21 27 16 21 27 30 35 41 31 36 42 34 39 45 37 42 48 40 45 51 44 49 55 46 51 57 47 52 58 34 42 45 34 42 45 34 42 45 34 42 45 34 42 45 34 42 45 34 42 45 34 42 45 29 37 40 27 35 38 22 30 33 15 23 26 9 17 20 2 10 13 0 5 8 0 3 6 1 6 9 1 6 9 1 6 9 1 6 9 1 6 9 1 6 9 1 6 9 1 6 9 2 7 10 4 9 12 6 11 14 9 14 17 13 18 21 16 21 24 18 23 26 20 25 28 22 28 28 24 30 30 26 32 32 29 35 35 33 39 39 36 42 42 38 44 44 40 46 46 40 46 46 40 46 46 40 46 46 40 46 46 40 46 46 40 46 46 40 46 46 41 45 44 48 48 48 47 46 44 45 44 42 42 41 39 38 37 35 35 34 32 33 32 30 31 30 28 31 30 28 31 30 28 31 30 28 31 30 28 31 30 28 31 30 28 31 30 28 31 30 28 33 29 26 33 29 26 33 29 26 33 29 26 33 29 26 33 29 26 33 29 26 33 29 26 36 32 29 36 32 29 36 32 29 36 32 29 36 32 29 36 32 29 36 32 29 36 32 29
115 106 125 115 106 125 115 106 125 115 106 125 114 105 124 114 105 124 114 105 124 114 105 124 114 105 124 114 105 124 114 105 124 114 105 122 118 105 122 118 106 120 118 106 120 118 106 120 118 106 120 118 106 120 118 106 120 118 106 120 120 108 122 120 108 122 120 108 122 120 108 122 120 108 122 120 108 122 120 108 122 121 107 120 139 123 134 140 123 133 140 123 133 140 123 133 140 123 133 140 123 133 140 123 133 140 123 133 145 128 138 145 128 138 145 128 138 145 128 138 145 128 138 145 128 138 145 128 138 142 129 139 115 107 118 81 78 89 42 39 50 19 16 27 14 11 22 13 10 21 6 3 14 1 0 9 7 4 15 7 4 15 7 4 15 7 4 15 7 4 15 7 4 15 7 4 15 6 4 15 6 6 16 4 7 16 4 7 16 4 7 16 4 7 16 4 7 16 4 7 16 4 7 16 0 0 9 0 0 9 0 0 9 0 3 12 3 6 15 6 9 18 9 12 21 10 13 22 16 21 27 17 22 28 19 24 30 23 28 34 26 31 37 29 34 40 32 37 43 33 38 44 44 49 55 44 49 55 44 49 55 44 49 55 44 49 55 44 49 55 44 49 55 44 49 55 29 37 40 29 37 40 29 37 40 29 37 40 29 37 40 29 37 40 29 37 40 29 37 40 24 32 35 22 30 33 20 28 31 17 25 28 13 21 24 10 18 21 8 16 19 6 14 17 3 8 11 3 8 11 3 8 11 3 8 11 3 8 11 3 8 11 3 8 11 3 8 11 8 13 16 10 15 18 12 17 20 15 20 23 19 24 27 22 27 30 24 29 32 26 31 34 26 32 32 26 32 32 26 32 32 26 32 32 26 32 32 26 32 32 26 32 32 26 32 32 28 34 34 28 34 34 28 34 34 28 34 34 28 34 34 28 34 34 28 34 34 29 33 32 30 30 30 31 30 28 31 30 28 31 30 28 31 30 28 31 30 28 31 30 28 31 30 28 31 30 28 31 30 28 31 30 28 31 30 28 31 30 28 31 30 28 31 30 28 31 30 28 34 30 27 34 30 27 34 30 27 34 30 27 34 30 27 34 30 27 34 30 27 34 30 27 36 32 29 36 32 29 36 32 29 36 32 29 36 32 29 36 32 29 36 32 29 36 32 29
117 108 127 117 108 127 117 108 127 117 108 127 116 107 126 116 107 126 116 107 126 116 107 126 116 107 126 116 107 126 116 107 126 116 107 124 118 105 122 118 106 120 118 106 120 118 106 120 118 106 120 118 106 120 118 106 120 118 106 120 120 108 122 120 108 122 120 108 122 120 108 122 120 108 122 120 108 122 120 108 122 121 107 120 137 121 132 138 121 131 138 121 131 138 121 131 138 121 131 138 121 131 138 121 131 138 121 131 143 126 136 143 126 136 143 126 136 143 126 136 143 126 136 143 126 136 143 126 136 140 127 137 111 103 114 78 75 86 40 37 48 17 14 25 13 10 21 13 10 21 7 4 15 1 0 9 7 4 15 7 4 15 7 4 15 7 4 15 7 4 15 7 4 15 7 4 15 6 4 15 6 6 16 4 7 16 4 7 16 4 7 16 4 7 16 4 7 16 4 7 16 4 7 16 0 0 9 0 0 9 0 1 10 1 4 13 4 7 16 8 11 20 10 13 22 11 14 23 17 22 28 18 23 29 21 26 32 24 29 35 27 32 38 31 36 42 33 38 44 34 39 45 44 49 55 44 49 55 44 49 55 44 49 55 44 49 55 44 49 55 44 49 55 44 49 55 31 39 42 31 39 42 31 39 42 31 39 42 31 39 42 31 39 42 31 39 42 31 39 42 24 32 35 22 30 33 20 28 31 17 25 28 13 21 24 10 18 21 8 16 19 6 14 17 3 8 11 3 8 11 3 8 11 3 8 11 3 8 11 3 8 11 3 8 11 3 8 11 8 13 16 10 15 18 12 17 20 15 20 23 19 24 27 22 27 30 24 29 32 26 31 34 26 32 32 26 32 32 26 32 32 26 32 32 26 32 32 26 32 32 26 32 32 26 32 32 28 34 34 28 34 34 28 34 34 28 34 34 28 34 34 28 34 34 28 34 34 29 33 32 30 30 30 31 30 28 31 30 28 31 30 28 31 30 28 31 30 28 31 30 28 31 30 28 31 30 28 31 30 28 31 30 28 31 30 28 31 30 28 31 30 28 31 30 28 31 30 28 34 30 27 34 30 27 34 30 27 34 30 27 34 30 27 34 30 27 34 30 27 34 30 27 36 32 29 36 32 29 36 32 29 36 32 29 36 32 29 36 32 29 36 32 29 36 32 29
119 110 129 119 110 129 119 110 129 119 110 129 118 109 128 118 109 128 118 109 128 118 109 128 118 109 128 118 109 128 118 109 128 118 109 126 118 105 122 118 106 120 118 106 120 118 106 120 118 106 120 118 106 120 118 106 120 118 106 120 120 108 122 120 108 122 120 108 122 120 108 122 120 108 122 120 108 122 120 108 122 121 107 120 135 119 130 136 119 129 136 119 129 136 119 129 136 119 129 136 119 129 136 119 129 136 119 129 141 124 134 141 124 134 141 124 134 141 124 134 141 124 134 141 124 134 141 124 134 138 125 135 106 98 109 73 70 81 36 33 44 14 11 22 11 8 19 12 9 20 7 4 15 1 0 9 7 4 15 7 4 15 7 4 15 7 4 15 7 4 15 7 4 15 7 4 15 6 4 15 6 6 16 4 7 16 4 7 16 4 7 16 4 7 16 4 7 16 4 7 16 4 7 16 0 0 9 0 1 10 0 3 12 3 6 15 7 10 19 10 13 22 12 15 24 14 17 26 19 24 30 21 26 32 23 28 34 26 31 37 30 35 41 33 38 44 35 40 46 37 42 48 44 49 55 44 49 55 44 49 55 44 49 55 44 49 55 44 49 55 44 49 55 44 49 55 33 41 44 33 41 44 33 41 44 33 41 44 33 41 44 33 41 44 33 41 44 33 41 44 24 32 35 22 30 33 20 28 31 17 25 28 13 21 24 10 18 21 8 16 19 6 14 17 3 8 11 3 8 11 3 8 11 3 8 11 3 8 11 3 8 11 3 8 11 3 8 11 8 13 16 10 15 18 12 17 20 15 20 23 19 24 27 22 27 30 24 29 32 26 31 34 26 32 32 26 32 32 26 32 32 26 32 32 26 32 32 26 32 32 26 32 32 26 32 32 28 34 34 28 34 34 28 34 34 28 34 34 28 34 34 28 34 34 28 34 34 29 33 32 30 30 30 31 30 28 31 30 28 31 30 28 31 30 28 31 30 28 31 30 28 31 30 28 31 30 28 31 30 28 31 30 28 31 30 28 31 30 28 31 30 28 31 30 28 31 30 28 34 30 27 34 30 27 34 30 27 34 30 27 34 30 27 34 30 27 34 30 27 34 30 27 36 32 29 36 32 29 36 32 29 36 32 29 36 32 29 36 32 29 36 32 29 36 32 29
122 113 132 122 113 132 122 113 132 122 113 132 121 112 131 121 112 131 121 112 131 121 112 131 121 112 131 121 112 131 121 112 131 121 112 129 118 105 122 118 106 120 118 106 120 118 106 120 118 106 120 118 106 120 118 106 120 118 106 120 120 108 122 120 108 122 120 108 122 120 108 122 120 108 122 120 108 122 120 108 122 121 107 120 132 116 127 133 116 126 133 116 126 133 116 126 133 116 126 133 116 126 133 116 126 133 116 126 138 121 131 138 121 131 138 121 131 138 121 131 138 121 131 138 121 131 138 121 131 135 122 132 98 90 101 66 63 74 30 27 38 10 7 18 9 6 17 12 9 20 8 5 16 1 0 9 7 4 15 7 4 15 7 4 15 7 4 15 7 4 15 7 4 15 7 4 15 6 4 15 6 6 16 4 7 16 4 7 16 4 7 16 4 7 16 4 7 16 4 7 16 4 7 16 0 3 12 1 4 13 3 6 15 7 10 19 10 13 22 13 16 25 16 19 28 17 20 29 23 28 34 24 29 35 26 31 37 30 35 41 33 38 44 36 41 47 39 44 50 40 45 51 44 49 55 44 49 55 44 49 55 44 49 55 44 49 55 44 49 55 44 49 55 44 49 55 36 44 47 36 44 47 36 44 47 36 44 47 36 44 47 36 44 47 36 44 47 36 44 47 24 32 35 22 30 33 20 28 31 17 25 28 13 21 24 10 18 21 8 16 19 6 14 17 3 8 11 3 8 11 3 8 11 3 8 11 3 8 11 3 8 11 3 8 11 3 8 11 8 13 16 10 15 18 12 17 20 15 20 23 19 24 27 22 27 30 24 29 32 26 31 34 26 32 32 26 32 32 26 32 32 26 32 32 26 32 32 26 32 32 26 32 32 26 32 32 28 34 34 28 34 34 28 34 34 28 34 34 28 34 34 28 34 34 28 34 34 29 33 32 30 30 30 31 30 28 31 30 28 31 30 28 31 30 28 31 30 28 31 30 28 31 30 28 31 30 28 31 30 28 31 30 28 31 30 28 31 30 28 31 30 28 31 30 28 31 30 28 34 30 27 34 30 27 34 30 27 34 30 27 34 30 27 34 30 27 34 30 27 34 30 27 36 32 29 36 32 29 36 32 29 36 32 29 36 32 29 36 32 29 36 32 29 36 32 29
126 117 136 126 117 136 126 117 136 126 117 136 125 116 135 125 116 135 125 116 135 125 116 135 125 116 135 125 116 135 125 116 135 125 116 133 118 105 122 118 106 120 118 106 120 118 106 120 118 106 120 118 106 120 118 106 120 118 106 120 120 108 122 120 108 122 120 108 122 120 108 122 120 108 122 120 108 122 120 108 122 121 107 120 128 112 123 129 112 122 129 112 122 129 112 122 129 112 122 129 112 122 129 112 122 129 112 122 134 117 127 134 117 127 134 117 127 134 117 127 134 117 127 134 117 127 134 117 127 131 118 128 90 82 93 58 55 66 24 21 32 6 3 14 6 3 14 11 8 19 8 5 16 2 0 10 7 4 15 7 4 15 7 4 15 7 4 15 7 4 15 7 4 15 7 4 15 6 4 15 6 6 16 4 7 16 4 7 16 4 7 16 4 7 16 4 7 16 4 7 16 4 7 16 3 6 15 4 7 16 7 10 19 10 13 22 13 16 25 17 20 29 19 22 31 20 23 32 26 31 37 27 32 38 30 35 41 33 38 44 36 41 47 40 45 51 42 47 53 43 48 54 44 49 55 44 49 55 44 49 55 44 49 55 44 49 55 44 49 55 44 49 55 44 49 55 40 48 51 40 48 51 40 48 51 40 48 51 40 48 51 40 48 51 40 48 51 40 48 51 24 32 35 22 30 33 20 28 31 17 25 28 13 21 24 10 18 21 8 16 19 6 14 17 3 8 11 3 8 11 3 8 11 3 8 11 3 8 11 3 8 11 3 8 11 3 8 11 8 13 16 10 15 18 12 17 20 15 20 23 19 24 27 22 27 30 24 29 32 26 31 34 26 32 32 26 32 32 26 32 32 26 32 32 26 32 32 26 32 32 26 32 32 26 32 32 28 34 34 28 34 34 28 34 34 28 34 34 28 34 34 28 34 34 28 34 34 29 33 32 30 30 30 31 30 28 31 30 28 31 30 28 31 30 28 31 30 28 31 30 28 31 30 28 31 30 28 31 30 28 31 30 28 31 30 28 31 30 28 31 30 28 31 30 28 31 30 28 34 30 27 34 30 27 34 30 27 34 30 27 34 30 27 34 30 27 34 30 27 34 30 27 36 32 29 36 32 29 36 32 29 36 32 29 36 32 29 36 32 29 36 32 29 36 32 29
129 120 139 129 120 139 129 120 139 129 120 139 128 119 138 128 119 138 128 119 138 128 119 138 128 119 138 128 119 138 128 119 138 128 119 136 118 105 122 118 106 120 118 106 120 118 106 120 118 106 120 118 106 120 118 106 120 118 106 120 120 108 122 120 108 122 120 108 122 120 108 122 120 108 122 120 108 122 120 108 122 121 107 120 125 109 120 126 109 119 126 109 119 126 109 119 126 109 119 126 109 119 126 109 119 126 109 119 131 114 124 131 114 124 131 114 124 131 114 124 131 114 124 131 114 124 131 114 124 128 115 125 82 74 85 51 48 59 18 15 26 2 0 10 4 1 12 10 7 18 9 6 17 3 0 11 7 4 15 7 4 15 7 4 15 7 4 15 7 4 15 7 4 15 7 4 15 6 4 15 6 6 16 4 7 16 4 7 16 4 7 16 4 7 16 4 7 16 4 7 16 4 7 16 6 9 18 8 11 20 10 13 22 13 16 25 17 20 29 20 23 32 22 25 34 24 27 36 29 34 40 31 36 42 33 38 44 36 41 47 40 45 51 43 48 54 45 50 56 47 52 58 44 49 55 44 49 55 44 49 55 44 49 55 44 49 55 44 49 55 44 49 55 44 49 55 43 51 54 43 51 54 43 51 54 43 51 54 43 51 54 43 51 54 43 51 54 43 51 54 24 32 35 22 30 33 20 28 31 17 25 28 13 21 24 10 18 21 8 16 19 6 14 17 3 8 11 3 8 11 3 8 11 3 8 11 3 8 11 3 8 11 3 8 11 3 8 11 8 13 16 10 15 18 12 17 20 15 20 23 19 24 27 22 27 30 24 29 32 26 31 34 26 32 32 26 32 32 26 32 32 26 32 32 26 32 32 26 32 32 26 32 32 26 32 32 28 34 34 28 34 34 28 34 34 28 34 34 28 34 34 28 34 34 28 34 34 29 33 32 30 30 30 31 30 28 31 30 28 31 30 28 31 30 28 31 30 28 31 30 28 31 30 28 31 30 28 31 30 28 31 30 28 31 30 28 31 30 28 31 30 28 31 30 28 31 30 28 34 30 27 34 30 27 34 30 27 34 30 27 34 30 27 34 30 27 34 30 27 34 30 27 36 32 29 36 32 29 36 32 29 36 32 29 36 32 29 36 32 29 36 32 29 36 32 29
131 122 141 131 122 141 131 122 141 131 122 141 130 121 140 130 121 140 130 121 140 130 121 140 130 121 140 130 121 140 130 121 140 130 121 138 118 105 122 118 106 120 118 106 120 118 106 120 118 106 120 118 106 120 118 106 120 118 106 120 120 108 122 120 108 122 120 108 122 120 108 122 120 108 122 120 108 122 120 108 122 121 107 120 123 107 118 124 107 117 124 107 117 124 107 117 124 107 117 124 107 117 124 107 117 124 107 117 129 112 122 129 112 122 129 112 122 129 112 122 129 112 122 129 112 122 129 112 122 126 113 123 76 68 79 46 43 54 14 11 22 1 0 9 2 0 10 10 7 18 9 6 17 4 1 12 7 4 15 7 4 15 7 4 15 7 4 15 7 4 15 7 4 15 7 4 15 6 4 15 6 6 16 4 7 16 4 7 16 4 7 16 4 7 16 4 7 16 4 7 16 4 7 16 9 12 21 10 13 22 12 15 24 16 19 28 19 22 31 22 25 34 25 28 37 26 29 38 32 37 43 33 38 44 35 40 46 39 44 50 42 47 53 45 50 56 48 53 59 49 54 60 44 49 55 44 49 55 44 49 55 44 49 55 44 49 55 44 49 55 44 49 55 44 49 55 45 53 56 45 53 56 45 53 56 45 53 56 45 53 56 45 53 56 45 53 56 45 53 56 24 32 35 22 30 33 20 28 31 17 25 28 13 21 24 10 18 21 8 16 19 6 14 17 3 8 11 3 8 11 3 8 11 3 8 11 3 8 11 3 8 11 3 8 11 3 8 11 8 13 16 10 15 18 12 17 20 15 20 23 19 24 27 22 27 30 24 29 32 26 31 34 26 32 32 26 32 32 26 32 32 26 32 32 26 32 32 26 32 32 26 32 32 26 32 32 28 34 34 28 34 34 28 34 34 28 34 34 28 34 34 28 34 34 28 34 34 29 33 32 30 30 30 31 30 28 31 30 28 31 30 28 31 30 28 31 30 28 31 30 28 31 30 28 31 30 28 31 30 28 31 30 28 31 30 28 31 30 28 31 30 28 31 30 28 31 30 28 34 30 27 34 30 27 34 30 27 34 30 27 34 30 27 34 30 27 34 30 27 34 30 27 36 32 29 36 32 29 36 32 29 36 32 29 36 32 29 36 32 29 36 32 29 36 32 29
135 123 143 135 123 143 135 123 143 135 123 143 134 122 142 134 122 142 134 122 142 134 122 142 134 122 142 134 122 142 134 122 142 134 122 142 118 105 122 118 105 122 118 105 122 118 105 122 118 105 122 118 105 122 118 105 122 118 105 122 120 107 124 120 107 124 120 107 124 120 107 124 120 107 124 120 107 124 120 107 124 121 107 122 121 105 118 121 105 116 122 104 116 121 105 116 122 104 116 121 105 116 122 104 116 121 105 116 127 109 121 126 110 121 127 109 121 126 110 121 127 109 121 126 110 121 127 109 121 124 110 123 72 66 78 43 40 51 11 8 19 1 0 9 1 0 9 9 6 17 9 6 17 5 2 13 7 4 15 7 4 15 7 4 15 7 4 15 7 4 15 7 4 15 7 4 15 6 4 15 4 7 16 3 8 14 4 7 16 3 8 14 4 7 16 3 8 14 4 7 16 3 8 14 10 13 22 10 15 21 14 17 26 16 21 27 20 23 32 23 28 34 26 29 38 26 31 37 33 38 44 32 39 45 37 42 48 38 45 51 43 48 54 45 52 58 49 54 60 48 55 61 44 49 55 42 49 55 44 49 55 42 49 55 44 49 55 42 49 55 44 49 55 42 49 55 47 55 58 47 55 58 47 55 58 47 55 58 47 55 58 47 55 58 47 55 58 47 55 58 24 32 35 22 30 33 20 28 31 17 25 28 13 21 24 10 18 21 8 16 19 6 14 17 1 9 12 1 9 11 3 8 12 1 9 11 3 8 12 1 9 11 3 8 12 1 9 11 8 13 17 8 16 18 12 17 21 13 21 23 19 24 28 20 28 30 24 29 33 26 31 34 26 31 34 26 32 32 26 32 32 26 32 32 26 32 32 26 32 32 26 32 32 26 32 32 28 34 34 28 34 34 28 34 34 28 34 34 28 34 34 28 34 34 28 34 34 29 33 34 30 30 30 31 30 28 31 30 28 31 30 28 31 30 28 31 30 28 31 30 28 31 30 28 31 30 28 31 30 28 31 30 28 31 30 28 31 30 28 31 30 28 31 30 28 33 29 28 34 30 27 34 30 27 35 30 27 34 30 27 35 30 27 34 30 27 35 30 27 34 30 27 37 32 29 36 32 29 37 32 29 36 32 29 37 32 29 36 32 29 37 32 29 36 32 29
130 116 139 130 116 139 130 116 139 130 116 139 119 105 128 119 105 128 119 105 128 119 105 128 119 105 128 119 105 128 119 105 128 119 106 126 115 100 121 115 100 119 115 100 119 115 100 119 115 100 119 115 100 119 115 100 119 115 100 119 114 99 118 114 99 118 114 99 118 114 99 118 114 99 118 114 99 118 114 99 118 114 99 118 112 98 115 112 98 113 114 97 113 112 98 113 114 97 113 112 98 113 114 97 113 112 98 113 122 105 121 124 110 125 130 113 129 125 111 126 115 98 114 92 78 93 73 56 72 56 44 58 9 3 17 6 4 17 6 4 17 6 4 17 6 4 17 6 4 17 6 4 17 6 4 17 6 4 17 6 4 17 6 4 17 6 4 17 6 4 17 6 4 17 6 4 17 5 5 15 0 1 7 0 3 6 0 4 10 1 9 12 6 11 17 7 15 18 12 17 23 11 19 22 19 24 30 18 26 29 22 27 33 24 32 35 29 34 40 30 38 41 35 40 46 34 42 45 46 54 57 45 55 57 46 54 57 45 55 57 46 54 57 45 55 57 46 54 57 45 55 57 46 54 57 45 55 57 46 54 57 45 55 57 46 54 57 45 55 57 46 54 57 46 54 57 52 60 63 52 60 63 52 60 63 52 60 63 52 60 63 52 60 63 52 60 63 52 60 63 57 65 68 53 61 64 46 54 57 37 45 48 26 34 37 17 25 28 9 17 20 5 13 16 10 18 21 9 19 21 10 17 23 9 19 21 10 17 23 9 19 21 10 17 23 9 19 21 10 17 23 9 19 21 10 17 23 9 19 21 10 17 23 9 19 21 10 17 23 10 18 21 27 35 37 27 35 37 27 35 37 27 35 37 27 35 37 27 35 37 27 35 37 27 35 37 26 34 36 26 34 36 26 34 36 26 34 36 26 34 36 26 34 36 26 34 36 29 33 34 25 25 25 28 24 23 28 24 23 28 24 23 28 24 23 28 24 23 28 24 23 28 24 23 33 29 28 33 29 28 33 29 28 33 29 28 33 29 28 33 29 28 33 29 28 33 29 28 34 29 26 34 29 26 36 28 26 34 29 26 36 28 26 34 29 26 36 28 26 34 29 26 38 30 28 36 31 28 38 30 28 36 31 28 38 30 28 36 31 28 38 30 28 36 31 28
129 114 137 129 114 137 129 114 137 129 114 137 120 105 128 120 105 128 120 105 128 120 105 128 120 105 128 120 105 128 120 105 128 120 105 128 115 100 121 115 100 121 115 100 121 115 100 121 115 100 121 115 100 121 115 100 121 115 100 121 114 99 120 114 99 120 114 99 120 114 99 120 114 99 120 114 99 120 114 99 120 114 99 118 112 97 116 112 98 115 112 98 115 112 98 115 112 98 115 112 98 115 112 98 115 112 98 115 114 100 117 117 103 120 118 104 121 114 100 117 101 87 104 81 67 84 61 47 64 46 35 51 9 3 17 6 4 17 6 4 17 6 4 17 6 4 17 6 4 17 6 4 17 6 4 17 6 4 17 6 4 17 6 4 17 6 4 17 6 4 17 6 4 17 6 4 17 5 5 15 0 2 8 0 4 7 0 7 10 2 10 13 5 13 16 9 17 20 11 19 22 12 20 23 18 26 29 19 27 30 22 30 33 25 33 36 28 36 39 32 40 43 34 42 45 35 43 46 45 55 57 45 55 57 45 55 57 45 55 57 45 55 57 45 55 57 45 55 57 45 55 57 47 57 59 47 57 59 47 57 59 47 57 59 47 57 59 47 57 59 47 57 59 47 57 59 54 62 65 54 62 65 54 62 65 54 62 65 54 62 65 54 62 65 54 62 65 54 62 65 59 67 70 55 63 66 47 55 58 38 46 49 27 35 38 18 26 29 11 19 22 7 15 18 11 20 25 11 20 25 11 20 25 11 20 25 11 20 25 11 20 25 11 20 25 11 20 25 9 18 23 9 18 23 9 18 23 9 18 23 9 18 23 9 18 23 9 18 23 9 19 21 25 33 36 25 33 35 25 33 35 25 33 35 25 33 35 25 33 35 25 33 35 25 33 35 24 32 34 24 32 34 24 32 34 24 32 34 24 32 34 24 32 34 24 32 34 26 32 32 26 24 25 28 24 23 28 24 23 28 24 23 28 24 23 28 24 23 28 24 23 28 24 23 33 29 28 33 29 28 33 29 28 33 29 28 33 29 28 33 29 28 33 29 28 33 29 28 36 28 26 36 28 26 36 28 26 36 28 26 36 28 26 36 28 26 36 28 26 36 28 26 38 30 28 38 30 28 38 30 28 38 30 28 38 30 28 38 30 28 38 30 28 38 30 28
127 112 135 127 112 135 127 112 135 127 112 135 120 105 128 120 105 128 120 105 128 120 105 128 120 105 128 120 105 128 120 105 128 120 105 128 115 100 121 115 100 121 115 100 121 115 100 121 115 100 121 115 100 121 115 100 121 115 100 121 114 99 120 114 99 120 114 99 120 114 99 120 114 99 120 114 99 120 114 99 120 114 99 118 112 97 116 112 98 115 112 98 115 112 98 115 112 98 115 112 98 115 112 98 115 112 98 115 107 93 110 106 92 109 103 89 106 95 81 98 80 66 83 62 48 65 44 30 47 31 20 36 9 3 17 6 4 17 6 4 17 6 4 17 6 4 17 6 4 17 6 4 17 6 4 17 6 4 17 6 4 17 6 4 17 6 4 17 6 4 17 6 4 17 6 4 17 5 5 15 0 4 10 0 7 10 1 9 12 4 12 15 8 16 19 11 19 22 13 21 24 15 23 26 20 28 31 22 30 33 24 32 35 27 35 38 31 39 42 34 42 45 36 44 47 38 46 49 45 55 57 45 55 57 45 55 57 45 55 57 45 55 57 45 55 57 45 55 57 45 55 57 49 59 61 49 59 61 49 59 61 49 59 61 49 59 61 49 59 61 49 59 61 49 59 61 56 64 67 56 64 67 56 64 67 56 64 67 56 64 67 56 64 67 56 64 67 56 64 67 61 69 72 57 65 68 50 58 61 40 48 51 30 38 41 20 28 31 13 21 24 9 17 20 13 22 27 13 22 27 13 22 27 13 22 27 13 22 27 13 22 27 13 22 27 13 22 27 9 18 23 9 18 23 9 18 23 9 18 23 9 18 23 9 18 23 9 18 23 9 19 21 23 31 34 23 31 33 23 31 33 23 31 33 23 31 33 23 31 33 23 31 33 23 31 33 22 30 32 22 30 32 22 30 32 22 30 32 22 30 32 22 30 32 22 30 32 24 30 30 26 24 25 28 24 23 28 24 23 28 24 23 28 24 23 28 24 23 28 24 23 28 24 23 33 29 28 33 29 28 33 29 28 33 29 28 33 29 28 33 29 28 33 29 28 33 29 28 36 28 26 36 28 26 36 28 26 36 28 26 36 28 26 36 28 26 36 28 26 36 28 26 38 30 28 38 30 28 38 30 28 38 30 28 38 30 28 38 30 28 38 30 28 38 30 28
