P3
172 37
255
117 98 120 117 98 120 117 98 120 117 98 120 103 84 106 103 84 106 103 84 106 103 84 106 103 84 106 103 84 106 103 84 106 103 84 106 92 75 94 92 75 94 92 75 94 92 75 94 92 75 94 92 75 94 92 75 94 92 75 94 89 72 91 86 69 88 81 64 83 74 57 76 67 50 69 60 43 62 54 37 56 49 35 52 39 26 43 35 24 38 30 19 33 24 13 27 17 6 20 11 0 14 6 0 9 6 0 9 6 0 9 7 0 10 10 0 13 14 3 17 18 7 21 21 10 24 24 13 27 24 16 29 8 4 18 7 5 18 7 5 18 7 5 18 7 5 18 7 5 18 7 5 18 7 5 18 8 6 19 8 6 19 8 6 19 8 6 19 8 6 19 8 6 19 8 6 19 8 6 19 8 6 19 8 6 19 8 6 19 8 6 19 8 6 19 8 6 19 8 6 19 8 6 19 7 5 18 7 5 18 7 5 18 7 5 18 7 5 18 7 5 18 7 5 18 7 5 18 8 8 18 8 8 18 8 8 18 8 8 18 8 8 18 8 8 18 8 8 18 8 8 18 8 8 18 8 8 18 8 8 18 8 8 18 8 8 18 8 8 18 8 8 18 8 8 16 10 9 17 10 9 15 10 9 15 10 9 15 10 9 15 10 9 15 10 9 15 10 9 15 2 1 7 2 1 7 2 1 7 2 1 7 2 1 7 2 1 7 2 1 7 1 2 6 9 10 14 7 11 12 7 11 12 7 11 12 7 11 12 7 11 12 7 11 12 7 11 12 13 17 18 15 19 20 17 21 22 20 24 25 24 28 29 27 31 32 29 33 34 31 35 36 46 50 49 50 54 53 57 61 60 67 71 70 77 81 80 87 91 90 94 98 97 98 102 101 109 113 112 113 117 116 119 123 122 121 125 124 118 122 121 109 113 112 98 102 101 93 95 94 56 56 56 55 53 54 53 51 52 50 48 49 46 44 45 43 41 42 41 39 40 39 37 38 43 41 42 43 41 42 43 41 42 43 41 42 43 41 42 43 41 42 43 41 42 43 41 42 39 37 40 39 37 40 39 37 40 39 37 40 39 37 40 39 37 40 39 37 40 39 37 40 43 41 44 43 41 44 43 41 44 43 41 44 43 41 44 43 41 44 43 41 44 43 41 44
116 98 122 116 98 120 116 98 122 116 98 120 100 82 106 100 82 104 100 82 106 100 82 104 100 82 106 100 82 104 100 82 106 98 83 104 88 73 94 88 73 94 88 73 94 88 73 94 88 73 94 88 73 94 88 73 94 88 73 94 86 71 92 83 68 89 77 62 83 70 55 76 62 47 68 54 39 60 48 33 54 44 31 49 33 22 38 28 20 33 23 15 28 17 9 22 10 2 15 4 0 9 4 0 9 4 0 9 4 0 9 4 0 9 6 0 11 10 2 15 15 7 20 19 11 24 23 15 28 23 17 29 8 4 18 7 5 18 7 5 18 7 5 18 7 5 18 7 5 18 7 5 18 7 5 18 8 6 19 8 6 19 8 6 19 8 6 19 8 6 19 8 6 19 8 6 19 8 6 19 7 7 19 7 7 19 7 7 19 7 7 19 7 7 19 7 7 19 7 7 19 7 7 19 6 6 18 6 6 18 6 6 18 6 6 18 6 6 18 6 6 18 6 6 18 6 6 18 6 9 18 6 9 18 6 9 18 6 9 18 6 9 18 6 9 18 6 9 18 6 9 18 6 9 18 6 9 18 6 9 18 6 9 18 6 9 18 6 9 18 6 9 18 8 8 16 9 9 17 9 10 15 10 9 15 9 10 15 10 9 15 9 10 15 10 9 15 9 10 15 2 1 7 1 2 7 2 1 7 1 2 7 2 1 7 1 2 7 2 1 7 1 2 7 7 11 14 7 11 12 7 11 12 7 11 12 7 11 12 7 11 12 7 11 12 7 11 12 13 17 18 15 19 20 17 21 22 20 24 25 24 28 29 27 31 32 29 33 34 31 35 36 46 50 49 50 54 53 57 61 60 67 71 70 77 81 80 87 91 90 94 98 97 98 102 101 107 111 110 112 116 115 117 121 120 120 124 123 116 120 119 107 111 110 97 101 100 92 94 93 56 56 56 55 53 54 53 51 52 50 48 49 46 44 45 43 41 42 41 39 40 39 37 38 43 41 42 43 41 42 43 41 42 43 41 42 43 41 42 43 41 42 43 41 42 43 41 42 39 37 40 39 37 40 39 37 40 39 37 40 39 37 40 39 37 40 39 37 40 39 37 40 43 41 44 43 41 44 43 41 44 43 41 44 43 41 44 43 41 44 43 41 44 43 41 44
100 88 112 97 85 107 94 82 106 93 81 103 104 92 116 103 91 113 100 88 112 97 85 107 94 82 106 90 78 100 88 76 100 87 75 97 91 79 101 88 79 100 85 76 97 82 73 94 79 70 91 75 66 87 73 64 85 72 63 84 58 49 70 55 46 67 49 40 61 41 32 53 33 24 45 26 17 38 20 11 32 17 8 27 9 2 18 7 3 17 7 3 17 7 3 17 7 3 17 7 3 17 7 3 17 7 3 17 6 2 16 6 2 16 6 2 16 6 2 16 6 2 16 6 2 16 6 2 16 6 2 16 6 4 18 5 4 18 5 4 18 5 4 18 5 4 18 5 4 18 5 4 18 5 4 18 6 5 19 6 5 19 6 5 19 6 5 19 6 5 19 6 5 19 6 5 19 6 5 19 7 9 21 6 10 21 6 10 21 6 10 21 6 10 21 6 10 21 6 10 21 6 10 21 6 10 21 6 10 21 6 10 21 6 10 21 6 10 21 6 10 21 6 10 21 6 10 21 6 10 19 6 10 19 6 10 19 6 10 19 6 10 19 6 10 19 6 10 19 6 10 19 7 11 20 7 11 20 7 11 20 7 11 20 7 11 20 7 11 20 7 11 20 7 12 18 6 9 16 6 9 14 8 9 14 6 9 14 8 9 14 6 9 14 8 9 14 6 9 14 3 4 9 1 4 9 3 4 9 1 4 9 3 4 9 1 4 9 3 4 9 1 4 9 5 9 12 4 9 12 4 9 12 4 9 12 4 9 12 4 9 12 4 9 12 4 9 12 17 22 25 19 24 27 21 26 29 24 29 32 28 33 36 31 36 39 33 38 41 35 41 41 51 55 54 53 57 56 58 62 61 65 69 68 71 75 74 78 82 81 83 87 86 85 89 88 97 101 100 103 107 106 111 115 114 116 120 119 116 120 119 111 115 114 103 107 106 99 101 100 65 65 63 59 58 56 49 48 46 40 39 37 37 36 34 39 38 36 45 44 42 49 48 46 40 39 37 40 39 37 40 39 37 40 39 37 40 39 37 40 39 37 40 39 37 40 39 37 41 37 38 41 37 38 41 37 38 41 37 38 41 37 38 41 37 38 41 37 38 41 37 38 40 36 37 40 36 37 40 36 37 40 36 37 40 36 37 40 36 37 40 36 37 40 36 37
97 87 111 94 84 108 91 81 105 90 80 104 95 85 109 94 84 108 92 82 106 88 78 102 85 75 99 82 72 96 79 69 93 78 68 92 77 69 92 76 68 91 73 65 88 70 62 85 67 59 82 63 55 78 61 53 76 60 52 75 48 40 63 45 37 60 40 32 55 33 25 48 26 18 41 19 11 34 13 5 28 8 3 23 7 3 18 6 4 17 6 4 17 6 4 17 6 4 17 6 4 17 6 4 17 6 4 17 5 3 16 5 3 16 5 3 16 5 3 16 5 3 16 5 3 16 5 3 16 5 3 16 5 4 18 5 4 18 5 4 18 5 4 18 5 4 18 5 4 18 5 4 18 5 4 18 6 5 19 6 5 19 6 5 19 6 5 19 6 5 19 6 5 19 6 5 19 4 6 19 6 10 21 4 11 21 4 11 21 4 11 21 4 11 21 4 11 21 4 11 21 4 11 21 4 11 21 4 11 21 4 11 21 4 11 21 4 11 21 4 11 21 4 11 21 4 11 21 4 11 19 4 11 19 4 11 19 4 11 19 4 11 19 4 11 19 4 11 19 4 11 19 5 12 20 5 12 20 5 12 20 5 12 20 5 12 20 5 12 20 5 12 20 5 12 18 6 9 16 6 9 14 6 9 14 6 9 14 6 9 14 6 9 14 6 9 14 6 9 14 1 4 9 1 4 9 1 4 9 1 4 9 1 4 9 1 4 9 1 4 9 1 4 9 4 9 12 4 9 12 4 9 12 4 9 12 4 9 12 4 9 12 4 9 12 4 9 12 17 22 25 19 24 27 21 26 29 24 29 32 28 33 36 31 36 39 33 38 41 35 41 41 51 55 56 53 57 56 58 62 61 65 69 68 71 75 74 78 82 81 83 87 86 85 89 88 96 100 99 101 105 104 109 113 112 115 119 118 115 119 118 109 113 112 101 105 104 98 100 99 65 65 63 59 58 56 49 48 46 40 39 37 37 36 34 39 38 36 45 44 42 49 48 46 40 39 37 40 39 37 40 39 37 40 39 37 40 39 37 40 39 37 40 39 37 40 39 37 41 37 38 41 37 38 41 37 38 41 37 38 41 37 38 41 37 38 41 37 38 41 37 38 40 36 37 40 36 37 40 36 37 40 36 37 40 36 37 40 36 37 40 36 37 40 36 37
93 83 107 90 80 104 87 77 101 86 76 100 83 73 97 82 72 96 79 69 93 76 66 90 73 63 87 70 60 84 67 57 81 66 56 80 59 51 74 58 50 73 56 48 71 52 44 67 49 41 64 46 38 61 43 35 58 42 34 57 34 26 49 32 24 47 28 20 43 22 14 37 16 8 31 10 2 25 6 0 21 1 0 16 7 3 18 6 4 17 6 4 17 6 4 17 6 4 17 6 4 17 6 4 17 6 4 17 5 3 16 5 3 16 5 3 16 5 3 16 5 3 16 5 3 16 5 3 16 5 3 16 5 4 18 5 4 18 5 4 18 5 4 18 5 4 18 5 4 18 5 4 18 5 4 18 6 5 19 6 5 19 6 5 19 6 5 19 6 5 19 6 5 19 6 5 19 4 6 19 6 10 21 4 11 21 4 11 21 4 11 21 4 11 21 4 11 21 4 11 21 4 11 21 4 11 21 4 11 21 4 11 21 4 11 21 4 11 21 4 11 21 4 11 21 4 11 21 4 11 19 4 11 19 4 11 19 4 11 19 4 11 19 4 11 19 4 11 19 4 11 19 5 12 20 5 12 20 5 12 20 5 12 20 5 12 20 5 12 20 5 12 20 5 12 18 6 9 16 6 9 14 6 9 14 6 9 14 6 9 14 6 9 14 6 9 14 6 9 14 1 4 9 1 4 9 1 4 9 1 4 9 1 4 9 1 4 9 1 4 9 1 4 9 4 9 12 4 9 12 4 9 12 4 9 12 4 9 12 4 9 12 4 9 12 4 9 12 17 22 25 19 24 27 21 26 29 24 29 32 28 33 36 31 36 39 33 38 41 35 41 41 51 55 56 53 57 56 58 62 61 65 69 68 71 75 74 78 82 81 83 87 86 85 89 88 93 97 96 99 103 102 107 111 110 113 117 116 113 117 116 107 111 110 99 103 102 95 97 96 65 65 63 59 58 56 49 48 46 40 39 37 37 36 34 39 38 36 45 44 42 49 48 46 40 39 37 40 39 37 40 39 37 40 39 37 40 39 37 40 39 37 40 39 37 40 39 37 41 37 38 41 37 38 41 37 38 41 37 38 41 37 38 41 37 38 41 37 38 41 37 38 40 36 37 40 36 37 40 36 37 40 36 37 40 36 37 40 36 37 40 36 37 40 36 37
83 73 97 79 69 93 77 67 91 76 66 90 67 57 81 66 56 80 64 54 78 60 50 74 57 47 71 54 44 68 51 41 65 50 40 64 41 33 56 40 32 55 37 29 52 34 26 49 31 23 46 27 19 42 25 17 40 24 16 39 21 13 36 19 11 34 16 8 31 12 4 27 8 0 23 4 0 19 3 0 18 1 0 16 7 3 18 6 4 17 6 4 17 6 4 17 6 4 17 6 4 17 6 4 17 6 4 17 5 3 16 5 3 16 5 3 16 5 3 16 5 3 16 5 3 16 5 3 16 5 3 16 5 4 18 5 4 18 5 4 18 5 4 18 5 4 18 5 4 18 5 4 18 5 4 18 6 5 19 6 5 19 6 5 19 6 5 19 6 5 19 6 5 19 6 5 19 4 6 19 6 10 21 4 11 21 4 11 21 4 11 21 4 11 21 4 11 21 4 11 21 4 11 21 4 11 21 4 11 21 4 11 21 4 11 21 4 11 21 4 11 21 4 11 21 4 11 21 4 11 19 4 11 19 4 11 19 4 11 19 4 11 19 4 11 19 4 11 19 4 11 19 5 12 20 5 12 20 5 12 20 5 12 20 5 12 20 5 12 20 5 12 20 5 12 18 6 9 16 6 9 14 6 9 14 6 9 14 6 9 14 6 9 14 6 9 14 6 9 14 1 4 9 1 4 9 1 4 9 1 4 9 1 4 9 1 4 9 1 4 9 1 4 9 4 9 12 4 9 12 4 9 12 4 9 12 4 9 12 4 9 12 4 9 12 4 9 12 17 22 25 19 24 27 21 26 29 24 29 32 28 33 36 31 36 39 33 38 41 35 41 41 51 55 56 53 57 56 58 62 61 65 69 68 71 75 74 78 82 81 83 87 86 85 89 88 90 94 93 96 100 99 104 108 107 109 113 112 109 113 112 104 108 107 96 100 99 92 94 93 65 65 63 59 58 56 49 48 46 40 39 37 37 36 34 39 38 36 45 44 42 49 48 46 40 39 37 40 39 37 40 39 37 40 39 37 40 39 37 40 39 37 40 39 37 40 39 37 41 37 38 41 37 38 41 37 38 41 37 38 41 37 38 41 37 38 41 37 38 41 37 38 40 36 37 40 36 37 40 36 37 40 36 37 40 36 37 40 36 37 40 36 37 40 36 37
65 55 79 62 52 76 60 50 74 58 48 72 50 40 64 49 39 63 46 36 60 43 33 57 40 30 54 36 26 50 34 24 48 33 23 47 27 19 42 26 18 41 23 15 38 20 12 35 17 9 32 14 6 29 11 3 26 10 2 25 13 5 28 12 4 27 10 2 25 8 0 23 5 0 20 3 0 18 3 0 18 1 0 16 7 3 18 6 4 17 6 4 17 6 4 17 6 4 17 6 4 17 6 4 17 6 4 17 5 3 16 5 3 16 5 3 16 5 3 16 5 3 16 5 3 16 5 3 16 5 3 16 5 4 18 5 4 18 5 4 18 5 4 18 5 4 18 5 4 18 5 4 18 5 4 18 6 5 19 6 5 19 6 5 19 6 5 19 6 5 19 6 5 19 6 5 19 4 6 19 6 10 21 4 11 21 4 11 21 4 11 21 4 11 21 4 11 21 4 11 21 4 11 21 4 11 21 4 11 21 4 11 21 4 11 21 4 11 21 4 11 21 4 11 21 4 11 21 4 11 19 4 11 19 4 11 19 4 11 19 4 11 19 4 11 19 4 11 19 4 11 19 5 12 20 5 12 20 5 12 20 5 12 20 5 12 20 5 12 20 5 12 20 5 12 18 6 9 16 6 9 14 6 9 14 6 9 14 6 9 14 6 9 14 6 9 14 6 9 14 1 4 9 1 4 9 1 4 9 1 4 9 1 4 9 1 4 9 1 4 9 1 4 9 4 9 12 4 9 12 4 9 12 4 9 12 4 9 12 4 9 12 4 9 12 4 9 12 17 22 25 19 24 27 21 26 29 24 29 32 28 33 36 31 36 39 33 38 41 35 41 41 51 55 56 53 57 56 58 62 61 65 69 68 71 75 74 78 82 81 83 87 86 85 89 88 87 91 90 92 96 95 100 104 103 106 110 109 106 110 109 100 104 103 92 96 95 89 91 90 65 65 63 59 58 56 49 48 46 40 39 37 37 36 34 39 38 36 45 44 42 49 48 46 40 39 37 40 39 37 40 39 37 40 39 37 40 39 37 40 39 37 40 39 37 40 39 37 41 37 38 41 37 38 41 37 38 41 37 38 41 37 38 41 37 38 41 37 38 41 37 38 40 36 37 40 36 37 40 36 37 40 36 37 40 36 37 40 36 37 40 36 37 40 36 37
44 34 58 41 31 55 38 28 52 37 27 51 34 24 48 33 23 47 30 20 44 27 17 41 24 14 38 21 11 35 18 8 32 17 7 31 20 12 35 19 11 34 16 8 31 13 5 28 10 2 25 6 0 21 4 0 19 3 0 18 11 3 26 11 3 26 10 2 25 9 1 24 9 1 24 8 0 23 8 0 23 5 0 20 7 3 18 6 4 17 6 4 17 6 4 17 6 4 17 6 4 17 6 4 17 6 4 17 5 3 16 5 3 16 5 3 16 5 3 16 5 3 16 5 3 16 5 3 16 5 3 16 5 4 18 5 4 18 5 4 18 5 4 18 5 4 18 5 4 18 5 4 18 5 4 18 6 5 19 6 5 19 6 5 19 6 5 19 6 5 19 6 5 19 6 5 19 4 6 19 6 10 21 4 11 21 4 11 21 4 11 21 4 11 21 4 11 21 4 11 21 4 11 21 4 11 21 4 11 21 4 11 21 4 11 21 4 11 21 4 11 21 4 11 21 4 11 21 4 11 19 4 11 19 4 11 19 4 11 19 4 11 19 4 11 19 4 11 19 4 11 19 5 12 20 5 12 20 5 12 20 5 12 20 5 12 20 5 12 20 5 12 20 5 12 18 6 9 16 6 9 14 6 9 14 6 9 14 6 9 14 6 9 14 6 9 14 6 9 14 1 4 9 1 4 9 1 4 9 1 4 9 1 4 9 1 4 9 1 4 9 1 4 9 4 9 12 4 9 12 4 9 12 4 9 12 4 9 12 4 9 12 4 9 12 4 9 12 17 22 25 19 24 27 21 26 29 24 29 32 28 33 36 31 36 39 33 38 41 35 41 41 51 55 56 53 57 56 58 62 61 65 69 68 71 75 74 78 82 81 83 87 86 85 89 88 83 87 86 89 93 92 97 101 100 103 107 106 103 107 106 97 101 100 89 93 92 85 87 86 65 65 63 59 58 56 49 48 46 40 39 37 37 36 34 39 38 36 45 44 42 49 48 46 40 39 37 40 39 37 40 39 37 40 39 37 40 39 37 40 39 37 40 39 37 40 39 37 41 37 38 41 37 38 41 37 38 41 37 38 41 37 38 41 37 38 41 37 38 41 37 38 40 36 37 40 36 37 40 36 37 40 36 37 40 36 37 40 36 37 40 36 37 40 36 37
24 14 38 20 10 34 18 8 32 17 7 31 22 12 36 21 11 35 18 8 32 15 5 29 12 2 26 8 0 22 6 0 20 5 0 19 18 10 33 17 9 32 15 7 30 11 3 26 8 0 23 5 0 20 3 0 18 3 0 18 13 5 28 13 5 28 14 6 29 14 6 29 15 7 30 16 8 31 16 8 31 14 9 29 7 3 18 6 4 17 6 4 17 6 4 17 6 4 17 6 4 17 6 4 17 6 4 17 5 3 16 5 3 16 5 3 16 5 3 16 5 3 16 5 3 16 5 3 16 5 3 16 5 4 18 5 4 18 5 4 18 5 4 18 5 4 18 5 4 18 5 4 18 5 4 18 6 5 19 6 5 19 6 5 19 6 5 19 6 5 19 6 5 19 6 5 19 4 6 19 6 10 21 4 11 21 4 11 21 4 11 21 4 11 21 4 11 21 4 11 21 4 11 21 4 11 21 4 11 21 4 11 21 4 11 21 4 11 21 4 11 21 4 11 21 4 11 21 4 11 19 4 11 19 4 11 19 4 11 19 4 11 19 4 11 19 4 11 19 4 11 19 5 12 20 5 12 20 5 12 20 5 12 20 5 12 20 5 12 20 5 12 20 5 12 18 6 9 16 6 9 14 6 9 14 6 9 14 6 9 14 6 9 14 6 9 14 6 9 14 1 4 9 1 4 9 1 4 9 1 4 9 1 4 9 1 4 9 1 4 9 1 4 9 4 9 12 4 9 12 4 9 12 4 9 12 4 9 12 4 9 12 4 9 12 4 9 12 17 22 25 19 24 27 21 26 29 24 29 32 28 33 36 31 36 39 33 38 41 35 41 41 51 55 56 53 57 56 58 62 61 65 69 68 71 75 74 78 82 81 83 87 86 85 89 88 81 85 84 87 91 90 95 99 98 100 104 103 100 104 103 95 99 98 87 91 90 83 85 84 65 65 63 59 58 56 49 48 46 40 39 37 37 36 34 39 38 36 45 44 42 49 48 46 40 39 37 40 39 37 40 39 37 40 39 37 40 39 37 40 39 37 40 39 37 40 39 37 41 37 38 41 37 38 41 37 38 41 37 38 41 37 38 41 37 38 41 37 38 41 37 38 40 36 37 40 36 37 40 36 37 40 36 37 40 36 37 40 36 37 40 36 37 40 36 37
11 1 25 8 0 22 6 0 20 4 0 18 15 5 29 14 4 28 12 2 26 8 0 22 5 0 19 4 0 18 4 0 18 4 0 18 19 11 34 17 9 32 15 7 30 12 4 27 8 0 23 5 0 20 3 0 18 3 0 18 16 8 31 16 8 31 17 9 32 18 10 33 20 12 35 21 13 36 22 14 37 20 15 35 7 3 18 6 4 17 6 4 17 6 4 17 6 4 17 6 4 17 6 4 17 6 4 17 5 3 16 5 3 16 5 3 16 5 3 16 5 3 16 5 3 16 5 3 16 5 3 16 5 4 18 5 4 18 5 4 18 5 4 18 5 4 18 5 4 18 5 4 18 5 4 18 6 5 19 6 5 19 6 5 19 6 5 19 6 5 19 6 5 19 6 5 19 4 6 19 6 10 21 4 11 21 4 11 21 4 11 21 4 11 21 4 11 21 4 11 21 4 11 21 4 11 21 4 11 21 4 11 21 4 11 21 4 11 21 4 11 21 4 11 21 4 11 21 4 11 19 4 11 19 4 11 19 4 11 19 4 11 19 4 11 19 4 11 19 4 11 19 5 12 20 5 12 20 5 12 20 5 12 20 5 12 20 5 12 20 5 12 20 5 12 18 6 9 16 6 9 14 6 9 14 6 9 14 6 9 14 6 9 14 6 9 14 6 9 14 1 4 9 1 4 9 1 4 9 1 4 9 1 4 9 1 4 9 1 4 9 1 4 9 4 9 12 4 9 12 4 9 12 4 9 12 4 9 12 4 9 12 4 9 12 4 9 12 17 22 25 19 24 27 21 26 29 24 29 32 28 33 36 31 36 39 33 38 41 35 41 41 51 55 56 53 57 56 58 62 61 65 69 68 71 75 74 78 82 81 83 87 86 85 89 88 80 84 83 85 89 88 93 97 96 99 103 102 99 103 102 93 97 96 85 89 88 82 84 83 65 65 63 59 58 56 49 48 46 40 39 37 37 36 34 39 38 36 45 44 42 49 48 46 40 39 37 40 39 37 40 39 37 40 39 37 40 39 37 40 39 37 40 39 37 40 39 37 41 37 38 41 37 38 41 37 38 41 37 38 41 37 38 41 37 38 41 37 38 41 37 38 40 36 37 40 36 37 40 36 37 40 36 37 40 36 37 40 36 37 40 36 37 40 36 37
9 0 23 9 0 23 9 0 23 9 0 23 9 0 23 9 0 23 9 0 23 9 0 23 9 0 23 9 0 23 9 0 23 9 0 23 8 0 23 8 0 23 8 0 23 8 0 23 8 0 23 8 0 23 8 0 23 8 0 23 9 1 24 9 1 24 9 1 24 9 1 24 9 1 24 9 1 24 9 1 24 7 2 22 7 3 18 6 4 17 6 4 17 6 4 17 6 4 17 6 4 17 6 4 17 6 4 17 4 2 15 4 2 15 4 2 15 4 2 15 4 2 15 4 2 15 4 2 15 4 2 15 6 5 19 6 5 19 6 5 19 6 5 19 6 5 19 6 5 19 6 5 19 6 5 19 6 5 19 6 5 19 6 5 19 6 5 19 6 5 19 6 5 19 6 5 19 4 6 19 4 8 19 2 9 19 2 9 19 2 9 19 2 9 19 2 9 19 2 9 19 2 9 19 5 12 22 5 12 22 5 12 22 5 12 22 5 12 22 5 12 22 5 12 22 5 12 22 4 11 19 4 11 19 4 11 19 4 11 19 4 11 19 4 11 19 4 11 19 4 11 19 7 14 22 7 14 22 7 14 22 7 14 22 7 14 22 7 14 22 7 14 22 7 14 20 0 3 10 0 3 8 0 3 8 0 3 8 0 3 8 0 3 8 0 3 8 0 3 8 0 3 8 0 3 8 0 3 8 0 3 8 0 3 8 0 3 8 0 3 8 0 3 8 0 1 4 0 1 4 0 2 5 0 5 8 4 9 12 7 12 15 9 14 17 11 16 19 21 26 29 23 28 31 25 30 33 28 33 36 32 37 40 35 40 43 37 42 45 39 45 45 51 55 56 53 57 56 55 59 58 58 62 61 62 66 65 65 69 68 67 71 70 69 73 72 86 90 89 86 90 89 86 90 89 86 90 89 86 90 89 86 90 89 86 90 89 88 90 89 60 60 58 54 53 51 44 43 41 35 34 32 32 31 29 34 33 31 40 39 37 44 43 41 34 33 31 34 33 31 34 33 31 34 33 31 34 33 31 34 33 31 34 33 31 34 33 31 36 32 33 36 32 33 36 32 33 36 32 33 36 32 33 36 32 33 36 32 33 36 32 33 39 35 36 39 35 36 39 35 36 39 35 36 39 35 36 39 35 36 39 35 36 39 35 36
9 0 23 9 0 23 9 0 23 9 0 23 9 0 23 9 0 23 9 0 23 9 0 23 9 0 23 9 0 23 9 0 23 9 0 23 8 0 23 8 0 23 8 0 23 8 0 23 8 0 23 8 0 23 8 0 23 8 0 23 9 1 24 9 1 24 9 1 24 9 1 24 9 1 24 9 1 24 9 1 24 7 2 22 7 3 18 6 4 17 6 4 17 6 4 17 6 4 17 6 4 17 6 4 17 6 4 17 4 2 15 4 2 15 4 2 15 4 2 15 4 2 15 4 2 15 4 2 15 4 2 15 6 5 19 6 5 19 6 5 19 6 5 19 6 5 19 6 5 19 6 5 19 6 5 19 6 5 19 6 5 19 6 5 19 6 5 19 6 5 19 6 5 19 6 5 19 4 6 19 4 8 19 2 9 19 2 9 19 2 9 19 2 9 19 2 9 19 2 9 19 2 9 19 5 12 22 5 12 22 5 12 22 5 12 22 5 12 22 5 12 22 5 12 22 5 12 22 4 11 19 4 11 19 4 11 19 4 11 19 4 11 19 4 11 19 4 11 19 4 11 19 7 14 22 7 14 22 7 14 22 7 14 22 7 14 22 7 14 22 7 14 22 7 14 20 2 5 12 2 5 10 2 5 10 2 5 10 2 5 10 2 5 10 2 5 10 2 5 10 0 3 8 0 3 8 0 3 8 0 3 8 0 3 8 0 3 8 0 3 8 0 3 8 0 1 4 0 1 4 0 2 5 0 5 8 4 9 12 7 12 15 9 14 17 11 16 19 21 26 29 23 28 31 25 30 33 28 33 36 32 37 40 35 40 43 37 42 45 39 45 45 51 55 56 53 57 56 55 59 58 58 62 61 62 66 65 65 69 68 67 71 70 69 73 72 84 88 87 84 88 87 84 88 87 84 88 87 84 88 87 84 88 87 84 88 87 86 88 87 60 60 58 54 53 51 44 43 41 35 34 32 32 31 29 34 33 31 40 39 37 44 43 41 34 33 31 34 33 31 34 33 31 34 33 31 34 33 31 34 33 31 34 33 31 34 33 31 36 32 33 36 32 33 36 32 33 36 32 33 36 32 33 36 32 33 36 32 33 36 32 33 39 35 36 39 35 36 39 35 36 39 35 36 39 35 36 39 35 36 39 35 36 39 35 36
9 0 23 9 0 23 9 0 23 9 0 23 9 0 23 9 0 23 9 0 23 9 0 23 9 0 23 9 0 23 9 0 23 9 0 23 8 0 23 8 0 23 8 0 23 8 0 23 8 0 23 8 0 23 8 0 23 8 0 23 9 1 24 9 1 24 9 1 24 9 1 24 9 1 24 9 1 24 9 1 24 7 2 22 7 3 18 6 4 17 6 4 17 6 4 17 6 4 17 6 4 17 6 4 17 6 4 17 4 2 15 4 2 15 4 2 15 4 2 15 4 2 15 4 2 15 4 2 15 4 2 15 6 5 19 6 5 19 6 5 19 6 5 19 6 5 19 6 5 19 6 5 19 6 5 19 6 5 19 6 5 19 6 5 19 6 5 19 6 5 19 6 5 19 6 5 19 4 6 19 4 8 19 2 9 19 2 9 19 2 9 19 2 9 19 2 9 19 2 9 19 2 9 19 5 12 22 5 12 22 5 12 22 5 12 22 5 12 22 5 12 22 5 12 22 5 12 22 4 11 19 4 11 19 4 11 19 4 11 19 4 11 19 4 11 19 4 11 19 4 11 19 7 14 22 7 14 22 7 14 22 7 14 22 7 14 22 7 14 22 7 14 22 7 14 20 4 7 14 4 7 12 4 7 12 4 7 12 4 7 12 4 7 12 4 7 12 4 7 12 0 3 8 0 3 8 0 3 8 0 3 8 0 3 8 0 3 8 0 3 8 0 3 8 0 1 4 0 1 4 0 2 5 0 5 8 4 9 12 7 12 15 9 14 17 11 16 19 21 26 29 23 28 31 25 30 33 28 33 36 32 37 40 35 40 43 37 42 45 39 45 45 51 55 56 53 57 56 55 59 58 58 62 61 62 66 65 65 69 68 67 71 70 69 73 72 82 86 85 82 86 85 82 86 85 82 86 85 82 86 85 82 86 85 82 86 85 84 86 85 60 60 58 54 53 51 44 43 41 35 34 32 32 31 29 34 33 31 40 39 37 44 43 41 34 33 31 34 33 31 34 33 31 34 33 31 34 33 31 34 33 31 34 33 31 34 33 31 36 32 33 36 32 33 36 32 33 36 32 33 36 32 33 36 32 33 36 32 33 36 32 33 39 35 36 39 35 36 39 35 36 39 35 36 39 35 36 39 35 36 39 35 36 39 35 36
9 0 23 9 0 23 9 0 23 9 0 23 9 0 23 9 0 23 9 0 23 9 0 23 9 0 23 9 0 23 9 0 23 9 0 23 8 0 23 8 0 23 8 0 23 8 0 23 8 0 23 8 0 23 8 0 23 8 0 23 9 1 24 9 1 24 9 1 24 9 1 24 9 1 24 9 1 24 9 1 24 7 2 22 7 3 18 6 4 17 6 4 17 6 4 17 6 4 17 6 4 17 6 4 17 6 4 17 4 2 15 4 2 15 4 2 15 4 2 15 4 2 15 4 2 15 4 2 15 4 2 15 6 5 19 6 5 19 6 5 19 6 5 19 6 5 19 6 5 19 6 5 19 6 5 19 6 5 19 6 5 19 6 5 19 6 5 19 6 5 19 6 5 19 6 5 19 4 6 19 4 8 19 2 9 19 2 9 19 2 9 19 2 9 19 2 9 19 2 9 19 2 9 19 5 12 22 5 12 22 5 12 22 5 12 22 5 12 22 5 12 22 5 12 22 5 12 22 4 11 19 4 11 19 4 11 19 4 11 19 4 11 19 4 11 19 4 11 19 4 11 19 7 14 22 7 14 22 7 14 22 7 14 22 7 14 22 7 14 22 7 14 22 7 14 20 7 10 17 7 10 15 7 10 15 7 10 15 7 10 15 7 10 15 7 10 15 7 10 15 0 3 8 0 3 8 0 3 8 0 3 8 0 3 8 0 3 8 0 3 8 0 3 8 0 1 4 0 1 4 0 2 5 0 5 8 4 9 12 7 12 15 9 14 17 11 16 19 21 26 29 23 28 31 25 30 33 28 33 36 32 37 40 35 40 43 37 42 45 39 45 45 51 55 56 53 57 56 55 59 58 58 62 61 62 66 65 65 69 68 67 71 70 69 73 72 79 83 82 79 83 82 79 83 82 79 83 82 79 83 82 79 83 82 79 83 82 81 83 82 60 60 58 54 53 51 44 43 41 35 34 32 32 31 29 34 33 31 40 39 37 44 43 41 34 33 31 34 33 31 34 33 31 34 33 31 34 33 31 34 33 31 34 33 31 34 33 31 36 32 33 36 32 33 36 32 33 36 32 33 36 32 33 36 32 33 36 32 33 36 32 33 39 35 36 39 35 36 39 35 36 39 35 36 39 35 36 39 35 36 39 35 36 39 35 36
9 0 23 9 0 23 9 0 23 9 0 23 9 0 23 9 0 23 9 0 23 9 0 23 9 0 23 9 0 23 9 0 23 9 0 23 8 0 23 8 0 23 8 0 23 8 0 23 8 0 23 8 0 23 8 0 23 8 0 23 9 1 24 9 1 24 9 1 24 9 1 24 9 1 24 9 1 24 9 1 24 7 2 22 7 3 18 6 4 17 6 4 17 6 4 17 6 4 17 6 4 17 6 4 17 6 4 17 4 2 15 4 2 15 4 2 15 4 2 15 4 2 15 4 2 15 4 2 15 4 2 15 6 5 19 6 5 19 6 5 19 6 5 19 6 5 19 6 5 19 6 5 19 6 5 19 6 5 19 6 5 19 6 5 19 6 5 19 6 5 19 6 5 19 6 5 19 4 6 19 4 8 19 2 9 19 2 9 19 2 9 19 2 9 19 2 9 19 2 9 19 2 9 19 5 12 22 5 12 22 5 12 22 5 12 22 5 12 22 5 12 22 5 12 22 5 12 22 4 11 19 4 11 19 4 11 19 4 11 19 4 11 19 4 11 19 4 11 19 4 11 19 7 14 22 7 14 22 7 14 22 7 14 22 7 14 22 7 14 22 7 14 22 7 14 20 11 14 21 11 14 19 11 14 19 11 14 19 11 14 19 11 14 19 11 14 19 11 14 19 0 3 8 0 3 8 0 3 8 0 3 8 0 3 8 0 3 8 0 3 8 0 3 8 0 1 4 0 1 4 0 2 5 0 5 8 4 9 12 7 12 15 9 14 17 11 16 19 21 26 29 23 28 31 25 30 33 28 33 36 32 37 40 35 40 43 37 42 45 39 45 45 51 55 56 53 57 56 55 59 58 58 62 61 62 66 65 65 69 68 67 71 70 69 73 72 75 79 78 75 79 78 75 79 78 75 79 78 75 79 78 75 79 78 75 79 78 77 79 78 60 60 58 54 53 51 44 43 41 35 34 32 32 31 29 34 33 31 40 39 37 44 43 41 34 33 31 34 33 31 34 33 31 34 33 31 34 33 31 34 33 31 34 33 31 34 33 31 36 32 33 36 32 33 36 32 33 36 32 33 36 32 33 36 32 33 36 32 33 36 32 33 39 35 36 39 35 36 39 35 36 39 35 36 39 35 36 39 35 36 39 35 36 39 35 36
9 0 23 9 0 23 9 0 23 9 0 23 9 0 23 9 0 23 9 0 23 9 0 23 9 0 23 9 0 23 9 0 23 9 0 23 8 0 23 8 0 23 8 0 23 8 0 23 8 0 23 8 0 23 8 0 23 8 0 23 9 1 24 9 1 24 9 1 24 9 1 24 9 1 24 9 1 24 9 1 24 7 2 22 7 3 18 6 4 17 6 4 17 6 4 17 6 4 17 6 4 17 6 4 17 6 4 17 4 2 15 4 2 15 4 2 15 4 2 15 4 2 15 4 2 15 4 2 15 4 2 15 6 5 19 6 5 19 6 5 19 6 5 19 6 5 19 6 5 19 6 5 19 6 5 19 6 5 19 6 5 19 6 5 19 6 5 19 6 5 19 6 5 19 6 5 19 4 6 19 4 8 19 2 9 19 2 9 19 2 9 19 2 9 19 2 9 19 2 9 19 2 9 19 5 12 22 5 12 22 5 12 22 5 12 22 5 12 22 5 12 22 5 12 22 5 12 22 4 11 19 4 11 19 4 11 19 4 11 19 4 11 19 4 11 19 4 11 19 4 11 19 7 14 22 7 14 22 7 14 22 7 14 22 7 14 22 7 14 22 7 14 22 7 14 20 14 17 24 14 17 22 14 17 22 14 17 22 14 17 22 14 17 22 14 17 22 14 17 22 0 3 8 0 3 8 0 3 8 0 3 8 0 3 8 0 3 8 0 3 8 0 3 8 0 1 4 0 1 4 0 2 5 0 5 8 4 9 12 7 12 15 9 14 17 11 16 19 21 26 29 23 28 31 25 30 33 28 33 36 32 37 40 35 40 43 37 42 45 39 45 45 51 55 56 53 57 56 55 59 58 58 62 61 62 66 65 65 69 68 67 71 70 69 73 72 72 76 75 72 76 75 72 76 75 72 76 75 72 76 75 72 76 75 72 76 75 74 76 75 60 60 58 54 53 51 44 43 41 35 34 32 32 31 29 34 33 31 40 39 37 44 43 41 34 33 31 34 33 31 34 33 31 34 33 31 34 33 31 34 33 31 34 33 31 34 33 31 36 32 33 36 32 33 36 32 33 36 32 33 36 32 33 36 32 33 36 32 33 36 32 33 39 35 36 39 35 36 39 35 36 39 35 36 39 35 36 39 35 36 39 35 36 39 35 36
9 0 23 9 0 23 9 0 23 9 0 23 9 0 23 9 0 23 9 0 23 9 0 23 9 0 23 9 0 23 9 0 23 9 0 23 8 0 23 8 0 23 8 0 23 8 0 23 8 0 23 8 0 23 8 0 23 8 0 23 9 1 24 9 1 24 9 1 24 9 1 24 9 1 24 9 1 24 9 1 24 7 2 22 7 3 18 6 4 17 6 4 17 6 4 17 6 4 17 6 4 17 6 4 17 6 4 17 4 2 15 4 2 15 4 2 15 4 2 15 4 2 15 4 2 15 4 2 15 4 2 15 6 5 19 6 5 19 6 5 19 6 5 19 6 5 19 6 5 19 6 5 19 6 5 19 6 5 19 6 5 19 6 5 19 6 5 19 6 5 19 6 5 19 6 5 19 4 6 19 4 8 19 2 9 19 2 9 19 2 9 19 2 9 19 2 9 19 2 9 19 2 9 19 5 12 22 5 12 22 5 12 22 5 12 22 5 12 22 5 12 22 5 12 22 5 12 22 4 11 19 4 11 19 4 11 19 4 11 19 4 11 19 4 11 19 4 11 19 4 11 19 7 14 22 7 14 22 7 14 22 7 14 22 7 14 22 7 14 22 7 14 22 7 14 20 16 19 26 16 19 24 16 19 24 16 19 24 16 19 24 16 19 24 16 19 24 16 19 24 0 3 8 0 3 8 0 3 8 0 3 8 0 3 8 0 3 8 0 3 8 0 3 8 0 1 4 0 1 4 0 2 5 0 5 8 4 9 12 7 12 15 9 14 17 11 16 19 21 26 29 23 28 31 25 30 33 28 33 36 32 37 40 35 40 43 37 42 45 39 45 45 51 55 56 53 57 56 55 59 58 58 62 61 62 66 65 65 69 68 67 71 70 69 73 72 70 74 73 70 74 73 70 74 73 70 74 73 70 74 73 70 74 73 70 74 73 72 74 73 60 60 58 54 53 51 44 43 41 35 34 32 32 31 29 34 33 31 40 39 37 44 43 41 34 33 31 34 33 31 34 33 31 34 33 31 34 33 31 34 33 31 34 33 31 34 33 31 36 32 33 36 32 33 36 32 33 36 32 33 36 32 33 36 32 33 36 32 33 36 32 33 39 35 36 39 35 36 39 35 36 39 35 36 39 35 36 39 35 36 39 35 36 39 35 36
8 0 21 8 0 21 8 0 21 8 0 21 8 0 21 8 0 21 8 0 21 8 0 21 8 0 21 8 0 21 8 0 21 8 0 21 8 0 21 6 1 21 8 0 23 6 1 21 8 0 23 6 1 21 8 0 23 6 1 21 9 1 24 7 2 22 9 1 24 7 2 22 9 1 24 7 2 22 9 1 24 7 2 22 6 4 18 6 4 17 6 4 17 6 4 17 6 4 17 6 4 17 6 4 17 6 4 17 4 2 15 4 2 15 4 2 15 4 2 15 4 2 15 4 2 15 4 2 15 3 3 15 6 6 18 6 6 18 6 5 19 6 6 18 6 5 19 6 6 18 6 5 19 6 6 18 6 5 19 6 6 18 6 5 19 6 6 18 6 5 19 6 6 18 6 5 19 4 6 18 4 8 19 2 9 17 2 9 19 2 9 17 2 9 19 2 9 17 2 9 19 2 9 17 5 12 22 5 12 20 5 12 22 5 12 20 5 12 22 5 12 20 5 12 22 5 12 20 4 11 19 4 11 19 4 11 19 4 11 19 4 11 19 4 11 19 4 11 19 4 11 19 7 14 22 7 14 22 7 14 22 7 14 22 7 14 22 7 14 22 7 14 22 7 14 20 17 22 26 17 22 26 18 21 26 17 22 26 18 21 26 17 22 26 18 21 26 17 22 26 0 3 8 0 4 8 0 3 8 0 4 8 0 3 8 0 4 8 0 3 8 0 4 8 0 1 4 0 1 4 0 2 5 0 5 8 4 9 12 7 12 15 9 14 17 11 16 19 21 26 29 23 28 31 25 30 33 28 33 36 32 37 40 35 40 43 37 42 45 39 45 45 51 55 56 53 57 56 55 59 58 58 62 61 62 66 65 65 69 68 67 71 70 69 73 72 68 72 71 68 72 71 68 72 71 68 72 71 68 72 71 68 72 71 68 72 71 70 72 71 60 60 58 54 53 51 44 43 41 35 34 32 32 31 29 34 33 31 40 39 37 44 43 41 34 33 31 34 33 31 34 33 31 34 33 31 34 33 31 34 33 31 34 33 31 34 33 31 36 32 31 36 32 31 36 32 33 36 32 31 36 32 33 36 32 31 36 32 33 36 32 31 39 35 36 39 35 34 39 35 36 39 35 34 39 35 36 39 35 34 39 35 36 39 35 36
6 2 19 6 2 19 6 2 19 6 2 19 6 2 19 6 2 19 6 2 19 6 2 19 6 2 19 6 2 19 6 2 19 6 2 19 7 3 20 6 3 20 7 2 22 6 3 20 7 2 22 6 3 20 7 2 22 6 3 20 6 1 21 5 2 19 6 1 21 5 2 19 6 1 21 5 2 19 6 1 21 5 2 19 5 3 17 4 4 16 4 4 16 4 4 16 4 4 16 4 4 16 4 4 16 4 4 16 3 3 15 3 3 15 3 3 15 3 3 15 3 3 15 3 3 15 3 3 15 3 3 15 4 4 16 2 5 14 2 4 16 2 5 14 2 4 16 2 5 14 2 4 16 2 5 14 4 6 18 4 7 16 4 6 18 4 7 16 4 6 18 4 7 16 4 6 18 4 7 16 6 10 19 4 11 17 4 11 19 4 11 17 4 11 19 4 11 17 4 11 19 4 11 17 6 13 21 6 13 19 6 13 21 6 13 19 6 13 21 6 13 19 6 13 21 6 13 19 9 16 22 9 16 22 9 16 22 9 16 22 9 16 22 9 16 22 9 16 22 9 16 22 4 11 17 5 12 18 8 15 21 11 18 24 14 21 27 18 25 31 20 27 33 21 28 34 31 39 42 31 39 42 33 38 42 31 39 42 33 38 42 31 39 42 33 38 42 31 39 42 14 19 23 10 18 21 10 15 19 5 13 16 3 8 12 0 6 9 0 3 7 0 1 5 0 1 4 0 3 6 0 5 8 3 8 11 7 12 15 10 15 18 12 17 20 14 19 22 20 25 28 22 27 30 24 29 32 27 32 35 31 36 39 34 39 42 36 41 44 38 44 44 38 44 44 40 46 44 42 48 46 45 51 49 49 55 53 52 58 56 54 60 58 56 62 60 63 69 67 63 69 67 63 69 67 63 69 67 63 69 67 63 69 67 63 69 67 64 68 67 47 46 44 47 43 42 45 41 40 42 38 37 38 34 33 35 31 30 33 29 28 31 27 26 35 31 30 35 31 30 35 31 30 35 31 30 35 31 30 35 31 30 35 31 30 35 31 30 38 32 32 38 33 30 38 32 32 38 33 30 38 32 32 38 33 30 38 32 32 38 33 30 39 33 33 39 34 31 39 33 33 39 34 31 39 33 33 39 34 31 39 33 33 39 33 33
5 3 17 5 3 17 5 3 17 5 3 17 5 3 17 5 3 17 5 3 17 5 3 17 5 3 17 5 3 17 5 3 17 5 3 17 6 3 20 6 3 20 6 3 20 6 3 20 6 3 20 6 3 20 6 3 20 6 3 20 5 2 19 5 2 19 5 2 19 5 2 19 5 2 19 5 2 19 5 2 19 5 3 17 4 3 17 4 4 16 4 4 16 4 4 16 4 4 16 4 4 16 4 4 16 4 4 16 3 3 15 3 3 15 3 3 15 3 3 15 3 3 15 3 3 15 3 3 15 3 3 15 2 5 14 2 5 14 2 5 14 2 5 14 2 5 14 2 5 14 2 5 14 2 5 14 4 7 16 4 7 16 4 7 16 4 7 16 4 7 16 4 7 16 4 7 16 3 7 16 6 11 17 4 11 17 4 11 17 4 11 17 4 11 17 4 11 17 4 11 17 4 11 17 6 13 19 6 13 19 6 13 19 6 13 19 6 13 19 6 13 19 6 13 19 6 13 19 9 16 22 9 16 22 9 16 22 9 16 22 9 16 22 9 16 22 9 16 22 9 16 22 7 14 20 8 15 21 10 17 23 14 21 27 17 24 30 20 27 33 23 30 36 24 31 37 31 39 42 31 39 42 31 39 42 31 39 42 31 39 42 31 39 42 31 39 42 31 39 42 12 20 23 10 18 21 8 16 19 5 13 16 1 9 12 0 6 9 0 4 7 0 2 5 0 1 4 0 3 6 0 5 8 3 8 11 7 12 15 10 15 18 12 17 20 14 19 22 20 25 28 22 27 30 24 29 32 27 32 35 31 36 39 34 39 42 36 41 44 38 44 44 38 44 44 40 46 44 42 48 46 45 51 49 49 55 53 52 58 56 54 60 58 56 62 60 61 67 65 61 67 65 61 67 65 61 67 65 61 67 65 61 67 65 61 67 65 62 66 65 47 46 44 47 43 42 45 41 40 42 38 37 38 34 33 35 31 30 33 29 28 31 27 26 35 31 30 35 31 30 35 31 30 35 31 30 35 31 30 35 31 30 35 31 30 35 31 30 38 33 30 38 33 30 38 33 30 38 33 30 38 33 30 38 33 30 38 33 30 38 33 30 39 34 31 39 34 31 39 34 31 39 34 31 39 34 31 39 34 31 39 34 31 39 34 31
5 3 17 5 3 17 5 3 17 5 3 17 5 3 17 5 3 17 5 3 17 5 3 17 5 3 17 5 3 17 5 3 17 5 3 17 6 3 20 6 3 20 6 3 20 6 3 20 6 3 20 6 3 20 6 3 20 6 3 20 5 2 19 5 2 19 5 2 19 5 2 19 5 2 19 5 2 19 5 2 19 5 3 17 4 3 17 4 4 16 4 4 16 4 4 16 4 4 16 4 4 16 4 4 16 4 4 16 3 3 15 3 3 15 3 3 15 3 3 15 3 3 15 3 3 15 3 3 15 3 3 15 2 5 14 2 5 14 2 5 14 2 5 14 2 5 14 2 5 14 2 5 14 2 5 14 4 7 16 4 7 16 4 7 16 4 7 16 4 7 16 4 7 16 4 7 16 3 7 16 6 11 17 4 11 17 4 11 17 4 11 17 4 11 17 4 11 17 4 11 17 4 11 17 6 13 19 6 13 19 6 13 19 6 13 19 6 13 19 6 13 19 6 13 19 6 13 19 9 16 22 9 16 22 9 16 22 9 16 22 9 16 22 9 16 22 9 16 22 9 16 22 12 19 25 13 20 26 15 22 28 18 25 31 22 29 35 25 32 38 28 35 41 29 36 42 31 39 42 31 39 42 31 39 42 31 39 42 31 39 42 31 39 42 31 39 42 31 39 42 12 20 23 10 18 21 8 16 19 5 13 16 1 9 12 0 6 9 0 4 7 0 2 5 0 1 4 0 3 6 0 5 8 3 8 11 7 12 15 10 15 18 12 17 20 14 19 22 20 25 28 22 27 30 24 29 32 27 32 35 31 36 39 34 39 42 36 41 44 38 44 44 38 44 44 40 46 44 42 48 46 45 51 49 49 55 53 52 58 56 54 60 58 56 62 60 59 65 63 59 65 63 59 65 63 59 65 63 59 65 63 59 65 63 59 65 63 60 64 63 47 46 44 47 43 42 45 41 40 42 38 37 38 34 33 35 31 30 33 29 28 31 27 26 35 31 30 35 31 30 35 31 30 35 31 30 35 31 30 35 31 30 35 31 30 35 31 30 38 33 30 38 33 30 38 33 30 38 33 30 38 33 30 38 33 30 38 33 30 38 33 30 39 34 31 39 34 31 39 34 31 39 34 31 39 34 31 39 34 31 39 34 31 39 34 31
5 3 17 5 3 17 5 3 17 5 3 17 5 3 17 5 3 17 5 3 17 5 3 17 5 3 17 5 3 17 5 3 17 5 3 17 6 3 20 6 3 20 6 3 20 6 3 20 6 3 20 6 3 20 6 3 20 6 3 20 5 2 19 5 2 19 5 2 19 5 2 19 5 2 19 5 2 19 5 2 19 5 3 17 4 3 17 4 4 16 4 4 16 4 4 16 4 4 16 4 4 16 4 4 16 4 4 16 3 3 15 3 3 15 3 3 15 3 3 15 3 3 15 3 3 15 3 3 15 3 3 15 2 5 14 2 5 14 2 5 14 2 5 14 2 5 14 2 5 14 2 5 14 2 5 14 4 7 16 4 7 16 4 7 16 4 7 16 4 7 16 4 7 16 4 7 16 3 7 16 6 11 17 4 11 17 4 11 17 4 11 17 4 11 17 4 11 17 4 11 17 4 11 17 6 13 19 6 13 19 6 13 19 6 13 19 6 13 19 6 13 19 6 13 19 6 13 19 9 16 22 9 16 22 9 16 22 9 16 22 9 16 22 9 16 22 9 16 22 9 16 22 18 25 31 19 26 32 22 29 35 25 32 38 28 35 41 31 38 44 34 41 47 35 42 48 31 39 42 31 39 42 31 39 42 31 39 42 31 39 42 31 39 42 31 39 42 31 39 42 12 20 23 10 18 21 8 16 19 5 13 16 1 9 12 0 6 9 0 4 7 0 2 5 0 1 4 0 3 6 0 5 8 3 8 11 7 12 15 10 15 18 12 17 20 14 19 22 20 25 28 22 27 30 24 29 32 27 32 35 31 36 39 34 39 42 36 41 44 38 44 44 38 44 44 40 46 44 42 48 46 45 51 49 49 55 53 52 58 56 54 60 58 56 62 60 56 62 60 56 62 60 56 62 60 56 62 60 56 62 60 56 62 60 56 62 60 57 61 60 47 46 44 47 43 42 45 41 40 42 38 37 38 34 33 35 31 30 33 29 28 31 27 26 35 31 30 35 31 30 35 31 30 35 31 30 35 31 30 35 31 30 35 31 30 35 31 30 38 33 30 38 33 30 38 33 30 38 33 30 38 33 30 38 33 30 38 33 30 38 33 30 39 34 31 39 34 31 39 34 31 39 34 31 39 34 31 39 34 31 39 34 31 39 34 31
5 3 17 5 3 17 5 3 17 5 3 17 5 3 17 5 3 17 5 3 17 5 3 17 5 3 17 5 3 17 5 3 17 5 3 17 6 3 20 6 3 20 6 3 20 6 3 20 6 3 20 6 3 20 6 3 20 6 3 20 5 2 19 5 2 19 5 2 19 5 2 19 5 2 19 5 2 19 5 2 19 5 3 17 4 3 17 4 4 16 4 4 16 4 4 16 4 4 16 4 4 16 4 4 16 4 4 16 3 3 15 3 3 15 3 3 15 3 3 15 3 3 15 3 3 15 3 3 15 3 3 15 2 5 14 2 5 14 2 5 14 2 5 14 2 5 14 2 5 14 2 5 14 2 5 14 4 7 16 4 7 16 4 7 16 4 7 16 4 7 16 4 7 16 4 7 16 3 7 16 6 11 17 4 11 17 4 11 17 4 11 17 4 11 17 4 11 17 4 11 17 4 11 17 6 13 19 6 13 19 6 13 19 6 13 19 6 13 19 6 13 19 6 13 19 6 13 19 9 16 22 9 16 22 9 16 22 9 16 22 9 16 22 9 16 22 9 16 22 9 16 22 25 32 38 26 33 39 29 36 42 32 39 45 35 42 48 38 45 51 41 48 54 42 49 55 31 39 42 31 39 42 31 39 42 31 39 42 31 39 42 31 39 42 31 39 42 31 39 42 12 20 23 10 18 21 8 16 19 5 13 16 1 9 12 0 6 9 0 4 7 0 2 5 0 1 4 0 3 6 0 5 8 3 8 11 7 12 15 10 15 18 12 17 20 14 19 22 20 25 28 22 27 30 24 29 32 27 32 35 31 36 39 34 39 42 36 41 44 38 44 44 38 44 44 40 46 44 42 48 46 45 51 49 49 55 53 52 58 56 54 60 58 56 62 60 52 58 56 52 58 56 52 58 56 52 58 56 52 58 56 52 58 56 52 58 56 53 57 56 47 46 44 47 43 42 45 41 40 42 38 37 38 34 33 35 31 30 33 29 28 31 27 26 35 31 30 35 31 30 35 31 30 35 31 30 35 31 30 35 31 30 35 31 30 35 31 30 38 33 30 38 33 30 38 33 30 38 33 30 38 33 30 38 33 30 38 33 30 38 33 30 39 34 31 39 34 31 39 34 31 39 34 31 39 34 31 39 34 31 39 34 31 39 34 31
5 3 17 5 3 17 5 3 17 5 3 17 5 3 17 5 3 17 5 3 17 5 3 17 5 3 17 5 3 17 5 3 17 5 3 17 6 3 20 6 3 20 6 3 20 6 3 20 6 3 20 6 3 20 6 3 20 6 3 20 5 2 19 5 2 19 5 2 19 5 2 19 5 2 19 5 2 19 5 2 19 5 3 17 4 3 17 4 4 16 4 4 16 4 4 16 4 4 16 4 4 16 4 4 16 4 4 16 3 3 15 3 3 15 3 3 15 3 3 15 3 3 15 3 3 15 3 3 15 3 3 15 2 5 14 2 5 14 2 5 14 2 5 14 2 5 14 2 5 14 2 5 14 2 5 14 4 7 16 4 7 16 4 7 16 4 7 16 4 7 16 4 7 16 4 7 16 3 7 16 6 11 17 4 11 17 4 11 17 4 11 17 4 11 17 4 11 17 4 11 17 4 11 17 6 13 19 6 13 19 6 13 19 6 13 19 6 13 19 6 13 19 6 13 19 6 13 19 9 16 22 9 16 22 9 16 22 9 16 22 9 16 22 9 16 22 9 16 22 9 16 22 31 38 44 32 39 45 35 42 48 38 45 51 42 49 55 45 52 58 47 54 60 48 55 61 31 39 42 31 39 42 31 39 42 31 39 42 31 39 42 31 39 42 31 39 42 31 39 42 12 20 23 10 18 21 8 16 19 5 13 16 1 9 12 0 6 9 0 4 7 0 2 5 0 1 4 0 3 6 0 5 8 3 8 11 7 12 15 10 15 18 12 17 20 14 19 22 20 25 28 22 27 30 24 29 32 27 32 35 31 36 39 34 39 42 36 41 44 38 44 44 38 44 44 40 46 44 42 48 46 45 51 49 49 55 53 52 58 56 54 60 58 56 62 60 49 55 53 49 55 53 49 55 53 49 55 53 49 55 53 49 55 53 49 55 53 50 54 53 47 46 44 47 43 42 45 41 40 42 38 37 38 34 33 35 31 30 33 29 28 31 27 26 35 31 30 35 31 30 35 31 30 35 31 30 35 31 30 35 31 30 35 31 30 35 31 30 38 33 30 38 33 30 38 33 30 38 33 30 38 33 30 38 33 30 38 33 30 38 33 30 39 34 31 39 34 31 39 34 31 39 34 31 39 34 31 39 34 31 39 34 31 39 34 31
5 3 17 5 3 17 5 3 17 5 3 17 5 3 17 5 3 17 5 3 17 5 3 17 5 3 17 5 3 17 5 3 17 5 3 17 6 3 20 6 3 20 6 3 20 6 3 20 6 3 20 6 3 20 6 3 20 6 3 20 5 2 19 5 2 19 5 2 19 5 2 19 5 2 19 5 2 19 5 2 19 5 3 17 4 3 17 4 4 16 4 4 16 4 4 16 4 4 16 4 4 16 4 4 16 4 4 16 3 3 15 3 3 15 3 3 15 3 3 15 3 3 15 3 3 15 3 3 15 3 3 15 2 5 14 2 5 14 2 5 14 2 5 14 2 5 14 2 5 14 2 5 14 2 5 14 4 7 16 4 7 16 4 7 16 4 7 16 4 7 16 4 7 16 4 7 16 3 7 16 6 11 17 4 11 17 4 11 17 4 11 17 4 11 17 4 11 17 4 11 17 4 11 17 6 13 19 6 13 19 6 13 19 6 13 19 6 13 19 6 13 19 6 13 19 6 13 19 9 16 22 9 16 22 9 16 22 9 16 22 9 16 22 9 16 22 9 16 22 9 16 22 36 43 49 37 44 50 40 47 53 43 50 56 46 53 59 50 57 63 52 59 65 53 60 66 31 39 42 31 39 42 31 39 42 31 39 42 31 39 42 31 39 42 31 39 42 31 39 42 12 20 23 10 18 21 8 16 19 5 13 16 1 9 12 0 6 9 0 4 7 0 2 5 0 1 4 0 3 6 0 5 8 3 8 11 7 12 15 10 15 18 12 17 20 14 19 22 20 25 28 22 27 30 24 29 32 27 32 35 31 36 39 34 39 42 36 41 44 38 44 44 38 44 44 40 46 44 42 48 46 45 51 49 49 55 53 52 58 56 54 60 58 56 62 60 47 53 51 47 53 51 47 53 51 47 53 51 47 53 51 47 53 51 47 53 51 48 52 51 47 46 44 47 43 42 45 41 40 42 38 37 38 34 33 35 31 30 33 29 28 31 27 26 35 31 30 35 31 30 35 31 30 35 31 30 35 31 30 35 31 30 35 31 30 35 31 30 38 33 30 38 33 30 38 33 30 38 33 30 38 33 30 38 33 30 38 33 30 38 33 30 39 34 31 39 34 31 39 34 31 39 34 31 39 34 31 39 34 31 39 34 31 39 34 31
5 3 17 5 3 17 5 3 17 5 3 17 5 3 17 5 3 17 5 3 17 5 3 17 5 3 17 5 3 17 5 3 17 5 3 17 6 3 20 6 3 20 6 3 20 6 3 20 6 3 20 6 3 20 6 3 20 6 3 20 5 2 19 5 2 19 5 2 19 5 2 19 5 2 19 5 2 19 5 2 19 5 3 17 4 3 17 4 4 16 4 4 16 4 4 16 4 4 16 4 4 16 4 4 16 4 4 16 3 3 15 3 3 15 3 3 15 3 3 15 3 3 15 3 3 15 3 3 15 3 3 15 2 5 14 2 5 14 2 5 14 2 5 14 2 5 14 2 5 14 2 5 14 2 5 14 4 7 16 4 7 16 4 7 16 4 7 16 4 7 16 4 7 16 4 7 16 3 7 16 6 11 17 4 11 17 4 11 17 4 11 17 4 11 17 4 11 17 4 11 17 4 11 17 6 13 19 6 13 19 6 13 19 6 13 19 6 13 19 6 13 19 6 13 19 6 13 19 9 16 22 9 16 22 9 16 22 9 16 22 9 16 22 9 16 22 9 16 22 9 16 22 39 46 52 40 47 53 42 49 55 46 53 59 49 56 62 52 59 65 55 62 68 56 63 69 31 39 42 31 39 42 31 39 42 31 39 42 31 39 42 31 39 42 31 39 42 31 39 42 12 20 23 10 18 21 8 16 19 5 13 16 1 9 12 0 6 9 0 4 7 0 2 5 0 1 4 0 3 6 0 5 8 3 8 11 7 12 15 10 15 18 12 17 20 14 19 22 20 25 28 22 27 30 24 29 32 27 32 35 31 36 39 34 39 42 36 41 44 38 44 44 38 44 44 40 46 44 42 48 46 45 51 49 49 55 53 52 58 56 54 60 58 56 62 60 45 51 49 45 51 49 45 51 49 45 51 49 45 51 49 45 51 49 45 51 49 46 50 49 47 46 44 47 43 42 45 41 40 42 38 37 38 34 33 35 31 30 33 29 28 31 27 26 35 31 30 35 31 30 35 31 30 35 31 30 35 31 30 35 31 30 35 31 30 35 31 30 38 33 30 38 33 30 38 33 30 38 33 30 38 33 30 38 33 30 38 33 30 38 33 30 39 34 31 39 34 31 39 34 31 39 34 31 39 34 31 39 34 31 39 34 31 39 34 31
4 2 16 4 2 16 4 2 16 4 2 16 4 2 16 4 2 16 4 2 16 4 2 16 4 2 16 4 2 16 4 2 16 4 2 16 5 2 19 5 2 19 5 2 19 5 2 19 5 2 19 5 2 19 5 2 19 5 2 19 5 2 19 5 2 19 5 2 19 5 2 19 5 2 19 5 2 19 5 2 19 5 3 17 6 5 19 6 6 18 6 6 18 6 6 18 6 6 18 6 6 18 6 6 18 6 6 18 6 6 18 6 6 18 6 6 18 6 6 18 6 6 18 6 6 18 6 6 18 6 6 18 5 8 17 5 8 17 5 8 17 5 8 17 5 8 17 5 8 17 5 8 17 5 8 17 5 8 17 5 8 17 5 8 17 5 8 17 5 8 17 5 8 17 5 8 17 4 8 17 8 13 19 6 13 19 6 13 19 6 13 19 6 13 19 6 13 19 6 13 19 6 13 19 5 12 18 4 11 17 4 11 17 2 9 15 1 8 14 0 7 13 0 6 12 0 5 11 21 28 34 22 29 35 25 32 38 28 35 41 31 38 44 35 42 48 37 44 50 38 45 51 50 57 63 50 57 63 50 57 63 50 57 63 50 57 63 50 57 63 50 57 63 50 57 63 51 59 62 49 57 60 47 55 58 44 52 55 40 48 51 37 45 48 35 43 46 33 41 44 15 23 26 13 21 24 11 19 22 8 16 19 4 12 15 1 9 12 0 7 10 0 5 8 0 5 8 2 7 10 4 9 12 7 12 15 11 16 19 14 19 22 16 21 24 18 23 26 25 30 33 25 30 33 25 30 33 25 30 33 25 30 33 25 30 33 25 30 33 25 31 31 35 41 41 35 41 39 35 41 39 35 41 39 35 41 39 35 41 39 35 41 39 35 41 39 36 42 40 36 42 40 36 42 40 36 42 40 36 42 40 36 42 40 36 42 40 37 41 40 32 31 29 34 30 29 34 30 29 34 30 29 34 30 29 34 30 29 34 30 29 34 30 29 32 28 27 32 28 27 32 28 27 32 28 27 32 28 27 32 28 27 32 28 27 32 28 27 35 30 27 35 30 27 35 30 27 35 30 27 35 30 27 35 30 27 35 30 27 35 30 27 37 32 29 37 32 29 37 32 29 37 32 29 37 32 29 37 32 29 37 32 29 37 32 29
4 2 16 4 2 16 4 2 16 4 2 16 4 2 16 4 2 16 4 2 16 4 2 16 4 2 16 4 2 16 4 2 16 4 2 16 5 2 19 5 2 19 5 2 19 5 2 19 5 2 19 5 2 19 5 2 19 5 2 19 5 2 19 5 2 19 5 2 19 5 2 19 5 2 19 5 2 19 5 2 19 5 3 17 6 5 19 6 6 18 6 6 18 6 6 18 6 6 18 6 6 18 6 6 18 6 6 18 6 6 18 6 6 18 6 6 18 6 6 18 6 6 18 6 6 18 6 6 18 6 6 18 5 8 17 5 8 17 5 8 17 5 8 17 5 8 17 5 8 17 5 8 17 5 8 17 5 8 17 5 8 17 5 8 17 5 8 17 5 8 17 5 8 17 5 8 17 4 8 17 8 13 19 6 13 19 6 13 19 6 13 19 6 13 19 6 13 19 6 13 19 6 13 19 6 13 19 6 13 19 5 12 18 5 12 18 4 11 17 3 10 16 3 10 16 3 10 16 24 31 37 25 32 38 27 34 40 31 38 44 34 41 47 37 44 50 40 47 53 41 48 54 52 59 65 52 59 65 52 59 65 52 59 65 52 59 65 52 59 65 52 59 65 52 59 65 51 59 62 49 57 60 47 55 58 44 52 55 40 48 51 37 45 48 35 43 46 33 41 44 15 23 26 13 21 24 11 19 22 8 16 19 4 12 15 1 9 12 0 7 10 0 5 8 0 5 8 2 7 10 4 9 12 7 12 15 11 16 19 14 19 22 16 21 24 18 23 26 25 30 33 25 30 33 25 30 33 25 30 33 25 30 33 25 30 33 25 30 33 25 31 31 35 41 41 35 41 39 35 41 39 35 41 39 35 41 39 35 41 39 35 41 39 35 41 39 36 42 40 36 42 40 36 42 40 36 42 40 36 42 40 36 42 40 36 42 40 37 41 40 32 31 29 34 30 29 34 30 29 34 30 29 34 30 29 34 30 29 34 30 29 34 30 29 32 28 27 32 28 27 32 28 27 32 28 27 32 28 27 32 28 27 32 28 27 32 28 27 35 30 27 35 30 27 35 30 27 35 30 27 35 30 27 35 30 27 35 30 27 35 30 27 37 32 29 37 32 29 37 32 29 37 32 29 37 32 29 37 32 29 37 32 29 37 32 29
4 2 16 4 2 16 4 2 16 4 2 16 4 2 16 4 2 16 4 2 16 4 2 16 4 2 16 4 2 16 4 2 16 4 2 16 5 2 19 5 2 19 5 2 19 5 2 19 5 2 19 5 2 19 5 2 19 5 2 19 5 2 19 5 2 19 5 2 19 5 2 19 5 2 19 5 2 19 5 2 19 5 3 17 6 5 19 6 6 18 6 6 18 6 6 18 6 6 18 6 6 18 6 6 18 6 6 18 6 6 18 6 6 18 6 6 18 6 6 18 6 6 18 6 6 18 6 6 18 6 6 18 5 8 17 5 8 17 5 8 17 5 8 17 5 8 17 5 8 17 5 8 17 5 8 17 5 8 17 5 8 17 5 8 17 5 8 17 5 8 17 5 8 17 5 8 17 4 8 17 8 13 19 6 13 19 6 13 19 6 13 19 6 13 19 6 13 19 6 13 19 6 13 19 7 14 20 8 15 21 8 15 21 9 16 22 10 17 23 10 17 23 11 18 24 11 18 24 29 36 42 30 37 43 32 39 45 35 42 48 39 46 52 42 49 55 45 52 58 46 53 59 54 61 67 54 61 67 54 61 67 54 61 67 54 61 67 54 61 67 54 61 67 54 61 67 51 59 62 49 57 60 47 55 58 44 52 55 40 48 51 37 45 48 35 43 46 33 41 44 15 23 26 13 21 24 11 19 22 8 16 19 4 12 15 1 9 12 0 7 10 0 5 8 0 5 8 2 7 10 4 9 12 7 12 15 11 16 19 14 19 22 16 21 24 18 23 26 25 30 33 25 30 33 25 30 33 25 30 33 25 30 33 25 30 33 25 30 33 25 31 31 35 41 41 35 41 39 35 41 39 35 41 39 35 41 39 35 41 39 35 41 39 35 41 39 36 42 40 36 42 40 36 42 40 36 42 40 36 42 40 36 42 40 36 42 40 37 41 40 32 31 29 34 30 29 34 30 29 34 30 29 34 30 29 34 30 29 34 30 29 34 30 29 32 28 27 32 28 27 32 28 27 32 28 27 32 28 27 32 28 27 32 28 27 32 28 27 35 30 27 35 30 27 35 30 27 35 30 27 35 30 27 35 30 27 35 30 27 35 30 27 37 32 29 37 32 29 37 32 29 37 32 29 37 32 29 37 32 29 37 32 29 37 32 29
4 2 16 4 2 16 4 2 16 4 2 16 4 2 16 4 2 16 4 2 16 4 2 16 4 2 16 4 2 16 4 2 16 4 2 16 5 2 19 5 2 19 5 2 19 5 2 19 5 2 19 5 2 19 5 2 19 5 2 19 5 2 19 5 2 19 5 2 19 5 2 19 5 2 19 5 2 19 5 2 19 5 3 17 6 5 19 6 6 18 6 6 18 6 6 18 6 6 18 6 6 18 6 6 18 6 6 18 6 6 18 6 6 18 6 6 18 6 6 18 6 6 18 6 6 18 6 6 18 6 6 18 5 8 17 5 8 17 5 8 17 5 8 17 5 8 17 5 8 17 5 8 17 5 8 17 5 8 17 5 8 17 5 8 17 5 8 17 5 8 17 5 8 17 5 8 17 4 8 17 8 13 19 6 13 19 6 13 19 6 13 19 6 13 19 6 13 19 6 13 19 6 13 19 9 16 22 10 17 23 12 19 25 14 21 27 17 24 30 19 26 32 21 28 34 22 29 35 35 42 48 36 43 49 39 46 52 42 49 55 45 52 58 48 55 61 51 58 64 52 59 65 57 64 70 57 64 70 57 64 70 57 64 70 57 64 70 57 64 70 57 64 70 57 64 70 51 59 62 49 57 60 47 55 58 44 52 55 40 48 51 37 45 48 35 43 46 33 41 44 15 23 26 13 21 24 11 19 22 8 16 19 4 12 15 1 9 12 0 7 10 0 5 8 0 5 8 2 7 10 4 9 12 7 12 15 11 16 19 14 19 22 16 21 24 18 23 26 25 30 33 25 30 33 25 30 33 25 30 33 25 30 33 25 30 33 25 30 33 25 31 31 35 41 41 35 41 39 35 41 39 35 41 39 35 41 39 35 41 39 35 41 39 35 41 39 36 42 40 36 42 40 36 42 40 36 42 40 36 42 40 36 42 40 36 42 40 37 41 40 32 31 29 34 30 29 34 30 29 34 30 29 34 30 29 34 30 29 34 30 29 34 30 29 32 28 27 32 28 27 32 28 27 32 28 27 32 28 27 32 28 27 32 28 27 32 28 27 35 30 27 35 30 27 35 30 27 35 30 27 35 30 27 35 30 27 35 30 27 35 30 27 37 32 29 37 32 29 37 32 29 37 32 29 37 32 29 37 32 29 37 32 29 37 32 29
4 2 16 4 2 16 4 2 16 4 2 16 4 2 16 4 2 16 4 2 16 4 2 16 4 2 16 4 2 16 4 2 16 4 2 16 5 2 19 5 2 19 5 2 19 5 2 19 5 2 19 5 2 19 5 2 19 5 2 19 5 2 19 5 2 19 5 2 19 5 2 19 5 2 19 5 2 19 5 2 19 5 3 17 6 5 19 6 6 18 6 6 18 6 6 18 6 6 18 6 6 18 6 6 18 6 6 18 6 6 18 6 6 18 6 6 18 6 6 18 6 6 18 6 6 18 6 6 18 6 6 18 5 8 17 5 8 17 5 8 17 5 8 17 5 8 17 5 8 17 5 8 17 5 8 17 5 8 17 5 8 17 5 8 17 5 8 17 5 8 17 5 8 17 5 8 17 4 8 17 8 13 19 6 13 19 6 13 19 6 13 19 6 13 19 6 13 19 6 13 19 6 13 19 11 18 24 13 20 26 16 23 29 20 27 33 25 32 38 29 36 42 32 39 45 33 40 46 42 49 55 43 50 56 46 53 59 49 56 62 52 59 65 55 62 68 58 65 71 59 66 72 61 68 74 61 68 74 61 68 74 61 68 74 61 68 74 61 68 74 61 68 74 61 68 74 51 59 62 49 57 60 47 55 58 44 52 55 40 48 51 37 45 48 35 43 46 33 41 44 15 23 26 13 21 24 11 19 22 8 16 19 4 12 15 1 9 12 0 7 10 0 5 8 0 5 8 2 7 10 4 9 12 7 12 15 11 16 19 14 19 22 16 21 24 18 23 26 25 30 33 25 30 33 25 30 33 25 30 33 25 30 33 25 30 33 25 30 33 25 31 31 35 41 41 35 41 39 35 41 39 35 41 39 35 41 39 35 41 39 35 41 39 35 41 39 36 42 40 36 42 40 36 42 40 36 42 40 36 42 40 36 42 40 36 42 40 37 41 40 32 31 29 34 30 29 34 30 29 34 30 29 34 30 29 34 30 29 34 30 29 34 30 29 32 28 27 32 28 27 32 28 27 32 28 27 32 28 27 32 28 27 32 28 27 32 28 27 35 30 27 35 30 27 35 30 27 35 30 27 35 30 27 35 30 27 35 30 27 35 30 27 37 32 29 37 32 29 37 32 29 37 32 29 37 32 29 37 32 29 37 32 29 37 32 29
4 2 16 4 2 16 4 2 16 4 2 16 4 2 16 4 2 16 4 2 16 4 2 16 4 2 16 4 2 16 4 2 16 4 2 16 5 2 19 5 2 19 5 2 19 5 2 19 5 2 19 5 2 19 5 2 19 5 2 19 5 2 19 5 2 19 5 2 19 5 2 19 5 2 19 5 2 19 5 2 19 5 3 17 6 5 19 6 6 18 6 6 18 6 6 18 6 6 18 6 6 18 6 6 18 6 6 18 6 6 18 6 6 18 6 6 18 6 6 18 6 6 18 6 6 18 6 6 18 6 6 18 5 8 17 5 8 17 5 8 17 5 8 17 5 8 17 5 8 17 5 8 17 5 8 17 5 8 17 5 8 17 5 8 17 5 8 17 5 8 17 5 8 17 5 8 17 4 8 17 8 13 19 6 13 19 6 13 19 6 13 19 6 13 19 6 13 19 6 13 19 6 13 19 13 20 26 16 23 29 20 27 33 26 33 39 32 39 45 38 45 51 42 49 55 44 51 57 48 55 61 49 56 62 52 59 65 55 62 68 59 66 72 62 69 75 64 71 77 65 72 78 64 71 77 64 71 77 64 71 77 64 71 77 64 71 77 64 71 77 64 71 77 64 71 77 51 59 62 49 57 60 47 55 58 44 52 55 40 48 51 37 45 48 35 43 46 33 41 44 15 23 26 13 21 24 11 19 22 8 16 19 4 12 15 1 9 12 0 7 10 0 5 8 0 5 8 2 7 10 4 9 12 7 12 15 11 16 19 14 19 22 16 21 24 18 23 26 25 30 33 25 30 33 25 30 33 25 30 33 25 30 33 25 30 33 25 30 33 25 31 31 35 41 41 35 41 39 35 41 39 35 41 39 35 41 39 35 41 39 35 41 39 35 41 39 36 42 40 36 42 40 36 42 40 36 42 40 36 42 40 36 42 40 36 42 40 37 41 40 32 31 29 34 30 29 34 30 29 34 30 29 34 30 29 34 30 29 34 30 29 34 30 29 32 28 27 32 28 27 32 28 27 32 28 27 32 28 27 32 28 27 32 28 27 32 28 27 35 30 27 35 30 27 35 30 27 35 30 27 35 30 27 35 30 27 35 30 27 35 30 27 37 32 29 37 32 29 37 32 29 37 32 29 37 32 29 37 32 29 37 32 29 37 32 29
4 2 16 4 2 16 4 2 16 4 2 16 4 2 16 4 2 16 4 2 16 4 2 16 4 2 16 4 2 16 4 2 16 4 2 16 5 2 19 5 2 19 5 2 19 5 2 19 5 2 19 5 2 19 5 2 19 5 2 19 5 2 19 5 2 19 5 2 19 5 2 19 5 2 19 5 2 19 5 2 19 5 3 17 6 5 19 6 6 18 6 6 18 6 6 18 6 6 18 6 6 18 6 6 18 6 6 18 6 6 18 6 6 18 6 6 18 6 6 18 6 6 18 6 6 18 6 6 18 6 6 18 5 8 17 5 8 17 5 8 17 5 8 17 5 8 17 5 8 17 5 8 17 5 8 17 5 8 17 5 8 17 5 8 17 5 8 17 5 8 17 5 8 17 5 8 17 4 8 17 8 13 19 6 13 19 6 13 19 6 13 19 6 13 19 6 13 19 6 13 19 6 13 19 15 22 28 18 25 31 23 30 36 30 37 43 37 44 50 44 51 57 50 57 63 53 60 66 53 60 66 54 61 67 57 64 70 60 67 73 63 70 76 67 74 80 69 76 82 70 77 83 66 73 79 66 73 79 66 73 79 66 73 79 66 73 79 66 73 79 66 73 79 66 73 79 51 59 62 49 57 60 47 55 58 44 52 55 40 48 51 37 45 48 35 43 46 33 41 44 15 23 26 13 21 24 11 19 22 8 16 19 4 12 15 1 9 12 0 7 10 0 5 8 0 5 8 2 7 10 4 9 12 7 12 15 11 16 19 14 19 22 16 21 24 18 23 26 25 30 33 25 30 33 25 30 33 25 30 33 25 30 33 25 30 33 25 30 33 25 31 31 35 41 41 35 41 39 35 41 39 35 41 39 35 41 39 35 41 39 35 41 39 35 41 39 36 42 40 36 42 40 36 42 40 36 42 40 36 42 40 36 42 40 36 42 40 37 41 40 32 31 29 34 30 29 34 30 29 34 30 29 34 30 29 34 30 29 34 30 29 34 30 29 32 28 27 32 28 27 32 28 27 32 28 27 32 28 27 32 28 27 32 28 27 32 28 27 35 30 27 35 30 27 35 30 27 35 30 27 35 30 27 35 30 27 35 30 27 35 30 27 37 32 29 37 32 29 37 32 29 37 32 29 37 32 29 37 32 29 37 32 29 37 32 29
4 2 16 4 2 16 4 2 16 4 2 16 4 2 16 4 2 16 4 2 16 4 2 16 4 2 16 4 2 16 4 2 16 4 2 16 5 3 17 5 3 17 5 2 19 5 3 17 5 2 19 5 3 17 5 2 19 5 3 17 5 2 19 5 3 17 5 2 19 5 3 17 5 2 19 5 3 17 5 2 19 5 3 17 6 6 18 6 6 18 6 6 18 6 6 18 6 6 18 6 6 18 6 6 18 6 6 18 6 6 18 6 6 18 6 6 18 6 6 18 6 6 18 6 6 18 6 6 18 4 6 18 5 8 17 4 8 17 4 8 17 4 8 17 4 8 17 4 8 17 4 8 17 4 8 17 4 8 17 4 8 17 4 8 17 4 8 17 4 8 17 4 8 17 4 8 17 4 8 17 6 13 19 6 13 19 6 13 19 6 13 19 6 13 19 6 13 19 6 13 19 6 13 19 16 23 29 19 26 32 25 32 38 32 39 45 40 47 53 48 55 61 54 61 67 57 64 70 56 63 69 57 64 70 59 66 72 63 70 76 66 73 79 69 76 82 72 79 85 73 80 86 68 75 81 68 75 81 68 75 81 68 75 81 68 75 81 68 75 81 68 75 81 68 75 81 51 59 62 49 57 60 47 55 58 44 52 55 40 48 51 37 45 48 35 43 46 33 41 44 15 23 26 13 21 24 11 19 22 8 16 19 4 12 15 1 9 12 0 7 10 0 5 8 0 6 9 0 8 10 4 9 12 5 13 15 11 16 19 12 20 22 16 21 24 16 24 26 25 30 33 23 31 33 25 30 33 23 31 33 25 30 33 23 31 33 25 30 33 25 30 33 35 41 41 35 41 39 35 41 41 35 41 39 35 41 41 35 41 39 35 41 41 35 41 39 36 42 42 36 42 40 36 42 42 36 42 40 36 42 42 36 42 40 36 42 42 37 41 40 32 31 29 34 30 29 34 30 29 34 30 29 34 30 29 34 30 29 34 30 29 34 30 29 32 28 27 32 28 27 32 28 27 32 28 27 32 28 27 32 28 27 32 28 27 32 28 25 35 30 27 35 30 27 35 30 27 35 30 27 35 30 27 35 30 27 35 30 27 35 30 27 37 32 29 37 32 29 37 32 29 37 32 29 37 32 29 37 32 29 37 32 29 37 32 29
4 2 15 4 2 15 4 2 15 4 2 15 3 1 14 3 1 14 3 1 14 3 1 14 3 1 14 3 1 14 3 1 14 3 1 14 4 2 15 4 2 15 4 2 16 4 2 15 4 2 16 4 2 15 4 2 16 4 2 15 4 2 16 4 2 15 4 2 16 4 2 15 4 2 16 4 2 15 4 2 16 4 2 15 4 4 16 2 4 16 2 4 16 2 4 16 2 4 16 2 4 16 2 4 16 2 4 16 3 5 17 3 5 17 3 5 17 3 5 17 3 5 17 3 5 17 3 5 17 3 5 17 4 11 19 4 11 19 4 11 19 4 11 19 4 11 19 4 11 19 4 11 19 4 11 19 0 1 9 0 1 9 0 1 9 0 3 11 0 6 14 3 10 18 5 12 20 6 13 21 12 19 27 13 20 28 16 23 31 19 26 34 22 29 37 26 33 41 28 35 43 29 36 44 45 52 60 46 53 61 48 55 63 52 59 67 55 62 70 58 65 73 61 68 76 62 69 77 74 79 85 74 79 85 74 79 85 74 79 85 74 79 85 74 79 85 74 79 85 74 79 85 72 77 83 72 77 83 72 77 83 72 77 83 72 77 83 72 77 83 72 77 83 72 77 83 63 70 76 61 68 74 56 63 69 49 56 62 43 50 56 36 43 49 31 38 44 29 36 42 8 15 21 8 15 21 8 15 21 8 15 21 8 15 21 8 15 21 8 15 21 8 16 19 10 18 21 9 19 21 10 18 21 9 19 21 10 18 21 9 19 21 10 18 21 9 19 21 22 30 33 21 31 33 22 30 33 21 31 33 22 30 33 21 31 33 22 30 33 22 30 32 25 30 33 25 31 31 25 30 33 25 31 31 25 30 33 25 31 31 25 30 33 25 31 31 25 30 33 25 31 31 25 30 33 25 31 31 25 30 33 25 31 31 25 30 33 26 30 31 30 29 27 33 28 25 33 28 25 33 28 25 33 28 25 33 28 25 33 28 25 33 28 25 34 29 26 34 29 26 34 29 26 34 29 26 34 29 26 34 29 26 34 29 26 34 29 26 37 29 27 37 29 26 37 29 26 37 29 26 37 29 26 37 29 26 37 29 26 37 29 26 38 30 27 38 30 27 38 30 27 38 30 27 38 30 27 38 30 27 38 30 27 38 30 28
4 2 15 4 2 15 4 2 15 4 2 15 3 1 14 3 1 14 3 1 14 3 1 14 3 1 14 3 1 14 3 1 14 3 1 14 4 2 15 4 2 15 4 2 15 4 2 15 4 2 15 4 2 15 4 2 15 4 2 15 4 2 15 4 2 15 4 2 15 4 2 15 4 2 15 4 2 15 4 2 15 3 3 15 4 4 16 2 4 16 2 4 16 2 4 16 2 4 16 2 4 16 2 4 16 2 4 16 3 5 17 3 5 17 3 5 17 3 5 17 3 5 17 3 5 17 3 5 17 2 6 17 4 11 19 3 12 19 3 12 19 3 12 19 3 12 19 3 12 19 3 12 19 3 12 19 0 2 9 0 2 9 0 3 10 0 7 14 1 10 17 4 13 20 7 16 23 8 17 24 15 22 30 16 23 31 18 25 33 22 29 37 25 32 40 28 35 43 31 38 46 32 39 47 46 53 61 47 54 62 50 57 65 53 60 68 56 63 71 60 67 75 62 69 77 63 70 78 74 79 85 74 79 85 74 79 85 74 79 85 74 79 85 74 79 85 74 79 85 74 79 85 72 77 83 72 77 83 72 77 83 72 77 83 72 77 83 72 77 83 72 77 83 72 77 83 63 70 76 61 68 74 56 63 69 49 56 62 43 50 56 36 43 49 31 38 44 29 36 42 8 15 21 8 15 21 8 15 21 8 15 21 8 15 21 8 15 21 8 15 21 8 15 21 9 19 21 9 19 21 9 19 21 9 19 21 9 19 21 9 19 21 9 19 21 9 19 21 21 31 33 21 31 33 21 31 33 21 31 33 21 31 33 21 31 33 21 31 33 21 31 33 25 30 33 25 30 33 25 30 33 25 30 33 25 30 33 25 30 33 25 30 33 25 30 33 25 30 33 25 30 33 25 30 33 25 30 33 25 30 33 25 30 33 25 30 33 26 30 31 32 28 27 33 28 25 33 28 25 33 28 25 33 28 25 33 28 25 33 28 25 33 28 25 34 29 26 34 29 26 34 29 26 34 29 26 34 29 26 34 29 26 34 29 26 34 29 26 37 29 26 37 29 26 37 29 26 37 29 26 37 29 26 37 29 26 37 29 26 37 29 26 38 30 27 38 30 27 38 30 27 38 30 27 38 30 27 38 30 27 38 30 27 38 30 27
4 2 15 4 2 15 4 2 15 4 2 15 3 1 14 3 1 14 3 1 14 3 1 14 3 1 14 3 1 14 3 1 14 3 1 14 4 2 15 4 2 15 4 2 15 4 2 15 4 2 15 4 2 15 4 2 15 4 2 15 4 2 15 4 2 15 4 2 15 4 2 15 4 2 15 4 2 15 4 2 15 3 3 15 4 4 16 2 4 16 2 4 16 2 4 16 2 4 16 2 4 16 2 4 16 2 4 16 3 5 17 3 5 17 3 5 17 3 5 17 3 5 17 3 5 17 3 5 17 2 6 17 4 11 19 3 12 19 3 12 19 3 12 19 3 12 19 3 12 19 3 12 19 3 12 19 0 5 12 0 6 13 0 8 15 2 11 18 6 15 22 9 18 25 12 21 28 13 22 29 20 27 35 21 28 36 23 30 38 26 33 41 30 37 45 33 40 48 36 43 51 37 44 52 48 55 63 50 57 65 52 59 67 55 62 70 59 66 74 62 69 77 64 71 79 66 73 81 74 79 85 74 79 85 74 79 85 74 79 85 74 79 85 74 79 85 74 79 85 74 79 85 72 77 83 72 77 83 72 77 83 72 77 83 72 77 83 72 77 83 72 77 83 72 77 83 63 70 76 61 68 74 56 63 69 49 56 62 43 50 56 36 43 49 31 38 44 29 36 42 8 15 21 8 15 21 8 15 21 8 15 21 8 15 21 8 15 21 8 15 21 8 15 21 9 19 21 9 19 21 9 19 21 9 19 21 9 19 21 9 19 21 9 19 21 9 19 21 21 31 33 21 31 33 21 31 33 21 31 33 21 31 33 21 31 33 21 31 33 21 31 33 25 30 33 25 30 33 25 30 33 25 30 33 25 30 33 25 30 33 25 30 33 25 30 33 25 30 33 25 30 33 25 30 33 25 30 33 25 30 33 25 30 33 25 30 33 26 30 31 32 28 27 33 28 25 33 28 25 33 28 25 33 28 25 33 28 25 33 28 25 33 28 25 34 29 26 34 29 26 34 29 26 34 29 26 34 29 26 34 29 26 34 29 26 34 29 26 37 29 26 37 29 26 37 29 26 37 29 26 37 29 26 37 29 26 37 29 26 37 29 26 38 30 27 38 30 27 38 30 27 38 30 27 38 30 27 38 30 27 38 30 27 38 30 27
