P3
172 37
255
1 2 23 1 2 22 1 2 23 1 2 22 1 2 23 1 2 22 1 2 23 1 2 22 1 2 23 1 2 22 1 2 23 1 3 18 33 32 38 40 38 39 50 48 49 63 61 62 78 76 77 91 89 90 101 99 100 107 105 106 97 95 96 99 97 98 101 99 100 104 102 103 108 106 107 111 109 110 113 111 112 115 113 114 116 110 110 118 109 110 118 109 110 118 109 110 118 109 110 118 109 110 118 109 110 118 109 110 115 106 107 115 106 107 115 106 107 115 106 107 115 106 107 115 106 107 115 106 107 113 107 107 116 110 110 115 111 110 116 110 110 115 111 110 116 110 110 115 111 110 116 110 110 115 111 110 112 106 106 111 107 106 112 106 106 111 107 106 112 106 106 111 107 106 112 106 106 114 105 106 109 97 101 111 96 101 111 96 101 111 96 101 111 96 101 111 96 101 111 96 101 111 96 101 116 101 106 116 101 106 116 101 106 116 101 106 116 101 106 116 101 106 116 101 106 116 101 106 109 97 99 109 97 99 109 97 99 109 97 99 109 97 99 109 97 99 109 97 99 109 97 99 103 91 93 103 91 93 103 91 93 103 91 93 103 91 93 103 91 93 103 91 93 103 91 93 107 90 96 107 90 96 107 90 96 107 90 96 107 90 96 107 90 96 107 90 96 107 90 96 109 92 98 107 90 96 105 88 94 102 85 91 98 81 87 95 78 84 93 76 82 91 74 80 90 75 82 90 75 82 90 75 82 90 75 82 90 75 82 90 75 82 90 75 82 90 75 82 83 68 75 82 67 74 80 65 72 76 61 68 73 58 65 70 55 62 67 52 59 63 52 58 41 39 40 37 41 40 39 41 40 37 41 40 39 41 40 37 41 40 39 41 40 37 41 40 73 75 74 75 79 78 85 87 86 92 96 95 105 107 106 112 116 115 121 123 122 120 129 126 101 121 112 88 111 101 71 94 84 52 75 65 38 61 51 31 54 44 30 53 43 30 53 43 28 51 41 28 51 41 28 51 41 28 51 41 28 51 41 28 51 41 28 51 41 28 51 41 26 46 37 26 46 37 26 46 37 26 46 37 26 46 37 26 46 37 26 46 37 26 46 37 30 50 41 30 50 41 30 50 41 30 50 41 30 50 41 30 50 41 30 50 41 30 50 41
1 2 20 1 2 20 1 2 20 1 2 20 1 2 20 1 2 20 1 2 20 1 2 20 1 2 20 1 2 20 1 2 20 3 2 16 37 36 42 43 41 44 54 52 55 68 66 69 83 81 84 97 95 98 108 106 109 114 112 115 96 94 97 97 95 98 99 97 100 103 101 104 106 104 107 109 107 110 112 110 113 115 111 112 118 112 114 118 112 114 118 112 114 118 112 114 118 112 114 118 112 114 118 112 114 118 112 114 110 104 106 110 104 106 110 104 106 110 104 106 110 104 106 110 104 106 110 104 106 109 105 106 114 114 114 111 115 114 113 115 114 111 115 114 113 115 114 111 115 114 113 115 114 111 115 114 109 111 110 107 111 110 109 111 110 107 111 110 109 111 110 107 111 110 109 111 110 110 110 110 107 98 103 108 97 103 108 97 103 108 97 103 108 97 103 108 97 103 108 97 103 108 97 103 113 102 108 113 102 108 113 102 108 113 102 108 113 102 108 113 102 108 113 102 108 113 102 108 108 97 103 108 97 101 108 97 101 108 97 101 108 97 101 108 97 101 108 97 101 108 97 101 102 91 95 102 91 95 102 91 95 102 91 95 102 91 95 102 91 95 102 91 95 102 91 95 104 91 98 104 91 98 104 91 98 104 91 98 104 91 98 104 91 98 104 91 98 104 91 98 106 93 100 104 91 98 102 89 96 99 86 93 95 82 89 92 79 86 90 77 84 88 75 82 88 75 84 88 75 84 88 75 84 88 75 84 88 75 84 88 75 84 88 75 84 88 75 84 80 67 76 79 66 75 76 63 72 73 60 69 70 57 66 66 53 62 64 51 60 59 53 57 32 41 40 28 43 38 28 43 38 28 43 38 28 43 38 28 43 38 28 43 38 28 43 38 66 81 76 70 85 80 77 92 87 86 101 96 97 112 107 106 121 116 114 129 124 117 134 128 99 122 112 86 112 101 69 95 84 50 76 65 36 62 51 29 55 44 28 54 43 28 54 43 26 52 41 26 52 41 26 52 41 26 52 41 26 52 41 26 52 41 26 52 41 28 51 41 25 46 37 26 46 37 26 46 37 26 46 37 26 46 37 26 46 37 26 46 37 26 46 37 30 50 41 30 50 41 30 50 41 30 50 41 30 50 41 30 50 41 30 50 41 30 50 41
7 0 14 5 0 12 5 0 12 4 0 11 4 0 11 8 0 15 15 7 22 24 16 31 35 27 42 44 36 51 52 44 59 58 47 61 111 95 106 113 96 106 115 98 108 119 102 112 122 105 115 125 108 118 128 111 121 129 112 122 128 111 121 128 111 121 128 111 121 128 111 121 128 111 121 128 111 121 128 111 121 128 111 121 129 112 122 129 112 120 129 112 120 129 112 120 129 112 120 129 112 120 129 112 120 129 112 120 134 117 125 134 117 125 134 117 125 134 117 125 134 117 125 134 117 125 134 117 125 133 118 125 125 112 119 124 113 119 125 112 119 124 113 119 125 112 119 124 113 119 125 112 119 124 113 119 121 108 115 120 109 115 121 108 115 120 109 115 121 108 115 120 109 115 121 108 115 121 108 117 112 96 107 113 95 109 113 95 109 113 95 109 113 95 109 113 95 109 113 95 109 113 95 109 110 92 106 110 92 106 110 92 106 110 92 106 110 92 106 110 92 106 110 92 106 110 92 104 106 88 100 106 88 100 106 88 100 106 88 100 106 88 100 106 88 100 106 88 100 106 88 100 105 87 99 105 87 99 105 87 99 105 87 99 105 87 99 105 87 99 105 87 99 105 87 99 97 79 91 97 79 91 97 79 91 97 79 91 97 79 91 97 79 91 97 79 91 97 79 91 95 77 89 95 77 89 95 77 89 95 77 89 95 77 89 95 77 89 95 77 89 94 78 89 89 77 87 87 77 86 84 74 83 81 71 80 78 68 77 74 64 73 72 62 71 71 61 70 76 66 75 73 63 72 67 57 66 59 49 58 51 41 50 44 34 43 38 28 37 32 27 34 19 23 24 18 27 26 23 32 31 30 39 38 36 45 44 43 52 51 48 57 56 50 59 58 71 80 79 74 83 82 79 88 87 85 94 93 92 101 100 98 107 106 103 112 111 106 115 112 88 97 92 84 94 86 77 87 79 67 77 69 57 67 59 47 57 49 40 50 42 36 46 38 36 46 38 36 46 38 36 46 38 36 46 38 36 46 38 36 46 38 36 46 38 36 46 38 36 43 36 37 42 36 37 42 36 37 42 36 37 42 36 37 42 36 37 42 36 37 42 36 36 41 35 36 41 35 36 41 35 36 41 35 36 41 35 36 41 35 36 41 35 36 41 35
12 0 11 12 0 11 11 0 10 11 0 10 14 0 13 18 4 17 26 12 25 35 21 34 45 31 44 55 41 54 62 48 61 68 52 65 116 94 107 118 94 108 121 97 111 124 100 114 127 103 117 131 107 121 133 109 123 134 110 124 134 110 124 134 110 124 134 110 124 134 110 124 134 110 124 134 110 124 134 110 124 134 110 124 134 112 124 134 112 124 134 112 124 134 112 124 134 112 124 134 112 124 134 112 124 134 112 124 137 115 127 137 115 127 137 115 127 137 115 127 137 115 127 137 115 127 137 115 127 137 115 127 130 110 121 130 110 121 130 110 121 130 110 121 130 110 121 130 110 121 130 110 121 130 110 121 126 106 117 126 106 117 126 106 117 126 106 117 126 106 117 126 106 117 126 106 117 126 106 118 115 94 109 115 94 111 115 94 111 115 94 111 115 94 111 115 94 111 115 94 111 115 94 111 112 91 108 112 91 108 112 91 108 112 91 108 112 91 108 112 91 108 112 91 108 112 91 108 109 86 102 109 86 102 109 86 102 109 86 102 109 86 102 109 86 102 109 86 102 109 86 102 108 85 101 108 85 101 108 85 101 108 85 101 108 85 101 108 85 101 108 85 101 108 85 101 99 78 93 99 78 93 99 78 93 99 78 93 99 78 93 99 78 93 99 78 93 99 78 93 95 74 89 95 74 89 95 74 89 95 74 89 95 74 89 95 74 89 95 74 89 92 76 89 86 74 86 82 74 85 80 72 83 76 68 79 73 65 76 70 62 73 67 59 70 66 58 69 70 62 73 67 59 70 61 53 64 54 46 57 47 39 50 40 32 43 35 27 38 31 26 33 21 22 26 21 25 26 26 30 31 33 37 38 39 43 44 46 50 51 51 55 56 53 57 58 73 77 78 76 80 81 81 85 86 87 91 92 94 98 99 100 104 105 105 109 110 108 112 111 94 94 92 90 91 86 83 84 79 73 74 69 63 64 59 53 54 49 46 47 42 42 43 38 42 43 38 42 43 38 42 43 38 42 43 38 42 43 38 42 43 38 42 43 38 42 43 38 41 40 36 41 40 36 41 40 36 41 40 36 41 40 36 41 40 36 41 40 36 41 40 36 40 39 35 40 39 35 40 39 35 40 39 35 40 39 35 40 39 35 40 39 35 40 39 35
15 1 14 16 2 15 17 3 16 17 3 16 26 12 25 30 16 29 38 24 37 47 33 46 58 44 57 67 53 66 74 60 73 80 64 77 118 96 109 121 97 111 123 99 113 126 102 116 130 106 120 133 109 123 135 111 125 137 113 127 136 112 126 136 112 126 136 112 126 136 112 126 136 112 126 136 112 126 136 112 126 136 112 126 136 114 126 136 114 126 136 114 126 136 114 126 136 114 126 136 114 126 136 114 126 136 114 126 137 115 127 137 115 127 137 115 127 137 115 127 137 115 127 137 115 127 137 115 127 137 115 127 130 110 121 130 110 121 130 110 121 130 110 121 130 110 121 130 110 121 130 110 121 130 110 121 126 106 117 126 106 117 126 106 117 126 106 117 126 106 117 126 106 117 126 106 117 126 106 118 115 94 109 115 94 111 115 94 111 115 94 111 115 94 111 115 94 111 115 94 111 115 94 111 112 91 108 112 91 108 112 91 108 112 91 108 112 91 108 112 91 108 112 91 108 112 91 108 109 86 102 109 86 102 109 86 102 109 86 102 109 86 102 109 86 102 109 86 102 109 86 102 108 85 101 108 85 101 108 85 101 108 85 101 108 85 101 108 85 101 108 85 101 108 85 101 99 78 93 99 78 93 99 78 93 99 78 93 99 78 93 99 78 93 99 78 93 99 78 93 93 72 87 93 72 87 93 72 87 93 72 87 93 72 87 93 72 87 93 72 87 90 74 87 81 69 81 77 69 80 75 67 78 72 64 75 68 60 71 65 57 68 62 54 65 61 53 64 61 53 64 59 51 62 55 47 58 49 41 52 43 35 46 37 29 40 33 25 36 29 24 31 21 22 26 21 25 26 26 30 31 33 37 38 39 43 44 46 50 51 51 55 56 53 57 58 71 75 76 73 77 78 78 82 83 84 88 89 91 95 96 98 102 103 103 107 108 105 109 108 94 94 92 90 91 86 83 84 79 73 74 69 63 64 59 53 54 49 46 47 42 42 43 38 42 43 38 42 43 38 42 43 38 42 43 38 42 43 38 42 43 38 42 43 38 42 43 38 41 40 36 41 40 36 41 40 36 41 40 36 41 40 36 41 40 36 41 40 36 41 40 36 40 39 35 40 39 35 40 39 35 40 39 35 40 39 35 40 39 35 40 39 35 40 39 35
20 6 19 22 8 21 24 10 23 25 11 24 42 28 41 46 32 45 54 40 53 63 49 62 74 60 73 83 69 82 90 76 89 96 80 93 122 100 113 124 100 114 126 102 116 130 106 120 133 109 123 136 112 126 139 115 129 140 116 130 139 115 129 139 115 129 139 115 129 139 115 129 139 115 129 139 115 129 139 115 129 139 115 129 139 117 129 139 117 129 139 117 129 139 117 129 139 117 129 139 117 129 139 117 129 139 117 129 137 115 127 137 115 127 137 115 127 137 115 127 137 115 127 137 115 127 137 115 127 137 115 127 130 110 121 130 110 121 130 110 121 130 110 121 130 110 121 130 110 121 130 110 121 130 110 121 126 106 117 126 106 117 126 106 117 126 106 117 126 106 117 126 106 117 126 106 117 126 106 118 115 94 109 115 94 111 115 94 111 115 94 111 115 94 111 115 94 111 115 94 111 115 94 111 112 91 108 112 91 108 112 91 108 112 91 108 112 91 108 112 91 108 112 91 108 112 91 108 109 86 102 109 86 102 109 86 102 109 86 102 109 86 102 109 86 102 109 86 102 109 86 102 108 85 101 108 85 101 108 85 101 108 85 101 108 85 101 108 85 101 108 85 101 108 85 101 99 78 93 99 78 93 99 78 93 99 78 93 99 78 93 99 78 93 99 78 93 99 78 93 90 69 84 90 69 84 90 69 84 90 69 84 90 69 84 90 69 84 90 69 84 87 71 84 75 63 75 71 63 74 68 60 71 65 57 68 62 54 65 59 51 62 56 48 59 55 47 58 50 42 53 49 41 52 46 38 49 42 34 45 37 29 40 33 25 36 30 22 33 27 22 29 21 22 26 21 25 26 26 30 31 33 37 38 39 43 44 46 50 51 51 55 56 53 57 58 67 71 72 70 74 75 75 79 80 81 85 86 88 92 93 95 99 100 99 103 104 102 106 105 94 94 92 90 91 86 83 84 79 73 74 69 63 64 59 53 54 49 46 47 42 42 43 38 42 43 38 42 43 38 42 43 38 42 43 38 42 43 38 42 43 38 42 43 38 42 43 38 41 40 36 41 40 36 41 40 36 41 40 36 41 40 36 41 40 36 41 40 36 41 40 36 40 39 35 40 39 35 40 39 35 40 39 35 40 39 35 40 39 35 40 39 35 40 39 35
24 10 23 28 14 27 31 17 30 33 19 32 60 46 59 64 50 63 71 57 70 80 66 79 91 77 90 100 86 99 108 94 107 114 98 111 125 103 116 127 103 117 130 106 120 133 109 123 136 112 126 140 116 130 142 118 132 143 119 133 143 119 133 143 119 133 143 119 133 143 119 133 143 119 133 143 119 133 143 119 133 143 119 133 143 121 133 143 121 133 143 121 133 143 121 133 143 121 133 143 121 133 143 121 133 143 121 133 137 115 127 137 115 127 137 115 127 137 115 127 137 115 127 137 115 127 137 115 127 137 115 127 130 110 121 130 110 121 130 110 121 130 110 121 130 110 121 130 110 121 130 110 121 130 110 121 126 106 117 126 106 117 126 106 117 126 106 117 126 106 117 126 106 117 126 106 117 126 106 118 115 94 109 115 94 111 115 94 111 115 94 111 115 94 111 115 94 111 115 94 111 115 94 111 112 91 108 112 91 108 112 91 108 112 91 108 112 91 108 112 91 108 112 91 108 112 91 108 109 86 102 109 86 102 109 86 102 109 86 102 109 86 102 109 86 102 109 86 102 109 86 102 108 85 101 108 85 101 108 85 101 108 85 101 108 85 101 108 85 101 108 85 101 108 85 101 99 78 93 99 78 93 99 78 93 99 78 93 99 78 93 99 78 93 99 78 93 99 78 93 86 65 80 86 65 80 86 65 80 86 65 80 86 65 80 86 65 80 86 65 80 83 67 80 68 56 68 64 56 67 61 53 64 58 50 61 55 47 58 52 44 55 49 41 52 48 40 51 39 31 42 38 30 41 36 28 39 34 26 37 31 23 34 29 21 32 27 19 30 25 20 27 21 22 26 21 25 26 26 30 31 33 37 38 39 43 44 46 50 51 51 55 56 53 57 58 64 68 69 67 71 72 71 75 76 78 82 83 85 89 90 91 95 96 96 100 101 99 103 102 94 94 92 90 91 86 83 84 79 73 74 69 63 64 59 53 54 49 46 47 42 42 43 38 42 43 38 42 43 38 42 43 38 42 43 38 42 43 38 42 43 38 42 43 38 42 43 38 41 40 36 41 40 36 41 40 36 41 40 36 41 40 36 41 40 36 41 40 36 41 40 36 40 39 35 40 39 35 40 39 35 40 39 35 40 39 35 40 39 35 40 39 35 40 39 35
28 14 27 34 20 33 38 24 37 40 26 39 76 62 75 80 66 79 87 73 86 96 82 95 107 93 106 116 102 115 124 110 123 130 114 127 128 106 119 131 107 121 133 109 123 136 112 126 140 116 130 143 119 133 145 121 135 147 123 137 146 122 136 146 122 136 146 122 136 146 122 136 146 122 136 146 122 136 146 122 136 146 122 136 146 124 136 146 124 136 146 124 136 146 124 136 146 124 136 146 124 136 146 124 136 146 124 136 137 115 127 137 115 127 137 115 127 137 115 127 137 115 127 137 115 127 137 115 127 137 115 127 130 110 121 130 110 121 130 110 121 130 110 121 130 110 121 130 110 121 130 110 121 130 110 121 126 106 117 126 106 117 126 106 117 126 106 117 126 106 117 126 106 117 126 106 117 126 106 118 115 94 109 115 94 111 115 94 111 115 94 111 115 94 111 115 94 111 115 94 111 115 94 111 112 91 108 112 91 108 112 91 108 112 91 108 112 91 108 112 91 108 112 91 108 112 91 108 109 86 102 109 86 102 109 86 102 109 86 102 109 86 102 109 86 102 109 86 102 109 86 102 108 85 101 108 85 101 108 85 101 108 85 101 108 85 101 108 85 101 108 85 101 108 85 101 99 78 93 99 78 93 99 78 93 99 78 93 99 78 93 99 78 93 99 78 93 99 78 93 83 62 77 83 62 77 83 62 77 83 62 77 83 62 77 83 62 77 83 62 77 80 64 77 62 50 62 58 50 61 55 47 58 52 44 55 48 40 51 45 37 48 43 35 46 42 34 45 28 20 31 28 20 31 27 19 30 27 19 30 26 18 29 25 17 28 25 17 28 23 18 25 21 22 26 21 25 26 26 30 31 33 37 38 39 43 44 46 50 51 51 55 56 53 57 58 61 65 66 63 67 68 68 72 73 75 79 80 82 86 87 88 92 93 93 97 98 95 99 98 94 94 92 90 91 86 83 84 79 73 74 69 63 64 59 53 54 49 46 47 42 42 43 38 42 43 38 42 43 38 42 43 38 42 43 38 42 43 38 42 43 38 42 43 38 42 43 38 41 40 36 41 40 36 41 40 36 41 40 36 41 40 36 41 40 36 41 40 36 41 40 36 40 39 35 40 39 35 40 39 35 40 39 35 40 39 35 40 39 35 40 39 35 40 39 35
31 17 30 38 24 37 43 29 42 46 32 45 88 74 87 92 78 91 99 85 98 109 95 108 119 105 118 128 114 127 136 122 135 142 126 139 131 109 122 133 109 123 135 111 125 139 115 129 142 118 132 145 121 135 148 124 138 149 125 139 148 124 138 148 124 138 148 124 138 148 124 138 148 124 138 148 124 138 148 124 138 148 124 138 148 126 138 148 126 138 148 126 138 148 126 138 148 126 138 148 126 138 148 126 138 148 126 138 137 115 127 137 115 127 137 115 127 137 115 127 137 115 127 137 115 127 137 115 127 137 115 127 130 110 121 130 110 121 130 110 121 130 110 121 130 110 121 130 110 121 130 110 121 130 110 121 126 106 117 126 106 117 126 106 117 126 106 117 126 106 117 126 106 117 126 106 117 126 106 118 115 94 109 115 94 111 115 94 111 115 94 111 115 94 111 115 94 111 115 94 111 115 94 111 112 91 108 112 91 108 112 91 108 112 91 108 112 91 108 112 91 108 112 91 108 112 91 108 109 86 102 109 86 102 109 86 102 109 86 102 109 86 102 109 86 102 109 86 102 109 86 102 108 85 101 108 85 101 108 85 101 108 85 101 108 85 101 108 85 101 108 85 101 108 85 101 99 78 93 99 78 93 99 78 93 99 78 93 99 78 93 99 78 93 99 78 93 99 78 93 81 60 75 81 60 75 81 60 75 81 60 75 81 60 75 81 60 75 81 60 75 78 62 75 57 45 57 53 45 56 50 42 53 47 39 50 44 36 47 40 32 43 38 30 41 37 29 40 20 12 23 20 12 23 20 12 23 21 13 24 22 14 25 22 14 25 23 15 26 22 17 24 21 22 26 21 25 26 26 30 31 33 37 38 39 43 44 46 50 51 51 55 56 53 57 58 58 62 63 61 65 66 66 70 71 72 76 77 79 83 84 85 89 90 90 94 95 93 97 96 94 94 92 90 91 86 83 84 79 73 74 69 63 64 59 53 54 49 46 47 42 42 43 38 42 43 38 42 43 38 42 43 38 42 43 38 42 43 38 42 43 38 42 43 38 42 43 38 41 40 36 41 40 36 41 40 36 41 40 36 41 40 36 41 40 36 41 40 36 41 40 36 40 39 35 40 39 35 40 39 35 40 39 35 40 39 35 40 39 35 40 39 35 40 39 35
33 19 32 40 26 39 46 32 45 49 35 48 94 80 93 98 84 97 106 92 105 115 101 114 126 112 125 135 121 134 142 128 141 148 132 145 132 110 123 134 110 124 137 113 127 140 116 130 143 119 133 147 123 137 149 125 139 150 126 140 150 126 140 150 126 140 150 126 140 150 126 140 150 126 140 150 126 140 150 126 140 150 126 140 150 128 140 150 128 140 150 128 140 150 128 140 150 128 140 150 128 140 150 128 140 150 128 140 137 115 127 137 115 127 137 115 127 137 115 127 137 115 127 137 115 127 137 115 127 137 115 127 130 110 121 130 110 121 130 110 121 130 110 121 130 110 121 130 110 121 130 110 121 130 110 121 126 106 117 126 106 117 126 106 117 126 106 117 126 106 117 126 106 117 126 106 117 126 106 118 115 94 109 115 94 111 115 94 111 115 94 111 115 94 111 115 94 111 115 94 111 115 94 111 112 91 108 112 91 108 112 91 108 112 91 108 112 91 108 112 91 108 112 91 108 112 91 108 109 86 102 109 86 102 109 86 102 109 86 102 109 86 102 109 86 102 109 86 102 109 86 102 108 85 101 108 85 101 108 85 101 108 85 101 108 85 101 108 85 101 108 85 101 108 85 101 99 78 93 99 78 93 99 78 93 99 78 93 99 78 93 99 78 93 99 78 93 99 78 93 79 58 73 79 58 73 79 58 73 79 58 73 79 58 73 79 58 73 79 58 73 76 60 73 54 42 54 50 42 53 48 40 51 44 36 47 41 33 44 38 30 41 35 27 38 34 26 37 15 7 18 16 8 19 17 9 20 18 10 21 19 11 22 21 13 24 21 13 24 21 16 23 21 22 26 21 25 26 26 30 31 33 37 38 39 43 44 46 50 51 51 55 56 53 57 58 57 61 62 60 64 65 65 69 70 71 75 76 78 82 83 84 88 89 89 93 94 92 96 95 94 94 92 90 91 86 83 84 79 73 74 69 63 64 59 53 54 49 46 47 42 42 43 38 42 43 38 42 43 38 42 43 38 42 43 38 42 43 38 42 43 38 42 43 38 42 43 38 41 40 36 41 40 36 41 40 36 41 40 36 41 40 36 41 40 36 41 40 36 41 40 36 40 39 35 40 39 35 40 39 35 40 39 35 40 39 35 40 39 35 40 39 35 40 39 35
82 68 81 93 79 92 99 85 98 100 86 99 118 104 117 119 105 118 121 107 120 125 111 124 128 114 127 131 117 130 134 120 133 137 121 134 147 125 138 148 124 138 148 124 138 148 124 138 148 124 138 148 124 138 148 124 138 148 124 138 150 126 140 150 126 140 150 126 140 150 126 140 150 126 140 150 126 140 150 126 140 150 126 140 145 123 135 145 123 135 145 123 135 145 123 135 145 123 135 145 123 135 145 123 135 145 123 135 145 123 135 145 123 135 145 123 135 145 123 135 145 123 135 145 123 135 145 123 135 145 123 135 131 111 122 131 111 122 131 111 122 131 111 122 131 111 122 131 111 122 131 111 122 131 111 122 123 103 114 123 103 114 123 103 114 123 103 114 123 103 114 123 103 114 123 103 114 123 103 115 110 89 104 110 89 106 110 89 106 110 89 106 110 89 106 110 89 106 110 89 106 110 89 106 102 81 98 102 81 98 102 81 98 102 81 98 102 81 98 102 81 98 102 81 98 102 81 98 102 79 95 102 79 95 102 79 95 102 79 95 102 79 95 102 79 95 102 79 95 102 79 95 113 90 106 112 89 105 110 87 103 106 83 99 103 80 96 100 77 93 97 74 90 96 73 89 101 80 95 100 79 94 97 76 91 94 73 88 91 70 85 87 66 81 85 64 79 84 63 78 74 53 68 73 52 67 70 49 64 67 46 61 64 43 58 60 39 54 58 37 52 54 38 51 35 23 35 31 23 34 29 21 32 25 17 28 22 14 25 19 11 22 16 8 19 15 7 18 8 0 11 10 2 13 12 4 15 15 7 18 19 11 22 22 14 25 24 16 27 25 20 27 32 33 37 32 36 37 34 38 39 37 41 42 41 45 46 44 48 49 46 50 51 48 52 53 66 70 71 67 71 72 70 74 75 73 77 78 76 80 81 80 84 85 82 86 87 83 87 86 76 76 74 74 75 70 69 70 65 62 63 58 56 57 52 49 50 45 44 45 40 42 43 38 35 36 31 35 36 31 35 36 31 35 36 31 35 36 31 35 36 31 35 36 31 35 36 31 37 36 32 37 36 32 37 36 32 37 36 32 37 36 32 37 36 32 37 36 32 37 36 32 40 39 35 40 39 35 40 39 35 40 39 35 40 39 35 40 39 35 40 39 35 40 39 35
85 71 84 96 82 95 101 87 100 102 88 101 119 105 118 120 106 119 123 109 122 126 112 125 129 115 128 133 119 132 135 121 134 138 122 135 147 125 138 148 124 138 148 124 138 148 124 138 148 124 138 148 124 138 148 124 138 148 124 138 148 124 138 148 124 138 148 124 138 148 124 138 148 124 138 148 124 138 148 124 138 148 124 138 145 123 135 145 123 135 145 123 135 145 123 135 145 123 135 145 123 135 145 123 135 145 123 135 145 123 135 145 123 135 145 123 135 145 123 135 145 123 135 145 123 135 145 123 135 145 123 135 131 111 122 131 111 122 131 111 122 131 111 122 131 111 122 131 111 122 131 111 122 131 111 122 123 103 114 123 103 114 123 103 114 123 103 114 123 103 114 123 103 114 123 103 114 123 103 115 110 89 104 110 89 106 110 89 106 110 89 106 110 89 106 110 89 106 110 89 106 110 89 106 102 81 98 102 81 98 102 81 98 102 81 98 102 81 98 102 81 98 102 81 98 102 81 98 102 79 95 102 79 95 102 79 95 102 79 95 102 79 95 102 79 95 102 79 95 102 79 95 112 89 105 111 88 104 108 85 101 105 82 98 102 79 95 98 75 91 96 73 89 95 72 88 98 77 92 97 76 91 95 74 89 91 70 85 88 67 82 85 64 79 82 61 76 81 60 75 71 50 65 70 49 64 68 47 62 64 43 58 61 40 55 58 37 52 55 34 49 51 35 48 34 22 34 30 22 33 27 19 30 24 16 27 21 13 24 17 9 20 15 7 18 14 6 17 8 0 11 10 2 13 12 4 15 15 7 18 19 11 22 22 14 25 24 16 27 25 20 27 32 33 37 32 36 37 34 38 39 37 41 42 41 45 46 44 48 49 46 50 51 48 52 53 65 69 70 66 70 71 68 72 73 72 76 77 75 79 80 78 82 83 81 85 86 82 86 85 76 76 74 74 75 70 69 70 65 62 63 58 56 57 52 49 50 45 44 45 40 42 43 38 35 36 31 35 36 31 35 36 31 35 36 31 35 36 31 35 36 31 35 36 31 35 36 31 37 36 32 37 36 32 37 36 32 37 36 32 37 36 32 37 36 32 37 36 32 37 36 32 40 39 35 40 39 35 40 39 35 40 39 35 40 39 35 40 39 35 40 39 35 40 39 35
92 78 91 102 88 101 105 91 104 106 92 105 121 107 120 123 109 122 125 111 124 128 114 127 132 118 131 135 121 134 137 123 136 141 125 138 147 125 138 148 124 138 148 124 138 148 124 138 148 124 138 148 124 138 148 124 138 148 124 138 146 122 136 146 122 136 146 122 136 146 122 136 146 122 136 146 122 136 146 122 136 146 122 136 145 123 135 145 123 135 145 123 135 145 123 135 145 123 135 145 123 135 145 123 135 145 123 135 145 123 135 145 123 135 145 123 135 145 123 135 145 123 135 145 123 135 145 123 135 145 123 135 131 111 122 131 111 122 131 111 122 131 111 122 131 111 122 131 111 122 131 111 122 131 111 122 123 103 114 123 103 114 123 103 114 123 103 114 123 103 114 123 103 114 123 103 114 123 103 115 110 89 104 110 89 106 110 89 106 110 89 106 110 89 106 110 89 106 110 89 106 110 89 106 102 81 98 102 81 98 102 81 98 102 81 98 102 81 98 102 81 98 102 81 98 102 81 98 102 79 95 102 79 95 102 79 95 102 79 95 102 79 95 102 79 95 102 79 95 102 79 95 110 87 103 108 85 101 106 83 99 103 80 96 99 76 92 96 73 89 94 71 87 92 69 85 93 72 87 92 71 86 90 69 84 87 66 81 83 62 77 80 59 74 77 56 71 76 55 70 66 45 60 65 44 59 63 42 57 60 39 54 56 35 50 53 32 47 50 29 44 46 30 43 32 20 32 27 19 30 25 17 28 22 14 25 18 10 21 15 7 18 13 5 16 11 3 14 8 0 11 10 2 13 12 4 15 15 7 18 19 11 22 22 14 25 24 16 27 25 20 27 32 33 37 32 36 37 34 38 39 37 41 42 41 45 46 44 48 49 46 50 51 48 52 53 62 66 67 64 68 69 66 70 71 69 73 74 73 77 78 76 80 81 78 82 83 80 84 83 76 76 74 74 75 70 69 70 65 62 63 58 56 57 52 49 50 45 44 45 40 42 43 38 35 36 31 35 36 31 35 36 31 35 36 31 35 36 31 35 36 31 35 36 31 35 36 31 37 36 32 37 36 32 37 36 32 37 36 32 37 36 32 37 36 32 37 36 32 37 36 32 40 39 35 40 39 35 40 39 35 40 39 35 40 39 35 40 39 35 40 39 35 40 39 35
101 87 100 109 95 108 111 97 110 111 97 110 125 111 124 126 112 125 128 114 127 132 118 131 135 121 134 138 124 137 141 127 140 144 128 141 147 125 138 148 124 138 148 124 138 148 124 138 148 124 138 148 124 138 148 124 138 148 124 138 143 119 133 143 119 133 143 119 133 143 119 133 143 119 133 143 119 133 143 119 133 143 119 133 145 123 135 145 123 135 145 123 135 145 123 135 145 123 135 145 123 135 145 123 135 145 123 135 145 123 135 145 123 135 145 123 135 145 123 135 145 123 135 145 123 135 145 123 135 145 123 135 131 111 122 131 111 122 131 111 122 131 111 122 131 111 122 131 111 122 131 111 122 131 111 122 123 103 114 123 103 114 123 103 114 123 103 114 123 103 114 123 103 114 123 103 114 123 103 115 110 89 104 110 89 106 110 89 106 110 89 106 110 89 106 110 89 106 110 89 106 110 89 106 102 81 98 102 81 98 102 81 98 102 81 98 102 81 98 102 81 98 102 81 98 102 81 98 102 79 95 102 79 95 102 79 95 102 79 95 102 79 95 102 79 95 102 79 95 102 79 95 106 83 99 105 82 98 103 80 96 99 76 92 96 73 89 93 70 86 90 67 83 89 66 82 87 66 81 86 65 80 83 62 77 80 59 74 77 56 71 74 53 68 71 50 65 70 49 64 60 39 54 59 38 53 56 35 50 53 32 47 50 29 44 47 26 41 44 23 38 40 24 37 28 16 28 24 16 27 22 14 25 18 10 21 15 7 18 12 4 15 9 1 12 8 0 11 8 0 11 10 2 13 12 4 15 15 7 18 19 11 22 22 14 25 24 16 27 25 20 27 32 33 37 32 36 37 34 38 39 37 41 42 41 45 46 44 48 49 46 50 51 48 52 53 59 63 64 60 64 65 63 67 68 66 70 71 69 73 74 73 77 78 75 79 80 76 80 79 76 76 74 74 75 70 69 70 65 62 63 58 56 57 52 49 50 45 44 45 40 42 43 38 35 36 31 35 36 31 35 36 31 35 36 31 35 36 31 35 36 31 35 36 31 35 36 31 37 36 32 37 36 32 37 36 32 37 36 32 37 36 32 37 36 32 37 36 32 37 36 32 40 39 35 40 39 35 40 39 35 40 39 35 40 39 35 40 39 35 40 39 35 40 39 35
110 96 109 116 102 115 118 104 117 117 103 116 128 114 127 129 115 128 132 118 131 135 121 134 138 124 137 142 128 141 144 130 143 147 131 144 147 125 138 148 124 138 148 124 138 148 124 138 148 124 138 148 124 138 148 124 138 148 124 138 139 115 129 139 115 129 139 115 129 139 115 129 139 115 129 139 115 129 139 115 129 139 115 129 145 123 135 145 123 135 145 123 135 145 123 135 145 123 135 145 123 135 145 123 135 145 123 135 145 123 135 145 123 135 145 123 135 145 123 135 145 123 135 145 123 135 145 123 135 145 123 135 131 111 122 131 111 122 131 111 122 131 111 122 131 111 122 131 111 122 131 111 122 131 111 122 123 103 114 123 103 114 123 103 114 123 103 114 123 103 114 123 103 114 123 103 114 123 103 115 110 89 104 110 89 106 110 89 106 110 89 106 110 89 106 110 89 106 110 89 106 110 89 106 102 81 98 102 81 98 102 81 98 102 81 98 102 81 98 102 81 98 102 81 98 102 81 98 102 79 95 102 79 95 102 79 95 102 79 95 102 79 95 102 79 95 102 79 95 102 79 95 103 80 96 102 79 95 99 76 92 96 73 89 93 70 86 89 66 82 87 64 80 86 63 79 80 59 74 79 58 73 76 55 70 73 52 67 70 49 64 67 46 61 64 43 58 63 42 57 53 32 47 52 31 46 49 28 43 46 25 40 43 22 37 40 19 34 37 16 31 33 17 30 25 13 25 21 13 24 18 10 21 15 7 18 12 4 15 8 0 11 6 0 9 5 0 8 8 0 11 10 2 13 12 4 15 15 7 18 19 11 22 22 14 25 24 16 27 25 20 27 32 33 37 32 36 37 34 38 39 37 41 42 41 45 46 44 48 49 46 50 51 48 52 53 56 60 61 57 61 62 59 63 64 63 67 68 66 70 71 69 73 74 72 76 77 73 77 76 76 76 74 74 75 70 69 70 65 62 63 58 56 57 52 49 50 45 44 45 40 42 43 38 35 36 31 35 36 31 35 36 31 35 36 31 35 36 31 35 36 31 35 36 31 35 36 31 37 36 32 37 36 32 37 36 32 37 36 32 37 36 32 37 36 32 37 36 32 37 36 32 40 39 35 40 39 35 40 39 35 40 39 35 40 39 35 40 39 35 40 39 35 40 39 35
119 105 118 123 109 122 123 109 122 122 108 121 131 117 130 133 119 132 135 121 134 138 124 137 142 128 141 145 131 144 147 133 146 151 135 148 147 125 138 148 124 138 148 124 138 148 124 138 148 124 138 148 124 138 148 124 138 148 124 138 136 112 126 136 112 126 136 112 126 136 112 126 136 112 126 136 112 126 136 112 126 136 112 126 145 123 135 145 123 135 145 123 135 145 123 135 145 123 135 145 123 135 145 123 135 145 123 135 145 123 135 145 123 135 145 123 135 145 123 135 145 123 135 145 123 135 145 123 135 145 123 135 131 111 122 131 111 122 131 111 122 131 111 122 131 111 122 131 111 122 131 111 122 131 111 122 123 103 114 123 103 114 123 103 114 123 103 114 123 103 114 123 103 114 123 103 114 123 103 115 110 89 104 110 89 106 110 89 106 110 89 106 110 89 106 110 89 106 110 89 106 110 89 106 102 81 98 102 81 98 102 81 98 102 81 98 102 81 98 102 81 98 102 81 98 102 81 98 102 79 95 102 79 95 102 79 95 102 79 95 102 79 95 102 79 95 102 79 95 102 79 95 100 77 93 98 75 91 96 73 89 93 70 86 89 66 82 86 63 79 84 61 77 82 59 75 74 53 68 73 52 67 70 49 64 67 46 61 63 42 57 60 39 54 58 37 52 57 36 51 47 26 41 46 25 40 43 22 37 40 19 34 36 15 30 33 12 27 31 10 25 27 11 24 22 10 22 17 9 20 15 7 18 12 4 15 8 0 11 5 0 8 4 0 7 4 0 7 8 0 11 10 2 13 12 4 15 15 7 18 19 11 22 22 14 25 24 16 27 25 20 27 32 33 37 32 36 37 34 38 39 37 41 42 41 45 46 44 48 49 46 50 51 48 52 53 52 56 57 54 58 59 56 60 61 59 63 64 63 67 68 66 70 71 68 72 73 70 74 73 76 76 74 74 75 70 69 70 65 62 63 58 56 57 52 49 50 45 44 45 40 42 43 38 35 36 31 35 36 31 35 36 31 35 36 31 35 36 31 35 36 31 35 36 31 35 36 31 37 36 32 37 36 32 37 36 32 37 36 32 37 36 32 37 36 32 37 36 32 37 36 32 40 39 35 40 39 35 40 39 35 40 39 35 40 39 35 40 39 35 40 39 35 40 39 35
126 112 125 129 115 128 128 114 127 126 112 125 134 120 133 135 121 134 137 123 136 141 127 140 144 130 143 147 133 146 150 136 149 153 137 150 147 125 138 148 124 138 148 124 138 148 124 138 148 124 138 148 124 138 148 124 138 148 124 138 134 110 124 134 110 124 134 110 124 134 110 124 134 110 124 134 110 124 134 110 124 134 110 124 145 123 135 145 123 135 145 123 135 145 123 135 145 123 135 145 123 135 145 123 135 145 123 135 145 123 135 145 123 135 145 123 135 145 123 135 145 123 135 145 123 135 145 123 135 145 123 135 131 111 122 131 111 122 131 111 122 131 111 122 131 111 122 131 111 122 131 111 122 131 111 122 123 103 114 123 103 114 123 103 114 123 103 114 123 103 114 123 103 114 123 103 114 123 103 115 110 89 104 110 89 106 110 89 106 110 89 106 110 89 106 110 89 106 110 89 106 110 89 106 102 81 98 102 81 98 102 81 98 102 81 98 102 81 98 102 81 98 102 81 98 102 81 98 102 79 95 102 79 95 102 79 95 102 79 95 102 79 95 102 79 95 102 79 95 102 79 95 97 74 90 96 73 89 94 71 87 90 67 83 87 64 80 84 61 77 81 58 74 80 57 73 69 48 63 68 47 62 65 44 59 62 41 56 59 38 53 55 34 49 53 32 47 52 31 46 42 21 36 41 20 35 38 17 32 35 14 29 32 11 26 28 7 22 26 5 20 22 6 19 19 7 19 15 7 18 13 5 16 9 1 12 6 0 9 4 0 7 4 0 7 4 0 7 8 0 11 10 2 13 12 4 15 15 7 18 19 11 22 22 14 25 24 16 27 25 20 27 32 33 37 32 36 37 34 38 39 37 41 42 41 45 46 44 48 49 46 50 51 48 52 53 50 54 55 51 55 56 54 58 59 57 61 62 60 64 65 64 68 69 66 70 71 67 71 70 76 76 74 74 75 70 69 70 65 62 63 58 56 57 52 49 50 45 44 45 40 42 43 38 35 36 31 35 36 31 35 36 31 35 36 31 35 36 31 35 36 31 35 36 31 35 36 31 37 36 32 37 36 32 37 36 32 37 36 32 37 36 32 37 36 32 37 36 32 37 36 32 40 39 35 40 39 35 40 39 35 40 39 35 40 39 35 40 39 35 40 39 35 40 39 35
131 115 128 134 118 131 132 116 129 130 114 127 137 121 134 138 122 135 141 125 138 144 128 141 147 131 144 151 135 148 153 137 150 155 137 151 147 125 138 148 124 138 148 124 138 148 124 138 148 124 138 148 124 138 148 124 138 148 124 138 132 108 122 132 108 122 132 108 122 132 108 122 132 108 122 132 108 122 132 108 122 131 109 122 145 123 136 145 123 135 145 123 135 145 123 135 145 123 135 145 123 135 145 123 135 145 123 135 145 123 135 145 123 135 145 123 135 145 123 135 145 123 135 145 123 135 145 123 135 144 124 135 131 111 122 131 111 122 131 111 123 131 111 122 131 111 123 131 111 122 131 111 123 131 111 122 123 103 115 123 103 114 123 103 115 123 103 114 123 103 115 123 103 114 123 103 115 123 103 115 108 90 104 108 90 106 108 90 106 108 90 106 108 90 106 108 90 106 108 90 106 108 90 106 100 82 98 100 82 98 100 82 98 100 82 98 100 82 98 100 82 98 100 82 98 100 82 98 99 81 97 99 81 95 99 81 97 99 81 95 99 81 97 99 81 95 99 81 97 99 81 95 93 75 91 92 74 88 89 71 87 86 68 82 83 65 81 79 61 75 77 59 75 75 59 72 63 47 60 60 46 59 58 44 57 54 40 53 51 37 50 48 34 47 45 31 44 44 30 43 34 20 33 33 19 32 31 17 30 27 13 26 24 10 23 21 7 20 18 4 17 16 4 16 15 7 18 11 8 15 10 4 14 5 2 9 4 0 8 1 0 5 3 0 7 1 0 5 7 1 11 7 4 11 11 5 15 12 9 16 18 12 22 19 16 23 23 17 27 23 20 27 32 33 37 32 36 37 34 38 39 37 41 42 41 45 46 44 48 49 46 50 51 48 52 53 49 53 54 50 54 55 52 56 57 56 60 61 59 63 64 62 66 67 65 69 70 68 70 69 76 76 74 74 75 70 70 69 65 62 63 58 57 56 52 49 50 45 45 44 40 42 43 38 36 35 31 35 36 31 36 35 31 35 36 31 36 35 31 35 36 31 36 35 31 36 35 31 37 36 32 39 35 32 39 35 32 39 35 32 39 35 32 39 35 32 39 35 32 39 35 32 42 38 35 42 38 35 42 38 35 42 38 35 42 38 35 42 38 35 42 38 35 42 38 35
130 108 121 136 114 127 141 119 132 144 122 135 146 124 137 146 124 137 146 124 137 146 124 137 146 124 137 146 124 137 146 124 137 146 124 137 147 124 140 146 123 139 143 120 136 140 117 133 137 114 130 133 110 126 131 108 124 130 107 123 100 77 93 103 80 96 108 85 101 114 91 107 121 98 114 127 104 120 132 109 125 135 113 126 150 128 141 149 129 141 149 129 141 149 129 141 149 129 141 149 129 141 149 129 141 149 129 141 146 126 138 146 126 138 146 126 138 146 126 138 146 126 138 146 126 138 146 126 138 146 126 138 139 119 131 135 117 129 133 115 129 130 112 124 126 108 122 123 105 117 121 103 117 119 101 113 125 107 121 124 106 118 122 104 118 118 100 112 115 97 111 112 94 106 109 91 105 108 90 104 100 83 99 100 83 99 100 83 99 100 83 99 100 83 99 100 83 99 100 83 99 100 83 99 86 69 85 86 69 85 86 69 85 86 69 85 86 69 85 86 69 85 86 69 85 84 70 85 99 87 101 97 86 100 94 83 99 91 80 94 88 77 93 84 73 87 82 71 87 81 70 84 85 74 90 82 71 85 76 65 81 69 58 72 61 50 66 53 42 56 47 36 52 42 34 47 39 36 47 38 36 47 38 36 47 38 36 47 38 36 47 38 36 47 38 36 47 38 36 47 29 27 38 27 25 36 25 23 34 22 20 31 18 16 27 15 13 24 13 11 22 11 10 18 7 8 13 5 9 12 7 8 13 5 9 12 7 8 13 5 9 12 7 8 13 5 9 12 7 8 13 7 11 14 11 12 17 12 16 19 18 19 24 19 23 26 23 24 29 23 27 30 29 33 34 31 35 36 33 37 38 36 40 41 40 44 45 43 47 48 45 49 50 47 51 52 53 57 58 53 57 58 53 57 58 53 57 58 53 57 58 53 57 58 53 57 58 55 57 56 61 60 58 59 58 54 59 55 52 54 53 49 52 48 45 47 46 42 47 43 40 43 42 38 38 34 31 36 35 31 38 34 31 36 35 31 38 34 31 36 35 31 38 34 31 38 34 31 39 34 31 39 34 31 39 34 31 39 34 31 39 34 31 39 34 31 39 34 31 39 34 31 40 35 32 40 35 32 40 35 32 40 35 32 40 35 32 40 35 32 40 35 32 40 35 32
132 108 122 138 114 128 143 119 133 146 122 136 147 123 137 147 123 137 147 123 137 147 123 137 147 123 137 147 123 137 147 123 137 147 123 137 144 121 137 143 120 136 141 118 134 137 114 130 134 111 127 131 108 124 128 105 121 127 104 120 101 78 94 104 81 97 109 86 102 115 92 108 122 99 115 128 105 121 133 110 126 136 113 129 149 129 141 149 129 141 149 129 141 149 129 141 149 129 141 149 129 141 149 129 141 149 129 141 146 126 138 146 126 138 146 126 138 146 126 138 146 126 138 146 126 138 146 126 138 146 126 138 137 119 133 135 117 131 133 115 129 130 112 126 126 108 122 123 105 119 121 103 117 119 101 115 124 106 120 123 105 119 120 102 116 117 99 113 114 96 110 110 92 106 108 90 104 106 90 103 98 81 97 96 82 97 96 82 97 96 82 97 96 82 97 96 82 97 96 82 97 96 82 97 84 70 85 84 70 85 84 70 85 84 70 85 84 70 85 84 70 85 84 70 85 83 71 85 93 85 100 91 85 99 89 83 97 85 79 93 82 76 90 79 73 87 76 70 84 75 69 83 79 73 87 76 70 84 71 65 79 64 58 72 57 51 65 50 44 58 44 38 52 39 35 49 35 38 47 34 38 47 34 38 47 34 38 47 34 38 47 34 38 47 34 38 47 34 38 47 25 29 38 23 27 36 21 25 34 18 22 31 14 18 27 11 15 24 9 13 22 7 12 18 4 9 13 4 9 12 4 9 12 4 9 12 4 9 12 4 9 12 4 9 12 4 9 12 4 9 12 6 11 14 8 13 16 11 16 19 15 20 23 18 23 26 20 25 28 22 27 30 29 33 34 31 35 36 33 37 38 36 40 41 40 44 45 43 47 48 45 49 50 47 51 52 53 57 58 53 57 58 53 57 58 53 57 58 53 57 58 53 57 58 53 57 58 55 57 56 61 60 58 61 57 54 59 55 52 56 52 49 52 48 45 49 45 42 47 43 40 45 41 38 38 34 31 38 34 31 38 34 31 38 34 31 38 34 31 38 34 31 38 34 31 38 34 31 41 33 31 41 33 31 41 33 31 41 33 31 41 33 31 41 33 31 41 33 31 41 33 31 42 34 32 42 34 32 42 34 32 42 34 32 42 34 32 42 34 32 42 34 32 42 34 32
135 111 125 141 117 131 146 122 136 148 124 138 147 123 137 147 123 137 147 123 137 147 123 137 147 123 137 147 123 137 147 123 137 147 123 137 139 116 132 138 115 131 136 113 129 133 110 126 129 106 122 126 103 119 123 100 116 122 99 115 104 81 97 106 83 99 111 88 104 118 95 111 125 102 118 131 108 124 136 113 129 138 115 131 149 129 141 149 129 141 149 129 141 149 129 141 149 129 141 149 129 141 149 129 141 149 129 141 146 126 138 146 126 138 146 126 138 146 126 138 146 126 138 146 126 138 146 126 138 146 126 138 137 119 133 135 117 131 133 115 129 130 112 126 126 108 122 123 105 119 121 103 117 119 101 115 122 104 118 120 102 116 118 100 114 115 97 111 111 93 107 108 90 104 106 88 102 103 87 100 96 79 95 94 80 95 94 80 95 94 80 95 94 80 95 94 80 95 94 80 95 94 80 95 84 70 85 84 70 85 84 70 85 84 70 85 84 70 85 84 70 85 84 70 85 83 71 85 88 80 95 86 80 94 84 78 92 81 75 89 77 71 85 74 68 82 71 65 79 70 64 78 73 67 81 71 65 79 67 61 75 61 55 69 55 49 63 49 43 57 45 39 53 40 36 50 35 38 47 34 38 47 34 38 47 34 38 47 34 38 47 34 38 47 34 38 47 34 38 47 25 29 38 23 27 36 21 25 34 18 22 31 14 18 27 11 15 24 9 13 22 7 12 18 4 9 13 4 9 12 4 9 12 4 9 12 4 9 12 4 9 12 4 9 12 4 9 12 4 9 12 6 11 14 8 13 16 11 16 19 15 20 23 18 23 26 20 25 28 22 27 30 29 33 34 31 35 36 33 37 38 36 40 41 40 44 45 43 47 48 45 49 50 47 51 52 53 57 58 53 57 58 53 57 58 53 57 58 53 57 58 53 57 58 53 57 58 55 57 56 61 60 58 61 57 54 59 55 52 56 52 49 52 48 45 49 45 42 47 43 40 45 41 38 38 34 31 38 34 31 38 34 31 38 34 31 38 34 31 38 34 31 38 34 31 38 34 31 41 33 31 41 33 31 41 33 31 41 33 31 41 33 31 41 33 31 41 33 31 41 33 31 42 34 32 42 34 32 42 34 32 42 34 32 42 34 32 42 34 32 42 34 32 42 34 32
138 114 128 144 120 134 149 125 139 152 128 142 147 123 137 147 123 137 147 123 137 147 123 137 147 123 137 147 123 137 147 123 137 147 123 137 133 110 126 132 109 125 129 106 122 126 103 119 123 100 116 120 97 113 117 94 110 116 93 109 107 84 100 110 87 103 114 91 107 121 98 114 128 105 121 134 111 127 139 116 132 142 119 135 149 129 141 149 129 141 149 129 141 149 129 141 149 129 141 149 129 141 149 129 141 149 129 141 146 126 138 146 126 138 146 126 138 146 126 138 146 126 138 146 126 138 146 126 138 146 126 138 137 119 133 135 117 131 133 115 129 130 112 126 126 108 122 123 105 119 121 103 117 119 101 115 118 100 114 117 99 113 115 97 111 111 93 107 108 90 104 105 87 101 102 84 98 100 84 97 93 76 92 91 77 92 91 77 92 91 77 92 91 77 92 91 77 92 91 77 92 91 77 92 84 70 85 84 70 85 84 70 85 84 70 85 84 70 85 84 70 85 84 70 85 83 71 85 82 74 89 80 74 88 77 71 85 74 68 82 71 65 79 68 62 76 65 59 73 64 58 72 66 60 74 64 58 72 61 55 69 57 51 65 53 47 61 48 42 56 45 39 53 42 38 52 35 38 47 34 38 47 34 38 47 34 38 47 34 38 47 34 38 47 34 38 47 34 38 47 25 29 38 23 27 36 21 25 34 18 22 31 14 18 27 11 15 24 9 13 22 7 12 18 4 9 13 4 9 12 4 9 12 4 9 12 4 9 12 4 9 12 4 9 12 4 9 12 4 9 12 6 11 14 8 13 16 11 16 19 15 20 23 18 23 26 20 25 28 22 27 30 29 33 34 31 35 36 33 37 38 36 40 41 40 44 45 43 47 48 45 49 50 47 51 52 53 57 58 53 57 58 53 57 58 53 57 58 53 57 58 53 57 58 53 57 58 55 57 56 61 60 58 61 57 54 59 55 52 56 52 49 52 48 45 49 45 42 47 43 40 45 41 38 38 34 31 38 34 31 38 34 31 38 34 31 38 34 31 38 34 31 38 34 31 38 34 31 41 33 31 41 33 31 41 33 31 41 33 31 41 33 31 41 33 31 41 33 31 41 33 31 42 34 32 42 34 32 42 34 32 42 34 32 42 34 32 42 34 32 42 34 32 42 34 32
141 117 131 148 124 138 152 128 142 155 131 145 147 123 137 147 123 137 147 123 137 147 123 137 147 123 137 147 123 137 147 123 137 147 123 137 126 103 119 125 102 118 122 99 115 119 96 112 116 93 109 113 90 106 110 87 103 109 86 102 110 87 103 113 90 106 118 95 111 124 101 117 131 108 124 138 115 131 142 119 135 145 122 138 149 129 141 149 129 141 149 129 141 149 129 141 149 129 141 149 129 141 149 129 141 149 129 141 146 126 138 146 126 138 146 126 138 146 126 138 146 126 138 146 126 138 146 126 138 146 126 138 137 119 133 135 117 131 133 115 129 130 112 126 126 108 122 123 105 119 121 103 117 119 101 115 115 97 111 114 96 110 111 93 107 108 90 104 105 87 101 101 83 97 99 81 95 97 81 94 89 72 88 87 73 88 87 73 88 87 73 88 87 73 88 87 73 88 87 73 88 87 73 88 84 70 85 84 70 85 84 70 85 84 70 85 84 70 85 84 70 85 84 70 85 83 71 85 75 67 82 73 67 81 70 64 78 67 61 75 64 58 72 61 55 69 58 52 66 57 51 65 58 52 66 57 51 65 55 49 63 53 47 61 50 44 58 48 42 56 46 40 54 43 39 53 35 38 47 34 38 47 34 38 47 34 38 47 34 38 47 34 38 47 34 38 47 34 38 47 25 29 38 23 27 36 21 25 34 18 22 31 14 18 27 11 15 24 9 13 22 7 12 18 4 9 13 4 9 12 4 9 12 4 9 12 4 9 12 4 9 12 4 9 12 4 9 12 4 9 12 6 11 14 8 13 16 11 16 19 15 20 23 18 23 26 20 25 28 22 27 30 29 33 34 31 35 36 33 37 38 36 40 41 40 44 45 43 47 48 45 49 50 47 51 52 53 57 58 53 57 58 53 57 58 53 57 58 53 57 58 53 57 58 53 57 58 55 57 56 61 60 58 61 57 54 59 55 52 56 52 49 52 48 45 49 45 42 47 43 40 45 41 38 38 34 31 38 34 31 38 34 31 38 34 31 38 34 31 38 34 31 38 34 31 38 34 31 41 33 31 41 33 31 41 33 31 41 33 31 41 33 31 41 33 31 41 33 31 41 33 31 42 34 32 42 34 32 42 34 32 42 34 32 42 34 32 42 34 32 42 34 32 42 34 32
144 120 134 151 127 141 156 132 146 158 134 148 147 123 137 147 123 137 147 123 137 147 123 137 147 123 137 147 123 137 147 123 137 147 123 137 120 97 113 119 96 112 116 93 109 113 90 106 109 86 102 106 83 99 104 81 97 103 80 96 114 91 107 116 93 109 121 98 114 127 104 120 134 111 127 141 118 134 146 123 139 148 125 141 149 129 141 149 129 141 149 129 141 149 129 141 149 129 141 149 129 141 149 129 141 149 129 141 146 126 138 146 126 138 146 126 138 146 126 138 146 126 138 146 126 138 146 126 138 146 126 138 137 119 133 135 117 131 133 115 129 130 112 126 126 108 122 123 105 119 121 103 117 119 101 115 112 94 108 110 92 106 108 90 104 105 87 101 101 83 97 98 80 94 96 78 92 93 77 90 86 69 85 84 70 85 84 70 85 84 70 85 84 70 85 84 70 85 84 70 85 84 70 85 84 70 85 84 70 85 84 70 85 84 70 85 84 70 85 84 70 85 84 70 85 83 71 85 69 61 76 67 61 75 64 58 72 61 55 69 57 51 65 54 48 62 52 46 60 51 45 59 50 44 58 50 44 58 49 43 57 48 42 56 48 42 56 47 41 55 47 41 55 44 40 54 35 38 47 34 38 47 34 38 47 34 38 47 34 38 47 34 38 47 34 38 47 34 38 47 25 29 38 23 27 36 21 25 34 18 22 31 14 18 27 11 15 24 9 13 22 7 12 18 4 9 13 4 9 12 4 9 12 4 9 12 4 9 12 4 9 12 4 9 12 4 9 12 4 9 12 6 11 14 8 13 16 11 16 19 15 20 23 18 23 26 20 25 28 22 27 30 29 33 34 31 35 36 33 37 38 36 40 41 40 44 45 43 47 48 45 49 50 47 51 52 53 57 58 53 57 58 53 57 58 53 57 58 53 57 58 53 57 58 53 57 58 55 57 56 61 60 58 61 57 54 59 55 52 56 52 49 52 48 45 49 45 42 47 43 40 45 41 38 38 34 31 38 34 31 38 34 31 38 34 31 38 34 31 38 34 31 38 34 31 38 34 31 41 33 31 41 33 31 41 33 31 41 33 31 41 33 31 41 33 31 41 33 31 41 33 31 42 34 32 42 34 32 42 34 32 42 34 32 42 34 32 42 34 32 42 34 32 42 34 32
147 123 137 153 129 143 158 134 148 161 137 151 147 123 137 147 123 137 147 123 137 147 123 137 147 123 137 147 123 137 147 123 137 147 123 137 115 92 108 114 91 107 111 88 104 108 85 101 105 82 98 101 78 94 99 76 92 98 75 91 116 93 109 119 96 112 124 101 117 130 107 123 137 114 130 143 120 136 148 125 141 151 128 144 149 129 141 149 129 141 149 129 141 149 129 141 149 129 141 149 129 141 149 129 141 149 129 141 146 126 138 146 126 138 146 126 138 146 126 138 146 126 138 146 126 138 146 126 138 146 126 138 137 119 133 135 117 131 133 115 129 130 112 126 126 108 122 123 105 119 121 103 117 119 101 115 109 91 105 108 90 104 106 88 102 102 84 98 99 81 95 96 78 92 93 75 89 91 75 88 84 67 83 82 68 83 82 68 83 82 68 83 82 68 83 82 68 83 82 68 83 82 68 83 84 70 85 84 70 85 84 70 85 84 70 85 84 70 85 84 70 85 84 70 85 83 71 85 64 56 71 62 56 70 59 53 67 56 50 64 53 47 61 49 43 57 47 41 55 46 40 54 44 38 52 44 38 52 45 39 53 45 39 53 46 40 54 47 41 55 47 41 55 45 41 55 35 38 47 34 38 47 34 38 47 34 38 47 34 38 47 34 38 47 34 38 47 34 38 47 25 29 38 23 27 36 21 25 34 18 22 31 14 18 27 11 15 24 9 13 22 7 12 18 4 9 13 4 9 12 4 9 12 4 9 12 4 9 12 4 9 12 4 9 12 4 9 12 4 9 12 6 11 14 8 13 16 11 16 19 15 20 23 18 23 26 20 25 28 22 27 30 29 33 34 31 35 36 33 37 38 36 40 41 40 44 45 43 47 48 45 49 50 47 51 52 53 57 58 53 57 58 53 57 58 53 57 58 53 57 58 53 57 58 53 57 58 55 57 56 61 60 58 61 57 54 59 55 52 56 52 49 52 48 45 49 45 42 47 43 40 45 41 38 38 34 31 38 34 31 38 34 31 38 34 31 38 34 31 38 34 31 38 34 31 38 34 31 41 33 31 41 33 31 41 33 31 41 33 31 41 33 31 41 33 31 41 33 31 41 33 31 42 34 32 42 34 32 42 34 32 42 34 32 42 34 32 42 34 32 42 34 32 42 34 32
148 124 138 154 130 144 159 135 149 162 138 152 147 123 137 147 123 137 147 123 137 147 123 137 147 123 137 147 123 137 147 123 137 147 123 137 112 89 105 111 88 104 109 86 102 105 82 98 102 79 95 99 76 92 96 73 89 95 72 88 117 94 110 120 97 113 125 102 118 131 108 124 138 115 131 144 121 137 149 126 142 152 129 145 149 129 141 149 129 141 149 129 141 149 129 141 149 129 141 149 129 141 149 129 141 149 129 141 146 126 138 146 126 138 146 126 138 146 126 138 146 126 138 146 126 138 146 126 138 146 126 138 137 119 133 135 117 131 133 115 129 130 112 126 126 108 122 123 105 119 121 103 117 119 101 115 108 90 104 107 89 103 104 86 100 101 83 97 98 80 94 94 76 90 92 74 88 90 74 87 82 65 81 80 66 81 80 66 81 80 66 81 80 66 81 80 66 81 80 66 81 80 66 81 84 70 85 84 70 85 84 70 85 84 70 85 84 70 85 84 70 85 84 70 85 83 71 85 61 53 68 59 53 67 57 51 65 53 47 61 50 44 58 47 41 55 44 38 52 43 37 51 41 35 49 42 36 50 42 36 50 44 38 52 45 39 53 46 40 54 47 41 55 46 42 56 35 38 47 34 38 47 34 38 47 34 38 47 34 38 47 34 38 47 34 38 47 34 38 47 25 29 38 23 27 36 21 25 34 18 22 31 14 18 27 11 15 24 9 13 22 7 12 18 4 9 13 4 9 12 4 9 12 4 9 12 4 9 12 4 9 12 4 9 12 4 9 12 4 9 12 6 11 14 8 13 16 11 16 19 15 20 23 18 23 26 20 25 28 22 27 30 29 33 34 31 35 36 33 37 38 36 40 41 40 44 45 43 47 48 45 49 50 47 51 52 53 57 58 53 57 58 53 57 58 53 57 58 53 57 58 53 57 58 53 57 58 55 57 56 61 60 58 61 57 54 59 55 52 56 52 49 52 48 45 49 45 42 47 43 40 45 41 38 38 34 31 38 34 31 38 34 31 38 34 31 38 34 31 38 34 31 38 34 31 38 34 31 41 33 31 41 33 31 41 33 31 41 33 31 41 33 31 41 33 31 41 33 31 41 33 31 42 34 32 42 34 32 42 34 32 42 34 32 42 34 32 42 34 32 42 34 32 42 34 32
144 120 134 147 123 137 149 125 139 151 127 141 155 131 145 159 135 149 163 139 153 160 136 150 148 124 138 127 103 117 106 82 96 92 68 82 74 51 67 72 49 65 72 49 65 76 53 69 86 63 79 101 78 94 116 93 109 126 103 119 134 111 127 136 113 129 138 115 131 141 118 134 145 122 138 148 125 141 150 127 143 152 129 145 149 129 141 149 129 141 149 129 141 149 129 141 149 129 141 149 129 141 149 129 141 149 129 141 139 119 131 139 119 131 139 119 131 139 119 131 139 119 131 139 119 131 139 119 131 139 119 131 137 119 133 136 118 132 134 116 130 130 112 126 127 109 123 124 106 120 121 103 117 120 102 116 106 88 102 105 87 101 103 85 99 99 81 95 96 78 92 93 75 89 90 72 86 88 72 85 96 79 95 93 79 94 90 76 91 87 73 88 84 70 85 80 66 81 78 64 79 77 63 78 86 72 87 84 70 85 82 68 83 79 65 80 75 61 76 72 58 73 70 56 71 67 55 69 45 37 52 42 36 50 39 33 47 34 28 42 30 24 38 25 19 33 22 16 30 20 14 28 41 35 49 41 35 49 41 35 49 41 35 49 41 35 49 41 35 49 41 35 49 39 35 49 35 38 47 34 38 47 34 38 47 34 38 47 34 38 47 34 38 47 34 38 47 34 38 47 38 42 51 36 40 49 31 35 44 24 28 37 18 22 31 11 15 24 6 10 19 4 9 15 7 12 16 7 12 15 7 12 15 7 12 15 7 12 15 7 12 15 7 12 15 7 12 15 5 10 13 7 12 15 9 14 17 12 17 20 16 21 24 19 24 27 21 26 29 23 28 31 24 28 29 26 30 31 28 32 33 31 35 36 35 39 40 38 42 43 40 44 45 42 46 47 41 45 46 41 45 46 41 45 46 41 45 46 41 45 46 41 45 46 41 45 46 43 45 44 40 39 37 42 38 35 42 38 35 42 38 35 42 38 35 42 38 35 42 38 35 42 38 35 36 32 29 36 32 29 36 32 29 36 32 29 36 32 29 36 32 29 36 32 29 36 32 29 40 32 30 40 32 30 40 32 30 40 32 30 40 32 30 40 32 30 40 32 30 40 32 30 41 33 31 41 33 31 41 33 31 41 33 31 41 33 31 41 33 31 41 33 31 41 33 31
144 120 134 147 123 137 149 125 139 151 127 141 154 130 144 156 132 146 158 134 148 153 129 143 140 116 130 120 96 110 100 76 90 87 63 77 71 48 64 70 47 63 69 46 62 73 50 66 83 60 76 98 75 91 114 91 107 123 100 116 134 111 127 136 113 129 138 115 131 141 118 134 145 122 138 148 125 141 150 127 143 152 129 145 149 129 141 149 129 141 149 129 141 149 129 141 149 129 141 149 129 141 149 129 141 149 129 141 139 119 131 139 119 131 139 119 131 139 119 131 139 119 131 139 119 131 139 119 131 139 119 131 136 118 132 135 117 131 132 114 128 129 111 125 126 108 122 122 104 118 120 102 116 119 101 115 105 87 101 104 86 100 101 83 97 98 80 94 95 77 91 91 73 87 89 71 85 87 71 84 93 76 92 90 76 91 88 74 89 84 70 85 81 67 82 78 64 79 75 61 76 74 60 75 82 68 83 80 66 81 78 64 79 75 61 76 71 57 72 68 54 69 66 52 67 63 51 65 43 35 50 41 35 49 38 32 46 34 28 42 30 24 38 26 20 34 23 17 31 22 16 30 43 37 51 43 37 51 43 37 51 43 37 51 43 37 51 43 37 51 43 37 51 41 37 51 37 40 49 36 40 49 36 40 49 36 40 49 36 40 49 36 40 49 36 40 49 36 40 49 38 42 51 36 40 49 31 35 44 24 28 37 18 22 31 11 15 24 6 10 19 4 9 15 7 12 16 7 12 15 7 12 15 7 12 15 7 12 15 7 12 15 7 12 15 7 12 15 5 10 13 7 12 15 9 14 17 12 17 20 16 21 24 19 24 27 21 26 29 23 28 31 24 28 29 26 30 31 28 32 33 31 35 36 35 39 40 38 42 43 40 44 45 42 46 47 41 45 46 41 45 46 41 45 46 41 45 46 41 45 46 41 45 46 41 45 46 43 45 44 40 39 37 42 38 35 42 38 35 42 38 35 42 38 35 42 38 35 42 38 35 42 38 35 36 32 29 36 32 29 36 32 29 36 32 29 36 32 29 36 32 29 36 32 29 36 32 29 40 32 30 40 32 30 40 32 30 40 32 30 40 32 30 40 32 30 40 32 30 40 32 30 41 33 31 41 33 31 41 33 31 41 33 31 41 33 31 41 33 31 41 33 31 41 33 31
144 120 134 147 123 137 149 125 139 151 127 141 151 127 141 151 127 141 148 124 138 140 116 130 125 101 115 107 83 97 89 65 79 78 54 68 66 43 59 65 42 58 64 41 57 68 45 61 78 55 71 94 71 87 109 86 102 118 95 111 134 111 127 136 113 129 138 115 131 141 118 134 145 122 138 148 125 141 150 127 143 152 129 145 149 129 141 149 129 141 149 129 141 149 129 141 149 129 141 149 129 141 149 129 141 149 129 141 139 119 131 139 119 131 139 119 131 139 119 131 139 119 131 139 119 131 139 119 131 139 119 131 134 116 130 132 114 128 130 112 126 127 109 123 123 105 119 120 102 116 118 100 114 116 98 112 103 85 99 101 83 97 99 81 95 96 78 92 92 74 88 89 71 85 87 69 83 84 68 81 88 71 87 85 71 86 83 69 84 80 66 81 76 62 77 73 59 74 70 56 71 69 55 70 74 60 75 73 59 74 71 57 72 67 53 68 64 50 65 61 47 62 58 44 59 56 44 58 40 32 47 38 32 46 36 30 44 33 27 41 31 25 39 28 22 36 26 20 34 25 19 33 45 39 53 45 39 53 45 39 53 45 39 53 45 39 53 45 39 53 45 39 53 43 39 53 39 42 51 38 42 51 38 42 51 38 42 51 38 42 51 38 42 51 38 42 51 38 42 51 38 42 51 36 40 49 31 35 44 24 28 37 18 22 31 11 15 24 6 10 19 4 9 15 7 12 16 7 12 15 7 12 15 7 12 15 7 12 15 7 12 15 7 12 15 7 12 15 5 10 13 7 12 15 9 14 17 12 17 20 16 21 24 19 24 27 21 26 29 23 28 31 24 28 29 26 30 31 28 32 33 31 35 36 35 39 40 38 42 43 40 44 45 42 46 47 41 45 46 41 45 46 41 45 46 41 45 46 41 45 46 41 45 46 41 45 46 43 45 44 40 39 37 42 38 35 42 38 35 42 38 35 42 38 35 42 38 35 42 38 35 42 38 35 36 32 29 36 32 29 36 32 29 36 32 29 36 32 29 36 32 29 36 32 29 36 32 29 40 32 30 40 32 30 40 32 30 40 32 30 40 32 30 40 32 30 40 32 30 40 32 30 41 33 31 41 33 31 41 33 31 41 33 31 41 33 31 41 33 31 41 33 31 41 33 31
144 120 134 147 123 137 149 125 139 151 127 141 149 125 139 144 120 134 135 111 125 122 98 112 106 82 96 89 65 79 75 51 65 67 43 57 60 37 53 58 35 51 58 35 51 62 39 55 72 49 65 87 64 80 102 79 95 112 89 105 134 111 127 136 113 129 138 115 131 141 118 134 145 122 138 148 125 141 150 127 143 152 129 145 149 129 141 149 129 141 149 129 141 149 129 141 149 129 141 149 129 141 149 129 141 149 129 141 139 119 131 139 119 131 139 119 131 139 119 131 139 119 131 139 119 131 139 119 131 139 119 131 130 112 126 129 111 125 127 109 123 123 105 119 120 102 116 117 99 113 114 96 110 113 95 109 99 81 95 98 80 94 96 78 92 92 74 88 89 71 85 86 68 82 83 65 79 81 65 78 82 65 81 79 65 80 76 62 77 73 59 74 70 56 71 67 53 68 64 50 65 63 49 64 65 51 66 64 50 65 61 47 62 58 44 59 54 40 55 51 37 52 49 35 50 47 35 49 35 27 42 34 28 42 33 27 41 32 26 40 32 26 40 31 25 39 30 24 38 30 24 38 48 42 56 48 42 56 48 42 56 48 42 56 48 42 56 48 42 56 48 42 56 46 42 56 42 45 54 41 45 54 41 45 54 41 45 54 41 45 54 41 45 54 41 45 54 41 45 54 38 42 51 36 40 49 31 35 44 24 28 37 18 22 31 11 15 24 6 10 19 4 9 15 7 12 16 7 12 15 7 12 15 7 12 15 7 12 15 7 12 15 7 12 15 7 12 15 5 10 13 7 12 15 9 14 17 12 17 20 16 21 24 19 24 27 21 26 29 23 28 31 24 28 29 26 30 31 28 32 33 31 35 36 35 39 40 38 42 43 40 44 45 42 46 47 41 45 46 41 45 46 41 45 46 41 45 46 41 45 46 41 45 46 41 45 46 43 45 44 40 39 37 42 38 35 42 38 35 42 38 35 42 38 35 42 38 35 42 38 35 42 38 35 36 32 29 36 32 29 36 32 29 36 32 29 36 32 29 36 32 29 36 32 29 36 32 29 40 32 30 40 32 30 40 32 30 40 32 30 40 32 30 40 32 30 40 32 30 40 32 30 41 33 31 41 33 31 41 33 31 41 33 31 41 33 31 41 33 31 41 33 31 41 33 31
144 120 134 147 123 137 149 125 139 151 127 141 146 122 136 137 113 127 122 98 112 103 79 93 85 61 75 70 46 60 60 36 50 54 30 44 53 30 46 52 29 45 51 28 44 55 32 48 65 42 58 80 57 73 96 73 89 105 82 98 134 111 127 136 113 129 138 115 131 141 118 134 145 122 138 148 125 141 150 127 143 152 129 145 149 129 141 149 129 141 149 129 141 149 129 141 149 129 141 149 129 141 149 129 141 149 129 141 139 119 131 139 119 131 139 119 131 139 119 131 139 119 131 139 119 131 139 119 131 139 119 131 127 109 123 126 108 122 123 105 119 120 102 116 117 99 113 113 95 109 111 93 107 110 92 106 96 78 92 95 77 91 92 74 88 89 71 85 86 68 82 82 64 78 80 62 76 78 62 75 75 58 74 72 58 73 69 55 70 66 52 67 63 49 64 60 46 61 57 43 58 56 42 57 54 40 55 53 39 54 51 37 52 48 34 49 44 30 45 41 27 42 38 24 39 36 24 38 31 23 38 30 24 38 31 25 39 32 26 40 32 26 40 33 27 41 34 28 42 34 28 42 52 46 60 52 46 60 52 46 60 52 46 60 52 46 60 52 46 60 52 46 60 50 46 60 46 49 58 45 49 58 45 49 58 45 49 58 45 49 58 45 49 58 45 49 58 45 49 58 38 42 51 36 40 49 31 35 44 24 28 37 18 22 31 11 15 24 6 10 19 4 9 15 7 12 16 7 12 15 7 12 15 7 12 15 7 12 15 7 12 15 7 12 15 7 12 15 5 10 13 7 12 15 9 14 17 12 17 20 16 21 24 19 24 27 21 26 29 23 28 31 24 28 29 26 30 31 28 32 33 31 35 36 35 39 40 38 42 43 40 44 45 42 46 47 41 45 46 41 45 46 41 45 46 41 45 46 41 45 46 41 45 46 41 45 46 43 45 44 40 39 37 42 38 35 42 38 35 42 38 35 42 38 35 42 38 35 42 38 35 42 38 35 36 32 29 36 32 29 36 32 29 36 32 29 36 32 29 36 32 29 36 32 29 36 32 29 40 32 30 40 32 30 40 32 30 40 32 30 40 32 30 40 32 30 40 32 30 40 32 30 41 33 31 41 33 31 41 33 31 41 33 31 41 33 31 41 33 31 41 33 31 41 33 31
144 120 134 147 123 137 149 125 139 151 127 141 143 119 133 130 106 120 109 85 99 86 62 76 66 42 56 52 28 42 45 21 35 43 19 33 47 24 40 45 22 38 44 21 37 48 25 41 59 36 52 74 51 67 89 66 82 99 76 92 134 111 127 136 113 129 138 115 131 141 118 134 145 122 138 148 125 141 150 127 143 152 129 145 149 129 141 149 129 141 149 129 141 149 129 141 149 129 141 149 129 141 149 129 141 149 129 141 139 119 131 139 119 131 139 119 131 139 119 131 139 119 131 139 119 131 139 119 131 139 119 131 124 106 120 122 104 118 120 102 116 117 99 113 113 95 109 110 92 106 108 90 104 106 88 102 93 75 89 91 73 87 89 71 85 86 68 82 82 64 78 79 61 75 77 59 73 74 58 71 69 52 68 66 52 67 63 49 64 60 46 61 56 42 57 53 39 54 51 37 52 50 36 51 45 31 46 44 30 45 41 27 42 38 24 39 35 21 36 31 17 32 29 15 30 27 15 29 26 18 33 26 20 34 28 22 36 31 25 39 33 27 41 36 30 44 38 32 46 39 33 47 55 49 63 55 49 63 55 49 63 55 49 63 55 49 63 55 49 63 55 49 63 53 49 63 49 52 61 48 52 61 48 52 61 48 52 61 48 52 61 48 52 61 48 52 61 48 52 61 38 42 51 36 40 49 31 35 44 24 28 37 18 22 31 11 15 24 6 10 19 4 9 15 7 12 16 7 12 15 7 12 15 7 12 15 7 12 15 7 12 15 7 12 15 7 12 15 5 10 13 7 12 15 9 14 17 12 17 20 16 21 24 19 24 27 21 26 29 23 28 31 24 28 29 26 30 31 28 32 33 31 35 36 35 39 40 38 42 43 40 44 45 42 46 47 41 45 46 41 45 46 41 45 46 41 45 46 41 45 46 41 45 46 41 45 46 43 45 44 40 39 37 42 38 35 42 38 35 42 38 35 42 38 35 42 38 35 42 38 35 42 38 35 36 32 29 36 32 29 36 32 29 36 32 29 36 32 29 36 32 29 36 32 29 36 32 29 40 32 30 40 32 30 40 32 30 40 32 30 40 32 30 40 32 30 40 32 30 40 32 30 41 33 31 41 33 31 41 33 31 41 33 31 41 33 31 41 33 31 41 33 31 41 33 31
144 120 134 147 123 137 149 125 139 151 127 141 141 117 131 125 101 115 100 76 90 72 48 62 51 27 41 39 15 29 35 11 25 34 10 24 42 19 35 40 17 33 40 17 33 44 21 37 54 31 47 69 46 62 84 61 77 94 71 87 134 111 127 136 113 129 138 115 131 141 118 134 145 122 138 148 125 141 150 127 143 152 129 145 149 129 141 149 129 141 149 129 141 149 129 141 149 129 141 149 129 141 149 129 141 149 129 141 139 119 131 139 119 131 139 119 131 139 119 131 139 119 131 139 119 131 139 119 131 139 119 131 121 103 117 120 102 116 118 100 114 114 96 110 111 93 107 108 90 104 105 87 101 104 86 100 90 72 86 89 71 85 87 69 83 83 65 79 80 62 76 77 59 73 74 56 70 72 56 69 64 47 63 61 47 62 58 44 59 55 41 56 52 38 53 48 34 49 46 32 47 45 31 46 38 24 39 36 22 37 34 20 35 31 17 32 27 13 28 24 10 25 22 8 23 19 7 21 23 15 30 23 17 31 26 20 34 30 24 38 34 28 42 38 32 46 41 35 49 42 36 50 57 51 65 57 51 65 57 51 65 57 51 65 57 51 65 57 51 65 57 51 65 55 51 65 51 54 63 50 54 63 50 54 63 50 54 63 50 54 63 50 54 63 50 54 63 50 54 63 38 42 51 36 40 49 31 35 44 24 28 37 18 22 31 11 15 24 6 10 19 4 9 15 7 12 16 7 12 15 7 12 15 7 12 15 7 12 15 7 12 15 7 12 15 7 12 15 5 10 13 7 12 15 9 14 17 12 17 20 16 21 24 19 24 27 21 26 29 23 28 31 24 28 29 26 30 31 28 32 33 31 35 36 35 39 40 38 42 43 40 44 45 42 46 47 41 45 46 41 45 46 41 45 46 41 45 46 41 45 46 41 45 46 41 45 46 43 45 44 40 39 37 42 38 35 42 38 35 42 38 35 42 38 35 42 38 35 42 38 35 42 38 35 36 32 29 36 32 29 36 32 29 36 32 29 36 32 29 36 32 29 36 32 29 36 32 29 40 32 30 40 32 30 40 32 30 40 32 30 40 32 30 40 32 30 40 32 30 40 32 30 41 33 31 41 33 31 41 33 31 41 33 31 41 33 31 41 33 31 41 33 31 41 33 31
143 121 134 146 124 137 148 126 139 150 128 141 139 117 130 122 100 113 93 71 84 64 42 55 42 20 33 31 9 22 28 6 19 28 6 19 38 17 32 37 16 31 36 15 30 40 19 34 50 29 44 65 44 59 81 60 75 90 69 84 133 112 127 135 114 129 137 116 131 140 119 134 144 123 138 147 126 141 149 128 143 151 130 145 149 129 141 149 129 141 149 129 141 149 129 141 149 129 141 149 129 141 149 129 141 149 129 141 139 119 131 139 119 131 139 119 131 139 119 131 139 119 131 139 119 131 139 119 131 137 119 131 119 103 116 118 102 115 115 99 112 112 96 109 109 93 106 105 89 102 103 87 100 102 86 99 88 72 85 87 71 84 84 68 81 81 65 78 78 62 75 74 58 71 72 56 69 69 55 68 58 46 60 56 45 59 54 43 57 50 39 53 47 36 50 44 33 47 41 30 44 40 29 43 32 21 35 30 19 33 28 17 31 25 14 28 21 10 24 18 7 21 16 5 19 12 4 17 18 14 28 19 17 30 23 19 33 27 25 38 32 28 42 36 34 47 40 36 50 41 39 52 57 53 67 56 54 67 57 53 67 56 54 67 57 53 67 56 54 67 57 53 67 56 54 67 53 56 65 52 56 65 52 56 65 52 56 65 52 56 65 52 56 65 52 56 65 52 56 65 38 42 51 36 40 49 31 35 44 24 28 37 18 22 31 11 15 24 6 10 19 4 9 15 7 12 16 5 13 15 7 12 15 5 13 15 7 12 15 5 13 15 7 12 15 5 13 15 5 10 13 5 13 15 9 14 17 10 18 20 16 21 24 17 25 27 21 26 29 23 28 31 23 28 31 26 30 31 28 32 35 31 35 36 35 39 42 38 42 43 40 44 47 42 46 47 41 45 48 41 45 46 41 45 48 41 45 46 41 45 48 41 45 46 41 45 48 43 44 46 40 39 37 42 38 35 42 38 37 42 38 35 42 38 37 42 38 35 42 38 37 42 38 35 36 32 31 36 32 29 36 32 31 36 32 29 36 32 31 36 32 29 36 32 31 37 32 29 40 32 30 40 32 30 40 32 30 40 32 30 40 32 30 40 32 30 40 32 30 40 32 30 41 33 31 41 33 31 41 33 31 41 33 31 41 33 31 41 33 31 41 33 31 41 33 31
142 125 135 146 129 139 149 132 142 150 133 143 81 64 74 72 55 65 58 41 51 45 28 38 37 20 30 35 18 28 37 20 30 39 21 33 29 13 26 30 16 29 36 22 35 43 29 42 51 37 50 59 45 58 65 51 64 68 54 67 111 97 110 119 105 118 131 117 130 142 128 141 147 133 146 147 133 146 143 129 142 141 125 138 143 125 139 145 124 139 145 124 139 145 124 139 145 124 139 145 124 139 145 124 139 145 124 139 145 124 139 144 123 138 142 121 136 138 117 132 135 114 129 132 111 126 129 108 123 126 108 122 114 102 114 112 102 113 110 100 111 108 98 109 106 96 107 104 94 105 103 93 104 102 92 103 87 77 88 84 74 85 78 68 79 70 60 71 62 52 63 54 44 55 48 38 49 43 35 46 27 24 35 26 24 37 26 24 37 26 24 37 26 24 37 26 24 37 26 24 37 26 24 37 23 21 34 22 20 33 21 19 32 20 18 31 19 17 30 17 15 28 17 15 28 15 15 27 35 38 47 35 39 48 38 41 50 41 45 54 45 48 57 47 51 60 51 54 63 51 55 64 59 62 71 58 62 71 59 62 71 58 62 71 59 62 71 58 62 71 59 62 71 58 62 71 61 65 74 57 64 72 55 62 70 52 59 67 48 55 63 45 52 60 43 50 58 41 48 56 36 43 51 34 41 49 29 36 44 22 29 37 16 23 31 9 16 24 4 11 19 2 9 15 6 14 17 5 15 17 6 14 17 5 15 17 6 14 17 5 15 17 6 14 17 5 15 17 7 15 18 8 18 20 11 19 22 13 23 25 18 26 29 20 30 32 23 31 34 25 33 36 27 32 36 27 32 35 27 32 36 27 32 35 27 32 36 27 32 35 27 32 36 27 32 35 30 35 39 30 35 38 30 35 39 30 35 38 30 35 39 30 35 38 30 35 39 31 35 38 32 30 31 34 30 29 34 30 31 34 30 29 34 30 31 34 30 29 34 30 31 34 30 29 36 32 33 36 32 31 36 32 33 36 32 31 36 32 33 36 32 31 36 32 33 37 31 31 40 32 30 41 31 29 41 31 29 41 31 29 41 31 29 41 31 29 41 31 29 41 31 29 41 31 29 41 31 29 41 31 29 41 31 29 41 31 29 41 31 29 41 31 29 40 32 29
135 119 129 135 119 129 134 118 128 134 118 128 79 63 73 71 55 65 57 41 51 45 29 39 37 21 31 36 20 30 39 23 33 39 26 35 30 16 29 32 20 32 37 25 37 44 32 44 51 39 51 58 46 58 64 52 64 67 55 67 107 95 107 115 103 115 127 115 127 139 127 139 145 133 145 145 133 145 142 130 142 140 126 139 143 125 139 145 124 139 145 124 139 145 124 139 145 124 139 145 124 139 145 124 139 145 124 139 144 123 138 143 122 137 140 119 134 137 116 131 134 113 128 130 109 124 128 107 122 124 108 121 113 101 113 109 101 112 107 99 110 104 96 107 101 93 104 99 91 102 97 89 100 96 88 99 79 71 82 76 68 79 71 63 74 64 56 67 56 48 59 49 41 52 44 36 47 40 34 44 23 23 35 21 23 35 21 23 35 21 23 35 21 23 35 21 23 35 21 23 35 21 23 35 19 21 33 19 21 33 19 21 33 18 20 32 17 19 31 17 19 31 16 18 30 15 19 30 35 39 48 34 41 49 37 44 52 40 47 55 43 50 58 47 54 62 49 56 64 50 57 65 56 63 71 56 63 71 56 63 71 56 63 71 56 63 71 56 63 71 56 63 71 56 63 71 59 66 74 57 64 72 55 62 70 52 59 67 48 55 63 45 52 60 43 50 58 41 48 56 36 43 51 34 41 49 29 36 44 22 29 37 16 23 31 9 16 24 4 11 19 2 9 15 5 14 19 5 15 17 5 15 17 5 15 17 5 15 17 5 15 17 5 15 17 5 15 17 6 16 18 8 18 20 10 20 22 13 23 25 17 27 29 20 30 32 22 32 34 24 34 36 27 32 36 27 32 36 27 32 36 27 32 36 27 32 36 27 32 36 27 32 36 27 32 36 30 35 39 30 35 39 30 35 39 30 35 39 30 35 39 30 35 39 30 35 39 31 35 38 32 30 33 34 30 31 34 30 31 34 30 31 34 30 31 34 30 31 34 30 31 34 30 31 36 32 33 36 32 33 36 32 33 36 32 33 36 32 33 36 32 33 36 32 33 37 31 31 40 32 30 41 31 29 41 31 29 41 31 29 41 31 29 41 31 29 41 31 29 41 31 29 41 31 29 41 31 29 41 31 29 41 31 29 41 31 29 41 31 29 41 31 29 40 32 29
124 108 118 118 102 112 113 97 107 111 95 105 78 62 72 70 54 64 58 42 52 47 31 41 40 24 34 40 24 34 44 28 38 45 32 41 36 22 35 37 25 37 41 29 41 47 35 47 53 41 53 59 47 59 63 51 63 66 54 66 101 89 101 110 98 110 123 111 123 136 124 136 143 131 143 145 133 145 142 130 142 140 126 139 143 125 139 145 124 139 145 124 139 145 124 139 145 124 139 145 124 139 145 124 139 145 124 139 142 121 136 140 119 134 138 117 132 135 114 129 131 110 125 128 107 122 126 105 120 121 105 118 111 99 111 107 99 110 104 96 107 100 92 103 96 88 99 92 84 95 89 81 92 87 79 90 68 60 71 66 58 69 61 53 64 56 48 59 50 42 53 44 36 47 40 32 43 36 30 40 21 21 33 19 21 33 19 21 33 19 21 33 19 21 33 19 21 33 19 21 33 19 21 33 18 20 32 19 21 33 19 21 33 20 22 34 20 22 34 21 23 35 22 24 36 21 25 36 37 41 50 37 44 52 39 46 54 42 49 57 46 53 61 49 56 64 51 58 66 53 60 68 56 63 71 56 63 71 56 63 71 56 63 71 56 63 71 56 63 71 56 63 71 56 63 71 59 66 74 57 64 72 55 62 70 52 59 67 48 55 63 45 52 60 43 50 58 41 48 56 36 43 51 34 41 49 29 36 44 22 29 37 16 23 31 9 16 24 4 11 19 2 9 15 5 14 19 5 15 17 5 15 17 5 15 17 5 15 17 5 15 17 5 15 17 5 15 17 6 16 18 8 18 20 10 20 22 13 23 25 17 27 29 20 30 32 22 32 34 24 34 36 27 32 36 27 32 36 27 32 36 27 32 36 27 32 36 27 32 36 27 32 36 27 32 36 30 35 39 30 35 39 30 35 39 30 35 39 30 35 39 30 35 39 30 35 39 31 35 38 32 30 33 34 30 31 34 30 31 34 30 31 34 30 31 34 30 31 34 30 31 34 30 31 36 32 33 36 32 33 36 32 33 36 32 33 36 32 33 36 32 33 36 32 33 37 31 31 40 32 30 41 31 29 41 31 29 41 31 29 41 31 29 41 31 29 41 31 29 41 31 29 41 31 29 41 31 29 41 31 29 41 31 29 41 31 29 41 31 29 41 31 29 40 32 29
