P3
172 37
255
0 9 0 0 9 0 0 9 0 0 9 0 0 9 0 0 9 0 0 9 0 0 9 0 0 9 0 0 9 0 0 9 0 0 9 0 0 9 0 0 9 0 0 9 0 0 9 0 0 9 0 0 9 0 0 9 0 0 9 0 0 9 0 0 9 0 0 9 0 0 9 0 0 9 0 0 9 0 0 9 0 0 9 0 0 9 0 0 9 0 0 9 0 0 9 0 0 9 0 0 9 0 0 9 0 0 9 0 0 9 0 0 9 0 0 9 0 0 9 0 0 9 0 0 9 0 0 9 0 0 9 0 0 9 0 0 9 0 0 9 0 0 9 0 0 9 0 0 9 0 0 9 0 0 9 0 0 9 0 0 9 0 0 9 0 0 9 0 0 9 0 0 9 0 0 9 0 0 9 0 0 9 0 0 9 0 0 9 0 0 9 0 0 9 0 0 9 0 0 9 0 0 9 0 0 9 0 0 9 0 0 9 0 0 9 0 0 9 0 0 9 0 0 9 0 0 9 0 0 9 0 0 9 0 0 9 0 0 9 0 0 9 0 0 9 0 0 9 0 0 9 0 0 9 0 0 9 0 0 9 0 0 9 0 0 9 0 0 9 0 0 9 0 0 9 0 0 10 0 0 10 0 0 10 0 0 10 0 0 10 0 0 10 0 0 10 0 0 10 0 0 16 5 0 16 5 0 16 5 0 16 5 0 16 5 0 16 5 0 16 5 0 16 5 0 23 9 0 27 13 5 33 19 7 35 21 4 32 18 0 23 9 0 13 0 0 10 0 0 10 0 0 10 0 0 13 0 0 20 6 0 26 12 5 33 19 10 38 24 12 40 26 19 45 32 22 48 35 27 53 40 33 59 46 40 66 53 46 72 59 51 77 64 54 80 67 66 92 79 67 93 80 70 96 83 73 99 86 76 102 89 80 106 93 82 108 95 83 109 96 98 120 108 100 122 110 101 123 111 97 119 107 86 108 96 71 93 81 56 78 66 46 68 56 28 50 38 28 50 38 28 50 38 28 50 38 28 50 38 28 50 38 28 50 38 34 47 38 45 43 44 51 42 45 55 44 48 57 48 51 61 50 54 64 55 58 67 56 60 67 58 61 79 68 72 78 69 72 79 68 72 78 69 72 79 68 72 78 69 72 79 68 72 79 68 72
0 7 0 0 9 0 0 7 0 0 9 0 0 7 0 0 9 0 0 7 0 0 9 0 0 7 0 0 9 0 0 7 0 0 9 0 0 7 0 0 9 0 0 7 0 0 9 0 0 7 0 0 9 0 0 7 0 0 9 0 0 7 0 0 9 0 0 7 0 0 9 0 0 7 0 0 9 0 0 7 0 0 9 0 0 7 0 0 9 0 0 7 0 0 9 0 0 7 0 0 9 0 0 7 0 0 9 0 0 7 0 0 9 0 0 7 0 0 9 0 0 7 0 0 9 0 0 7 0 0 9 0 0 7 0 0 9 0 0 7 0 0 9 0 0 7 0 0 9 0 0 7 0 0 9 0 0 7 0 0 9 0 0 7 0 0 9 0 0 7 0 0 9 0 0 7 0 0 9 0 0 7 0 0 9 0 0 7 0 0 9 0 0 7 0 0 9 0 0 7 0 0 9 0 0 7 0 0 9 0 0 7 0 0 9 0 0 7 0 0 9 0 0 7 0 0 9 0 0 7 0 0 9 0 0 7 0 0 9 0 0 7 0 0 9 0 0 7 0 0 9 0 0 7 0 0 9 0 0 7 0 0 9 0 0 7 0 0 9 0 0 7 0 0 8 0 0 9 0 0 10 0 0 9 0 0 10 0 0 9 0 0 10 0 0 9 0 0 10 0 0 15 5 0 16 5 0 15 5 0 16 5 0 15 5 0 16 5 0 15 5 0 16 5 0 22 11 0 26 13 6 32 21 8 34 21 5 31 20 0 22 9 0 12 1 0 9 0 0 9 0 0 9 0 0 12 1 0 19 6 0 25 14 6 32 19 11 37 26 13 39 26 18 44 31 21 47 34 26 52 39 32 58 45 39 65 52 45 71 58 50 76 63 53 79 66 65 91 78 66 92 79 68 94 81 72 98 85 75 101 88 78 104 91 81 107 94 84 108 95 98 120 108 100 122 110 101 123 111 97 119 107 86 108 96 71 93 81 56 78 66 46 68 56 28 50 38 28 50 38 28 50 38 28 50 38 28 50 38 28 50 38 28 50 38 34 47 38 44 43 41 51 40 44 53 42 46 57 46 50 60 49 53 63 52 56 66 55 59 67 56 60 79 68 72 79 68 72 79 68 72 79 68 72 79 68 72 79 68 72 79 68 72 79 68 72
0 2 0 0 3 0 0 2 0 0 3 0 0 2 0 0 3 0 0 2 0 0 3 0 0 2 0 0 3 0 0 2 0 0 3 0 0 2 0 0 3 0 0 2 0 0 3 0 0 2 0 0 3 0 0 2 0 0 3 0 0 2 0 0 3 0 0 2 0 0 3 0 0 2 0 0 3 0 0 2 0 0 3 0 0 2 0 0 3 0 0 2 0 0 3 0 0 2 0 0 3 0 0 2 0 0 3 0 0 2 0 0 3 0 0 2 0 0 3 0 0 2 0 0 3 0 0 2 0 0 3 0 0 2 0 0 3 0 0 2 0 0 3 0 0 2 0 0 3 0 0 2 0 0 3 0 0 2 0 0 3 0 0 2 0 0 3 0 0 2 0 0 3 0 0 2 0 0 3 0 0 2 0 0 3 0 0 2 0 0 3 0 0 2 0 0 3 0 0 2 0 0 3 0 0 2 0 0 3 0 0 2 0 0 3 0 0 2 0 0 3 0 0 2 0 0 3 0 0 2 0 0 3 0 0 2 0 0 3 0 0 2 0 0 3 0 0 2 0 0 3 0 0 2 0 0 3 0 0 2 0 0 3 0 0 2 0 0 3 0 0 2 0 0 3 0 0 3 0 0 4 0 0 3 0 0 4 0 0 3 0 0 4 0 0 3 0 0 4 0 0 3 0 0 4 0 0 4 1 0 8 4 2 11 8 4 15 11 7 16 13 8 19 15 8 19 15 6 17 11 4 15 11 1 12 6 0 8 4 0 5 0 0 4 0 0 4 0 0 4 0 0 4 0 0 5 1 0 8 2 1 12 8 4 15 9 6 17 13 8 19 13 23 36 27 25 38 29 30 43 34 37 50 41 43 56 47 50 63 54 55 68 59 57 70 61 69 82 73 70 83 74 73 86 77 76 89 80 79 92 83 83 96 87 85 98 89 87 98 90 85 95 86 91 98 90 97 104 96 99 106 98 96 103 95 87 94 86 76 83 75 69 76 68 34 41 33 34 41 33 34 41 33 34 41 33 34 41 33 34 41 33 34 41 33 35 40 34 41 40 38 46 40 42 48 42 44 51 45 47 55 49 51 58 52 54 60 54 56 62 56 58 68 62 64 68 62 64 68 62 64 68 62 64 68 62 64 68 62 64 68 62 64 70 61 64
0 0 0 0 0 0 0 0 0 0 0 0 0 0 0 0 0 0 0 0 0 0 0 0 0 0 0 0 0 0 0 0 0 0 0 0 0 0 0 0 0 0 0 0 0 0 0 0 0 0 0 0 0 0 0 0 0 0 0 0 0 0 0 0 0 0 0 0 0 0 0 0 0 0 0 0 0 0 0 0 0 0 0 0 0 0 0 0 0 0 0 0 0 0 0 0 0 0 0 0 0 0 0 0 0 0 0 0 0 0 0 0 0 0 0 0 0 0 0 0 0 0 0 0 0 0 0 0 0 0 0 0 0 0 0 0 0 0 0 0 0 0 0 0 0 0 0 0 0 0 0 0 0 0 0 0 0 0 0 0 0 0 0 0 0 0 0 0 0 0 0 0 0 0 0 0 0 0 0 0 0 0 0 0 0 0 0 0 0 0 0 0 0 0 0 0 0 0 0 0 0 0 0 0 0 0 0 0 0 0 0 0 0 0 0 0 0 0 0 0 0 0 0 0 0 0 0 0 0 0 0 0 0 0 0 0 0 0 0 0 0 0 0 0 0 0 0 0 0 0 0 0 0 0 0 0 0 0 0 0 0 0 0 0 0 0 0 0 0 0 0 0 0 0 0 0 0 1 0 0 1 0 0 1 0 0 1 0 0 1 0 0 1 0 0 1 0 0 1 0 0 1 0 0 1 0 0 2 1 3 5 4 7 9 8 10 12 11 12 14 13 14 16 15 14 16 15 12 14 13 10 12 11 7 9 8 3 5 4 0 2 1 0 1 0 0 1 0 0 1 0 0 1 0 0 2 1 3 5 4 7 9 8 10 12 11 12 14 13 12 17 13 28 33 29 29 36 29 34 41 34 41 48 41 47 54 47 54 61 54 59 66 59 61 68 61 72 79 72 73 80 73 75 82 75 79 86 79 82 89 82 85 92 85 88 95 88 90 95 89 88 91 84 94 95 89 99 100 94 102 103 97 98 99 93 89 90 84 79 80 74 72 73 67 38 39 33 38 39 33 38 39 33 38 39 33 38 39 33 38 39 33 38 39 33 38 39 34 43 39 38 45 41 42 47 43 44 50 46 47 54 50 51 57 53 54 59 55 56 61 57 58 67 63 64 67 63 64 67 63 64 67 63 64 67 63 64 67 63 64 67 63 64 68 62 64
0 0 0 0 0 0 0 0 0 0 0 0 0 0 0 0 0 0 0 0 0 0 0 0 0 0 0 0 0 0 0 0 0 0 0 0 0 0 0 0 0 0 0 0 0 0 0 0 0 0 0 0 0 0 0 0 0 0 0 0 0 0 0 0 0 0 0 0 0 0 0 0 0 0 0 0 0 0 0 0 0 0 0 0 0 0 0 0 0 0 0 0 0 0 0 0 0 0 0 0 0 0 0 0 0 0 0 0 0 0 0 0 0 0 0 0 0 0 0 0 0 0 0 0 0 0 0 0 0 0 0 0 0 0 0 0 0 0 0 0 0 0 0 0 0 0 0 0 0 0 0 0 0 0 0 0 0 0 0 0 0 0 0 0 0 0 0 0 0 0 0 0 0 0 0 0 0 0 0 0 0 0 0 0 0 0 0 0 0 0 0 0 0 0 0 0 0 0 0 0 0 0 0 0 0 0 0 0 0 0 0 0 0 0 0 0 0 0 0 0 0 0 0 0 0 0 0 0 0 0 0 0 0 0 0 0 0 0 0 0 0 0 0 0 0 0 0 0 0 0 0 0 0 0 0 0 0 0 0 0 0 0 0 0 0 0 0 0 0 0 0 0 0 0 0 0 0 1 0 0 1 0 0 1 0 0 1 0 0 1 0 0 1 0 0 1 0 0 1 0 0 1 0 0 1 0 0 2 1 3 5 4 7 9 8 10 12 11 12 14 13 14 16 15 14 16 15 12 14 13 10 12 11 7 9 8 3 5 4 0 2 1 0 1 0 0 1 0 0 1 0 0 1 0 0 2 1 3 5 4 7 9 8 10 12 11 12 14 13 12 17 13 28 33 29 29 36 29 34 41 34 41 48 41 47 54 47 54 61 54 59 66 59 61 68 61 69 76 69 71 78 71 73 80 73 76 83 76 80 87 80 83 90 83 85 92 85 88 93 87 86 89 82 91 92 86 97 98 92 99 100 94 96 97 91 87 88 82 77 78 72 70 71 65 38 39 33 38 39 33 38 39 33 38 39 33 38 39 33 38 39 33 38 39 33 38 39 34 43 39 38 45 41 42 47 43 44 50 46 47 54 50 51 57 53 54 59 55 56 61 57 58 67 63 64 67 63 64 67 63 64 67 63 64 67 63 64 67 63 64 67 63 64 68 62 64
0 0 0 0 0 0 0 0 0 0 0 0 0 0 0 0 0 0 0 0 0 0 0 0 0 0 0 0 0 0 0 0 0 0 0 0 0 0 0 0 0 0 0 0 0 0 0 0 0 0 0 0 0 0 0 0 0 0 0 0 0 0 0 0 0 0 0 0 0 0 0 0 0 0 0 0 0 0 0 0 0 0 0 0 0 0 0 0 0 0 0 0 0 0 0 0 0 0 0 0 0 0 0 0 0 0 0 0 0 0 0 0 0 0 0 0 0 0 0 0 0 0 0 0 0 0 0 0 0 0 0 0 0 0 0 0 0 0 0 0 0 0 0 0 0 0 0 0 0 0 0 0 0 0 0 0 0 0 0 0 0 0 0 0 0 0 0 0 0 0 0 0 0 0 0 0 0 0 0 0 0 0 0 0 0 0 0 0 0 0 0 0 0 0 0 0 0 0 0 0 0 0 0 0 0 0 0 0 0 0 0 0 0 0 0 0 0 0 0 0 0 0 0 0 0 0 0 0 0 0 0 0 0 0 0 0 0 0 0 0 0 0 0 0 0 0 0 0 0 0 0 0 0 0 0 0 0 0 0 0 0 0 0 0 0 0 0 0 0 0 0 0 0 0 0 0 0 1 0 0 1 0 0 1 0 0 1 0 0 1 0 0 1 0 0 1 0 0 1 0 0 1 0 0 1 0 0 2 1 3 5 4 7 9 8 10 12 11 12 14 13 14 16 15 14 16 15 12 14 13 10 12 11 7 9 8 3 5 4 0 2 1 0 1 0 0 1 0 0 1 0 0 1 0 0 2 1 3 5 4 7 9 8 10 12 11 12 14 13 12 17 13 28 33 29 29 36 29 34 41 34 41 48 41 47 54 47 54 61 54 59 66 59 61 68 61 66 73 66 67 74 67 70 77 70 73 80 73 76 83 76 80 87 80 82 89 82 84 89 83 83 86 79 88 89 83 94 95 89 96 97 91 93 94 88 84 85 79 73 74 68 66 67 61 38 39 33 38 39 33 38 39 33 38 39 33 38 39 33 38 39 33 38 39 33 38 39 34 43 39 38 45 41 42 47 43 44 50 46 47 54 50 51 57 53 54 59 55 56 61 57 58 67 63 64 67 63 64 67 63 64 67 63 64 67 63 64 67 63 64 67 63 64 68 62 64
0 0 0 0 0 0 0 0 0 0 0 0 0 0 0 0 0 0 0 0 0 0 0 0 0 0 0 0 0 0 0 0 0 0 0 0 0 0 0 0 0 0 0 0 0 0 0 0 0 0 0 0 0 0 0 0 0 0 0 0 0 0 0 0 0 0 0 0 0 0 0 0 0 0 0 0 0 0 0 0 0 0 0 0 0 0 0 0 0 0 0 0 0 0 0 0 0 0 0 0 0 0 0 0 0 0 0 0 0 0 0 0 0 0 0 0 0 0 0 0 0 0 0 0 0 0 0 0 0 0 0 0 0 0 0 0 0 0 0 0 0 0 0 0 0 0 0 0 0 0 0 0 0 0 0 0 0 0 0 0 0 0 0 0 0 0 0 0 0 0 0 0 0 0 0 0 0 0 0 0 0 0 0 0 0 0 0 0 0 0 0 0 0 0 0 0 0 0 0 0 0 0 0 0 0 0 0 0 0 0 0 0 0 0 0 0 0 0 0 0 0 0 0 0 0 0 0 0 0 0 0 0 0 0 0 0 0 0 0 0 0 0 0 0 0 0 0 0 0 0 0 0 0 0 0 0 0 0 0 0 0 0 0 0 0 0 0 0 0 0 0 0 0 0 0 0 0 1 0 0 1 0 0 1 0 0 1 0 0 1 0 0 1 0 0 1 0 0 1 0 0 1 0 0 1 0 0 2 1 3 5 4 7 9 8 10 12 11 12 14 13 14 16 15 14 16 15 12 14 13 10 12 11 7 9 8 3 5 4 0 2 1 0 1 0 0 1 0 0 1 0 0 1 0 0 2 1 3 5 4 7 9 8 10 12 11 12 14 13 12 17 13 28 33 29 29 36 29 34 41 34 41 48 41 47 54 47 54 61 54 59 66 59 61 68 61 63 70 63 64 71 64 66 73 66 70 77 70 73 80 73 76 83 76 79 86 79 81 86 80 79 82 75 85 86 80 90 91 85 93 94 88 89 90 84 80 81 75 70 71 65 63 64 58 38 39 33 38 39 33 38 39 33 38 39 33 38 39 33 38 39 33 38 39 33 38 39 34 43 39 38 45 41 42 47 43 44 50 46 47 54 50 51 57 53 54 59 55 56 61 57 58 67 63 64 67 63 64 67 63 64 67 63 64 67 63 64 67 63 64 67 63 64 68 62 64
0 0 0 0 0 0 0 0 0 0 0 0 0 0 0 0 0 0 0 0 0 0 0 0 0 0 0 0 0 0 0 0 0 0 0 0 0 0 0 0 0 0 0 0 0 0 0 0 0 0 0 0 0 0 0 0 0 0 0 0 0 0 0 0 0 0 0 0 0 0 0 0 0 0 0 0 0 0 0 0 0 0 0 0 0 0 0 0 0 0 0 0 0 0 0 0 0 0 0 0 0 0 0 0 0 0 0 0 0 0 0 0 0 0 0 0 0 0 0 0 0 0 0 0 0 0 0 0 0 0 0 0 0 0 0 0 0 0 0 0 0 0 0 0 0 0 0 0 0 0 0 0 0 0 0 0 0 0 0 0 0 0 0 0 0 0 0 0 0 0 0 0 0 0 0 0 0 0 0 0 0 0 0 0 0 0 0 0 0 0 0 0 0 0 0 0 0 0 0 0 0 0 0 0 0 0 0 0 0 0 0 0 0 0 0 0 0 0 0 0 0 0 0 0 0 0 0 0 0 0 0 0 0 0 0 0 0 0 0 0 0 0 0 0 0 0 0 0 0 0 0 0 0 0 0 0 0 0 0 0 0 0 0 0 0 0 0 0 0 0 0 0 0 0 0 0 0 1 0 0 1 0 0 1 0 0 1 0 0 1 0 0 1 0 0 1 0 0 1 0 0 1 0 0 1 0 0 2 1 3 5 4 7 9 8 10 12 11 12 14 13 14 16 15 14 16 15 12 14 13 10 12 11 7 9 8 3 5 4 0 2 1 0 1 0 0 1 0 0 1 0 0 1 0 0 2 1 3 5 4 7 9 8 10 12 11 12 14 13 12 17 13 28 33 29 29 36 29 34 41 34 41 48 41 47 54 47 54 61 54 59 66 59 61 68 61 59 66 59 61 68 61 63 70 63 66 73 66 70 77 70 73 80 73 75 82 75 78 83 77 76 79 72 81 82 76 87 88 82 89 90 84 86 87 81 77 78 72 67 68 62 60 61 55 38 39 33 38 39 33 38 39 33 38 39 33 38 39 33 38 39 33 38 39 33 38 39 34 43 39 38 45 41 42 47 43 44 50 46 47 54 50 51 57 53 54 59 55 56 61 57 58 67 63 64 67 63 64 67 63 64 67 63 64 67 63 64 67 63 64 67 63 64 68 62 64
0 0 0 0 0 0 0 0 0 0 0 0 0 0 0 0 0 0 0 0 0 0 0 0 0 0 0 0 0 0 0 0 0 0 0 0 0 0 0 0 0 0 0 0 0 0 0 0 0 0 0 0 0 0 0 0 0 0 0 0 0 0 0 0 0 0 0 0 0 0 0 0 0 0 0 0 0 0 0 0 0 0 0 0 0 0 0 0 0 0 0 0 0 0 0 0 0 0 0 0 0 0 0 0 0 0 0 0 0 0 0 0 0 0 0 0 0 0 0 0 0 0 0 0 0 0 0 0 0 0 0 0 0 0 0 0 0 0 0 0 0 0 0 0 0 0 0 0 0 0 0 0 0 0 0 0 0 0 0 0 0 0 0 0 0 0 0 0 0 0 0 0 0 0 0 0 0 0 0 0 0 0 0 0 0 0 0 0 0 0 0 0 0 0 0 0 0 0 0 0 0 0 0 0 0 0 0 0 0 0 0 0 0 0 0 0 0 0 0 0 0 0 0 0 0 0 0 0 0 0 0 0 0 0 0 0 0 0 0 0 0 0 0 0 0 0 0 0 0 0 0 0 0 0 0 0 0 0 0 0 0 0 0 0 0 0 0 0 0 0 0 0 0 0 0 0 0 1 0 0 1 0 0 1 0 0 1 0 0 1 0 0 1 0 0 1 0 0 1 0 0 1 0 0 1 0 0 2 1 3 5 4 7 9 8 10 12 11 12 14 13 14 16 15 14 16 15 12 14 13 10 12 11 7 9 8 3 5 4 0 2 1 0 1 0 0 1 0 0 1 0 0 1 0 0 2 1 3 5 4 7 9 8 10 12 11 12 14 13 12 17 13 28 33 29 29 36 29 34 41 34 41 48 41 47 54 47 54 61 54 59 66 59 61 68 61 57 64 57 58 65 58 61 68 61 64 71 64 67 74 67 71 78 71 73 80 73 75 80 74 74 77 70 79 80 74 85 86 80 87 88 82 84 85 79 75 76 70 64 65 59 57 58 52 38 39 33 38 39 33 38 39 33 38 39 33 38 39 33 38 39 33 38 39 33 38 39 34 43 39 38 45 41 42 47 43 44 50 46 47 54 50 51 57 53 54 59 55 56 61 57 58 67 63 64 67 63 64 67 63 64 67 63 64 67 63 64 67 63 64 67 63 64 68 62 64
0 0 0 0 0 0 0 0 0 0 0 0 0 0 0 0 0 0 0 0 0 0 0 0 0 0 0 0 0 0 0 0 0 0 0 0 0 0 0 0 0 0 0 0 0 0 0 0 0 0 0 0 0 0 0 0 0 0 0 0 0 0 0 0 0 0 0 0 0 0 0 0 0 0 0 0 0 0 0 0 0 0 0 0 0 0 0 0 0 0 0 0 0 0 0 0 0 0 0 0 0 0 0 0 0 0 0 0 0 0 0 0 0 0 0 0 0 0 0 0 0 0 0 0 0 0 0 0 0 0 0 0 0 0 0 0 0 0 0 0 0 0 0 0 0 0 0 0 0 0 0 0 0 0 0 0 0 0 0 0 0 0 0 0 0 0 0 0 0 0 0 0 0 0 0 0 0 0 0 0 0 0 0 0 0 0 0 0 0 0 0 0 0 0 0 0 0 0 0 0 0 0 0 0 0 0 0 0 0 0 0 0 0 0 0 0 0 0 0 0 0 0 0 0 0 0 0 0 0 0 0 0 0 0 0 0 0 0 0 0 0 0 0 0 0 0 0 0 0 0 0 0 0 0 0 0 0 0 0 0 0 0 0 0 0 0 0 0 0 0 0 0 0 0 0 0 0 1 0 0 1 0 0 1 0 0 1 0 0 1 0 0 1 0 0 1 0 0 1 0 0 1 0 0 1 0 0 2 1 3 5 4 7 9 8 10 12 11 12 14 13 14 16 15 14 16 15 12 14 13 10 12 11 7 9 8 3 5 4 0 2 1 0 1 0 0 1 0 0 1 0 0 1 0 0 2 1 3 5 4 7 9 8 10 12 11 12 14 13 12 17 13 28 33 29 29 36 29 34 41 34 41 48 41 47 54 47 54 61 54 59 66 59 61 68 61 56 63 56 57 64 57 59 66 59 63 70 63 66 73 66 69 76 69 72 79 72 74 79 73 72 75 68 78 79 73 83 84 78 86 87 81 82 83 77 73 74 68 63 64 58 56 57 51 38 39 33 38 39 33 38 39 33 38 39 33 38 39 33 38 39 33 38 39 33 38 39 34 43 39 38 45 41 42 47 43 44 50 46 47 54 50 51 57 53 54 59 55 56 61 57 58 67 63 64 67 63 64 67 63 64 67 63 64 67 63 64 67 63 64 67 63 64 68 62 64
0 0 0 0 0 0 0 0 0 0 0 0 0 0 0 0 0 0 0 0 0 0 0 0 0 0 0 0 0 0 0 0 0 0 0 0 0 0 0 0 0 0 0 0 0 0 0 0 0 0 0 0 0 0 0 0 0 0 0 0 0 0 0 0 0 0 0 0 0 0 0 0 0 0 0 0 0 0 0 0 0 0 0 0 0 0 0 0 0 0 0 0 0 0 0 0 0 0 0 0 0 0 0 0 0 0 0 0 0 0 0 0 0 0 0 0 0 0 0 0 0 0 0 0 0 0 0 0 0 0 0 0 0 0 0 0 0 0 0 0 0 0 0 0 0 0 0 0 0 0 0 0 0 0 0 0 0 0 0 0 0 0 0 0 0 0 0 0 0 0 0 0 0 0 0 0 0 0 0 0 0 0 0 0 0 0 0 0 0 0 0 0 0 0 0 0 0 0 0 0 0 0 0 0 0 0 0 0 0 0 0 0 0 0 0 0 0 0 0 0 0 0 0 0 0 0 0 0 0 0 0 0 0 0 0 0 0 0 0 0 0 0 0 0 0 0 0 0 0 0 0 0 0 0 0 0 0 0 0 0 0 0 0 0 0 0 0 0 0 0 0 0 0 0 0 0 0 1 0 0 1 0 0 1 0 0 1 0 0 1 0 0 1 0 0 1 0 0 1 0 6 8 7 6 8 7 6 8 7 6 8 7 6 8 7 6 8 7 6 8 7 6 8 7 0 2 1 0 2 1 0 2 1 0 2 1 0 2 1 0 2 1 0 2 1 0 2 1 1 3 2 1 3 2 1 3 2 1 3 2 1 3 2 1 3 2 1 3 2 0 4 0 24 29 25 25 32 25 27 34 27 30 37 30 34 41 34 37 44 37 39 46 39 41 48 41 54 61 54 55 62 55 58 65 58 61 68 61 64 71 64 68 75 68 70 77 70 72 77 71 73 76 69 74 75 69 74 75 69 74 75 69 74 75 69 74 75 69 74 75 69 74 75 69 42 43 37 40 41 35 38 39 33 35 36 30 31 32 26 28 29 23 26 27 21 24 25 20 31 27 26 33 29 30 35 31 32 38 34 35 42 38 39 45 41 42 47 43 44 49 45 46 59 55 56 59 55 56 59 55 56 59 55 56 59 55 56 59 55 56 59 55 56 60 54 56
0 0 0 0 0 0 0 0 0 0 0 0 0 0 0 0 0 0 0 0 0 0 0 0 0 0 0 0 0 0 0 0 0 0 0 0 0 0 0 0 0 0 0 0 0 0 0 0 0 0 0 0 0 0 0 0 0 0 0 0 0 0 0 0 0 0 0 0 0 0 0 0 0 0 0 0 0 0 0 0 0 0 0 0 0 0 0 0 0 0 0 0 0 0 0 0 0 0 0 0 0 0 0 0 0 0 0 0 0 0 0 0 0 0 0 0 0 0 0 0 0 0 0 0 0 0 0 0 0 0 0 0 0 0 0 0 0 0 0 0 0 0 0 0 0 0 0 0 0 0 0 0 0 0 0 0 0 0 0 0 0 0 0 0 0 0 0 0 0 0 0 0 0 0 0 0 0 0 0 0 0 0 0 0 0 0 0 0 0 0 0 0 0 0 0 0 0 0 0 0 0 0 0 0 0 0 0 0 0 0 0 0 0 0 0 0 0 0 0 0 0 0 0 0 0 0 0 0 0 0 0 0 0 0 0 0 0 0 0 0 0 0 0 0 0 0 0 0 0 0 0 0 0 0 0 0 0 0 0 0 0 0 0 0 0 0 0 0 0 0 0 0 0 0 0 0 0 1 0 0 1 0 0 1 0 0 1 0 0 1 0 0 1 0 0 1 0 0 1 0 6 8 7 6 8 7 6 8 7 6 8 7 6 8 7 6 8 7 6 8 7 6 8 7 0 2 1 0 2 1 0 2 1 0 2 1 0 2 1 0 2 1 0 2 1 0 2 1 1 3 2 1 3 2 1 3 2 1 3 2 1 3 2 1 3 2 1 3 2 0 4 0 24 29 25 25 32 25 27 34 27 30 37 30 34 41 34 37 44 37 39 46 39 41 48 41 53 60 53 54 61 54 56 63 56 60 67 60 63 70 63 66 73 66 69 76 69 71 76 70 71 74 67 72 73 67 72 73 67 72 73 67 72 73 67 72 73 67 72 73 67 72 73 67 42 43 37 40 41 35 38 39 33 35 36 30 31 32 26 28 29 23 26 27 21 24 25 20 31 27 26 33 29 30 35 31 32 38 34 35 42 38 39 45 41 42 47 43 44 49 45 46 59 55 56 59 55 56 59 55 56 59 55 56 59 55 56 59 55 56 59 55 56 60 54 56
0 0 0 0 0 0 0 0 0 0 0 0 0 0 0 0 0 0 0 0 0 0 0 0 0 0 0 0 0 0 0 0 0 0 0 0 0 0 0 0 0 0 0 0 0 0 0 0 0 0 0 0 0 0 0 0 0 0 0 0 0 0 0 0 0 0 0 0 0 0 0 0 0 0 0 0 0 0 0 0 0 0 0 0 0 0 0 0 0 0 0 0 0 0 0 0 0 0 0 0 0 0 0 0 0 0 0 0 0 0 0 0 0 0 0 0 0 0 0 0 0 0 0 0 0 0 0 0 0 0 0 0 0 0 0 0 0 0 0 0 0 0 0 0 0 0 0 0 0 0 0 0 0 0 0 0 0 0 0 0 0 0 0 0 0 0 0 0 0 0 0 0 0 0 0 0 0 0 0 0 0 0 0 0 0 0 0 0 0 0 0 0 0 0 0 0 0 0 0 0 0 0 0 0 0 0 0 0 0 0 0 0 0 0 0 0 0 0 0 0 0 0 0 0 0 0 0 0 0 0 0 0 0 0 0 0 0 0 0 0 0 0 0 0 0 0 0 0 0 0 0 0 0 0 0 0 0 0 0 0 0 0 0 0 0 0 0 0 0 0 0 0 0 0 0 0 0 1 0 0 1 0 0 1 0 0 1 0 0 1 0 0 1 0 0 1 0 0 1 0 6 8 7 6 8 7 6 8 7 6 8 7 6 8 7 6 8 7 6 8 7 6 8 7 0 2 1 0 2 1 0 2 1 0 2 1 0 2 1 0 2 1 0 2 1 0 2 1 1 3 2 1 3 2 1 3 2 1 3 2 1 3 2 1 3 2 1 3 2 0 4 0 24 29 25 25 32 25 27 34 27 30 37 30 34 41 34 37 44 37 39 46 39 41 48 41 50 57 50 52 59 52 54 61 54 57 64 57 61 68 61 64 71 64 66 73 66 69 74 68 69 72 65 70 71 65 70 71 65 70 71 65 70 71 65 70 71 65 70 71 65 70 71 65 42 43 37 40 41 35 38 39 33 35 36 30 31 32 26 28 29 23 26 27 21 24 25 20 31 27 26 33 29 30 35 31 32 38 34 35 42 38 39 45 41 42 47 43 44 49 45 46 59 55 56 59 55 56 59 55 56 59 55 56 59 55 56 59 55 56 59 55 56 60 54 56
0 0 0 0 0 0 0 0 0 0 0 0 0 0 0 0 0 0 0 0 0 0 0 0 0 0 0 0 0 0 0 0 0 0 0 0 0 0 0 0 0 0 0 0 0 0 0 0 0 0 0 0 0 0 0 0 0 0 0 0 0 0 0 0 0 0 0 0 0 0 0 0 0 0 0 0 0 0 0 0 0 0 0 0 0 0 0 0 0 0 0 0 0 0 0 0 0 0 0 0 0 0 0 0 0 0 0 0 0 0 0 0 0 0 0 0 0 0 0 0 0 0 0 0 0 0 0 0 0 0 0 0 0 0 0 0 0 0 0 0 0 0 0 0 0 0 0 0 0 0 0 0 0 0 0 0 0 0 0 0 0 0 0 0 0 0 0 0 0 0 0 0 0 0 0 0 0 0 0 0 0 0 0 0 0 0 0 0 0 0 0 0 0 0 0 0 0 0 0 0 0 0 0 0 0 0 0 0 0 0 0 0 0 0 0 0 0 0 0 0 0 0 0 0 0 0 0 0 0 0 0 0 0 0 0 0 0 0 0 0 0 0 0 0 0 0 0 0 0 0 0 0 0 0 0 0 0 0 0 0 0 0 0 0 0 0 0 0 0 0 0 0 0 0 0 0 0 1 0 0 1 0 0 1 0 0 1 0 0 1 0 0 1 0 0 1 0 0 1 0 6 8 7 6 8 7 6 8 7 6 8 7 6 8 7 6 8 7 6 8 7 6 8 7 0 2 1 0 2 1 0 2 1 0 2 1 0 2 1 0 2 1 0 2 1 0 2 1 1 3 2 1 3 2 1 3 2 1 3 2 1 3 2 1 3 2 1 3 2 0 4 0 24 29 25 25 32 25 27 34 27 30 37 30 34 41 34 37 44 37 39 46 39 41 48 41 47 54 47 48 55 48 51 58 51 54 61 54 57 64 57 61 68 61 63 70 63 65 70 64 66 69 62 67 68 62 67 68 62 67 68 62 67 68 62 67 68 62 67 68 62 67 68 62 42 43 37 40 41 35 38 39 33 35 36 30 31 32 26 28 29 23 26 27 21 24 25 20 31 27 26 33 29 30 35 31 32 38 34 35 42 38 39 45 41 42 47 43 44 49 45 46 59 55 56 59 55 56 59 55 56 59 55 56 59 55 56 59 55 56 59 55 56 60 54 56
0 0 0 0 0 0 0 0 0 0 0 0 0 0 0 0 0 0 0 0 0 0 0 0 0 0 0 0 0 0 0 0 0 0 0 0 0 0 0 0 0 0 0 0 0 0 0 0 0 0 0 0 0 0 0 0 0 0 0 0 0 0 0 0 0 0 0 0 0 0 0 0 0 0 0 0 0 0 0 0 0 0 0 0 0 0 0 0 0 0 0 0 0 0 0 0 0 0 0 0 0 0 0 0 0 0 0 0 0 0 0 0 0 0 0 0 0 0 0 0 0 0 0 0 0 0 0 0 0 0 0 0 0 0 0 0 0 0 0 0 0 0 0 0 0 0 0 0 0 0 0 0 0 0 0 0 0 0 0 0 0 0 0 0 0 0 0 0 0 0 0 0 0 0 0 0 0 0 0 0 0 0 0 0 0 0 0 0 0 0 0 0 0 0 0 0 0 0 0 0 0 0 0 0 0 0 0 0 0 0 0 0 0 0 0 0 0 0 0 0 0 0 0 0 0 0 0 0 0 0 0 0 0 0 0 0 0 0 0 0 0 0 0 0 0 0 0 0 0 0 0 0 0 0 0 0 0 0 0 0 0 0 0 0 0 0 0 0 0 0 0 0 0 0 0 0 0 1 0 0 1 0 0 1 0 0 1 0 0 1 0 0 1 0 0 1 0 0 1 0 6 8 7 6 8 7 6 8 7 6 8 7 6 8 7 6 8 7 6 8 7 6 8 7 0 2 1 0 2 1 0 2 1 0 2 1 0 2 1 0 2 1 0 2 1 0 2 1 1 3 2 1 3 2 1 3 2 1 3 2 1 3 2 1 3 2 1 3 2 0 4 0 24 29 25 25 32 25 27 34 27 30 37 30 34 41 34 37 44 37 39 46 39 41 48 41 44 51 44 45 52 45 47 54 47 51 58 51 54 61 54 57 64 57 60 67 60 62 67 61 62 65 58 63 64 58 63 64 58 63 64 58 63 64 58 63 64 58 63 64 58 63 64 58 42 43 37 40 41 35 38 39 33 35 36 30 31 32 26 28 29 23 26 27 21 24 25 20 31 27 26 33 29 30 35 31 32 38 34 35 42 38 39 45 41 42 47 43 44 49 45 46 59 55 56 59 55 56 59 55 56 59 55 56 59 55 56 59 55 56 59 55 56 60 54 56
0 0 0 0 0 0 0 0 0 0 0 0 0 0 0 0 0 0 0 0 0 0 0 0 0 0 0 0 0 0 0 0 0 0 0 0 0 0 0 0 0 0 0 0 0 0 0 0 0 0 0 0 0 0 0 0 0 0 0 0 0 0 0 0 0 0 0 0 0 0 0 0 0 0 0 0 0 0 0 0 0 0 0 0 0 0 0 0 0 0 0 0 0 0 0 0 0 0 0 0 0 0 0 0 0 0 0 0 0 0 0 0 0 0 0 0 0 0 0 0 0 0 0 0 0 0 0 0 0 0 0 0 0 0 0 0 0 0 0 0 0 0 0 0 0 0 0 0 0 0 0 0 0 0 0 0 0 0 0 0 0 0 0 0 0 0 0 0 0 0 0 0 0 0 0 0 0 0 0 0 0 0 0 0 0 0 0 0 0 0 0 0 0 0 0 0 0 0 0 0 0 0 0 0 0 0 0 0 0 0 0 0 0 0 0 0 0 0 0 0 0 0 0 0 0 0 0 0 0 0 0 0 0 0 0 0 0 0 0 0 0 0 0 0 0 0 0 0 0 0 0 0 0 0 0 0 0 0 0 0 0 0 0 0 0 0 0 0 0 0 0 0 0 0 0 0 0 1 0 0 1 0 0 1 0 0 1 0 0 1 0 0 1 0 0 1 0 0 1 0 6 8 7 6 8 7 6 8 7 6 8 7 6 8 7 6 8 7 6 8 7 6 8 7 0 2 1 0 2 1 0 2 1 0 2 1 0 2 1 0 2 1 0 2 1 0 2 1 1 3 2 1 3 2 1 3 2 1 3 2 1 3 2 1 3 2 1 3 2 0 4 0 24 29 25 25 32 25 27 34 27 30 37 30 34 41 34 37 44 37 39 46 39 41 48 41 40 47 40 42 49 42 44 51 44 47 54 47 51 58 51 54 61 54 56 63 56 59 64 58 59 62 55 60 61 55 60 61 55 60 61 55 60 61 55 60 61 55 60 61 55 60 61 55 42 43 37 40 41 35 38 39 33 35 36 30 31 32 26 28 29 23 26 27 21 24 25 20 31 27 26 33 29 30 35 31 32 38 34 35 42 38 39 45 41 42 47 43 44 49 45 46 59 55 56 59 55 56 59 55 56 59 55 56 59 55 56 59 55 56 59 55 56 60 54 56
0 0 0 0 0 0 0 0 0 0 0 0 0 0 0 0 0 0 0 0 0 0 0 0 0 0 0 0 0 0 0 0 0 0 0 0 0 0 0 0 0 0 0 0 0 0 0 0 0 0 0 0 0 0 0 0 0 0 0 0 0 0 0 0 0 0 0 0 0 0 0 0 0 0 0 0 0 0 0 0 0 0 0 0 0 0 0 0 0 0 0 0 0 0 0 0 0 0 0 0 0 0 0 0 0 0 0 0 0 0 0 0 0 0 0 0 0 0 0 0 0 0 0 0 0 0 0 0 0 0 0 0 0 0 0 0 0 0 0 0 0 0 0 0 0 0 0 0 0 0 0 0 0 0 0 0 0 0 0 0 0 0 0 0 0 0 0 0 0 0 0 0 0 0 0 0 0 0 0 0 0 0 0 0 0 0 0 0 0 0 0 0 0 0 0 0 0 0 0 0 0 0 0 0 0 0 0 0 0 0 0 0 0 0 0 0 0 0 0 0 0 0 0 0 0 0 0 0 0 0 0 0 0 0 0 0 0 0 0 0 0 0 0 0 0 0 0 0 0 0 0 0 0 0 0 0 0 0 0 0 0 0 0 0 0 0 0 0 0 0 0 0 0 0 0 0 0 1 0 0 1 0 0 1 0 0 1 0 0 1 0 0 1 0 0 1 0 0 1 0 6 8 7 6 8 7 6 8 7 6 8 7 6 8 7 6 8 7 6 8 7 6 8 7 0 2 1 0 2 1 0 2 1 0 2 1 0 2 1 0 2 1 0 2 1 0 2 1 1 3 2 1 3 2 1 3 2 1 3 2 1 3 2 1 3 2 1 3 2 0 4 0 24 29 25 25 32 25 27 34 27 30 37 30 34 41 34 37 44 37 39 46 39 41 48 41 38 45 38 39 46 39 42 49 42 45 52 45 48 55 48 52 59 52 54 61 54 56 61 55 57 60 53 58 59 53 58 59 53 58 59 53 58 59 53 58 59 53 58 59 53 58 59 53 42 43 37 40 41 35 38 39 33 35 36 30 31 32 26 28 29 23 26 27 21 24 25 20 31 27 26 33 29 30 35 31 32 38 34 35 42 38 39 45 41 42 47 43 44 49 45 46 59 55 56 59 55 56 59 55 56 59 55 56 59 55 56 59 55 56 59 55 56 60 54 56
0 1 0 0 1 0 0 1 0 0 1 0 0 1 0 0 1 0 0 1 0 0 1 0 0 1 0 0 1 0 0 1 0 0 1 0 0 1 0 0 1 0 0 0 2 0 1 0 0 0 2 0 1 0 0 0 2 0 1 0 0 0 2 0 1 0 0 0 2 0 1 0 0 0 2 0 1 0 0 0 2 0 1 0 0 1 0 0 1 0 0 0 0 0 1 0 0 0 0 0 1 0 0 0 0 0 1 0 0 0 0 0 1 0 0 0 0 0 1 0 0 0 0 0 1 0 0 0 0 0 0 0 0 0 0 0 0 0 0 0 0 0 0 0 0 0 0 0 0 0 0 0 0 0 0 0 0 0 0 0 0 0 0 0 0 0 0 0 0 0 0 0 0 0 0 0 0 0 0 0 0 0 0 0 0 0 0 0 0 0 0 0 0 0 0 0 0 0 0 0 0 0 0 0 0 0 0 0 0 0 0 0 0 0 0 0 0 0 0 0 0 0 0 0 0 0 0 0 0 0 0 0 0 0 0 0 0 0 0 0 0 0 0 0 0 0 0 0 0 0 0 0 0 0 0 0 0 0 0 0 0 0 0 0 0 0 0 0 0 0 0 0 0 0 0 0 0 1 0 0 1 0 0 1 0 0 1 0 0 1 0 0 1 0 0 1 0 0 1 0 6 8 7 4 8 7 6 8 7 4 8 7 6 8 7 4 8 7 6 8 7 6 8 7 0 2 1 0 2 1 0 2 1 0 2 1 0 2 1 0 2 1 0 2 1 0 2 1 1 3 2 1 3 2 1 3 2 1 3 2 1 3 2 1 3 2 1 3 2 0 4 0 24 29 25 25 32 25 27 34 27 30 37 30 34 41 34 37 44 37 39 46 39 41 48 41 37 44 37 38 45 38 40 47 40 44 51 44 47 54 47 50 57 50 53 60 53 55 60 54 55 58 51 56 57 51 56 57 51 56 57 51 56 57 51 56 57 51 56 57 51 56 57 51 42 43 37 40 41 35 38 39 33 35 36 30 31 32 26 28 29 23 26 27 21 25 24 20 31 27 26 33 29 28 36 30 32 38 34 33 43 37 39 45 41 40 48 42 44 49 45 44 60 54 56 59 55 54 60 54 56 59 55 54 60 54 56 59 55 54 60 54 56 60 54 56
0 1 2 0 1 2 0 1 2 0 1 2 0 2 3 0 2 3 0 2 3 0 2 3 0 2 3 0 2 3 0 2 3 0 2 3 1 5 6 1 5 6 1 5 8 1 5 6 1 5 8 1 5 6 1 5 8 1 5 6 0 1 4 0 1 2 0 1 4 0 1 2 0 1 4 0 1 2 0 1 4 0 1 2 0 4 3 0 4 3 2 4 3 0 4 3 2 4 3 0 4 3 2 4 3 0 4 3 0 1 0 0 1 0 0 1 0 0 1 0 0 1 0 0 1 0 0 1 0 0 1 0 0 0 0 0 0 0 0 0 0 0 0 0 0 0 0 0 0 0 0 0 0 0 0 0 0 0 0 0 0 0 0 0 0 0 0 0 0 0 0 0 0 0 0 0 0 0 0 0 0 0 0 0 0 0 0 0 0 0 0 0 0 0 0 0 0 0 0 0 0 0 0 0 0 0 0 0 0 0 0 0 0 0 0 0 0 0 0 0 0 0 0 0 0 0 0 0 0 0 0 0 0 0 0 0 0 0 0 0 0 0 0 0 0 0 0 0 0 0 0 0 0 0 0 0 0 0 0 0 0 0 0 0 0 0 0 0 0 0 0 0 0 0 1 0 0 3 4 0 4 4 0 3 4 0 4 4 0 3 4 0 4 4 0 3 4 0 4 4 0 1 2 1 7 7 10 14 15 15 21 21 16 20 21 9 15 15 2 6 7 0 1 2 0 2 1 0 2 1 0 2 1 0 2 1 0 2 1 0 2 1 0 2 1 0 2 1 0 2 1 0 2 1 0 2 1 0 2 1 0 2 1 0 2 1 0 2 1 0 3 0 13 18 14 14 21 14 16 23 16 19 26 19 23 30 23 26 33 26 28 35 28 30 37 30 48 55 48 48 55 48 48 55 48 48 55 48 48 55 48 48 55 48 48 55 48 49 54 48 56 58 53 57 58 53 57 58 53 57 58 53 57 58 53 57 58 53 57 58 53 57 58 53 33 34 29 33 34 29 33 34 29 33 34 29 33 34 29 33 34 29 33 34 29 34 33 29 35 30 27 35 30 27 37 28 29 35 30 27 37 28 29 35 30 27 37 28 29 35 30 27 44 35 36 44 39 36 48 39 40 49 44 41 55 46 47 56 51 48 60 51 52 62 53 54
0 2 2 0 2 2 0 2 2 0 2 2 0 3 3 0 3 3 0 3 3 0 3 3 0 3 3 0 3 3 0 3 3 0 3 3 0 5 8 0 5 8 0 5 8 0 5 8 0 5 8 0 5 8 0 5 8 0 5 8 0 1 4 0 1 4 0 1 4 0 1 4 0 1 4 0 1 4 0 1 4 0 2 2 0 4 5 0 4 3 0 4 3 0 4 3 0 4 3 0 4 3 0 4 3 0 4 3 0 1 0 0 1 0 0 1 0 0 1 0 0 1 0 0 1 0 0 1 0 0 1 0 0 0 0 0 0 0 0 0 0 0 0 0 0 0 0 0 0 0 0 0 0 0 0 0 0 0 0 0 0 0 0 0 0 0 0 0 0 0 0 0 0 0 0 0 0 0 0 0 0 0 0 0 0 0 0 0 0 0 0 0 0 0 0 0 0 0 0 0 0 0 0 0 0 0 0 0 0 0 0 0 0 0 0 0 0 0 0 0 0 0 0 0 0 0 0 0 0 0 0 0 0 0 0 0 0 0 0 0 0 0 0 0 0 0 0 0 0 0 0 0 0 0 0 0 0 0 0 0 0 0 0 0 0 0 0 0 0 0 0 0 0 0 1 0 0 3 4 0 4 4 0 4 4 0 4 4 0 4 4 0 4 4 0 4 4 0 4 4 0 3 3 3 9 9 11 17 17 16 22 22 16 22 22 11 17 17 3 9 9 0 3 3 0 2 1 0 2 1 0 2 1 0 2 1 0 2 1 0 2 1 0 2 1 0 2 1 0 2 1 0 2 1 0 2 1 0 2 1 0 2 1 0 2 1 0 2 1 0 3 0 13 18 14 14 21 14 16 23 16 19 26 19 23 30 23 26 33 26 28 35 28 30 37 30 46 53 46 46 53 46 46 53 46 46 53 46 46 53 46 46 53 46 46 53 46 47 52 46 54 56 51 55 56 51 55 56 51 55 56 51 55 56 51 55 56 51 55 56 51 55 56 51 33 34 29 33 34 29 33 34 29 33 34 29 33 34 29 33 34 29 33 34 29 34 33 29 35 30 27 37 29 27 37 29 27 37 29 27 37 29 27 37 29 27 37 29 27 37 29 27 44 36 34 46 38 36 48 40 38 51 43 41 55 47 45 58 50 48 60 52 50 62 54 52
0 2 2 0 2 2 0 2 2 0 2 2 0 3 3 0 3 3 0 3 3 0 3 3 0 3 3 0 3 3 0 3 3 0 3 3 0 5 8 0 5 8 0 5 8 0 5 8 0 5 8 0 5 8 0 5 8 0 5 8 0 1 4 0 1 4 0 1 4 0 1 4 0 1 4 0 1 4 0 1 4 0 2 2 0 4 5 0 4 3 0 4 3 0 4 3 0 4 3 0 4 3 0 4 3 0 4 3 0 1 0 0 1 0 0 1 0 0 1 0 0 1 0 0 1 0 0 1 0 0 1 0 0 0 0 0 0 0 0 0 0 0 0 0 0 0 0 0 0 0 0 0 0 0 0 0 0 0 0 0 0 0 0 0 0 0 0 0 0 0 0 0 0 0 0 0 0 0 0 0 0 0 0 0 0 0 0 0 0 0 0 0 0 0 0 0 0 0 0 0 0 0 0 0 0 0 0 0 0 0 0 0 0 0 0 0 0 0 0 0 0 0 0 0 0 0 0 0 0 0 0 0 0 0 0 0 0 0 0 0 0 0 0 0 0 0 0 0 0 0 0 0 0 0 0 0 0 0 0 0 0 0 0 0 0 0 0 0 0 0 0 0 0 0 1 0 0 3 4 0 4 4 0 4 4 0 4 4 0 4 4 0 4 4 0 4 4 0 4 4 0 5 5 5 11 11 13 19 19 19 25 25 19 25 25 13 19 19 5 11 11 0 5 5 0 2 1 0 2 1 0 2 1 0 2 1 0 2 1 0 2 1 0 2 1 0 2 1 0 2 1 0 2 1 0 2 1 0 2 1 0 2 1 0 2 1 0 2 1 0 3 0 13 18 14 14 21 14 16 23 16 19 26 19 23 30 23 26 33 26 28 35 28 30 37 30 44 51 44 44 51 44 44 51 44 44 51 44 44 51 44 44 51 44 44 51 44 45 50 44 52 54 49 53 54 49 53 54 49 53 54 49 53 54 49 53 54 49 53 54 49 53 54 49 33 34 29 33 34 29 33 34 29 33 34 29 33 34 29 33 34 29 33 34 29 34 33 29 35 30 27 37 29 27 37 29 27 37 29 27 37 29 27 37 29 27 37 29 27 37 29 27 44 36 34 46 38 36 48 40 38 51 43 41 55 47 45 58 50 48 60 52 50 62 54 52
0 2 2 0 2 2 0 2 2 0 2 2 0 3 3 0 3 3 0 3 3 0 3 3 0 3 3 0 3 3 0 3 3 0 3 3 0 5 8 0 5 8 0 5 8 0 5 8 0 5 8 0 5 8 0 5 8 0 5 8 0 3 6 0 3 6 0 3 6 0 3 6 0 3 6 0 3 6 0 3 6 0 4 4 0 4 5 0 4 3 0 4 3 0 4 3 0 4 3 0 4 3 0 4 3 0 4 3 0 1 0 0 1 0 0 1 0 0 1 0 0 1 0 0 1 0 0 1 0 0 1 0 0 0 0 0 0 0 0 0 0 0 0 0 0 0 0 0 0 0 0 0 0 0 0 0 0 0 0 0 0 0 0 0 0 0 0 0 0 0 0 0 0 0 0 0 0 0 0 0 0 0 0 0 0 0 0 0 0 0 0 0 0 0 0 0 0 0 0 0 0 0 0 0 0 0 0 0 0 0 0 0 0 0 0 0 0 0 0 0 0 0 0 0 0 0 0 0 0 0 0 0 0 0 0 0 0 0 0 0 0 0 0 0 0 0 0 0 0 0 0 0 0 0 0 0 0 0 0 0 0 0 0 0 0 0 0 0 0 0 0 0 0 0 1 0 0 3 4 0 4 4 0 4 4 0 4 4 0 4 4 0 4 4 0 4 4 0 4 4 3 9 9 8 14 14 16 22 22 22 28 28 22 28 28 16 22 22 8 14 14 3 9 9 0 2 1 0 2 1 0 2 1 0 2 1 0 2 1 0 2 1 0 2 1 0 2 1 0 2 1 0 2 1 0 2 1 0 2 1 0 2 1 0 2 1 0 2 1 0 3 0 13 18 14 14 21 14 16 23 16 19 26 19 23 30 23 26 33 26 28 35 28 30 37 30 41 48 41 41 48 41 41 48 41 41 48 41 41 48 41 41 48 41 41 48 41 42 47 41 49 51 46 50 51 46 50 51 46 50 51 46 50 51 46 50 51 46 50 51 46 50 51 46 33 34 29 33 34 29 33 34 29 33 34 29 33 34 29 33 34 29 33 34 29 34 33 29 35 30 27 37 29 27 37 29 27 37 29 27 37 29 27 37 29 27 37 29 27 37 29 27 44 36 34 46 38 36 48 40 38 51 43 41 55 47 45 58 50 48 60 52 50 62 54 52
0 2 2 0 2 2 0 2 2 0 2 2 0 3 3 0 3 3 0 3 3 0 3 3 0 3 3 0 3 3 0 3 3 0 3 3 0 5 8 0 5 8 0 5 8 0 5 8 0 5 8 0 5 8 0 5 8 0 5 8 2 7 10 2 7 10 2 7 10 2 7 10 2 7 10 2 7 10 2 7 10 2 8 8 0 4 5 0 4 3 0 4 3 0 4 3 0 4 3 0 4 3 0 4 3 0 4 3 0 1 0 0 1 0 0 1 0 0 1 0 0 1 0 0 1 0 0 1 0 0 1 0 0 0 0 0 0 0 0 0 0 0 0 0 0 0 0 0 0 0 0 0 0 0 0 0 0 0 0 0 0 0 0 0 0 0 0 0 0 0 0 0 0 0 0 0 0 0 0 0 0 0 0 0 0 0 0 0 0 0 0 0 0 0 0 0 0 0 0 0 0 0 0 0 0 0 0 0 0 0 0 0 0 0 0 0 0 0 0 0 0 0 0 0 0 0 0 0 0 0 0 0 0 0 0 0 0 0 0 0 0 0 0 0 0 0 0 0 0 0 0 0 0 0 0 0 0 0 0 0 0 0 0 0 0 0 0 0 0 0 0 0 0 0 1 0 0 3 4 0 4 4 0 4 4 0 4 4 0 4 4 0 4 4 0 4 4 0 4 4 6 12 12 12 18 18 20 26 26 25 31 31 25 31 31 20 26 26 12 18 18 6 12 12 0 2 1 0 2 1 0 2 1 0 2 1 0 2 1 0 2 1 0 2 1 0 2 1 0 2 1 0 2 1 0 2 1 0 2 1 0 2 1 0 2 1 0 2 1 0 3 0 13 18 14 14 21 14 16 23 16 19 26 19 23 30 23 26 33 26 28 35 28 30 37 30 37 44 37 37 44 37 37 44 37 37 44 37 37 44 37 37 44 37 37 44 37 38 43 37 45 47 42 46 47 42 46 47 42 46 47 42 46 47 42 46 47 42 46 47 42 46 47 42 33 34 29 33 34 29 33 34 29 33 34 29 33 34 29 33 34 29 33 34 29 34 33 29 35 30 27 37 29 27 37 29 27 37 29 27 37 29 27 37 29 27 37 29 27 37 29 27 44 36 34 46 38 36 48 40 38 51 43 41 55 47 45 58 50 48 60 52 50 62 54 52
0 2 2 0 2 2 0 2 2 0 2 2 0 3 3 0 3 3 0 3 3 0 3 3 0 3 3 0 3 3 0 3 3 0 3 3 0 5 8 0 5 8 0 5 8 0 5 8 0 5 8 0 5 8 0 5 8 0 5 8 5 10 13 5 10 13 5 10 13 5 10 13 5 10 13 5 10 13 5 10 13 5 11 11 0 4 5 0 4 3 0 4 3 0 4 3 0 4 3 0 4 3 0 4 3 0 4 3 0 1 0 0 1 0 0 1 0 0 1 0 0 1 0 0 1 0 0 1 0 0 1 0 0 0 0 0 0 0 0 0 0 0 0 0 0 0 0 0 0 0 0 0 0 0 0 0 0 0 0 0 0 0 0 0 0 0 0 0 0 0 0 0 0 0 0 0 0 0 0 0 0 0 0 0 0 0 0 0 0 0 0 0 0 0 0 0 0 0 0 0 0 0 0 0 0 0 0 0 0 0 0 0 0 0 0 0 0 0 0 0 0 0 0 0 0 0 0 0 0 0 0 0 0 0 0 0 0 0 0 0 0 0 0 0 0 0 0 0 0 0 0 0 0 0 0 0 0 0 0 0 0 0 0 0 0 0 0 0 0 0 0 0 0 0 1 0 0 3 4 0 4 4 0 4 4 0 4 4 0 4 4 0 4 4 0 4 4 0 4 4 9 15 15 15 21 21 23 29 29 29 35 35 29 35 35 23 29 29 15 21 21 9 15 15 0 2 1 0 2 1 0 2 1 0 2 1 0 2 1 0 2 1 0 2 1 0 2 1 0 2 1 0 2 1 0 2 1 0 2 1 0 2 1 0 2 1 0 2 1 0 3 0 13 18 14 14 21 14 16 23 16 19 26 19 23 30 23 26 33 26 28 35 28 30 37 30 34 41 34 34 41 34 34 41 34 34 41 34 34 41 34 34 41 34 34 41 34 35 40 34 42 44 39 43 44 39 43 44 39 43 44 39 43 44 39 43 44 39 43 44 39 43 44 39 33 34 29 33 34 29 33 34 29 33 34 29 33 34 29 33 34 29 33 34 29 34 33 29 35 30 27 37 29 27 37 29 27 37 29 27 37 29 27 37 29 27 37 29 27 37 29 27 44 36 34 46 38 36 48 40 38 51 43 41 55 47 45 58 50 48 60 52 50 62 54 52
0 2 2 0 2 2 0 2 2 0 2 2 0 3 3 0 3 3 0 3 3 0 3 3 0 3 3 0 3 3 0 3 3 0 3 3 0 5 8 0 5 8 0 5 8 0 5 8 0 5 8 0 5 8 0 5 8 0 5 8 7 12 15 7 12 15 7 12 15 7 12 15 7 12 15 7 12 15 7 12 15 7 13 13 0 4 5 0 4 3 0 4 3 0 4 3 0 4 3 0 4 3 0 4 3 0 4 3 0 1 0 0 1 0 0 1 0 0 1 0 0 1 0 0 1 0 0 1 0 0 1 0 0 0 0 0 0 0 0 0 0 0 0 0 0 0 0 0 0 0 0 0 0 0 0 0 0 0 0 0 0 0 0 0 0 0 0 0 0 0 0 0 0 0 0 0 0 0 0 0 0 0 0 0 0 0 0 0 0 0 0 0 0 0 0 0 0 0 0 0 0 0 0 0 0 0 0 0 0 0 0 0 0 0 0 0 0 0 0 0 0 0 0 0 0 0 0 0 0 0 0 0 0 0 0 0 0 0 0 0 0 0 0 0 0 0 0 0 0 0 0 0 0 0 0 0 0 0 0 0 0 0 0 0 0 0 0 0 0 0 0 0 0 0 1 0 0 3 4 0 4 4 0 4 4 0 4 4 0 4 4 0 4 4 0 4 4 0 4 4 12 18 18 17 23 23 25 31 31 31 37 37 31 37 37 25 31 31 17 23 23 12 18 18 0 2 1 0 2 1 0 2 1 0 2 1 0 2 1 0 2 1 0 2 1 0 2 1 0 2 1 0 2 1 0 2 1 0 2 1 0 2 1 0 2 1 0 2 1 0 3 0 13 18 14 14 21 14 16 23 16 19 26 19 23 30 23 26 33 26 28 35 28 30 37 30 32 39 32 32 39 32 32 39 32 32 39 32 32 39 32 32 39 32 32 39 32 33 38 32 40 42 37 41 42 37 41 42 37 41 42 37 41 42 37 41 42 37 41 42 37 41 42 37 33 34 29 33 34 29 33 34 29 33 34 29 33 34 29 33 34 29 33 34 29 34 33 29 35 30 27 37 29 27 37 29 27 37 29 27 37 29 27 37 29 27 37 29 27 37 29 27 44 36 34 46 38 36 48 40 38 51 43 41 55 47 45 58 50 48 60 52 50 62 54 52
0 2 2 0 2 2 0 2 2 0 2 2 0 3 3 0 3 3 0 3 3 0 3 3 0 3 3 0 3 3 0 3 3 0 3 3 0 5 8 0 5 8 0 5 8 0 5 8 0 5 8 0 5 8 0 5 8 0 5 8 9 14 17 9 14 17 9 14 17 9 14 17 9 14 17 9 14 17 9 14 17 9 15 15 0 4 5 0 4 3 0 4 3 0 4 3 0 4 3 0 4 3 0 4 3 0 4 3 0 1 0 0 1 0 0 1 0 0 1 0 0 1 0 0 1 0 0 1 0 0 1 0 0 0 0 0 0 0 0 0 0 0 0 0 0 0 0 0 0 0 0 0 0 0 0 0 0 0 0 0 0 0 0 0 0 0 0 0 0 0 0 0 0 0 0 0 0 0 0 0 0 0 0 0 0 0 0 0 0 0 0 0 0 0 0 0 0 0 0 0 0 0 0 0 0 0 0 0 0 0 0 0 0 0 0 0 0 0 0 0 0 0 0 0 0 0 0 0 0 0 0 0 0 0 0 0 0 0 0 0 0 0 0 0 0 0 0 0 0 0 0 0 0 0 0 0 0 0 0 0 0 0 0 0 0 0 0 0 0 0 0 0 0 0 1 0 0 3 4 0 4 4 0 4 4 0 4 4 0 4 4 0 4 4 0 4 4 0 4 4 13 19 19 19 25 25 27 33 33 32 38 38 32 38 38 27 33 33 19 25 25 13 19 19 0 2 1 0 2 1 0 2 1 0 2 1 0 2 1 0 2 1 0 2 1 0 2 1 0 2 1 0 2 1 0 2 1 0 2 1 0 2 1 0 2 1 0 2 1 0 3 0 13 18 14 14 21 14 16 23 16 19 26 19 23 30 23 26 33 26 28 35 28 30 37 30 30 37 30 30 37 30 30 37 30 30 37 30 30 37 30 30 37 30 30 37 30 31 36 30 38 40 35 39 40 35 39 40 35 39 40 35 39 40 35 39 40 35 39 40 35 39 40 35 33 34 29 33 34 29 33 34 29 33 34 29 33 34 29 33 34 29 33 34 29 34 33 29 35 30 27 37 29 27 37 29 27 37 29 27 37 29 27 37 29 27 37 29 27 37 29 27 44 36 34 46 38 36 48 40 38 51 43 41 55 47 45 58 50 48 60 52 50 62 54 52
12 18 18 12 18 18 12 18 18 12 18 18 1 7 7 1 7 7 1 7 7 1 7 7 1 7 7 1 7 7 1 7 7 1 7 7 9 14 17 9 14 17 9 14 17 9 14 17 9 14 17 9 14 17 9 14 17 9 14 17 10 15 18 10 15 18 10 15 18 10 15 18 10 15 18 10 15 18 10 15 18 10 16 16 9 13 14 9 13 12 9 13 12 9 13 12 9 13 12 9 13 12 9 13 12 9 13 12 4 8 7 4 8 7 4 8 7 4 8 7 4 8 7 4 8 7 4 8 7 4 8 7 2 2 2 2 2 2 2 2 2 2 2 2 2 2 2 2 2 2 2 2 2 2 2 2 0 0 0 0 0 0 0 0 0 0 0 0 0 0 0 0 0 0 0 0 0 0 0 0 0 0 0 0 0 0 0 0 0 0 0 0 0 0 0 0 0 0 0 0 0 0 0 0 0 0 0 0 0 0 0 0 0 0 0 0 0 0 0 0 0 0 0 0 0 0 0 0 0 0 0 0 0 0 0 0 0 0 0 0 0 0 0 0 0 0 0 0 0 0 0 0 1 1 1 1 1 1 1 1 1 1 1 1 1 1 1 1 1 1 1 1 1 0 2 1 9 13 14 0 6 6 0 2 2 0 2 2 0 2 2 0 2 2 9 15 15 19 25 25 33 39 39 31 37 37 29 35 35 26 32 32 22 28 28 19 25 25 17 23 23 15 21 21 1 3 2 1 3 2 1 3 2 1 3 2 1 3 2 1 3 2 1 3 2 1 3 2 1 3 2 1 3 2 1 3 2 1 3 2 1 3 2 1 3 2 1 3 2 0 4 0 5 10 6 6 13 6 8 15 8 11 18 11 15 22 15 18 25 18 20 27 20 22 29 22 26 33 26 26 33 26 26 33 26 26 33 26 26 33 26 26 33 26 26 33 26 27 32 26 32 34 29 33 34 29 33 34 29 33 34 29 33 34 29 33 34 29 33 34 29 33 34 29 29 30 25 29 30 25 29 30 25 29 30 25 29 30 25 29 30 25 29 30 25 30 29 25 33 28 25 35 27 25 35 27 25 35 27 25 35 27 25 35 27 25 35 27 25 35 27 25 36 28 26 38 30 28 40 32 30 43 35 33 47 39 37 50 42 40 52 44 42 54 46 44
12 18 18 12 18 18 12 18 18 12 18 18 3 9 9 3 9 9 3 9 9 3 9 9 3 9 9 3 9 9 3 9 9 3 9 9 9 14 17 9 14 17 9 14 17 9 14 17 9 14 17 9 14 17 9 14 17 9 14 17 10 15 18 10 15 18 10 15 18 10 15 18 10 15 18 10 15 18 10 15 18 10 16 16 9 13 14 9 13 12 9 13 12 9 13 12 9 13 12 9 13 12 9 13 12 9 13 12 4 8 7 4 8 7 4 8 7 4 8 7 4 8 7 4 8 7 4 8 7 4 8 7 2 2 2 2 2 2 2 2 2 2 2 2 2 2 2 2 2 2 2 2 2 2 2 2 0 0 0 0 0 0 0 0 0 0 0 0 0 0 0 0 0 0 0 0 0 0 0 0 0 0 0 0 0 0 0 0 0 0 0 0 0 0 0 0 0 0 0 0 0 0 0 0 0 0 0 0 0 0 0 0 0 0 0 0 0 0 0 0 0 0 0 0 0 0 0 0 0 0 0 0 0 0 0 0 0 0 0 0 0 0 0 0 0 0 0 0 0 0 0 0 1 1 1 1 1 1 1 1 1 1 1 1 1 1 1 1 1 1 1 1 1 0 2 1 9 13 14 1 7 7 0 2 2 0 2 2 0 2 2 1 7 7 13 19 19 22 28 28 33 39 39 31 37 37 29 35 35 26 32 32 22 28 28 19 25 25 17 23 23 15 21 21 1 3 2 1 3 2 1 3 2 1 3 2 1 3 2 1 3 2 1 3 2 1 3 2 1 3 2 1 3 2 1 3 2 1 3 2 1 3 2 1 3 2 1 3 2 0 4 0 5 10 6 6 13 6 8 15 8 11 18 11 15 22 15 18 25 18 20 27 20 22 29 22 26 33 26 26 33 26 26 33 26 26 33 26 26 33 26 26 33 26 26 33 26 27 32 26 32 34 29 33 34 29 33 34 29 33 34 29 33 34 29 33 34 29 33 34 29 33 34 29 29 30 25 29 30 25 29 30 25 29 30 25 29 30 25 29 30 25 29 30 25 30 29 25 33 28 25 35 27 25 35 27 25 35 27 25 35 27 25 35 27 25 35 27 25 35 27 25 36 28 26 38 30 28 40 32 30 43 35 33 47 39 37 50 42 40 52 44 42 54 46 44
12 18 18 12 18 18 12 18 18 12 18 18 5 11 11 5 11 11 5 11 11 5 11 11 5 11 11 5 11 11 5 11 11 5 11 11 9 14 17 9 14 17 9 14 17 9 14 17 9 14 17 9 14 17 9 14 17 9 14 17 10 15 18 10 15 18 10 15 18 10 15 18 10 15 18 10 15 18 10 15 18 10 16 16 9 13 14 9 13 12 9 13 12 9 13 12 9 13 12 9 13 12 9 13 12 9 13 12 4 8 7 4 8 7 4 8 7 4 8 7 4 8 7 4 8 7 4 8 7 4 8 7 2 2 2 2 2 2 2 2 2 2 2 2 2 2 2 2 2 2 2 2 2 2 2 2 0 0 0 0 0 0 0 0 0 0 0 0 0 0 0 0 0 0 0 0 0 0 0 0 0 0 0 0 0 0 0 0 0 0 0 0 0 0 0 0 0 0 0 0 0 0 0 0 0 0 0 0 0 0 0 0 0 0 0 0 0 0 0 0 0 0 0 0 0 0 0 0 0 0 0 0 0 0 0 0 0 0 0 0 0 0 0 0 0 0 0 0 0 0 0 0 1 1 1 1 1 1 1 1 1 1 1 1 1 1 1 1 1 1 1 1 1 0 2 1 8 12 13 4 10 10 0 6 6 0 4 4 3 9 9 12 18 18 22 28 28 29 35 35 33 39 39 31 37 37 29 35 35 26 32 32 22 28 28 19 25 25 17 23 23 15 21 21 1 3 2 1 3 2 1 3 2 1 3 2 1 3 2 1 3 2 1 3 2 1 3 2 1 3 2 1 3 2 1 3 2 1 3 2 1 3 2 1 3 2 1 3 2 0 4 0 5 10 6 6 13 6 8 15 8 11 18 11 15 22 15 18 25 18 20 27 20 22 29 22 26 33 26 26 33 26 26 33 26 26 33 26 26 33 26 26 33 26 26 33 26 27 32 26 32 34 29 33 34 29 33 34 29 33 34 29 33 34 29 33 34 29 33 34 29 33 34 29 29 30 25 29 30 25 29 30 25 29 30 25 29 30 25 29 30 25 29 30 25 30 29 25 33 28 25 35 27 25 35 27 25 35 27 25 35 27 25 35 27 25 35 27 25 35 27 25 36 28 26 38 30 28 40 32 30 43 35 33 47 39 37 50 42 40 52 44 42 54 46 44
12 18 18 12 18 18 12 18 18 12 18 18 8 14 14 8 14 14 8 14 14 8 14 14 8 14 14 8 14 14 8 14 14 8 14 14 9 14 17 9 14 17 9 14 17 9 14 17 9 14 17 9 14 17 9 14 17 9 14 17 10 15 18 10 15 18 10 15 18 10 15 18 10 15 18 10 15 18 10 15 18 10 16 16 9 13 14 9 13 12 9 13 12 9 13 12 9 13 12 9 13 12 9 13 12 9 13 12 4 8 7 4 8 7 4 8 7 4 8 7 4 8 7 4 8 7 4 8 7 4 8 7 2 2 2 2 2 2 2 2 2 2 2 2 2 2 2 2 2 2 2 2 2 2 2 2 0 0 0 0 0 0 0 0 0 0 0 0 0 0 0 0 0 0 0 0 0 0 0 0 0 0 0 0 0 0 0 0 0 0 0 0 0 0 0 0 0 0 0 0 0 0 0 0 0 0 0 0 0 0 0 0 0 0 0 0 0 0 0 0 0 0 0 0 0 0 0 0 0 0 0 0 0 0 0 0 0 0 0 0 0 0 0 0 0 0 0 0 0 0 0 0 1 1 1 1 1 1 1 1 1 1 1 1 1 1 1 1 1 1 1 1 1 0 2 1 8 12 13 7 13 13 9 15 15 13 19 19 19 25 25 26 32 32 33 39 39 37 43 43 33 39 39 31 37 37 29 35 35 26 32 32 22 28 28 19 25 25 17 23 23 15 21 21 1 3 2 1 3 2 1 3 2 1 3 2 1 3 2 1 3 2 1 3 2 1 3 2 1 3 2 1 3 2 1 3 2 1 3 2 1 3 2 1 3 2 1 3 2 0 4 0 5 10 6 6 13 6 8 15 8 11 18 11 15 22 15 18 25 18 20 27 20 22 29 22 26 33 26 26 33 26 26 33 26 26 33 26 26 33 26 26 33 26 26 33 26 27 32 26 32 34 29 33 34 29 33 34 29 33 34 29 33 34 29 33 34 29 33 34 29 33 34 29 29 30 25 29 30 25 29 30 25 29 30 25 29 30 25 29 30 25 29 30 25 30 29 25 33 28 25 35 27 25 35 27 25 35 27 25 35 27 25 35 27 25 35 27 25 35 27 25 36 28 26 38 30 28 40 32 30 43 35 33 47 39 37 50 42 40 52 44 42 54 46 44
12 18 18 12 18 18 12 18 18 12 18 18 12 18 18 12 18 18 12 18 18 12 18 18 12 18 18 12 18 18 12 18 18 12 18 18 9 14 17 9 14 17 9 14 17 9 14 17 9 14 17 9 14 17 9 14 17 9 14 17 10 15 18 10 15 18 10 15 18 10 15 18 10 15 18 10 15 18 10 15 18 10 16 16 9 13 14 9 13 12 9 13 12 9 13 12 9 13 12 9 13 12 9 13 12 9 13 12 4 8 7 4 8 7 4 8 7 4 8 7 4 8 7 4 8 7 4 8 7 4 8 7 2 2 2 2 2 2 2 2 2 2 2 2 2 2 2 2 2 2 2 2 2 2 2 2 0 0 0 0 0 0 0 0 0 0 0 0 0 0 0 0 0 0 0 0 0 0 0 0 0 0 0 0 0 0 0 0 0 0 0 0 0 0 0 0 0 0 0 0 0 0 0 0 0 0 0 0 0 0 0 0 0 0 0 0 0 0 0 0 0 0 0 0 0 0 0 0 0 0 0 0 0 0 0 0 0 0 0 0 0 0 0 0 0 0 0 0 0 0 0 0 1 1 1 1 1 1 1 1 1 1 1 1 1 1 1 1 1 1 1 1 1 0 2 1 7 11 12 11 17 17 19 25 25 28 34 34 36 42 42 42 48 48 45 51 51 46 52 52 33 39 39 31 37 37 29 35 35 26 32 32 22 28 28 19 25 25 17 23 23 15 21 21 1 3 2 1 3 2 1 3 2 1 3 2 1 3 2 1 3 2 1 3 2 1 3 2 1 3 2 1 3 2 1 3 2 1 3 2 1 3 2 1 3 2 1 3 2 0 4 0 5 10 6 6 13 6 8 15 8 11 18 11 15 22 15 18 25 18 20 27 20 22 29 22 26 33 26 26 33 26 26 33 26 26 33 26 26 33 26 26 33 26 26 33 26 27 32 26 32 34 29 33 34 29 33 34 29 33 34 29 33 34 29 33 34 29 33 34 29 33 34 29 29 30 25 29 30 25 29 30 25 29 30 25 29 30 25 29 30 25 29 30 25 30 29 25 33 28 25 35 27 25 35 27 25 35 27 25 35 27 25 35 27 25 35 27 25 35 27 25 36 28 26 38 30 28 40 32 30 43 35 33 47 39 37 50 42 40 52 44 42 54 46 44
12 18 18 12 18 18 12 18 18 12 18 18 15 21 21 15 21 21 15 21 21 15 21 21 15 21 21 15 21 21 15 21 21 15 21 21 9 14 17 9 14 17 9 14 17 9 14 17 9 14 17 9 14 17 9 14 17 9 14 17 10 15 18 10 15 18 10 15 18 10 15 18 10 15 18 10 15 18 10 15 18 10 16 16 9 13 14 9 13 12 9 13 12 9 13 12 9 13 12 9 13 12 9 13 12 9 13 12 4 8 7 4 8 7 4 8 7 4 8 7 4 8 7 4 8 7 4 8 7 4 8 7 2 2 2 2 2 2 2 2 2 2 2 2 2 2 2 2 2 2 2 2 2 2 2 2 0 0 0 0 0 0 0 0 0 0 0 0 0 0 0 0 0 0 0 0 0 0 0 0 0 0 0 0 0 0 0 0 0 0 0 0 0 0 0 0 0 0 0 0 0 0 0 0 0 0 0 0 0 0 0 0 0 0 0 0 0 0 0 0 0 0 0 0 0 0 0 0 0 0 0 0 0 0 0 0 0 0 0 0 0 0 0 0 0 0 0 0 0 0 0 0 1 1 1 1 1 1 1 1 1 1 1 1 1 1 1 1 1 1 1 1 1 0 2 1 7 11 12 15 21 21 29 35 35 43 49 49 52 58 58 56 62 62 56 62 62 54 60 60 33 39 39 31 37 37 29 35 35 26 32 32 22 28 28 19 25 25 17 23 23 15 21 21 1 3 2 1 3 2 1 3 2 1 3 2 1 3 2 1 3 2 1 3 2 1 3 2 1 3 2 1 3 2 1 3 2 1 3 2 1 3 2 1 3 2 1 3 2 0 4 0 5 10 6 6 13 6 8 15 8 11 18 11 15 22 15 18 25 18 20 27 20 22 29 22 26 33 26 26 33 26 26 33 26 26 33 26 26 33 26 26 33 26 26 33 26 27 32 26 32 34 29 33 34 29 33 34 29 33 34 29 33 34 29 33 34 29 33 34 29 33 34 29 29 30 25 29 30 25 29 30 25 29 30 25 29 30 25 29 30 25 29 30 25 30 29 25 33 28 25 35 27 25 35 27 25 35 27 25 35 27 25 35 27 25 35 27 25 35 27 25 36 28 26 38 30 28 40 32 30 43 35 33 47 39 37 50 42 40 52 44 42 54 46 44
12 18 18 12 18 18 12 18 18 12 18 18 17 23 23 17 23 23 17 23 23 17 23 23 17 23 23 17 23 23 17 23 23 17 23 23 9 14 17 9 14 17 9 14 17 9 14 17 9 14 17 9 14 17 9 14 17 9 14 17 10 15 18 10 15 18 10 15 18 10 15 18 10 15 18 10 15 18 10 15 18 10 16 16 9 13 14 9 13 12 9 13 12 9 13 12 9 13 12 9 13 12 9 13 12 9 13 12 4 8 7 4 8 7 4 8 7 4 8 7 4 8 7 4 8 7 4 8 7 4 8 7 2 2 2 2 2 2 2 2 2 2 2 2 2 2 2 2 2 2 2 2 2 2 2 2 0 0 0 0 0 0 0 0 0 0 0 0 0 0 0 0 0 0 0 0 0 0 0 0 0 0 0 0 0 0 0 0 0 0 0 0 0 0 0 0 0 0 0 0 0 0 0 0 0 0 0 0 0 0 0 0 0 0 0 0 0 0 0 0 0 0 0 0 0 0 0 0 0 0 0 0 0 0 0 0 0 0 0 0 0 0 0 0 0 0 0 0 0 0 0 0 1 1 1 1 1 1 1 1 1 1 1 1 1 1 1 1 1 1 1 1 1 0 2 1 6 10 11 17 23 23 36 42 42 54 60 60 65 71 71 67 73 73 64 70 70 61 67 67 33 39 39 31 37 37 29 35 35 26 32 32 22 28 28 19 25 25 17 23 23 15 21 21 1 3 2 1 3 2 1 3 2 1 3 2 1 3 2 1 3 2 1 3 2 1 3 2 1 3 2 1 3 2 1 3 2 1 3 2 1 3 2 1 3 2 1 3 2 0 4 0 5 10 6 6 13 6 8 15 8 11 18 11 15 22 15 18 25 18 20 27 20 22 29 22 26 33 26 26 33 26 26 33 26 26 33 26 26 33 26 26 33 26 26 33 26 27 32 26 32 34 29 33 34 29 33 34 29 33 34 29 33 34 29 33 34 29 33 34 29 33 34 29 29 30 25 29 30 25 29 30 25 29 30 25 29 30 25 29 30 25 29 30 25 30 29 25 33 28 25 35 27 25 35 27 25 35 27 25 35 27 25 35 27 25 35 27 25 35 27 25 36 28 26 38 30 28 40 32 30 43 35 33 47 39 37 50 42 40 52 44 42 54 46 44
9 19 18 9 19 18 9 19 18 9 19 18 16 26 25 16 26 25 16 26 25 16 26 25 16 26 25 16 26 25 16 26 25 16 26 25 7 15 17 7 15 17 7 15 17 7 15 17 7 15 17 7 15 17 7 15 17 7 15 17 8 16 18 8 16 18 8 16 18 8 16 18 8 16 18 8 16 18 8 16 18 8 16 18 8 14 14 8 14 12 8 14 14 8 14 12 8 14 14 8 14 12 8 14 14 8 14 12 3 9 9 3 9 7 3 9 9 3 9 7 3 9 9 3 9 7 3 9 9 4 8 7 1 3 2 1 3 0 1 3 2 1 3 0 1 3 2 1 3 0 1 3 2 1 3 0 0 1 0 0 1 0 0 1 0 0 1 0 0 1 0 0 1 0 0 1 0 0 1 0 0 0 0 0 0 0 0 0 0 0 0 0 0 0 0 0 0 0 0 0 0 0 0 0 0 0 0 0 0 0 0 0 0 0 0 0 0 0 0 0 0 0 0 0 0 0 0 0 0 0 0 0 1 0 0 0 0 0 1 0 0 0 0 0 1 0 0 0 0 0 1 0 1 1 1 0 2 1 1 1 1 0 2 1 1 1 1 0 2 1 1 1 1 0 2 1 6 10 9 19 25 23 40 46 46 60 66 64 71 77 77 73 79 77 69 75 75 64 70 68 33 39 39 31 37 35 29 35 35 26 32 30 22 28 28 19 25 23 17 23 23 15 21 19 0 3 2 0 3 2 1 3 2 0 3 2 1 3 2 0 3 2 1 3 2 0 3 2 1 3 2 0 3 2 1 3 2 0 3 2 1 3 2 0 3 2 1 3 2 0 3 2 4 10 6 6 12 8 8 14 10 11 17 13 15 21 17 18 24 20 20 26 22 22 28 24 26 32 28 26 32 28 26 32 28 26 32 28 26 32 28 26 32 28 26 32 28 27 32 28 32 34 29 33 34 29 33 34 29 33 34 29 33 34 29 33 34 29 33 34 29 33 34 29 29 30 25 29 30 25 29 30 25 29 30 25 29 30 25 29 30 25 29 30 25 30 29 25 33 28 25 35 27 25 35 27 25 35 27 25 35 27 25 35 27 25 35 27 25 35 27 25 36 28 26 38 30 28 40 32 30 43 35 33 47 39 37 50 42 40 52 44 42 54 46 44
13 30 24 13 30 24 13 30 24 13 30 24 12 29 23 12 29 23 12 29 23 12 29 23 12 29 23 12 29 23 12 29 23 12 28 25 13 25 25 14 24 25 14 24 25 14 24 25 14 24 25 14 24 25 14 24 25 14 24 25 12 22 23 12 22 23 12 22 23 12 22 23 12 22 23 12 22 23 12 22 23 12 22 23 9 19 20 9 19 18 9 19 20 9 19 18 9 19 20 9 19 18 9 19 20 9 19 18 6 16 17 6 16 15 6 16 17 6 16 15 6 16 17 6 16 15 6 16 17 7 16 15 4 10 6 5 10 4 5 10 6 5 10 4 5 10 6 5 10 4 5 10 6 5 10 4 0 4 0 0 4 0 0 4 0 0 4 0 0 4 0 0 4 0 0 4 0 0 4 0 0 1 0 0 0 0 0 0 0 0 0 0 0 0 0 0 0 0 0 0 0 0 0 0 0 0 0 0 0 0 0 0 0 0 0 0 0 0 0 0 0 0 0 0 0 0 0 0 0 2 1 0 2 1 0 2 1 0 2 1 0 2 1 0 2 1 0 2 1 0 2 1 11 13 12 4 8 7 0 1 0 0 1 0 0 1 0 0 3 2 9 11 10 13 17 16 45 51 49 60 66 62 81 87 85 95 101 97 95 101 99 81 87 83 60 66 64 45 51 47 21 27 25 21 27 23 20 26 24 19 25 21 19 25 23 18 24 20 17 23 21 17 23 21 0 5 3 0 5 3 0 4 3 0 5 3 0 4 3 0 5 3 0 4 3 0 5 3 0 4 3 0 5 3 0 4 3 0 5 3 0 4 3 0 5 3 0 4 3 0 5 3 13 19 17 13 19 17 13 19 17 13 19 17 13 19 17 13 19 17 13 19 17 13 19 17 11 17 15 11 17 15 11 17 15 11 17 15 11 17 15 11 17 15 11 17 15 12 16 15 21 23 20 22 22 20 22 22 20 22 22 20 22 22 20 22 22 20 22 22 20 22 22 20 27 27 25 27 27 25 27 27 25 27 27 25 27 27 25 27 27 25 27 27 25 28 27 23 33 28 25 35 27 24 35 27 24 35 27 24 35 27 24 35 27 24 35 27 24 35 27 24 31 23 20 33 25 22 35 27 24 38 30 27 42 34 31 45 37 34 47 39 36 49 41 39
11 30 24 10 31 24 11 30 24 10 31 24 10 29 23 9 30 23 10 29 23 9 30 23 10 29 23 9 30 23 10 29 23 10 29 23 11 25 25 13 25 25 13 25 25 13 25 25 13 25 25 13 25 25 13 25 25 13 25 25 11 23 23 11 23 23 11 23 23 11 23 23 11 23 23 11 23 23 11 23 23 11 23 23 8 20 20 8 20 20 8 20 20 8 20 20 8 20 20 8 20 20 8 20 20 8 20 20 5 17 17 5 17 17 5 17 17 5 17 17 5 17 17 5 17 17 5 17 17 6 16 15 2 11 6 4 11 4 4 11 4 4 11 4 4 11 4 4 11 4 4 11 4 4 11 4 0 5 0 0 5 0 0 5 0 0 5 0 0 5 0 0 5 0 0 5 0 0 4 0 0 1 0 0 0 0 0 0 0 0 0 0 0 0 0 0 0 0 0 0 0 0 0 0 0 0 0 0 0 0 0 0 0 0 0 0 0 0 0 0 0 0 0 0 0 0 1 0 0 2 1 0 2 1 0 2 1 0 2 1 0 2 1 0 2 1 0 2 1 0 2 1 8 12 11 4 8 7 0 1 0 0 1 0 0 1 0 4 8 7 13 17 16 20 24 23 53 59 55 66 72 68 85 91 87 98 104 100 98 104 100 85 91 87 66 72 68 53 59 55 29 35 31 28 34 30 26 32 28 24 30 26 22 28 24 20 26 22 18 24 20 17 23 19 0 5 3 0 5 3 0 5 3 0 5 3 0 5 3 0 5 3 0 5 3 0 5 3 0 5 3 0 5 3 0 5 3 0 5 3 0 5 3 0 5 3 0 5 3 0 5 3 13 19 19 13 19 19 13 19 19 13 19 19 13 19 19 13 19 19 13 19 19 13 19 19 11 17 17 11 17 17 11 17 17 11 17 17 11 17 17 11 17 17 11 17 17 12 16 15 21 23 22 22 22 20 22 22 20 22 22 20 22 22 20 22 22 20 22 22 20 22 22 20 27 27 25 27 27 25 27 27 25 27 27 25 27 27 25 27 27 25 27 27 25 28 27 23 33 28 25 35 27 24 35 27 24 35 27 24 35 27 24 35 27 24 35 27 24 35 27 24 31 23 20 33 25 22 35 27 24 38 30 27 42 34 31 45 37 34 47 39 36 49 41 39
13 30 24 11 30 24 13 30 24 11 30 24 12 29 23 10 29 23 12 29 23 10 29 23 12 29 23 10 29 23 12 29 23 12 29 23 11 25 25 13 25 25 13 25 25 13 25 25 13 25 25 13 25 25 13 25 25 13 25 25 11 23 23 11 23 23 11 23 23 11 23 23 11 23 23 11 23 23 11 23 23 11 23 23 8 20 20 8 20 20 8 20 20 8 20 20 8 20 20 8 20 20 8 20 20 8 20 20 5 17 17 5 17 17 5 17 17 5 17 17 5 17 17 5 17 17 5 17 17 6 16 15 2 11 6 4 11 4 4 11 4 4 11 4 4 11 4 4 11 4 4 11 4 4 11 4 0 5 0 0 5 0 0 5 0 0 5 0 0 5 0 0 5 0 0 5 0 0 4 0 0 1 0 0 0 0 0 0 0 0 0 0 0 0 0 0 0 0 0 0 0 0 0 0 0 0 0 0 0 0 0 0 0 0 0 0 0 0 0 0 0 0 0 0 0 0 1 0 0 2 1 0 2 1 0 2 1 0 2 1 0 2 1 0 2 1 0 2 1 0 2 1 6 10 9 3 7 6 0 2 1 0 1 0 2 6 5 12 16 15 24 28 27 31 35 34 67 73 69 78 84 80 93 99 95 104 110 106 104 110 106 93 99 95 78 84 80 67 73 69 43 49 45 41 47 43 37 43 39 33 39 35 28 34 30 23 29 25 20 26 22 18 24 20 0 5 3 0 5 3 0 5 3 0 5 3 0 5 3 0 5 3 0 5 3 0 5 3 0 5 3 0 5 3 0 5 3 0 5 3 0 5 3 0 5 3 0 5 3 0 5 3 13 19 19 13 19 19 13 19 19 13 19 19 13 19 19 13 19 19 13 19 19 13 19 19 11 17 17 11 17 17 11 17 17 11 17 17 11 17 17 11 17 17 11 17 17 12 16 15 21 23 22 22 22 20 22 22 20 22 22 20 22 22 20 22 22 20 22 22 20 22 22 20 27 27 25 27 27 25 27 27 25 27 27 25 27 27 25 27 27 25 27 27 25 28 27 23 33 28 25 35 27 24 35 27 24 35 27 24 35 27 24 35 27 24 35 27 24 35 27 24 31 23 20 33 25 22 35 27 24 38 30 27 42 34 31 45 37 34 47 39 36 49 41 39
