P3
172 37
255
29 14 21 33 18 25 35 20 27 36 21 28 42 27 34 43 28 35 46 31 38 49 34 41 52 37 44 56 41 48 58 43 50 63 42 51 73 39 53 77 39 54 82 41 57 83 45 60 88 47 63 90 52 67 94 53 69 93 55 70 101 60 76 104 66 81 113 72 88 122 84 99 134 93 109 143 105 120 152 111 127 152 118 132 145 124 133 141 126 133 141 126 133 141 126 133 141 126 133 141 126 133 141 126 133 141 126 133 140 125 132 138 123 130 136 121 128 133 118 125 129 114 121 126 111 118 124 109 116 120 107 114 89 78 86 79 69 77 66 56 64 54 44 52 48 38 46 47 37 45 50 40 48 53 43 51 57 47 55 59 49 57 61 51 59 64 54 62 68 58 66 71 61 69 73 63 71 75 65 73 57 49 60 57 49 60 57 49 60 57 49 60 57 49 60 57 49 60 57 49 60 57 49 60 45 37 48 44 36 47 41 33 44 38 30 41 35 27 38 31 23 34 29 21 32 28 20 31 20 14 24 20 14 24 20 14 24 20 14 24 20 14 24 20 14 24 20 14 24 20 14 24 17 11 21 17 11 21 17 11 21 17 11 21 17 11 21 17 11 21 17 11 21 15 12 19 15 12 19 14 13 18 14 13 18 14 13 18 14 13 18 14 13 18 14 13 18 14 13 18 7 6 11 7 6 11 7 6 11 7 6 11 7 6 11 7 6 11 7 6 11 6 7 11 6 7 11 4 8 11 4 8 11 4 8 11 4 8 11 4 8 11 4 8 11 4 8 11 16 20 23 18 22 25 20 24 27 23 27 30 27 31 34 30 34 37 32 36 39 34 38 39 53 57 56 57 62 58 64 69 65 74 79 75 84 89 85 94 99 95 101 106 102 105 110 106 103 108 104 109 114 110 117 122 118 122 127 123 122 127 123 117 122 118 109 114 110 105 107 104 67 67 65 61 60 58 51 50 48 42 41 39 39 38 36 41 40 38 47 46 44 51 50 48 42 41 39 42 41 39 42 41 39 42 41 39 42 41 39 42 41 39 42 41 39 42 41 39 39 37 40 39 37 40 39 37 40 39 37 40 39 37 40 39 37 40 39 37 40 39 37 40 43 41 44 43 41 44 43 41 44 43 41 44 43 41 44 43 41 44 43 41 44 43 41 44
26 13 23 29 16 25 32 19 29 33 20 29 33 20 30 34 21 30 37 24 34 40 27 36 43 30 40 47 34 43 49 36 46 55 35 46 64 33 48 67 33 49 70 36 52 73 39 55 76 42 58 80 46 62 82 48 64 83 49 65 95 61 77 99 65 81 107 73 89 118 84 100 130 96 112 141 107 123 149 115 131 151 120 135 144 124 133 141 126 133 141 126 133 141 126 133 141 126 133 141 126 133 141 126 133 141 126 133 140 125 132 138 123 130 136 121 128 133 118 125 129 114 121 126 111 118 124 109 116 120 107 116 86 76 84 76 69 76 63 56 64 51 44 51 44 37 45 44 37 44 47 40 48 50 43 50 55 48 56 57 50 57 59 52 60 62 55 62 66 59 67 69 62 69 71 64 72 73 66 74 54 48 58 54 48 58 54 48 58 54 48 58 54 48 58 54 48 58 54 48 58 54 48 58 41 35 45 40 34 44 38 32 42 34 28 38 31 25 35 28 22 32 25 19 29 24 18 28 16 13 22 16 13 22 16 13 22 16 13 22 16 13 22 16 13 22 16 13 22 16 13 22 13 10 19 13 10 19 13 10 19 13 10 19 13 10 19 13 10 19 13 10 19 13 10 19 14 13 19 13 14 18 13 14 18 13 14 18 13 14 18 13 14 18 13 14 18 13 14 18 6 7 11 6 7 11 6 7 11 6 7 11 6 7 11 6 7 11 6 7 11 6 7 11 4 8 11 4 8 11 4 8 11 4 8 11 4 8 11 4 8 11 4 8 11 4 8 11 16 20 23 18 22 25 20 24 27 23 27 30 27 31 34 30 34 37 32 36 39 34 38 39 53 57 56 57 62 58 64 69 65 74 79 75 84 89 85 94 99 95 101 106 102 105 110 106 102 107 103 107 112 108 115 120 116 121 126 122 121 126 122 115 120 116 107 112 108 104 106 103 67 67 65 61 60 58 51 50 48 42 41 39 39 38 36 41 40 38 47 46 44 51 50 48 42 41 39 42 41 39 42 41 39 42 41 39 42 41 39 42 41 39 42 41 39 42 41 39 39 37 38 39 37 40 39 37 40 39 37 40 39 37 40 39 37 40 39 37 40 39 37 40 43 41 44 43 41 44 43 41 44 43 41 44 43 41 44 43 41 44 43 41 44 43 41 44
35 22 39 38 26 40 41 28 45 42 30 44 47 34 51 47 35 49 47 34 51 47 35 49 47 34 51 47 35 49 47 34 51 48 34 49 46 25 40 48 26 39 51 29 42 54 32 45 57 35 48 61 39 52 63 41 54 64 42 55 69 47 60 74 52 65 85 63 76 99 77 90 114 92 105 128 106 119 139 117 130 144 124 136 152 135 145 151 135 145 151 135 145 151 135 145 151 135 145 151 135 145 151 135 145 151 135 145 138 122 132 142 126 136 146 130 140 146 130 140 141 125 135 130 114 124 118 102 112 107 96 104 79 72 80 69 66 73 58 55 64 49 46 53 46 43 52 48 45 52 54 51 60 58 55 62 44 41 50 44 41 48 44 41 50 44 41 48 44 41 50 44 41 48 44 41 50 44 41 50 26 25 33 25 25 35 25 25 35 25 25 35 25 25 35 25 25 35 25 25 35 25 25 35 8 8 18 8 8 18 8 8 18 8 8 18 8 8 18 8 8 18 8 8 18 8 8 18 7 7 17 7 7 17 7 7 17 7 7 17 7 7 17 7 7 17 7 7 17 7 7 17 8 8 18 8 8 18 8 8 18 8 8 18 8 8 18 8 8 18 8 8 18 8 8 16 7 10 15 7 10 15 7 10 15 7 10 15 7 10 15 7 10 15 7 10 15 7 10 15 2 5 10 2 5 10 2 5 10 2 5 10 2 5 10 2 5 10 2 5 10 2 6 9 1 6 9 1 7 7 1 7 7 1 7 7 1 7 7 1 7 7 1 7 7 1 7 7 8 14 14 10 16 16 15 21 21 22 28 28 28 34 34 35 41 41 40 46 46 42 48 48 52 56 55 54 59 55 59 64 60 66 71 67 72 77 73 79 84 80 84 89 85 86 91 87 110 115 111 110 115 111 110 115 111 110 115 111 110 115 111 110 115 111 110 115 111 112 114 111 76 76 74 69 68 66 56 55 53 44 43 41 37 36 34 36 35 33 39 38 36 42 41 39 41 40 38 41 40 38 41 40 38 41 40 38 41 40 38 41 40 38 41 40 38 41 40 38 40 36 37 40 36 37 40 36 37 40 36 37 40 36 37 40 36 37 40 36 37 40 36 37 39 35 36 39 35 36 39 35 36 39 35 36 39 35 36 39 35 36 39 35 36 37 35 36
35 24 41 39 28 45 41 30 47 42 31 48 43 32 49 43 32 49 43 32 49 43 32 49 43 32 49 43 32 49 43 32 49 44 31 48 39 25 40 43 27 40 45 29 42 48 32 45 52 36 49 55 39 52 57 41 54 59 43 56 69 53 66 75 59 72 85 69 82 98 82 95 113 97 110 126 110 123 136 120 133 142 126 137 151 135 146 151 135 145 151 135 145 151 135 145 151 135 145 151 135 145 151 135 145 151 135 145 139 123 133 142 126 136 145 129 139 145 129 139 139 123 133 127 111 121 115 99 109 104 93 101 75 69 79 65 64 72 55 54 62 46 45 53 42 41 49 45 44 52 50 49 57 55 54 62 41 40 48 41 40 48 41 40 48 41 40 48 41 40 48 41 40 48 41 40 48 40 40 48 23 23 33 21 24 33 21 24 33 21 24 33 21 24 33 21 24 33 21 24 33 21 24 33 6 9 18 6 9 18 6 9 18 6 9 18 6 9 18 6 9 18 6 9 18 6 9 18 5 8 17 5 8 17 5 8 17 5 8 17 5 8 17 5 8 17 5 8 17 5 8 17 6 9 18 6 9 18 6 9 18 6 9 18 6 9 18 6 9 18 6 9 18 6 9 16 6 11 17 6 11 15 6 11 15 6 11 15 6 11 15 6 11 15 6 11 15 6 11 15 1 6 10 1 6 10 1 6 10 1 6 10 1 6 10 1 6 10 1 6 10 1 6 9 1 6 9 1 7 7 1 7 7 1 7 7 1 7 7 1 7 7 1 7 7 1 7 7 8 14 14 10 16 16 15 21 21 22 28 28 28 34 34 35 41 41 40 46 46 42 48 46 52 56 55 54 59 55 59 64 60 66 71 67 72 77 73 79 84 80 84 89 85 86 91 87 108 113 109 108 113 109 108 113 109 108 113 109 108 113 109 108 113 109 108 113 109 110 112 109 76 76 74 69 68 66 56 55 53 44 43 41 37 36 34 36 35 33 39 38 36 42 41 39 41 40 38 41 40 38 41 40 38 41 40 38 41 40 38 41 40 38 41 40 38 41 40 38 40 36 37 40 36 37 40 36 37 40 36 37 40 36 37 40 36 37 40 36 37 40 36 37 39 35 36 39 35 36 39 35 36 39 35 36 39 35 36 39 35 36 39 35 36 39 35 36
38 27 44 41 30 47 43 32 49 45 34 51 40 29 46 40 29 46 40 29 46 40 29 46 40 29 46 40 29 46 40 29 46 41 28 45 39 25 40 42 26 39 44 28 41 48 32 45 51 35 48 54 38 51 57 41 54 58 42 55 77 61 74 82 66 79 92 76 89 104 88 101 117 101 114 129 113 126 138 122 135 143 127 138 151 135 146 151 135 145 151 135 145 151 135 145 151 135 145 151 135 145 151 135 145 151 135 145 139 123 133 142 126 136 145 129 139 143 127 137 136 120 130 123 107 117 110 94 104 98 87 95 70 64 74 60 59 67 50 49 57 41 40 48 37 36 44 40 39 47 45 44 52 50 49 57 36 35 43 36 35 43 36 35 43 36 35 43 36 35 43 36 35 43 36 35 43 35 35 43 21 21 31 19 22 31 19 22 31 19 22 31 19 22 31 19 22 31 19 22 31 19 22 31 6 9 18 6 9 18 6 9 18 6 9 18 6 9 18 6 9 18 6 9 18 6 9 18 5 8 17 5 8 17 5 8 17 5 8 17 5 8 17 5 8 17 5 8 17 5 8 17 6 9 18 6 9 18 6 9 18 6 9 18 6 9 18 6 9 18 6 9 18 6 9 16 6 11 17 6 11 15 6 11 15 6 11 15 6 11 15 6 11 15 6 11 15 6 11 15 1 6 10 1 6 10 1 6 10 1 6 10 1 6 10 1 6 10 1 6 10 1 6 9 1 6 9 1 7 7 1 7 7 1 7 7 1 7 7 1 7 7 1 7 7 1 7 7 8 14 14 10 16 16 15 21 21 22 28 28 28 34 34 35 41 41 40 46 46 42 48 46 52 56 55 54 59 55 59 64 60 66 71 67 72 77 73 79 84 80 84 89 85 86 91 87 106 111 107 106 111 107 106 111 107 106 111 107 106 111 107 106 111 107 106 111 107 108 110 107 76 76 74 69 68 66 56 55 53 44 43 41 37 36 34 36 35 33 39 38 36 42 41 39 41 40 38 41 40 38 41 40 38 41 40 38 41 40 38 41 40 38 41 40 38 41 40 38 40 36 37 40 36 37 40 36 37 40 36 37 40 36 37 40 36 37 40 36 37 40 36 37 39 35 36 39 35 36 39 35 36 39 35 36 39 35 36 39 35 36 39 35 36 39 35 36
41 30 47 44 33 50 47 36 53 48 37 54 41 30 47 41 30 47 41 30 47 41 30 47 41 30 47 41 30 47 41 30 47 42 29 46 43 29 44 46 30 43 48 32 45 51 35 48 55 39 52 58 42 55 61 45 58 62 46 59 88 72 85 92 76 89 100 84 97 111 95 108 122 106 119 133 117 130 141 125 138 145 129 140 151 135 146 151 135 145 151 135 145 151 135 145 151 135 145 151 135 145 151 135 145 151 135 145 141 125 135 143 127 137 144 128 138 141 125 135 132 116 126 117 101 111 103 87 97 90 79 87 64 58 68 54 53 61 43 42 50 35 34 42 31 30 38 34 33 41 39 38 46 43 42 50 29 28 36 29 28 36 29 28 36 29 28 36 29 28 36 29 28 36 29 28 36 28 28 36 18 18 28 16 19 28 16 19 28 16 19 28 16 19 28 16 19 28 16 19 28 16 19 28 6 9 18 6 9 18 6 9 18 6 9 18 6 9 18 6 9 18 6 9 18 6 9 18 5 8 17 5 8 17 5 8 17 5 8 17 5 8 17 5 8 17 5 8 17 5 8 17 6 9 18 6 9 18 6 9 18 6 9 18 6 9 18 6 9 18 6 9 18 6 9 16 6 11 17 6 11 15 6 11 15 6 11 15 6 11 15 6 11 15 6 11 15 6 11 15 1 6 10 1 6 10 1 6 10 1 6 10 1 6 10 1 6 10 1 6 10 1 6 9 1 6 9 1 7 7 1 7 7 1 7 7 1 7 7 1 7 7 1 7 7 1 7 7 8 14 14 10 16 16 15 21 21 22 28 28 28 34 34 35 41 41 40 46 46 42 48 46 52 56 55 54 59 55 59 64 60 66 71 67 72 77 73 79 84 80 84 89 85 86 91 87 103 108 104 103 108 104 103 108 104 103 108 104 103 108 104 103 108 104 103 108 104 105 107 104 76 76 74 69 68 66 56 55 53 44 43 41 37 36 34 36 35 33 39 38 36 42 41 39 41 40 38 41 40 38 41 40 38 41 40 38 41 40 38 41 40 38 41 40 38 41 40 38 40 36 37 40 36 37 40 36 37 40 36 37 40 36 37 40 36 37 40 36 37 40 36 37 39 35 36 39 35 36 39 35 36 39 35 36 39 35 36 39 35 36 39 35 36 39 35 36
44 33 50 48 37 54 50 39 56 51 40 57 48 37 54 48 37 54 48 37 54 48 37 54 48 37 54 48 37 54 48 37 54 49 36 53 53 39 54 56 40 53 59 43 56 62 46 59 65 49 62 68 52 65 71 55 68 72 56 69 100 84 97 103 87 100 110 94 107 119 103 116 128 112 125 137 121 134 143 127 140 147 131 142 151 135 146 151 135 145 151 135 145 151 135 145 151 135 145 151 135 145 151 135 145 151 135 145 142 126 136 143 127 137 143 127 137 139 123 133 127 111 121 111 95 105 95 79 89 82 71 79 57 51 61 47 46 54 36 35 43 28 27 35 24 23 31 27 26 34 32 31 39 37 36 44 23 22 30 23 22 30 23 22 30 23 22 30 23 22 30 23 22 30 23 22 30 22 22 30 14 14 24 12 15 24 12 15 24 12 15 24 12 15 24 12 15 24 12 15 24 12 15 24 6 9 18 6 9 18 6 9 18 6 9 18 6 9 18 6 9 18 6 9 18 6 9 18 5 8 17 5 8 17 5 8 17 5 8 17 5 8 17 5 8 17 5 8 17 5 8 17 6 9 18 6 9 18 6 9 18 6 9 18 6 9 18 6 9 18 6 9 18 6 9 16 6 11 17 6 11 15 6 11 15 6 11 15 6 11 15 6 11 15 6 11 15 6 11 15 1 6 10 1 6 10 1 6 10 1 6 10 1 6 10 1 6 10 1 6 10 1 6 9 1 6 9 1 7 7 1 7 7 1 7 7 1 7 7 1 7 7 1 7 7 1 7 7 8 14 14 10 16 16 15 21 21 22 28 28 28 34 34 35 41 41 40 46 46 42 48 46 52 56 55 54 59 55 59 64 60 66 71 67 72 77 73 79 84 80 84 89 85 86 91 87 99 104 100 99 104 100 99 104 100 99 104 100 99 104 100 99 104 100 99 104 100 101 103 100 76 76 74 69 68 66 56 55 53 44 43 41 37 36 34 36 35 33 39 38 36 42 41 39 41 40 38 41 40 38 41 40 38 41 40 38 41 40 38 41 40 38 41 40 38 41 40 38 40 36 37 40 36 37 40 36 37 40 36 37 40 36 37 40 36 37 40 36 37 40 36 37 39 35 36 39 35 36 39 35 36 39 35 36 39 35 36 39 35 36 39 35 36 39 35 36
48 37 54 51 40 57 53 42 59 55 44 61 60 49 66 60 49 66 60 49 66 60 49 66 60 49 66 60 49 66 60 49 66 61 48 65 68 54 69 71 55 68 74 58 71 77 61 74 80 64 77 84 68 81 86 70 83 87 71 84 111 95 108 114 98 111 119 103 116 126 110 123 134 118 131 141 125 138 146 130 143 149 133 144 151 135 146 151 135 145 151 135 145 151 135 145 151 135 145 151 135 145 151 135 145 151 135 145 143 127 137 144 128 138 143 127 137 136 120 130 123 107 117 105 89 99 88 72 82 75 64 72 50 44 54 41 40 48 30 29 37 21 20 28 18 17 25 20 19 27 26 25 33 30 29 37 16 15 23 16 15 23 16 15 23 16 15 23 16 15 23 16 15 23 16 15 23 15 15 23 11 11 21 9 12 21 9 12 21 9 12 21 9 12 21 9 12 21 9 12 21 9 12 21 6 9 18 6 9 18 6 9 18 6 9 18 6 9 18 6 9 18 6 9 18 6 9 18 5 8 17 5 8 17 5 8 17 5 8 17 5 8 17 5 8 17 5 8 17 5 8 17 6 9 18 6 9 18 6 9 18 6 9 18 6 9 18 6 9 18 6 9 18 6 9 16 6 11 17 6 11 15 6 11 15 6 11 15 6 11 15 6 11 15 6 11 15 6 11 15 1 6 10 1 6 10 1 6 10 1 6 10 1 6 10 1 6 10 1 6 10 1 6 9 1 6 9 1 7 7 1 7 7 1 7 7 1 7 7 1 7 7 1 7 7 1 7 7 8 14 14 10 16 16 15 21 21 22 28 28 28 34 34 35 41 41 40 46 46 42 48 46 52 56 55 54 59 55 59 64 60 66 71 67 72 77 73 79 84 80 84 89 85 86 91 87 96 101 97 96 101 97 96 101 97 96 101 97 96 101 97 96 101 97 96 101 97 98 100 97 76 76 74 69 68 66 56 55 53 44 43 41 37 36 34 36 35 33 39 38 36 42 41 39 41 40 38 41 40 38 41 40 38 41 40 38 41 40 38 41 40 38 41 40 38 41 40 38 40 36 37 40 36 37 40 36 37 40 36 37 40 36 37 40 36 37 40 36 37 40 36 37 39 35 36 39 35 36 39 35 36 39 35 36 39 35 36 39 35 36 39 35 36 39 35 36
50 39 56 53 42 59 56 45 62 57 46 63 73 62 79 73 62 79 73 62 79 73 62 79 73 62 79 73 62 79 73 62 79 74 61 78 83 69 84 87 71 84 89 73 86 92 76 89 96 80 93 99 83 96 101 85 98 103 87 100 119 103 116 121 105 118 126 110 123 132 116 129 138 122 135 144 128 141 148 132 145 151 135 146 151 135 146 151 135 145 151 135 145 151 135 145 151 135 145 151 135 145 151 135 145 151 135 145 144 128 138 144 128 138 142 126 136 134 118 128 120 104 114 101 85 95 83 67 77 69 58 66 46 40 50 36 35 43 25 24 32 16 15 23 13 12 20 15 14 22 21 20 28 25 24 32 11 10 18 11 10 18 11 10 18 11 10 18 11 10 18 11 10 18 11 10 18 10 10 18 9 9 19 7 10 19 7 10 19 7 10 19 7 10 19 7 10 19 7 10 19 7 10 19 6 9 18 6 9 18 6 9 18 6 9 18 6 9 18 6 9 18 6 9 18 6 9 18 5 8 17 5 8 17 5 8 17 5 8 17 5 8 17 5 8 17 5 8 17 5 8 17 6 9 18 6 9 18 6 9 18 6 9 18 6 9 18 6 9 18 6 9 18 6 9 16 6 11 17 6 11 15 6 11 15 6 11 15 6 11 15 6 11 15 6 11 15 6 11 15 1 6 10 1 6 10 1 6 10 1 6 10 1 6 10 1 6 10 1 6 10 1 6 9 1 6 9 1 7 7 1 7 7 1 7 7 1 7 7 1 7 7 1 7 7 1 7 7 8 14 14 10 16 16 15 21 21 22 28 28 28 34 34 35 41 41 40 46 46 42 48 46 52 56 55 54 59 55 59 64 60 66 71 67 72 77 73 79 84 80 84 89 85 86 91 87 94 99 95 94 99 95 94 99 95 94 99 95 94 99 95 94 99 95 94 99 95 96 98 95 76 76 74 69 68 66 56 55 53 44 43 41 37 36 34 36 35 33 39 38 36 42 41 39 41 40 38 41 40 38 41 40 38 41 40 38 41 40 38 41 40 38 41 40 38 41 40 38 40 36 37 40 36 37 40 36 37 40 36 37 40 36 37 40 36 37 40 36 37 40 36 37 39 35 36 39 35 36 39 35 36 39 35 36 39 35 36 39 35 36 39 35 36 39 35 36
51 40 57 55 44 61 57 46 63 58 47 64 81 70 87 81 70 87 81 70 87 81 70 87 81 70 87 81 70 87 81 70 87 82 69 86 93 79 94 96 80 93 99 83 96 102 86 99 105 89 102 109 93 106 111 95 108 112 96 109 123 107 120 125 109 122 129 113 126 135 119 132 140 124 137 145 129 142 149 133 146 151 135 146 151 135 146 151 135 145 151 135 145 151 135 145 151 135 145 151 135 145 151 135 145 151 135 145 145 129 139 145 129 139 142 126 136 134 118 128 118 102 112 99 83 93 80 64 74 66 55 63 43 37 47 33 32 40 23 22 30 14 13 21 10 9 17 13 12 20 18 17 25 23 22 30 9 8 16 9 8 16 9 8 16 9 8 16 9 8 16 9 8 16 9 8 16 8 8 16 7 7 17 5 8 17 5 8 17 5 8 17 5 8 17 5 8 17 5 8 17 5 8 17 6 9 18 6 9 18 6 9 18 6 9 18 6 9 18 6 9 18 6 9 18 6 9 18 5 8 17 5 8 17 5 8 17 5 8 17 5 8 17 5 8 17 5 8 17 5 8 17 6 9 18 6 9 18 6 9 18 6 9 18 6 9 18 6 9 18 6 9 18 6 9 16 6 11 17 6 11 15 6 11 15 6 11 15 6 11 15 6 11 15 6 11 15 6 11 15 1 6 10 1 6 10 1 6 10 1 6 10 1 6 10 1 6 10 1 6 10 1 6 9 1 6 9 1 7 7 1 7 7 1 7 7 1 7 7 1 7 7 1 7 7 1 7 7 8 14 14 10 16 16 15 21 21 22 28 28 28 34 34 35 41 41 40 46 46 42 48 46 52 56 55 54 59 55 59 64 60 66 71 67 72 77 73 79 84 80 84 89 85 86 91 87 92 97 93 92 97 93 92 97 93 92 97 93 92 97 93 92 97 93 92 97 93 94 96 93 76 76 74 69 68 66 56 55 53 44 43 41 37 36 34 36 35 33 39 38 36 42 41 39 41 40 38 41 40 38 41 40 38 41 40 38 41 40 38 41 40 38 41 40 38 41 40 38 40 36 37 40 36 37 40 36 37 40 36 37 40 36 37 40 36 37 40 36 37 40 36 37 39 35 36 39 35 36 39 35 36 39 35 36 39 35 36 39 35 36 39 35 36 39 35 36
66 55 72 66 55 72 66 55 72 66 55 72 101 90 107 101 90 107 101 90 107 101 90 107 101 90 107 101 90 107 101 90 107 102 89 106 102 88 103 105 89 102 107 91 104 111 95 108 114 98 111 117 101 114 120 104 117 121 105 118 134 118 131 134 118 131 134 118 131 134 118 131 134 118 131 134 118 131 134 118 131 134 118 129 150 134 145 150 134 144 150 134 144 150 134 144 150 134 144 150 134 144 150 134 144 150 134 144 163 147 157 155 139 149 141 125 135 122 106 116 101 85 95 82 66 76 67 51 61 56 45 53 10 4 14 7 6 14 7 6 14 7 6 14 7 6 14 7 6 14 7 6 14 7 6 14 7 6 14 7 6 14 7 6 14 7 6 14 7 6 14 7 6 14 7 6 14 6 6 14 8 8 18 6 9 18 6 9 18 6 9 18 6 9 18 6 9 18 6 9 18 6 9 18 6 9 18 6 9 18 6 9 18 6 9 18 6 9 18 6 9 18 6 9 18 6 9 18 5 8 17 5 8 17 5 8 17 5 8 17 5 8 17 5 8 17 5 8 17 5 8 17 9 12 21 9 12 21 9 12 21 9 12 21 9 12 21 9 12 21 9 12 21 9 12 19 0 5 11 2 7 11 5 10 14 10 15 19 14 19 23 19 24 28 22 27 31 24 29 33 13 18 22 11 16 20 9 14 18 6 11 15 2 7 11 0 4 8 0 2 6 0 1 4 0 5 8 0 6 6 0 6 6 0 6 6 0 6 6 0 6 6 0 6 6 0 6 6 10 16 16 12 18 18 17 23 23 24 30 30 30 36 36 37 43 43 42 48 48 44 50 48 49 53 52 51 56 52 53 58 54 56 61 57 60 65 61 63 68 64 65 70 66 67 72 68 86 91 87 86 91 87 86 91 87 86 91 87 86 91 87 86 91 87 86 91 87 88 90 87 71 71 69 64 63 61 51 50 48 39 38 36 32 31 29 31 30 28 34 33 31 37 36 34 35 34 32 35 34 32 35 34 32 35 34 32 35 34 32 35 34 32 35 34 32 35 34 32 36 32 33 36 32 33 36 32 33 36 32 33 36 32 33 36 32 33 36 32 33 36 32 33 39 35 36 39 35 36 39 35 36 39 35 36 39 35 36 39 35 36 39 35 36 39 35 36
76 65 82 76 65 82 76 65 82 76 65 82 103 92 109 103 92 109 103 92 109 103 92 109 103 92 109 103 92 109 103 92 109 104 91 108 103 89 104 106 90 103 109 93 106 112 96 109 115 99 112 119 103 116 121 105 118 122 106 119 134 118 131 134 118 131 134 118 131 134 118 131 134 118 131 134 118 131 134 118 131 134 118 129 148 132 143 148 132 142 148 132 142 148 132 142 148 132 142 148 132 142 148 132 142 148 132 142 161 145 155 153 137 147 138 122 132 119 103 113 98 82 92 79 63 73 65 49 59 54 43 51 10 4 14 7 6 14 7 6 14 7 6 14 7 6 14 7 6 14 7 6 14 7 6 14 7 6 14 7 6 14 7 6 14 7 6 14 7 6 14 7 6 14 7 6 14 6 6 14 8 8 18 6 9 18 6 9 18 6 9 18 6 9 18 6 9 18 6 9 18 6 9 18 6 9 18 6 9 18 6 9 18 6 9 18 6 9 18 6 9 18 6 9 18 6 9 18 5 8 17 5 8 17 5 8 17 5 8 17 5 8 17 5 8 17 5 8 17 5 8 17 9 12 21 9 12 21 9 12 21 9 12 21 9 12 21 9 12 21 9 12 21 9 12 19 2 7 13 3 8 12 6 11 15 10 15 19 14 19 23 18 23 27 21 26 30 22 27 31 13 18 22 11 16 20 9 14 18 6 11 15 2 7 11 0 4 8 0 2 6 0 1 4 0 5 8 0 6 6 0 6 6 0 6 6 0 6 6 0 6 6 0 6 6 0 6 6 10 16 16 12 18 18 17 23 23 24 30 30 30 36 36 37 43 43 42 48 48 44 50 48 49 53 52 51 56 52 53 58 54 56 61 57 60 65 61 63 68 64 65 70 66 67 72 68 84 89 85 84 89 85 84 89 85 84 89 85 84 89 85 84 89 85 84 89 85 86 88 85 71 71 69 64 63 61 51 50 48 39 38 36 32 31 29 31 30 28 34 33 31 37 36 34 35 34 32 35 34 32 35 34 32 35 34 32 35 34 32 35 34 32 35 34 32 35 34 32 36 32 33 36 32 33 36 32 33 36 32 33 36 32 33 36 32 33 36 32 33 36 32 33 39 35 36 39 35 36 39 35 36 39 35 36 39 35 36 39 35 36 39 35 36 39 35 36
91 80 97 91 80 97 91 80 97 91 80 97 105 94 111 105 94 111 105 94 111 105 94 111 105 94 111 105 94 111 105 94 111 106 93 110 105 91 106 109 93 106 111 95 108 114 98 111 118 102 115 121 105 118 123 107 120 125 109 122 134 118 131 134 118 131 134 118 131 134 118 131 134 118 131 134 118 131 134 118 131 134 118 129 146 130 141 146 130 140 146 130 140 146 130 140 146 130 140 146 130 140 146 130 140 146 130 140 156 140 150 148 132 142 133 117 127 114 98 108 93 77 87 74 58 68 60 44 54 49 38 46 10 4 14 7 6 14 7 6 14 7 6 14 7 6 14 7 6 14 7 6 14 7 6 14 7 6 14 7 6 14 7 6 14 7 6 14 7 6 14 7 6 14 7 6 14 6 6 14 8 8 18 6 9 18 6 9 18 6 9 18 6 9 18 6 9 18 6 9 18 6 9 18 6 9 18 6 9 18 6 9 18 6 9 18 6 9 18 6 9 18 6 9 18 6 9 18 5 8 17 5 8 17 5 8 17 5 8 17 5 8 17 5 8 17 5 8 17 5 8 17 9 12 21 9 12 21 9 12 21 9 12 21 9 12 21 9 12 21 9 12 21 9 12 19 5 10 16 6 11 15 8 13 17 11 16 20 13 18 22 16 21 25 18 23 27 19 24 28 13 18 22 11 16 20 9 14 18 6 11 15 2 7 11 0 4 8 0 2 6 0 1 4 0 5 8 0 6 6 0 6 6 0 6 6 0 6 6 0 6 6 0 6 6 0 6 6 10 16 16 12 18 18 17 23 23 24 30 30 30 36 36 37 43 43 42 48 48 44 50 48 49 53 52 51 56 52 53 58 54 56 61 57 60 65 61 63 68 64 65 70 66 67 72 68 82 87 83 82 87 83 82 87 83 82 87 83 82 87 83 82 87 83 82 87 83 84 86 83 71 71 69 64 63 61 51 50 48 39 38 36 32 31 29 31 30 28 34 33 31 37 36 34 35 34 32 35 34 32 35 34 32 35 34 32 35 34 32 35 34 32 35 34 32 35 34 32 36 32 33 36 32 33 36 32 33 36 32 33 36 32 33 36 32 33 36 32 33 36 32 33 39 35 36 39 35 36 39 35 36 39 35 36 39 35 36 39 35 36 39 35 36 39 35 36
106 95 112 106 95 112 106 95 112 106 95 112 108 97 114 108 97 114 108 97 114 108 97 114 108 97 114 108 97 114 108 97 114 109 96 113 109 95 110 112 96 109 114 98 111 118 102 115 121 105 118 124 108 121 127 111 124 128 112 125 134 118 131 134 118 131 134 118 131 134 118 131 134 118 131 134 118 131 134 118 131 134 118 129 143 127 138 143 127 137 143 127 137 143 127 137 143 127 137 143 127 137 143 127 137 143 127 137 149 133 143 142 126 136 127 111 121 108 92 102 87 71 81 68 52 62 53 37 47 42 31 39 10 4 14 7 6 14 7 6 14 7 6 14 7 6 14 7 6 14 7 6 14 7 6 14 7 6 14 7 6 14 7 6 14 7 6 14 7 6 14 7 6 14 7 6 14 6 6 14 8 8 18 6 9 18 6 9 18 6 9 18 6 9 18 6 9 18 6 9 18 6 9 18 6 9 18 6 9 18 6 9 18 6 9 18 6 9 18 6 9 18 6 9 18 6 9 18 5 8 17 5 8 17 5 8 17 5 8 17 5 8 17 5 8 17 5 8 17 5 8 17 9 12 21 9 12 21 9 12 21 9 12 21 9 12 21 9 12 21 9 12 21 9 12 19 10 15 21 10 15 19 11 16 20 12 17 21 12 17 21 13 18 22 14 19 23 14 19 23 13 18 22 11 16 20 9 14 18 6 11 15 2 7 11 0 4 8 0 2 6 0 1 4 0 5 8 0 6 6 0 6 6 0 6 6 0 6 6 0 6 6 0 6 6 0 6 6 10 16 16 12 18 18 17 23 23 24 30 30 30 36 36 37 43 43 42 48 48 44 50 48 49 53 52 51 56 52 53 58 54 56 61 57 60 65 61 63 68 64 65 70 66 67 72 68 79 84 80 79 84 80 79 84 80 79 84 80 79 84 80 79 84 80 79 84 80 81 83 80 71 71 69 64 63 61 51 50 48 39 38 36 32 31 29 31 30 28 34 33 31 37 36 34 35 34 32 35 34 32 35 34 32 35 34 32 35 34 32 35 34 32 35 34 32 35 34 32 36 32 33 36 32 33 36 32 33 36 32 33 36 32 33 36 32 33 36 32 33 36 32 33 39 35 36 39 35 36 39 35 36 39 35 36 39 35 36 39 35 36 39 35 36 39 35 36
117 106 123 117 106 123 117 106 123 117 106 123 112 101 118 112 101 118 112 101 118 112 101 118 112 101 118 112 101 118 112 101 118 113 100 117 112 98 113 115 99 112 118 102 115 121 105 118 124 108 121 128 112 125 130 114 127 131 115 128 134 118 131 134 118 131 134 118 131 134 118 131 134 118 131 134 118 131 134 118 131 134 118 129 139 123 134 139 123 133 139 123 133 139 123 133 139 123 133 139 123 133 139 123 133 139 123 133 143 127 137 135 119 129 120 104 114 101 85 95 80 64 74 61 45 55 46 30 40 36 25 33 10 4 14 7 6 14 7 6 14 7 6 14 7 6 14 7 6 14 7 6 14 7 6 14 7 6 14 7 6 14 7 6 14 7 6 14 7 6 14 7 6 14 7 6 14 6 6 14 8 8 18 6 9 18 6 9 18 6 9 18 6 9 18 6 9 18 6 9 18 6 9 18 6 9 18 6 9 18 6 9 18 6 9 18 6 9 18 6 9 18 6 9 18 6 9 18 5 8 17 5 8 17 5 8 17 5 8 17 5 8 17 5 8 17 5 8 17 5 8 17 9 12 21 9 12 21 9 12 21 9 12 21 9 12 21 9 12 21 9 12 21 9 12 19 14 19 25 14 19 23 13 18 22 12 17 21 12 17 21 11 16 20 10 15 19 10 15 19 13 18 22 11 16 20 9 14 18 6 11 15 2 7 11 0 4 8 0 2 6 0 1 4 0 5 8 0 6 6 0 6 6 0 6 6 0 6 6 0 6 6 0 6 6 0 6 6 10 16 16 12 18 18 17 23 23 24 30 30 30 36 36 37 43 43 42 48 48 44 50 48 49 53 52 51 56 52 53 58 54 56 61 57 60 65 61 63 68 64 65 70 66 67 72 68 75 80 76 75 80 76 75 80 76 75 80 76 75 80 76 75 80 76 75 80 76 77 79 76 71 71 69 64 63 61 51 50 48 39 38 36 32 31 29 31 30 28 34 33 31 37 36 34 35 34 32 35 34 32 35 34 32 35 34 32 35 34 32 35 34 32 35 34 32 35 34 32 36 32 33 36 32 33 36 32 33 36 32 33 36 32 33 36 32 33 36 32 33 36 32 33 39 35 36 39 35 36 39 35 36 39 35 36 39 35 36 39 35 36 39 35 36 39 35 36
121 110 127 121 110 127 121 110 127 121 110 127 115 104 121 115 104 121 115 104 121 115 104 121 115 104 121 115 104 121 115 104 121 116 103 120 115 101 116 119 103 116 121 105 118 124 108 121 128 112 125 131 115 128 133 117 130 135 119 132 134 118 131 134 118 131 134 118 131 134 118 131 134 118 131 134 118 131 134 118 131 134 118 129 136 120 131 136 120 130 136 120 130 136 120 130 136 120 130 136 120 130 136 120 130 136 120 130 136 120 130 128 112 122 114 98 108 95 79 89 74 58 68 55 39 49 40 24 34 29 18 26 10 4 14 7 6 14 7 6 14 7 6 14 7 6 14 7 6 14 7 6 14 7 6 14 7 6 14 7 6 14 7 6 14 7 6 14 7 6 14 7 6 14 7 6 14 6 6 14 8 8 18 6 9 18 6 9 18 6 9 18 6 9 18 6 9 18 6 9 18 6 9 18 6 9 18 6 9 18 6 9 18 6 9 18 6 9 18 6 9 18 6 9 18 6 9 18 5 8 17 5 8 17 5 8 17 5 8 17 5 8 17 5 8 17 5 8 17 5 8 17 9 12 21 9 12 21 9 12 21 9 12 21 9 12 21 9 12 21 9 12 21 9 12 19 19 24 30 18 23 27 16 21 25 13 18 22 11 16 20 8 13 17 6 11 15 5 10 14 13 18 22 11 16 20 9 14 18 6 11 15 2 7 11 0 4 8 0 2 6 0 1 4 0 5 8 0 6 6 0 6 6 0 6 6 0 6 6 0 6 6 0 6 6 0 6 6 10 16 16 12 18 18 17 23 23 24 30 30 30 36 36 37 43 43 42 48 48 44 50 48 49 53 52 51 56 52 53 58 54 56 61 57 60 65 61 63 68 64 65 70 66 67 72 68 72 77 73 72 77 73 72 77 73 72 77 73 72 77 73 72 77 73 72 77 73 74 76 73 71 71 69 64 63 61 51 50 48 39 38 36 32 31 29 31 30 28 34 33 31 37 36 34 35 34 32 35 34 32 35 34 32 35 34 32 35 34 32 35 34 32 35 34 32 35 34 32 36 32 33 36 32 33 36 32 33 36 32 33 36 32 33 36 32 33 36 32 33 36 32 33 39 35 36 39 35 36 39 35 36 39 35 36 39 35 36 39 35 36 39 35 36 39 35 36
120 109 126 120 109 126 120 109 126 120 109 126 117 106 123 117 106 123 117 106 123 117 106 123 117 106 123 117 106 123 117 106 123 118 105 122 118 104 119 121 105 118 123 107 120 127 111 124 130 114 127 133 117 130 136 120 133 137 121 134 134 118 131 134 118 131 134 118 131 134 118 131 134 118 131 134 118 131 134 118 131 134 118 129 134 118 129 134 118 128 134 118 128 134 118 128 134 118 128 134 118 128 134 118 128 134 118 128 131 115 125 123 107 117 109 93 103 90 74 84 69 53 63 50 34 44 35 19 29 24 13 21 10 4 14 7 6 14 7 6 14 7 6 14 7 6 14 7 6 14 7 6 14 7 6 14 7 6 14 7 6 14 7 6 14 7 6 14 7 6 14 7 6 14 7 6 14 6 6 14 8 8 18 6 9 18 6 9 18 6 9 18 6 9 18 6 9 18 6 9 18 6 9 18 6 9 18 6 9 18 6 9 18 6 9 18 6 9 18 6 9 18 6 9 18 6 9 18 5 8 17 5 8 17 5 8 17 5 8 17 5 8 17 5 8 17 5 8 17 5 8 17 9 12 21 9 12 21 9 12 21 9 12 21 9 12 21 9 12 21 9 12 21 9 12 19 22 27 33 21 26 30 18 23 27 14 19 23 10 15 19 6 11 15 3 8 12 2 7 11 13 18 22 11 16 20 9 14 18 6 11 15 2 7 11 0 4 8 0 2 6 0 1 4 0 5 8 0 6 6 0 6 6 0 6 6 0 6 6 0 6 6 0 6 6 0 6 6 10 16 16 12 18 18 17 23 23 24 30 30 30 36 36 37 43 43 42 48 48 44 50 48 49 53 52 51 56 52 53 58 54 56 61 57 60 65 61 63 68 64 65 70 66 67 72 68 70 75 71 70 75 71 70 75 71 70 75 71 70 75 71 70 75 71 70 75 71 72 74 71 71 71 69 64 63 61 51 50 48 39 38 36 32 31 29 31 30 28 34 33 31 37 36 34 35 34 32 35 34 32 35 34 32 35 34 32 35 34 32 35 34 32 35 34 32 35 34 32 36 32 33 36 32 33 36 32 33 36 32 33 36 32 33 36 32 33 36 32 33 36 32 33 39 35 36 39 35 36 39 35 36 39 35 36 39 35 36 39 35 36 39 35 36 39 35 36
119 106 124 118 107 124 119 106 124 118 107 124 120 107 125 119 108 125 120 107 125 119 108 125 120 107 125 119 108 125 120 107 125 120 107 124 121 104 122 122 105 121 125 108 124 128 111 127 131 114 130 135 118 134 137 120 136 138 121 137 134 117 133 134 117 133 134 117 133 134 117 133 134 117 133 134 117 133 134 117 133 134 118 131 132 116 127 130 117 126 132 116 127 130 117 126 132 116 127 130 117 126 132 116 127 130 117 126 129 113 124 119 106 115 106 90 101 85 72 81 66 50 61 45 32 41 33 17 28 22 10 20 8 5 14 6 6 14 7 6 14 6 6 14 7 6 14 6 6 14 7 6 14 6 6 14 7 6 14 6 6 14 7 6 14 6 6 14 7 6 14 6 6 14 7 6 14 6 6 14 6 9 18 5 9 18 6 9 18 5 9 18 6 9 18 5 9 18 6 9 18 5 9 18 6 9 18 5 9 18 6 9 18 5 9 18 6 9 18 5 9 18 6 9 18 5 9 18 5 8 17 4 8 17 5 8 17 4 8 17 5 8 17 4 8 17 5 8 17 4 8 17 9 12 21 8 12 21 9 12 21 8 12 21 9 12 21 8 12 21 9 12 21 8 13 19 24 29 33 22 27 31 19 24 28 14 19 23 10 15 19 5 10 14 2 7 11 0 5 9 13 18 22 11 16 20 9 14 18 6 11 15 2 7 11 0 4 8 0 2 6 0 1 4 0 6 6 0 6 6 0 6 6 0 6 6 0 6 6 0 6 6 0 6 6 0 6 6 10 16 16 12 18 18 17 23 23 24 30 30 30 36 36 37 43 43 42 48 48 44 50 50 49 53 52 51 56 52 53 57 56 56 61 57 60 64 63 63 68 64 65 69 68 67 72 68 68 72 71 68 73 69 68 72 71 68 73 69 68 72 71 68 73 69 68 72 71 70 72 69 71 71 69 64 63 61 51 50 48 39 38 36 32 31 29 31 30 28 34 33 31 37 36 34 35 34 32 35 34 32 35 34 32 35 34 32 35 34 32 35 34 32 35 34 32 35 34 32 36 32 31 36 32 31 36 32 33 36 32 31 36 32 33 36 32 31 36 32 33 36 32 31 39 35 36 39 35 34 39 35 36 39 35 34 39 35 36 39 35 34 39 35 36 39 35 36
121 106 125 120 107 125 121 106 125 120 107 125 121 106 125 120 107 125 121 106 125 120 107 125 121 106 125 120 107 125 121 106 125 121 106 125 123 106 125 124 105 125 124 105 125 124 105 125 124 105 125 124 105 125 124 105 125 124 105 125 127 108 128 127 108 128 127 108 128 127 108 128 127 108 128 127 108 128 127 108 128 126 109 127 137 123 136 135 123 133 134 120 133 129 117 127 127 113 126 123 111 121 121 107 120 119 107 117 119 105 118 105 93 103 85 71 84 61 49 59 43 29 42 31 19 29 27 13 26 23 13 24 6 5 13 3 6 15 5 5 15 3 6 15 5 5 15 3 6 15 5 5 15 3 6 15 4 4 14 2 5 14 4 4 14 2 5 14 4 4 14 2 5 14 4 4 14 2 5 14 4 9 15 2 9 15 4 9 15 2 9 15 4 9 15 2 9 15 4 9 15 2 9 15 5 10 16 3 10 16 5 10 16 3 10 16 5 10 16 3 10 16 5 10 16 3 10 16 7 12 18 5 12 18 7 12 18 5 12 18 7 12 18 5 12 18 7 12 18 5 12 18 0 3 9 0 4 10 2 7 13 3 10 16 8 13 19 10 17 23 14 19 25 15 20 26 35 40 44 33 38 41 31 36 39 28 33 36 24 29 32 21 26 29 19 24 27 17 22 25 3 8 11 3 8 11 3 8 11 3 8 11 3 8 11 3 8 11 3 8 11 3 8 11 3 9 9 3 9 9 3 9 9 3 9 9 3 9 9 3 9 9 3 9 9 3 9 9 18 24 24 20 26 26 22 28 28 25 31 31 29 35 35 32 38 38 34 40 40 36 42 42 40 44 45 42 46 45 44 48 49 47 51 50 51 55 56 54 58 57 56 60 61 58 62 61 68 72 73 68 72 71 68 72 73 68 72 71 68 72 73 68 72 71 68 72 73 70 72 71 50 49 47 50 46 43 48 44 41 45 41 38 41 37 34 38 34 31 36 32 29 34 30 27 35 31 28 35 31 28 35 31 28 35 31 28 35 31 28 35 31 28 35 31 28 35 31 28 37 32 29 37 32 29 37 31 31 37 32 29 37 31 31 37 32 29 37 31 31 37 32 29 38 32 32 38 33 30 38 32 32 38 33 30 38 32 32 38 33 30 38 32 32 37 33 32
121 106 125 121 106 125 121 106 125 121 106 125 121 106 125 121 106 125 121 106 125 121 106 125 121 106 125 121 106 125 121 106 125 121 106 125 124 105 127 124 105 127 124 105 127 124 105 127 124 105 127 124 105 127 124 105 127 124 105 127 127 108 130 127 108 130 127 108 130 127 108 130 127 108 130 127 108 130 127 108 130 126 109 128 136 122 137 134 122 134 131 119 131 128 116 128 125 113 125 121 109 121 119 107 119 118 106 118 113 101 113 101 89 101 80 68 80 58 46 58 40 28 40 29 17 29 25 13 25 20 12 23 6 4 15 3 6 15 3 6 15 3 6 15 3 6 15 3 6 15 3 6 15 3 6 15 2 5 14 2 5 14 2 5 14 2 5 14 2 5 14 2 5 14 2 5 14 1 5 14 4 9 15 2 9 15 2 9 15 2 9 15 2 9 15 2 9 15 2 9 15 2 9 15 3 10 16 3 10 16 3 10 16 3 10 16 3 10 16 3 10 16 3 10 16 3 10 16 5 12 18 5 12 18 5 12 18 5 12 18 5 12 18 5 12 18 5 12 18 5 12 18 0 6 12 0 7 13 2 9 15 6 13 19 9 16 22 12 19 25 15 22 28 16 24 27 35 40 44 33 38 41 31 36 39 28 33 36 24 29 32 21 26 29 19 24 27 17 22 25 3 8 11 3 8 11 3 8 11 3 8 11 3 8 11 3 8 11 3 8 11 3 8 11 3 9 9 3 9 9 3 9 9 3 9 9 3 9 9 3 9 9 3 9 9 3 9 9 18 24 24 20 26 26 22 28 28 25 31 31 29 35 35 32 38 38 34 40 40 36 42 42 40 44 45 42 46 47 44 48 49 47 51 52 51 55 56 54 58 59 56 60 61 58 62 63 66 70 71 66 70 71 66 70 71 66 70 71 66 70 71 66 70 71 66 70 71 68 70 69 50 49 47 50 46 43 48 44 41 45 41 38 41 37 34 38 34 31 36 32 29 34 30 27 35 31 28 35 31 28 35 31 28 35 31 28 35 31 28 35 31 28 35 31 28 35 31 28 37 32 29 37 32 29 37 32 29 37 32 29 37 32 29 37 32 29 37 32 29 37 32 29 38 33 30 38 33 30 38 33 30 38 33 30 38 33 30 38 33 30 38 33 30 38 33 30
121 106 125 121 106 125 121 106 125 121 106 125 121 106 125 121 106 125 121 106 125 121 106 125 121 106 125 121 106 125 121 106 125 121 106 125 124 105 127 124 105 127 124 105 127 124 105 127 124 105 127 124 105 127 124 105 127 124 105 127 127 108 130 127 108 130 127 108 130 127 108 130 127 108 130 127 108 130 127 108 130 126 109 128 134 120 135 131 119 131 129 117 129 126 114 126 122 110 122 119 107 119 117 105 117 115 103 115 105 93 105 93 81 93 73 61 73 52 40 52 36 24 36 26 14 26 23 11 23 19 11 22 6 4 15 3 6 15 3 6 15 3 6 15 3 6 15 3 6 15 3 6 15 3 6 15 2 5 14 2 5 14 2 5 14 2 5 14 2 5 14 2 5 14 2 5 14 1 5 14 4 9 15 2 9 15 2 9 15 2 9 15 2 9 15 2 9 15 2 9 15 2 9 15 3 10 16 3 10 16 3 10 16 3 10 16 3 10 16 3 10 16 3 10 16 3 10 16 5 12 18 5 12 18 5 12 18 5 12 18 5 12 18 5 12 18 5 12 18 5 12 18 4 11 17 5 12 18 7 14 20 10 17 23 14 21 27 17 24 30 20 27 33 21 29 32 35 40 44 33 38 41 31 36 39 28 33 36 24 29 32 21 26 29 19 24 27 17 22 25 3 8 11 3 8 11 3 8 11 3 8 11 3 8 11 3 8 11 3 8 11 3 8 11 3 9 9 3 9 9 3 9 9 3 9 9 3 9 9 3 9 9 3 9 9 3 9 9 18 24 24 20 26 26 22 28 28 25 31 31 29 35 35 32 38 38 34 40 40 36 42 42 40 44 45 42 46 47 44 48 49 47 51 52 51 55 56 54 58 59 56 60 61 58 62 63 64 68 69 64 68 69 64 68 69 64 68 69 64 68 69 64 68 69 64 68 69 66 68 67 50 49 47 50 46 43 48 44 41 45 41 38 41 37 34 38 34 31 36 32 29 34 30 27 35 31 28 35 31 28 35 31 28 35 31 28 35 31 28 35 31 28 35 31 28 35 31 28 37 32 29 37 32 29 37 32 29 37 32 29 37 32 29 37 32 29 37 32 29 37 32 29 38 33 30 38 33 30 38 33 30 38 33 30 38 33 30 38 33 30 38 33 30 38 33 30
121 106 125 121 106 125 121 106 125 121 106 125 121 106 125 121 106 125 121 106 125 121 106 125 121 106 125 121 106 125 121 106 125 121 106 125 124 105 127 124 105 127 124 105 127 124 105 127 124 105 127 124 105 127 124 105 127 124 105 127 127 108 130 127 108 130 127 108 130 127 108 130 127 108 130 127 108 130 127 108 130 126 109 128 130 116 131 128 116 128 126 114 126 122 110 122 119 107 119 116 104 116 113 101 113 112 100 112 94 82 94 83 71 83 64 52 64 45 33 45 30 18 30 22 10 22 20 8 20 17 9 20 6 4 15 3 6 15 3 6 15 3 6 15 3 6 15 3 6 15 3 6 15 3 6 15 2 5 14 2 5 14 2 5 14 2 5 14 2 5 14 2 5 14 2 5 14 1 5 14 4 9 15 2 9 15 2 9 15 2 9 15 2 9 15 2 9 15 2 9 15 2 9 15 3 10 16 3 10 16 3 10 16 3 10 16 3 10 16 3 10 16 3 10 16 3 10 16 5 12 18 5 12 18 5 12 18 5 12 18 5 12 18 5 12 18 5 12 18 5 12 18 10 17 23 11 18 24 14 21 27 17 24 30 20 27 33 23 30 36 26 33 39 27 35 38 35 40 44 33 38 41 31 36 39 28 33 36 24 29 32 21 26 29 19 24 27 17 22 25 3 8 11 3 8 11 3 8 11 3 8 11 3 8 11 3 8 11 3 8 11 3 8 11 3 9 9 3 9 9 3 9 9 3 9 9 3 9 9 3 9 9 3 9 9 3 9 9 18 24 24 20 26 26 22 28 28 25 31 31 29 35 35 32 38 38 34 40 40 36 42 42 40 44 45 42 46 47 44 48 49 47 51 52 51 55 56 54 58 59 56 60 61 58 62 63 61 65 66 61 65 66 61 65 66 61 65 66 61 65 66 61 65 66 61 65 66 63 65 64 50 49 47 50 46 43 48 44 41 45 41 38 41 37 34 38 34 31 36 32 29 34 30 27 35 31 28 35 31 28 35 31 28 35 31 28 35 31 28 35 31 28 35 31 28 35 31 28 37 32 29 37 32 29 37 32 29 37 32 29 37 32 29 37 32 29 37 32 29 37 32 29 38 33 30 38 33 30 38 33 30 38 33 30 38 33 30 38 33 30 38 33 30 38 33 30
121 106 125 121 106 125 121 106 125 121 106 125 121 106 125 121 106 125 121 106 125 121 106 125 121 106 125 121 106 125 121 106 125 121 106 125 124 105 127 124 105 127 124 105 127 124 105 127 124 105 127 124 105 127 124 105 127 124 105 127 127 108 130 127 108 130 127 108 130 127 108 130 127 108 130 127 108 130 127 108 130 126 109 128 127 113 128 125 113 125 122 110 122 119 107 119 116 104 116 112 100 112 110 98 110 109 97 109 82 70 82 72 60 72 55 43 55 37 25 37 25 13 25 18 6 18 17 5 17 15 7 18 6 4 15 3 6 15 3 6 15 3 6 15 3 6 15 3 6 15 3 6 15 3 6 15 2 5 14 2 5 14 2 5 14 2 5 14 2 5 14 2 5 14 2 5 14 1 5 14 4 9 15 2 9 15 2 9 15 2 9 15 2 9 15 2 9 15 2 9 15 2 9 15 3 10 16 3 10 16 3 10 16 3 10 16 3 10 16 3 10 16 3 10 16 3 10 16 5 12 18 5 12 18 5 12 18 5 12 18 5 12 18 5 12 18 5 12 18 5 12 18 17 24 30 18 25 31 21 28 34 24 31 37 27 34 40 30 37 43 33 40 46 34 42 45 35 40 44 33 38 41 31 36 39 28 33 36 24 29 32 21 26 29 19 24 27 17 22 25 3 8 11 3 8 11 3 8 11 3 8 11 3 8 11 3 8 11 3 8 11 3 8 11 3 9 9 3 9 9 3 9 9 3 9 9 3 9 9 3 9 9 3 9 9 3 9 9 18 24 24 20 26 26 22 28 28 25 31 31 29 35 35 32 38 38 34 40 40 36 42 42 40 44 45 42 46 47 44 48 49 47 51 52 51 55 56 54 58 59 56 60 61 58 62 63 57 61 62 57 61 62 57 61 62 57 61 62 57 61 62 57 61 62 57 61 62 59 61 60 50 49 47 50 46 43 48 44 41 45 41 38 41 37 34 38 34 31 36 32 29 34 30 27 35 31 28 35 31 28 35 31 28 35 31 28 35 31 28 35 31 28 35 31 28 35 31 28 37 32 29 37 32 29 37 32 29 37 32 29 37 32 29 37 32 29 37 32 29 37 32 29 38 33 30 38 33 30 38 33 30 38 33 30 38 33 30 38 33 30 38 33 30 38 33 30
121 106 125 121 106 125 121 106 125 121 106 125 121 106 125 121 106 125 121 106 125 121 106 125 121 106 125 121 106 125 121 106 125 121 106 125 124 105 127 124 105 127 124 105 127 124 105 127 124 105 127 124 105 127 124 105 127 124 105 127 127 108 130 127 108 130 127 108 130 127 108 130 127 108 130 127 108 130 127 108 130 126 109 128 124 110 125 121 109 121 119 107 119 116 104 116 112 100 112 109 97 109 107 95 107 105 93 105 72 60 72 62 50 62 46 34 46 30 18 30 19 7 19 14 2 14 15 3 15 13 5 16 6 4 15 3 6 15 3 6 15 3 6 15 3 6 15 3 6 15 3 6 15 3 6 15 2 5 14 2 5 14 2 5 14 2 5 14 2 5 14 2 5 14 2 5 14 1 5 14 4 9 15 2 9 15 2 9 15 2 9 15 2 9 15 2 9 15 2 9 15 2 9 15 3 10 16 3 10 16 3 10 16 3 10 16 3 10 16 3 10 16 3 10 16 3 10 16 5 12 18 5 12 18 5 12 18 5 12 18 5 12 18 5 12 18 5 12 18 5 12 18 23 30 36 24 31 37 27 34 40 30 37 43 34 41 47 37 44 50 39 46 52 40 48 51 35 40 44 33 38 41 31 36 39 28 33 36 24 29 32 21 26 29 19 24 27 17 22 25 3 8 11 3 8 11 3 8 11 3 8 11 3 8 11 3 8 11 3 8 11 3 8 11 3 9 9 3 9 9 3 9 9 3 9 9 3 9 9 3 9 9 3 9 9 3 9 9 18 24 24 20 26 26 22 28 28 25 31 31 29 35 35 32 38 38 34 40 40 36 42 42 40 44 45 42 46 47 44 48 49 47 51 52 51 55 56 54 58 59 56 60 61 58 62 63 54 58 59 54 58 59 54 58 59 54 58 59 54 58 59 54 58 59 54 58 59 56 58 57 50 49 47 50 46 43 48 44 41 45 41 38 41 37 34 38 34 31 36 32 29 34 30 27 35 31 28 35 31 28 35 31 28 35 31 28 35 31 28 35 31 28 35 31 28 35 31 28 37 32 29 37 32 29 37 32 29 37 32 29 37 32 29 37 32 29 37 32 29 37 32 29 38 33 30 38 33 30 38 33 30 38 33 30 38 33 30 38 33 30 38 33 30 38 33 30
121 106 125 121 106 125 121 106 125 121 106 125 121 106 125 121 106 125 121 106 125 121 106 125 121 106 125 121 106 125 121 106 125 121 106 125 124 105 127 124 105 127 124 105 127 124 105 127 124 105 127 124 105 127 124 105 127 124 105 127 127 108 130 127 108 130 127 108 130 127 108 130 127 108 130 127 108 130 127 108 130 126 109 128 121 107 122 119 107 119 117 105 117 113 101 113 110 98 110 107 95 107 104 92 104 103 91 103 63 51 63 54 42 54 39 27 39 25 13 25 15 3 15 11 0 11 13 1 13 11 3 14 6 4 15 3 6 15 3 6 15 3 6 15 3 6 15 3 6 15 3 6 15 3 6 15 2 5 14 2 5 14 2 5 14 2 5 14 2 5 14 2 5 14 2 5 14 1 5 14 4 9 15 2 9 15 2 9 15 2 9 15 2 9 15 2 9 15 2 9 15 2 9 15 3 10 16 3 10 16 3 10 16 3 10 16 3 10 16 3 10 16 3 10 16 3 10 16 5 12 18 5 12 18 5 12 18 5 12 18 5 12 18 5 12 18 5 12 18 5 12 18 28 35 41 29 36 42 32 39 45 35 42 48 38 45 51 42 49 55 44 51 57 45 53 56 35 40 44 33 38 41 31 36 39 28 33 36 24 29 32 21 26 29 19 24 27 17 22 25 3 8 11 3 8 11 3 8 11 3 8 11 3 8 11 3 8 11 3 8 11 3 8 11 3 9 9 3 9 9 3 9 9 3 9 9 3 9 9 3 9 9 3 9 9 3 9 9 18 24 24 20 26 26 22 28 28 25 31 31 29 35 35 32 38 38 34 40 40 36 42 42 40 44 45 42 46 47 44 48 49 47 51 52 51 55 56 54 58 59 56 60 61 58 62 63 52 56 57 52 56 57 52 56 57 52 56 57 52 56 57 52 56 57 52 56 57 54 56 55 50 49 47 50 46 43 48 44 41 45 41 38 41 37 34 38 34 31 36 32 29 34 30 27 35 31 28 35 31 28 35 31 28 35 31 28 35 31 28 35 31 28 35 31 28 35 31 28 37 32 29 37 32 29 37 32 29 37 32 29 37 32 29 37 32 29 37 32 29 37 32 29 38 33 30 38 33 30 38 33 30 38 33 30 38 33 30 38 33 30 38 33 30 38 33 30
121 106 125 121 106 125 121 106 125 121 106 125 121 106 125 121 106 125 121 106 125 121 106 125 121 106 125 121 106 125 121 106 125 121 106 125 124 105 127 124 105 127 124 105 127 124 105 127 124 105 127 124 105 127 124 105 127 124 105 127 127 108 130 127 108 130 127 108 130 127 108 130 127 108 130 127 108 130 127 108 130 126 109 128 120 106 121 118 106 118 115 103 115 112 100 112 109 97 109 105 93 105 103 91 103 102 90 102 59 47 59 50 38 50 36 24 36 22 10 22 13 1 13 10 0 10 11 0 11 11 3 14 6 4 15 3 6 15 3 6 15 3 6 15 3 6 15 3 6 15 3 6 15 3 6 15 2 5 14 2 5 14 2 5 14 2 5 14 2 5 14 2 5 14 2 5 14 1 5 14 4 9 15 2 9 15 2 9 15 2 9 15 2 9 15 2 9 15 2 9 15 2 9 15 3 10 16 3 10 16 3 10 16 3 10 16 3 10 16 3 10 16 3 10 16 3 10 16 5 12 18 5 12 18 5 12 18 5 12 18 5 12 18 5 12 18 5 12 18 5 12 18 31 38 44 32 39 45 34 41 47 38 45 51 41 48 54 44 51 57 47 54 60 48 56 59 35 40 44 33 38 41 31 36 39 28 33 36 24 29 32 21 26 29 19 24 27 17 22 25 3 8 11 3 8 11 3 8 11 3 8 11 3 8 11 3 8 11 3 8 11 3 8 11 3 9 9 3 9 9 3 9 9 3 9 9 3 9 9 3 9 9 3 9 9 3 9 9 18 24 24 20 26 26 22 28 28 25 31 31 29 35 35 32 38 38 34 40 40 36 42 42 40 44 45 42 46 47 44 48 49 47 51 52 51 55 56 54 58 59 56 60 61 58 62 63 50 54 55 50 54 55 50 54 55 50 54 55 50 54 55 50 54 55 50 54 55 52 54 53 50 49 47 50 46 43 48 44 41 45 41 38 41 37 34 38 34 31 36 32 29 34 30 27 35 31 28 35 31 28 35 31 28 35 31 28 35 31 28 35 31 28 35 31 28 35 31 28 37 32 29 37 32 29 37 32 29 37 32 29 37 32 29 37 32 29 37 32 29 37 32 29 38 33 30 38 33 30 38 33 30 38 33 30 38 33 30 38 33 30 38 33 30 38 33 30
106 91 110 106 91 110 106 91 110 106 91 110 120 105 124 120 105 124 120 105 124 120 105 124 120 105 124 120 105 124 120 105 124 120 105 124 131 112 134 131 112 134 131 112 134 131 112 134 131 112 134 131 112 134 131 112 134 131 112 134 127 108 130 127 108 130 127 108 130 127 108 130 127 108 130 127 108 130 127 108 130 126 109 128 109 95 110 112 100 112 116 104 116 116 104 116 111 99 111 100 88 100 88 76 88 80 68 80 39 27 39 36 24 36 30 18 30 22 10 22 14 2 14 7 0 7 7 0 7 4 0 7 7 5 16 4 7 16 4 7 16 4 7 16 4 7 16 4 7 16 4 7 16 4 7 16 4 7 16 4 7 16 4 7 16 4 7 16 4 7 16 4 7 16 4 7 16 3 7 16 4 9 15 2 9 15 2 9 15 2 9 15 2 9 15 2 9 15 2 9 15 2 9 15 0 5 11 0 7 13 2 9 15 5 12 18 9 16 22 12 19 25 14 21 27 16 23 29 0 1 7 0 4 10 3 10 16 11 18 24 19 26 32 26 33 39 32 39 45 35 42 48 54 61 67 52 59 65 50 57 63 47 54 60 43 50 56 40 47 53 38 45 51 36 44 47 39 44 48 37 42 45 35 40 43 32 37 40 28 33 36 25 30 33 23 28 31 21 26 29 4 9 12 4 9 12 4 9 12 4 9 12 4 9 12 4 9 12 4 9 12 4 9 12 6 12 12 6 12 12 6 12 12 6 12 12 6 12 12 6 12 12 6 12 12 6 12 12 16 22 22 18 24 24 20 26 26 23 29 29 27 33 33 30 36 36 32 38 38 34 40 40 39 43 44 39 43 44 39 43 44 39 43 44 39 43 44 39 43 44 39 43 44 39 43 44 43 47 48 43 47 48 43 47 48 43 47 48 43 47 48 43 47 48 43 47 48 45 47 46 45 44 42 45 41 38 43 39 36 40 36 33 36 32 29 33 29 26 31 27 24 29 25 22 34 30 27 34 30 27 34 30 27 34 30 27 34 30 27 34 30 27 34 30 27 34 30 27 37 32 29 37 32 29 37 32 29 37 32 29 37 32 29 37 32 29 37 32 29 37 32 29 37 32 29 37 32 29 37 32 29 37 32 29 37 32 29 37 32 29 37 32 29 37 32 29
108 93 112 108 93 112 108 93 112 108 93 112 122 107 126 122 107 126 122 107 126 122 107 126 122 107 126 122 107 126 122 107 126 122 107 126 131 112 134 131 112 134 131 112 134 131 112 134 131 112 134 131 112 134 131 112 134 131 112 134 127 108 130 127 108 130 127 108 130 127 108 130 127 108 130 127 108 130 127 108 130 126 109 128 110 96 111 112 100 112 115 103 115 115 103 115 109 97 109 97 85 97 85 73 85 77 65 77 37 25 37 34 22 34 29 17 29 22 10 22 14 2 14 7 0 7 7 0 7 4 0 7 7 5 16 4 7 16 4 7 16 4 7 16 4 7 16 4 7 16 4 7 16 4 7 16 4 7 16 4 7 16 4 7 16 4 7 16 4 7 16 4 7 16 4 7 16 3 7 16 4 9 15 2 9 15 2 9 15 2 9 15 2 9 15 2 9 15 2 9 15 2 9 15 0 5 11 0 7 13 2 9 15 5 12 18 9 16 22 12 19 25 14 21 27 16 23 29 0 5 11 1 8 14 7 14 20 14 21 27 21 28 34 28 35 41 33 40 46 36 43 49 54 61 67 52 59 65 50 57 63 47 54 60 43 50 56 40 47 53 38 45 51 36 44 47 39 44 48 37 42 45 35 40 43 32 37 40 28 33 36 25 30 33 23 28 31 21 26 29 4 9 12 4 9 12 4 9 12 4 9 12 4 9 12 4 9 12 4 9 12 4 9 12 6 12 12 6 12 12 6 12 12 6 12 12 6 12 12 6 12 12 6 12 12 6 12 12 16 22 22 18 24 24 20 26 26 23 29 29 27 33 33 30 36 36 32 38 38 34 40 40 39 43 44 39 43 44 39 43 44 39 43 44 39 43 44 39 43 44 39 43 44 39 43 44 43 47 48 43 47 48 43 47 48 43 47 48 43 47 48 43 47 48 43 47 48 45 47 46 45 44 42 45 41 38 43 39 36 40 36 33 36 32 29 33 29 26 31 27 24 29 25 22 34 30 27 34 30 27 34 30 27 34 30 27 34 30 27 34 30 27 34 30 27 34 30 27 37 32 29 37 32 29 37 32 29 37 32 29 37 32 29 37 32 29 37 32 29 37 32 29 37 32 29 37 32 29 37 32 29 37 32 29 37 32 29 37 32 29 37 32 29 37 32 29
113 98 117 113 98 117 113 98 117 113 98 117 124 109 128 124 109 128 124 109 128 124 109 128 124 109 128 124 109 128 124 109 128 124 109 128 131 112 134 131 112 134 131 112 134 131 112 134 131 112 134 131 112 134 131 112 134 131 112 134 127 108 130 127 108 130 127 108 130 127 108 130 127 108 130 127 108 130 127 108 130 126 109 128 110 96 111 112 100 112 115 103 115 113 101 113 106 94 106 93 81 93 80 68 80 71 59 71 33 21 33 31 19 31 27 15 27 21 9 21 15 3 15 9 0 9 7 0 7 4 0 7 7 5 16 4 7 16 4 7 16 4 7 16 4 7 16 4 7 16 4 7 16 4 7 16 4 7 16 4 7 16 4 7 16 4 7 16 4 7 16 4 7 16 4 7 16 3 7 16 4 9 15 2 9 15 2 9 15 2 9 15 2 9 15 2 9 15 2 9 15 2 9 15 0 5 11 0 7 13 2 9 15 5 12 18 9 16 22 12 19 25 14 21 27 16 23 29 7 14 20 9 16 22 13 20 26 19 26 32 25 32 38 31 38 44 35 42 48 38 45 51 54 61 67 52 59 65 50 57 63 47 54 60 43 50 56 40 47 53 38 45 51 36 44 47 39 44 48 37 42 45 35 40 43 32 37 40 28 33 36 25 30 33 23 28 31 21 26 29 4 9 12 4 9 12 4 9 12 4 9 12 4 9 12 4 9 12 4 9 12 4 9 12 6 12 12 6 12 12 6 12 12 6 12 12 6 12 12 6 12 12 6 12 12 6 12 12 16 22 22 18 24 24 20 26 26 23 29 29 27 33 33 30 36 36 32 38 38 34 40 40 39 43 44 39 43 44 39 43 44 39 43 44 39 43 44 39 43 44 39 43 44 39 43 44 43 47 48 43 47 48 43 47 48 43 47 48 43 47 48 43 47 48 43 47 48 45 47 46 45 44 42 45 41 38 43 39 36 40 36 33 36 32 29 33 29 26 31 27 24 29 25 22 34 30 27 34 30 27 34 30 27 34 30 27 34 30 27 34 30 27 34 30 27 34 30 27 37 32 29 37 32 29 37 32 29 37 32 29 37 32 29 37 32 29 37 32 29 37 32 29 37 32 29 37 32 29 37 32 29 37 32 29 37 32 29 37 32 29 37 32 29 37 32 29
120 105 124 120 105 124 120 105 124 120 105 124 127 112 131 127 112 131 127 112 131 127 112 131 127 112 131 127 112 131 127 112 131 127 112 131 131 112 134 131 112 134 131 112 134 131 112 134 131 112 134 131 112 134 131 112 134 131 112 134 127 108 130 127 108 130 127 108 130 127 108 130 127 108 130 127 108 130 127 108 130 126 109 128 112 98 113 113 101 113 114 102 114 111 99 111 102 90 102 87 75 87 73 61 73 63 51 63 29 17 29 27 15 27 24 12 24 20 8 20 16 4 16 12 0 12 9 0 9 4 0 7 7 5 16 4 7 16 4 7 16 4 7 16 4 7 16 4 7 16 4 7 16 4 7 16 4 7 16 4 7 16 4 7 16 4 7 16 4 7 16 4 7 16 4 7 16 3 7 16 4 9 15 2 9 15 2 9 15 2 9 15 2 9 15 2 9 15 2 9 15 2 9 15 0 5 11 0 7 13 2 9 15 5 12 18 9 16 22 12 19 25 14 21 27 16 23 29 18 25 31 19 26 32 22 29 35 26 33 39 31 38 44 35 42 48 38 45 51 40 47 53 54 61 67 52 59 65 50 57 63 47 54 60 43 50 56 40 47 53 38 45 51 36 44 47 39 44 48 37 42 45 35 40 43 32 37 40 28 33 36 25 30 33 23 28 31 21 26 29 4 9 12 4 9 12 4 9 12 4 9 12 4 9 12 4 9 12 4 9 12 4 9 12 6 12 12 6 12 12 6 12 12 6 12 12 6 12 12 6 12 12 6 12 12 6 12 12 16 22 22 18 24 24 20 26 26 23 29 29 27 33 33 30 36 36 32 38 38 34 40 40 39 43 44 39 43 44 39 43 44 39 43 44 39 43 44 39 43 44 39 43 44 39 43 44 43 47 48 43 47 48 43 47 48 43 47 48 43 47 48 43 47 48 43 47 48 45 47 46 45 44 42 45 41 38 43 39 36 40 36 33 36 32 29 33 29 26 31 27 24 29 25 22 34 30 27 34 30 27 34 30 27 34 30 27 34 30 27 34 30 27 34 30 27 34 30 27 37 32 29 37 32 29 37 32 29 37 32 29 37 32 29 37 32 29 37 32 29 37 32 29 37 32 29 37 32 29 37 32 29 37 32 29 37 32 29 37 32 29 37 32 29 37 32 29
126 111 130 126 111 130 126 111 130 126 111 130 131 116 135 131 116 135 131 116 135 131 116 135 131 116 135 131 116 135 131 116 135 131 116 135 131 112 134 131 112 134 131 112 134 131 112 134 131 112 134 131 112 134 131 112 134 131 112 134 127 108 130 127 108 130 127 108 130 127 108 130 127 108 130 127 108 130 127 108 130 126 109 128 113 99 114 113 101 113 113 101 113 109 97 109 97 85 97 81 69 81 65 53 65 55 43 55 24 12 24 23 11 23 22 10 22 19 7 19 17 5 17 14 2 14 13 1 13 9 1 12 7 5 16 4 7 16 4 7 16 4 7 16 4 7 16 4 7 16 4 7 16 4 7 16 4 7 16 4 7 16 4 7 16 4 7 16 4 7 16 4 7 16 4 7 16 3 7 16 4 9 15 2 9 15 2 9 15 2 9 15 2 9 15 2 9 15 2 9 15 2 9 15 0 5 11 0 7 13 2 9 15 5 12 18 9 16 22 12 19 25 14 21 27 16 23 29 29 36 42 30 37 43 32 39 45 34 41 47 37 44 50 39 46 52 41 48 54 42 49 55 54 61 67 52 59 65 50 57 63 47 54 60 43 50 56 40 47 53 38 45 51 36 44 47 39 44 48 37 42 45 35 40 43 32 37 40 28 33 36 25 30 33 23 28 31 21 26 29 4 9 12 4 9 12 4 9 12 4 9 12 4 9 12 4 9 12 4 9 12 4 9 12 6 12 12 6 12 12 6 12 12 6 12 12 6 12 12 6 12 12 6 12 12 6 12 12 16 22 22 18 24 24 20 26 26 23 29 29 27 33 33 30 36 36 32 38 38 34 40 40 39 43 44 39 43 44 39 43 44 39 43 44 39 43 44 39 43 44 39 43 44 39 43 44 43 47 48 43 47 48 43 47 48 43 47 48 43 47 48 43 47 48 43 47 48 45 47 46 45 44 42 45 41 38 43 39 36 40 36 33 36 32 29 33 29 26 31 27 24 29 25 22 34 30 27 34 30 27 34 30 27 34 30 27 34 30 27 34 30 27 34 30 27 34 30 27 37 32 29 37 32 29 37 32 29 37 32 29 37 32 29 37 32 29 37 32 29 37 32 29 37 32 29 37 32 29 37 32 29 37 32 29 37 32 29 37 32 29 37 32 29 37 32 29
133 118 137 133 118 137 133 118 137 133 118 137 134 119 138 134 119 138 134 119 138 134 119 138 134 119 138 134 119 138 134 119 138 134 119 138 131 112 134 131 112 134 131 112 134 131 112 134 131 112 134 131 112 134 131 112 134 131 112 134 127 108 130 127 108 130 127 108 130 127 108 130 127 108 130 127 108 130 127 108 130 126 109 128 114 100 115 114 102 114 113 101 113 106 94 106 93 81 93 75 63 75 58 46 58 48 36 48 20 8 20 20 8 20 19 7 19 18 6 18 18 6 18 17 5 17 16 4 16 13 5 16 7 5 16 4 7 16 4 7 16 4 7 16 4 7 16 4 7 16 4 7 16 4 7 16 4 7 16 4 7 16 4 7 16 4 7 16 4 7 16 4 7 16 4 7 16 3 7 16 4 9 15 2 9 15 2 9 15 2 9 15 2 9 15 2 9 15 2 9 15 2 9 15 0 5 11 0 7 13 2 9 15 5 12 18 9 16 22 12 19 25 14 21 27 16 23 29 40 47 53 40 47 53 41 48 54 41 48 54 42 49 55 43 50 56 43 50 56 44 51 57 54 61 67 52 59 65 50 57 63 47 54 60 43 50 56 40 47 53 38 45 51 36 44 47 39 44 48 37 42 45 35 40 43 32 37 40 28 33 36 25 30 33 23 28 31 21 26 29 4 9 12 4 9 12 4 9 12 4 9 12 4 9 12 4 9 12 4 9 12 4 9 12 6 12 12 6 12 12 6 12 12 6 12 12 6 12 12 6 12 12 6 12 12 6 12 12 16 22 22 18 24 24 20 26 26 23 29 29 27 33 33 30 36 36 32 38 38 34 40 40 39 43 44 39 43 44 39 43 44 39 43 44 39 43 44 39 43 44 39 43 44 39 43 44 43 47 48 43 47 48 43 47 48 43 47 48 43 47 48 43 47 48 43 47 48 45 47 46 45 44 42 45 41 38 43 39 36 40 36 33 36 32 29 33 29 26 31 27 24 29 25 22 34 30 27 34 30 27 34 30 27 34 30 27 34 30 27 34 30 27 34 30 27 34 30 27 37 32 29 37 32 29 37 32 29 37 32 29 37 32 29 37 32 29 37 32 29 37 32 29 37 32 29 37 32 29 37 32 29 37 32 29 37 32 29 37 32 29 37 32 29 37 32 29
138 123 142 138 123 142 138 123 142 138 123 142 136 121 140 136 121 140 136 121 140 136 121 140 136 121 140 136 121 140 136 121 140 136 121 140 131 112 134 131 112 134 131 112 134 131 112 134 131 112 134 131 112 134 131 112 134 131 112 134 127 108 130 127 108 130 127 108 130 127 108 130 127 108 130 127 108 130 127 108 130 126 109 128 115 101 116 114 102 114 112 100 112 104 92 104 90 78 90 71 59 71 53 41 53 42 30 42 16 4 16 17 5 17 17 5 17 18 6 18 18 6 18 19 7 19 19 7 19 17 9 20 7 5 16 4 7 16 4 7 16 4 7 16 4 7 16 4 7 16 4 7 16 4 7 16 4 7 16 4 7 16 4 7 16 4 7 16 4 7 16 4 7 16 4 7 16 3 7 16 4 9 15 2 9 15 2 9 15 2 9 15 2 9 15 2 9 15 2 9 15 2 9 15 0 5 11 0 7 13 2 9 15 5 12 18 9 16 22 12 19 25 14 21 27 16 23 29 48 55 61 48 55 61 48 55 61 47 54 60 46 53 59 46 53 59 45 52 58 45 52 58 54 61 67 52 59 65 50 57 63 47 54 60 43 50 56 40 47 53 38 45 51 36 44 47 39 44 48 37 42 45 35 40 43 32 37 40 28 33 36 25 30 33 23 28 31 21 26 29 4 9 12 4 9 12 4 9 12 4 9 12 4 9 12 4 9 12 4 9 12 4 9 12 6 12 12 6 12 12 6 12 12 6 12 12 6 12 12 6 12 12 6 12 12 6 12 12 16 22 22 18 24 24 20 26 26 23 29 29 27 33 33 30 36 36 32 38 38 34 40 40 39 43 44 39 43 44 39 43 44 39 43 44 39 43 44 39 43 44 39 43 44 39 43 44 43 47 48 43 47 48 43 47 48 43 47 48 43 47 48 43 47 48 43 47 48 45 47 46 45 44 42 45 41 38 43 39 36 40 36 33 36 32 29 33 29 26 31 27 24 29 25 22 34 30 27 34 30 27 34 30 27 34 30 27 34 30 27 34 30 27 34 30 27 34 30 27 37 32 29 37 32 29 37 32 29 37 32 29 37 32 29 37 32 29 37 32 29 37 32 29 37 32 29 37 32 29 37 32 29 37 32 29 37 32 29 37 32 29 37 32 29 37 32 29
140 125 144 139 126 144 140 125 144 139 126 144 138 123 142 137 124 142 138 123 142 137 124 142 138 123 142 137 124 142 138 123 142 138 123 142 128 113 132 130 113 132 130 113 132 130 113 132 130 113 132 130 113 132 130 113 132 130 113 132 126 109 128 126 109 128 126 109 128 126 109 128 126 109 128 126 109 128 126 109 128 124 110 127 115 103 117 114 104 115 111 101 112 103 93 104 87 77 88 68 58 69 49 39 50 38 28 39 14 4 15 14 4 15 15 5 16 16 6 17 18 8 19 19 9 20 20 10 21 17 11 21 7 5 16 4 7 16 4 7 16 4 7 16 4 7 16 4 7 16 4 7 16 4 7 16 4 7 16 4 7 16 4 7 16 4 7 16 4 7 16 4 7 16 4 7 16 3 7 16 4 9 15 2 9 15 2 9 15 2 9 15 2 9 15 2 9 15 2 9 15 2 9 15 0 5 11 0 7 13 2 9 15 5 12 18 9 16 22 12 19 25 14 21 27 16 23 29 53 60 66 52 59 65 51 58 64 50 57 63 49 56 62 47 54 60 47 54 60 46 53 59 54 61 67 52 59 65 50 57 63 47 54 60 43 50 56 40 47 53 38 45 51 36 44 47 39 44 48 37 42 45 35 40 43 32 37 40 28 33 36 25 30 33 23 28 31 21 26 29 4 9 12 4 9 12 4 9 12 4 9 12 4 9 12 4 9 12 4 9 12 4 9 12 6 11 14 6 12 12 6 11 14 6 12 12 6 11 14 6 12 12 6 11 14 6 12 12 16 21 24 18 24 24 20 25 28 23 29 29 27 32 35 30 36 36 32 37 40 34 40 40 39 43 44 39 43 44 39 43 44 39 43 44 39 43 44 39 43 44 39 43 44 39 43 44 43 47 48 43 47 48 43 47 48 43 47 48 43 47 48 43 47 48 43 47 48 45 47 46 45 44 42 45 41 38 43 39 36 40 36 33 36 32 29 33 29 26 31 27 24 29 25 22 34 30 27 34 30 27 34 30 27 34 30 27 34 30 27 34 30 27 34 30 27 34 30 27 37 32 29 37 32 29 37 32 29 37 32 29 37 32 29 37 32 29 37 32 29 37 32 29 37 32 29 37 32 29 37 32 29 37 32 29 37 32 29 37 32 29 37 32 29 37 32 29
142 129 147 141 130 147 142 129 147 141 130 147 141 128 146 139 128 145 137 124 142 133 122 139 131 118 136 126 115 132 125 112 130 123 112 129 135 124 140 133 122 138 131 120 136 128 117 133 124 113 129 121 110 126 119 108 124 117 106 122 112 101 117 113 102 118 115 104 120 118 107 123 120 109 125 123 112 128 125 114 130 126 115 129 107 99 112 100 94 106 88 82 94 73 67 79 56 50 62 41 35 47 30 24 36 23 17 29 7 1 13 7 1 13 7 1 13 7 1 13 7 1 13 7 1 13 7 1 13 5 2 13 4 4 14 2 5 14 2 5 14 2 5 14 2 5 14 2 5 14 2 5 14 2 5 14 4 7 16 4 7 16 4 7 16 4 7 16 4 7 16 4 7 16 4 7 16 3 7 16 0 1 7 0 1 7 0 1 7 0 4 10 0 7 13 4 11 17 6 13 19 7 14 20 26 33 39 27 34 40 29 36 42 33 40 46 36 43 49 39 46 52 42 49 55 43 50 56 55 63 66 55 63 66 55 63 66 55 63 66 55 63 66 55 63 66 55 63 66 55 63 66 39 47 50 39 47 50 39 47 50 39 47 50 39 47 50 39 47 50 39 47 50 39 47 50 38 46 49 35 43 46 30 38 41 24 32 35 17 25 28 11 19 22 6 14 17 3 11 14 16 24 27 14 22 25 12 20 23 9 17 20 5 13 16 2 10 13 0 8 11 0 6 9 6 14 17 6 14 16 6 14 17 6 14 16 6 14 17 6 14 16 6 14 17 6 14 16 19 27 30 19 27 29 19 27 30 19 27 29 19 27 30 19 27 29 19 27 30 21 26 29 28 32 33 28 32 33 28 32 33 28 32 33 28 32 33 28 32 33 28 32 33 28 32 33 30 34 35 30 34 35 30 34 35 30 34 35 30 34 35 30 34 35 30 34 35 32 34 33 33 29 28 34 29 26 34 29 26 34 29 26 34 29 26 34 29 26 34 29 26 34 29 26 35 30 27 35 30 27 35 30 27 35 30 27 35 30 27 35 30 27 35 30 27 35 30 27 37 29 27 37 29 27 37 29 27 37 29 27 37 29 27 37 29 27 37 29 27 37 29 27 38 30 28 38 30 28 38 30 28 38 30 28 38 30 28 38 30 28 38 30 28 38 30 28
139 128 145 139 128 145 139 128 145 139 128 145 137 126 143 136 125 142 134 123 140 130 119 136 127 116 133 124 113 130 121 110 127 120 109 125 121 113 128 119 111 124 117 109 122 114 106 119 110 102 115 107 99 112 105 97 110 103 95 108 111 103 116 111 103 116 110 102 115 110 102 115 109 101 114 108 100 113 107 99 112 106 100 112 93 87 99 85 82 93 74 71 82 61 58 69 46 43 54 32 29 40 21 18 29 15 12 23 5 2 13 5 2 13 5 2 13 5 2 13 5 2 13 5 2 13 5 2 13 4 2 13 4 4 14 2 5 14 2 5 14 2 5 14 2 5 14 2 5 14 2 5 14 2 5 14 4 7 16 4 7 16 4 7 16 4 7 16 4 7 16 4 7 16 4 7 16 3 7 16 0 1 7 0 1 7 0 3 9 0 7 13 3 10 16 6 13 19 9 16 22 10 17 23 27 34 40 28 35 41 31 38 44 34 41 47 37 44 50 41 48 54 43 50 56 44 51 57 55 63 66 55 63 66 55 63 66 55 63 66 55 63 66 55 63 66 55 63 66 55 63 66 41 49 52 41 49 52 41 49 52 41 49 52 41 49 52 41 49 52 41 49 52 41 49 52 39 47 50 36 44 47 31 39 42 25 33 36 18 26 29 12 20 23 7 15 18 4 12 15 16 24 27 14 22 25 12 20 23 9 17 20 5 13 16 2 10 13 0 8 11 0 6 9 6 14 17 6 14 17 6 14 17 6 14 17 6 14 17 6 14 17 6 14 17 6 14 17 19 27 30 19 27 30 19 27 30 19 27 30 19 27 30 19 27 30 19 27 30 19 27 29 28 32 35 28 32 33 28 32 33 28 32 33 28 32 33 28 32 33 28 32 33 28 32 33 30 34 35 30 34 35 30 34 35 30 34 35 30 34 35 30 34 35 30 34 35 32 34 33 33 29 28 34 29 26 34 29 26 34 29 26 34 29 26 34 29 26 34 29 26 34 29 26 35 30 27 35 30 27 35 30 27 35 30 27 35 30 27 35 30 27 35 30 27 35 30 27 37 29 27 37 29 27 37 29 27 37 29 27 37 29 27 37 29 27 37 29 27 37 29 27 38 30 28 38 30 28 38 30 28 38 30 28 38 30 28 38 30 28 38 30 28 38 30 28
134 123 140 134 123 140 134 123 140 134 123 140 132 121 138 131 120 137 129 118 135 126 115 132 122 111 128 119 108 125 116 105 122 115 104 120 110 102 117 108 100 113 106 98 111 103 95 108 99 91 104 96 88 101 93 85 98 92 84 97 110 102 115 107 99 112 103 95 108 97 89 102 91 83 96 86 78 91 82 74 87 78 72 84 71 65 77 64 61 72 55 52 63 44 41 52 32 29 40 20 17 28 12 9 20 7 4 15 5 2 13 5 2 13 5 2 13 5 2 13 5 2 13 5 2 13 5 2 13 4 2 13 4 4 14 2 5 14 2 5 14 2 5 14 2 5 14 2 5 14 2 5 14 2 5 14 4 7 16 4 7 16 4 7 16 4 7 16 4 7 16 4 7 16 4 7 16 3 7 16 0 5 11 0 6 12 1 8 14 4 11 17 8 15 21 11 18 24 14 21 27 15 22 28 29 36 42 31 38 44 33 40 46 36 43 49 40 47 53 43 50 56 45 52 58 47 54 60 55 63 66 55 63 66 55 63 66 55 63 66 55 63 66 55 63 66 55 63 66 55 63 66 43 51 54 43 51 54 43 51 54 43 51 54 43 51 54 43 51 54 43 51 54 43 51 54 41 49 52 39 47 50 34 42 45 28 36 39 21 29 32 14 22 25 9 17 20 7 15 18 16 24 27 14 22 25 12 20 23 9 17 20 5 13 16 2 10 13 0 8 11 0 6 9 6 14 17 6 14 17 6 14 17 6 14 17 6 14 17 6 14 17 6 14 17 6 14 17 19 27 30 19 27 30 19 27 30 19 27 30 19 27 30 19 27 30 19 27 30 19 27 29 28 32 35 28 32 33 28 32 33 28 32 33 28 32 33 28 32 33 28 32 33 28 32 33 30 34 35 30 34 35 30 34 35 30 34 35 30 34 35 30 34 35 30 34 35 32 34 33 33 29 28 34 29 26 34 29 26 34 29 26 34 29 26 34 29 26 34 29 26 34 29 26 35 30 27 35 30 27 35 30 27 35 30 27 35 30 27 35 30 27 35 30 27 35 30 27 37 29 27 37 29 27 37 29 27 37 29 27 37 29 27 37 29 27 37 29 27 37 29 27 38 30 28 38 30 28 38 30 28 38 30 28 38 30 28 38 30 28 38 30 28 38 30 28
