P3
172 37
255
134 122 136 134 122 136 134 122 136 134 122 136 128 116 130 128 116 130 128 116 130 128 116 130 128 116 130 128 116 130 128 116 130 128 116 130 126 113 130 126 113 130 126 113 130 126 113 130 126 113 130 126 113 130 126 113 130 126 113 130 123 110 127 123 110 127 123 110 127 123 110 127 123 110 127 123 110 127 123 110 127 123 110 127 117 104 121 117 104 121 117 104 121 117 104 121 117 104 121 117 104 121 117 104 121 117 104 121 106 93 110 106 93 110 106 93 110 106 93 110 106 93 110 106 93 110 106 93 110 106 93 110 97 84 102 97 84 102 97 84 102 97 84 102 97 84 102 97 84 102 97 84 102 97 84 102 96 83 101 96 83 101 96 83 101 96 83 101 96 83 101 96 83 101 96 83 101 96 83 101 98 85 102 98 85 102 98 85 102 98 85 102 98 85 102 98 85 102 98 85 102 98 85 102 87 74 91 87 74 91 87 74 91 87 74 91 87 74 91 87 74 91 87 74 91 87 74 91 74 61 78 73 60 77 71 58 75 67 54 71 64 51 68 61 48 65 58 45 62 57 44 61 52 39 56 52 39 56 52 39 56 52 39 56 52 39 56 52 39 56 52 39 56 51 40 54 30 22 35 29 23 33 29 23 33 29 23 33 29 23 33 29 23 33 29 23 33 29 23 33 20 14 24 19 13 23 16 10 20 13 7 17 10 4 14 6 0 10 4 0 8 1 0 7 4 4 12 2 5 12 2 5 12 2 5 12 2 5 12 2 5 12 2 5 12 2 5 12 7 10 17 9 12 19 11 14 21 14 17 24 18 21 28 21 24 31 23 26 33 25 28 33 26 31 34 30 36 36 37 43 43 47 53 53 57 63 63 67 73 73 74 80 80 78 84 84 93 99 99 94 100 100 97 103 103 100 106 106 103 109 109 107 113 113 109 115 115 111 115 116 96 97 99 87 87 89 72 72 74 57 57 59 46 46 48 42 42 44 43 43 45 45 45 47 42 42 44 42 42 44 42 42 44 42 42 44 42 42 44 42 42 44 42 42 44 42 42 44 39 37 40 39 37 40 39 37 40 39 37 40 39 37 40 39 37 40 39 37 40 39 37 40 44 42 45 44 42 45 44 42 45 44 42 45 44 42 45 44 42 45 44 42 45 44 42 45
135 121 138 135 121 136 135 121 138 135 121 136 129 115 132 129 115 130 129 115 132 129 115 130 129 115 132 129 115 130 129 115 132 129 115 132 127 113 130 127 113 130 127 113 130 127 113 130 127 113 130 127 113 130 127 113 130 127 113 130 124 110 127 124 110 127 124 110 127 124 110 127 124 110 127 124 110 127 124 110 127 124 110 127 118 104 121 117 104 121 118 103 122 117 104 121 118 103 122 117 104 121 118 103 122 117 104 121 107 92 111 106 93 110 107 92 111 106 93 110 107 92 111 106 93 110 107 92 111 106 93 111 97 84 102 97 84 102 97 84 102 97 84 102 97 84 102 97 84 102 97 84 102 97 84 102 96 83 101 96 83 101 96 83 101 96 83 101 96 83 101 96 83 101 96 83 101 96 83 101 97 86 103 97 86 102 97 86 102 97 86 102 97 86 102 97 86 102 97 86 102 97 86 102 86 75 91 86 75 91 86 75 91 86 75 91 86 75 91 86 75 91 86 75 91 86 75 91 70 62 77 69 61 76 66 58 73 63 55 70 60 52 67 56 48 63 54 46 61 53 45 60 47 39 54 47 39 54 47 39 54 47 39 54 47 39 54 47 39 54 47 39 54 47 39 54 25 22 33 25 22 31 25 22 31 25 22 31 25 22 31 25 22 31 25 22 31 25 22 31 15 12 21 14 11 20 12 9 18 8 5 14 5 2 11 2 0 8 1 0 7 0 0 7 2 2 10 0 3 10 0 3 10 0 3 10 0 3 10 0 3 10 0 3 10 0 3 10 7 10 17 9 12 19 11 14 21 14 17 24 18 21 28 21 24 31 23 26 33 25 28 33 26 31 34 30 36 36 37 43 43 47 53 53 57 63 63 67 73 73 74 80 80 78 84 84 92 98 98 93 99 99 95 101 101 99 105 105 102 108 108 105 111 111 108 114 114 109 115 115 96 97 99 87 87 89 72 72 74 57 57 59 46 46 48 42 42 44 43 43 45 45 45 47 42 42 44 42 42 44 42 42 44 42 42 44 42 42 44 42 42 44 42 42 44 42 42 44 38 38 40 38 38 40 39 37 40 38 38 40 39 37 40 38 38 40 39 37 40 38 38 40 44 42 45 43 43 45 44 42 45 43 43 45 44 42 45 43 43 45 44 42 45 43 43 45
130 111 131 130 111 130 130 111 131 130 111 130 126 107 127 126 107 126 126 107 127 126 107 126 126 107 127 126 107 126 126 107 127 126 107 127 131 112 132 131 112 132 131 112 132 131 112 132 131 112 132 131 112 132 131 112 132 131 112 132 119 100 120 119 100 120 119 100 120 119 100 120 119 100 120 119 100 120 119 100 120 119 100 120 110 93 112 108 93 112 110 92 114 108 93 112 110 92 114 108 93 112 110 92 114 108 93 112 102 84 106 100 85 104 102 84 106 100 85 104 102 84 106 100 85 104 102 84 106 100 85 106 98 85 105 97 85 105 97 85 105 97 85 105 97 85 105 97 85 105 97 85 105 97 85 105 85 73 93 85 73 93 85 73 93 85 73 93 85 73 93 85 73 93 85 73 93 85 74 91 92 83 100 89 82 98 87 80 96 84 77 93 80 73 89 77 70 86 75 68 84 73 66 82 67 60 76 67 60 76 67 60 76 67 60 76 67 60 76 67 60 76 67 60 76 65 61 76 41 39 52 41 39 52 41 39 52 41 39 52 41 39 52 41 39 52 41 39 52 41 39 52 24 22 35 24 22 35 24 22 35 24 22 35 24 22 35 24 22 35 24 22 35 23 23 35 13 13 23 11 14 23 11 14 23 11 14 23 11 14 23 11 14 23 11 14 23 11 14 23 18 21 30 16 19 28 14 17 26 11 14 23 7 10 19 4 7 16 2 5 14 0 3 12 1 4 11 1 4 11 1 4 11 1 4 11 1 4 11 1 4 11 1 4 11 1 4 11 8 11 18 10 13 20 12 15 22 15 18 25 19 22 29 22 25 32 24 27 34 26 29 34 35 40 43 35 43 45 40 48 50 47 55 57 53 61 63 60 68 70 65 73 75 67 75 77 82 90 92 83 91 93 86 94 96 89 97 99 92 100 102 96 104 106 98 106 108 101 107 107 94 95 97 84 86 85 69 71 70 54 56 55 43 45 44 39 41 40 40 42 41 42 44 43 40 42 41 40 42 41 40 42 41 40 42 41 40 42 41 40 42 41 40 42 41 40 42 41 38 40 39 38 40 39 39 39 39 38 40 39 39 39 39 38 40 39 39 39 39 38 40 39 38 38 38 37 39 38 38 38 38 37 39 38 38 38 38 37 39 38 38 38 38 37 39 38
132 110 131 132 110 131 132 110 131 132 110 131 128 106 127 128 106 127 128 106 127 128 106 127 128 106 127 128 106 127 128 106 127 128 106 127 131 109 130 131 109 130 131 109 130 131 109 130 131 109 130 131 109 130 131 109 130 131 109 130 121 99 120 121 99 120 121 99 120 121 99 120 121 99 120 121 99 120 121 99 120 119 100 120 111 92 114 110 92 114 110 92 114 110 92 114 110 92 114 110 92 114 110 92 114 110 92 114 102 84 106 102 84 106 102 84 106 102 84 106 102 84 106 102 84 106 102 84 106 100 85 106 96 83 103 95 83 103 95 83 103 95 83 103 95 83 103 95 83 103 95 83 103 95 83 103 88 76 96 88 76 96 88 76 96 88 76 96 88 76 96 88 76 96 88 76 96 86 77 96 87 80 96 83 79 94 81 77 92 78 74 89 74 70 85 71 67 82 69 65 80 67 63 78 61 57 72 61 57 72 61 57 72 61 57 72 61 57 72 61 57 72 61 57 72 60 58 72 38 38 50 36 38 50 36 38 50 36 38 50 36 38 50 36 38 50 36 38 50 36 38 50 19 21 33 19 21 33 19 21 33 19 21 33 19 21 33 19 21 33 19 21 33 19 21 33 10 14 23 10 14 23 10 14 23 10 14 23 10 14 23 10 14 23 10 14 23 10 14 23 17 21 30 15 19 28 13 17 26 10 14 23 6 10 19 3 7 16 1 5 14 0 3 12 1 4 11 1 4 11 1 4 11 1 4 11 1 4 11 1 4 11 1 4 11 1 4 11 8 11 18 10 13 20 12 15 22 15 18 25 19 22 29 22 25 32 24 27 34 25 30 34 35 40 44 35 43 45 40 48 50 47 55 57 53 61 63 60 68 70 65 73 75 67 75 77 81 89 91 82 90 92 84 92 94 88 96 98 91 99 101 94 102 104 97 105 107 100 106 106 92 96 97 84 86 85 69 71 70 54 56 55 43 45 44 39 41 40 40 42 41 42 44 43 40 42 41 40 42 41 40 42 41 40 42 41 40 42 41 40 42 41 40 42 41 40 42 41 38 40 39 38 40 39 38 40 39 38 40 39 38 40 39 38 40 39 38 40 39 38 40 39 37 39 38 37 39 38 37 39 38 37 39 38 37 39 38 37 39 38 37 39 38 37 39 38
132 110 131 132 110 131 132 110 131 132 110 131 128 106 127 128 106 127 128 106 127 128 106 127 128 106 127 128 106 127 128 106 127 128 106 127 129 107 128 129 107 128 129 107 128 129 107 128 129 107 128 129 107 128 129 107 128 129 107 128 121 99 120 121 99 120 121 99 120 121 99 120 121 99 120 121 99 120 121 99 120 119 100 120 111 92 114 110 92 114 110 92 114 110 92 114 110 92 114 110 92 114 110 92 114 110 92 114 102 84 106 102 84 106 102 84 106 102 84 106 102 84 106 102 84 106 102 84 106 100 85 106 94 81 101 93 81 101 93 81 101 93 81 101 93 81 101 93 81 101 93 81 101 93 81 101 91 79 99 91 79 99 91 79 99 91 79 99 91 79 99 91 79 99 91 79 99 89 80 99 79 72 88 76 72 87 74 70 85 70 66 81 67 63 78 64 60 75 61 57 72 60 56 71 54 50 65 54 50 65 54 50 65 54 50 65 54 50 65 54 50 65 54 50 65 53 51 65 33 33 45 31 33 45 31 33 45 31 33 45 31 33 45 31 33 45 31 33 45 31 33 45 17 19 31 17 19 31 17 19 31 17 19 31 17 19 31 17 19 31 17 19 31 17 19 31 10 14 23 10 14 23 10 14 23 10 14 23 10 14 23 10 14 23 10 14 23 10 14 23 17 21 30 15 19 28 13 17 26 10 14 23 6 10 19 3 7 16 1 5 14 0 3 12 1 4 11 1 4 11 1 4 11 1 4 11 1 4 11 1 4 11 1 4 11 1 4 11 8 11 18 10 13 20 12 15 22 15 18 25 19 22 29 22 25 32 24 27 34 25 30 34 35 40 44 35 43 45 40 48 50 47 55 57 53 61 63 60 68 70 65 73 75 67 75 77 78 86 88 80 88 90 82 90 92 85 93 95 89 97 99 92 100 102 94 102 104 98 104 104 92 96 97 84 86 85 69 71 70 54 56 55 43 45 44 39 41 40 40 42 41 42 44 43 40 42 41 40 42 41 40 42 41 40 42 41 40 42 41 40 42 41 40 42 41 40 42 41 38 40 39 38 40 39 38 40 39 38 40 39 38 40 39 38 40 39 38 40 39 38 40 39 37 39 38 37 39 38 37 39 38 37 39 38 37 39 38 37 39 38 37 39 38 37 39 38
132 110 131 132 110 131 132 110 131 132 110 131 128 106 127 128 106 127 128 106 127 128 106 127 128 106 127 128 106 127 128 106 127 128 106 127 126 104 125 126 104 125 126 104 125 126 104 125 126 104 125 126 104 125 126 104 125 126 104 125 121 99 120 121 99 120 121 99 120 121 99 120 121 99 120 121 99 120 121 99 120 119 100 120 111 92 114 110 92 114 110 92 114 110 92 114 110 92 114 110 92 114 110 92 114 110 92 114 102 84 106 102 84 106 102 84 106 102 84 106 102 84 106 102 84 106 102 84 106 100 85 106 91 78 98 90 78 98 90 78 98 90 78 98 90 78 98 90 78 98 90 78 98 90 78 98 90 78 98 90 78 98 90 78 98 90 78 98 90 78 98 90 78 98 90 78 98 88 79 98 70 63 79 67 63 78 64 60 75 61 57 72 57 53 68 54 50 65 52 48 63 51 47 62 44 40 55 44 40 55 44 40 55 44 40 55 44 40 55 44 40 55 44 40 55 43 41 55 26 26 38 24 26 38 24 26 38 24 26 38 24 26 38 24 26 38 24 26 38 24 26 38 14 16 28 14 16 28 14 16 28 14 16 28 14 16 28 14 16 28 14 16 28 14 16 28 10 14 23 10 14 23 10 14 23 10 14 23 10 14 23 10 14 23 10 14 23 10 14 23 17 21 30 15 19 28 13 17 26 10 14 23 6 10 19 3 7 16 1 5 14 0 3 12 1 4 11 1 4 11 1 4 11 1 4 11 1 4 11 1 4 11 1 4 11 1 4 11 8 11 18 10 13 20 12 15 22 15 18 25 19 22 29 22 25 32 24 27 34 25 30 34 35 40 44 35 43 45 40 48 50 47 55 57 53 61 63 60 68 70 65 73 75 67 75 77 75 83 85 76 84 86 79 87 89 82 90 92 85 93 95 89 97 99 91 99 101 94 100 100 92 96 97 84 86 85 69 71 70 54 56 55 43 45 44 39 41 40 40 42 41 42 44 43 40 42 41 40 42 41 40 42 41 40 42 41 40 42 41 40 42 41 40 42 41 40 42 41 38 40 39 38 40 39 38 40 39 38 40 39 38 40 39 38 40 39 38 40 39 38 40 39 37 39 38 37 39 38 37 39 38 37 39 38 37 39 38 37 39 38 37 39 38 37 39 38
132 110 131 132 110 131 132 110 131 132 110 131 128 106 127 128 106 127 128 106 127 128 106 127 128 106 127 128 106 127 128 106 127 128 106 127 122 100 121 122 100 121 122 100 121 122 100 121 122 100 121 122 100 121 122 100 121 122 100 121 121 99 120 121 99 120 121 99 120 121 99 120 121 99 120 121 99 120 121 99 120 119 100 120 111 92 114 110 92 114 110 92 114 110 92 114 110 92 114 110 92 114 110 92 114 110 92 114 102 84 106 102 84 106 102 84 106 102 84 106 102 84 106 102 84 106 102 84 106 100 85 106 87 74 94 86 74 94 86 74 94 86 74 94 86 74 94 86 74 94 86 74 94 86 74 94 83 71 91 83 71 91 83 71 91 83 71 91 83 71 91 83 71 91 83 71 91 81 72 91 59 52 68 56 52 67 54 50 65 51 47 62 47 43 58 44 40 55 41 37 52 40 36 51 34 30 45 34 30 45 34 30 45 34 30 45 34 30 45 34 30 45 34 30 45 33 31 45 20 20 32 18 20 32 18 20 32 18 20 32 18 20 32 18 20 32 18 20 32 18 20 32 10 12 24 10 12 24 10 12 24 10 12 24 10 12 24 10 12 24 10 12 24 10 12 24 10 14 23 10 14 23 10 14 23 10 14 23 10 14 23 10 14 23 10 14 23 10 14 23 17 21 30 15 19 28 13 17 26 10 14 23 6 10 19 3 7 16 1 5 14 0 3 12 1 4 11 1 4 11 1 4 11 1 4 11 1 4 11 1 4 11 1 4 11 1 4 11 8 11 18 10 13 20 12 15 22 15 18 25 19 22 29 22 25 32 24 27 34 25 30 34 35 40 44 35 43 45 40 48 50 47 55 57 53 61 63 60 68 70 65 73 75 67 75 77 72 80 82 73 81 83 75 83 85 79 87 89 82 90 92 85 93 95 88 96 98 91 97 97 92 96 97 84 86 85 69 71 70 54 56 55 43 45 44 39 41 40 40 42 41 42 44 43 40 42 41 40 42 41 40 42 41 40 42 41 40 42 41 40 42 41 40 42 41 40 42 41 38 40 39 38 40 39 38 40 39 38 40 39 38 40 39 38 40 39 38 40 39 38 40 39 37 39 38 37 39 38 37 39 38 37 39 38 37 39 38 37 39 38 37 39 38 37 39 38
132 110 131 132 110 131 132 110 131 132 110 131 128 106 127 128 106 127 128 106 127 128 106 127 128 106 127 128 106 127 128 106 127 128 106 127 119 97 118 119 97 118 119 97 118 119 97 118 119 97 118 119 97 118 119 97 118 119 97 118 121 99 120 121 99 120 121 99 120 121 99 120 121 99 120 121 99 120 121 99 120 119 100 120 111 92 114 110 92 114 110 92 114 110 92 114 110 92 114 110 92 114 110 92 114 110 92 114 102 84 106 102 84 106 102 84 106 102 84 106 102 84 106 102 84 106 102 84 106 100 85 106 84 71 91 83 71 91 83 71 91 83 71 91 83 71 91 83 71 91 83 71 91 83 71 91 71 59 79 71 59 79 71 59 79 71 59 79 71 59 79 71 59 79 71 59 79 69 60 79 50 43 59 47 43 58 44 40 55 41 37 52 38 34 49 34 30 45 32 28 43 31 27 42 24 20 35 24 20 35 24 20 35 24 20 35 24 20 35 24 20 35 24 20 35 23 21 35 13 13 25 11 13 25 11 13 25 11 13 25 11 13 25 11 13 25 11 13 25 11 13 25 7 9 21 7 9 21 7 9 21 7 9 21 7 9 21 7 9 21 7 9 21 7 9 21 10 14 23 10 14 23 10 14 23 10 14 23 10 14 23 10 14 23 10 14 23 10 14 23 17 21 30 15 19 28 13 17 26 10 14 23 6 10 19 3 7 16 1 5 14 0 3 12 1 4 11 1 4 11 1 4 11 1 4 11 1 4 11 1 4 11 1 4 11 1 4 11 8 11 18 10 13 20 12 15 22 15 18 25 19 22 29 22 25 32 24 27 34 25 30 34 35 40 44 35 43 45 40 48 50 47 55 57 53 61 63 60 68 70 65 73 75 67 75 77 68 76 78 70 78 80 72 80 82 75 83 85 79 87 89 82 90 92 84 92 94 88 94 94 92 96 97 84 86 85 69 71 70 54 56 55 43 45 44 39 41 40 40 42 41 42 44 43 40 42 41 40 42 41 40 42 41 40 42 41 40 42 41 40 42 41 40 42 41 40 42 41 38 40 39 38 40 39 38 40 39 38 40 39 38 40 39 38 40 39 38 40 39 38 40 39 37 39 38 37 39 38 37 39 38 37 39 38 37 39 38 37 39 38 37 39 38 37 39 38
132 110 131 132 110 131 132 110 131 132 110 131 128 106 127 128 106 127 128 106 127 128 106 127 128 106 127 128 106 127 128 106 127 128 106 127 117 95 116 117 95 116 117 95 116 117 95 116 117 95 116 117 95 116 117 95 116 117 95 116 121 99 120 121 99 120 121 99 120 121 99 120 121 99 120 121 99 120 121 99 120 119 100 120 111 92 114 110 92 114 110 92 114 110 92 114 110 92 114 110 92 114 110 92 114 110 92 114 102 84 106 102 84 106 102 84 106 102 84 106 102 84 106 102 84 106 102 84 106 100 85 106 82 69 89 81 69 89 81 69 89 81 69 89 81 69 89 81 69 89 81 69 89 81 69 89 58 46 66 58 46 66 58 46 66 58 46 66 58 46 66 58 46 66 58 46 66 56 47 66 43 36 52 39 35 50 37 33 48 34 30 45 30 26 41 27 23 38 25 21 36 23 19 34 17 13 28 17 13 28 17 13 28 17 13 28 17 13 28 17 13 28 17 13 28 16 14 28 8 8 20 6 8 20 6 8 20 6 8 20 6 8 20 6 8 20 6 8 20 6 8 20 5 7 19 5 7 19 5 7 19 5 7 19 5 7 19 5 7 19 5 7 19 5 7 19 10 14 23 10 14 23 10 14 23 10 14 23 10 14 23 10 14 23 10 14 23 10 14 23 17 21 30 15 19 28 13 17 26 10 14 23 6 10 19 3 7 16 1 5 14 0 3 12 1 4 11 1 4 11 1 4 11 1 4 11 1 4 11 1 4 11 1 4 11 1 4 11 8 11 18 10 13 20 12 15 22 15 18 25 19 22 29 22 25 32 24 27 34 25 30 34 35 40 44 35 43 45 40 48 50 47 55 57 53 61 63 60 68 70 65 73 75 67 75 77 66 74 76 67 75 77 70 78 80 73 81 83 76 84 86 80 88 90 82 90 92 85 91 91 92 96 97 84 86 85 69 71 70 54 56 55 43 45 44 39 41 40 40 42 41 42 44 43 40 42 41 40 42 41 40 42 41 40 42 41 40 42 41 40 42 41 40 42 41 40 42 41 38 40 39 38 40 39 38 40 39 38 40 39 38 40 39 38 40 39 38 40 39 38 40 39 37 39 38 37 39 38 37 39 38 37 39 38 37 39 38 37 39 38 37 39 38 37 39 38
132 110 131 132 110 131 132 110 131 132 110 131 128 106 127 128 106 127 128 106 127 128 106 127 128 106 127 128 106 127 128 106 127 128 106 127 115 93 114 115 93 114 115 93 114 115 93 114 115 93 114 115 93 114 115 93 114 115 93 114 121 99 120 121 99 120 121 99 120 121 99 120 121 99 120 121 99 120 121 99 120 119 100 120 111 92 114 110 92 114 110 92 114 110 92 114 110 92 114 110 92 114 110 92 114 110 92 114 102 84 106 102 84 106 102 84 106 102 84 106 102 84 106 102 84 106 102 84 106 100 85 106 80 67 87 79 67 87 79 67 87 79 67 87 79 67 87 79 67 87 79 67 87 79 67 87 50 38 58 50 38 58 50 38 58 50 38 58 50 38 58 50 38 58 50 38 58 48 39 58 39 32 48 35 31 46 33 29 44 30 26 41 26 22 37 23 19 34 21 17 32 19 15 30 13 9 24 13 9 24 13 9 24 13 9 24 13 9 24 13 9 24 13 9 24 12 10 24 6 6 18 4 6 18 4 6 18 4 6 18 4 6 18 4 6 18 4 6 18 4 6 18 3 5 17 3 5 17 3 5 17 3 5 17 3 5 17 3 5 17 3 5 17 3 5 17 10 14 23 10 14 23 10 14 23 10 14 23 10 14 23 10 14 23 10 14 23 10 14 23 17 21 30 15 19 28 13 17 26 10 14 23 6 10 19 3 7 16 1 5 14 0 3 12 1 4 11 1 4 11 1 4 11 1 4 11 1 4 11 1 4 11 1 4 11 1 4 11 8 11 18 10 13 20 12 15 22 15 18 25 19 22 29 22 25 32 24 27 34 25 30 34 35 40 44 35 43 45 40 48 50 47 55 57 53 61 63 60 68 70 65 73 75 67 75 77 65 73 75 66 74 76 68 76 78 72 80 82 75 83 85 78 86 88 81 89 91 84 90 90 92 96 97 84 86 85 69 71 70 54 56 55 43 45 44 39 41 40 40 42 41 42 44 43 40 42 41 40 42 41 40 42 41 40 42 41 40 42 41 40 42 41 40 42 41 40 42 41 38 40 39 38 40 39 38 40 39 38 40 39 38 40 39 38 40 39 38 40 39 38 40 39 37 39 38 37 39 38 37 39 38 37 39 38 37 39 38 37 39 38 37 39 38 37 39 38
130 108 129 130 108 129 130 108 129 130 108 129 122 100 121 122 100 121 122 100 121 122 100 121 122 100 121 122 100 121 122 100 121 122 100 121 120 98 119 120 98 119 120 98 119 120 98 119 120 98 119 120 98 119 120 98 119 120 98 119 110 88 109 110 88 109 110 88 109 110 88 109 110 88 109 110 88 109 110 88 109 108 89 109 112 93 115 110 92 114 108 90 112 104 86 108 101 83 105 98 80 102 95 77 99 94 76 98 104 86 108 103 85 107 101 83 105 97 79 101 94 76 98 91 73 95 88 70 92 85 70 91 67 54 74 64 52 72 62 50 70 59 47 67 55 43 63 52 40 60 50 38 58 48 36 56 29 17 37 29 17 37 29 17 37 29 17 37 29 17 37 29 17 37 29 17 37 27 18 37 14 7 23 12 8 23 12 8 23 12 8 23 12 8 23 12 8 23 12 8 23 12 8 23 11 7 22 11 7 22 11 7 22 11 7 22 11 7 22 11 7 22 11 7 22 10 8 22 9 9 21 7 9 21 7 9 21 7 9 21 7 9 21 7 9 21 7 9 21 7 9 21 13 15 27 13 15 27 13 15 27 13 15 27 13 15 27 13 15 27 13 15 27 13 15 27 12 16 25 12 16 25 12 16 25 12 16 25 12 16 25 12 16 25 12 16 25 12 16 25 14 18 27 12 16 25 10 14 23 7 11 20 3 7 16 0 4 13 0 2 11 0 0 9 0 3 10 0 3 10 0 3 10 0 3 10 0 3 10 0 3 10 0 3 10 0 3 10 7 10 17 9 12 19 11 14 21 14 17 24 18 21 28 21 24 31 23 26 33 24 29 33 39 44 48 39 47 49 41 49 51 44 52 54 48 56 58 51 59 61 53 61 63 55 63 65 71 79 81 71 79 81 71 79 81 71 79 81 71 79 81 71 79 81 71 79 81 73 79 79 65 69 70 65 67 66 60 62 61 53 55 54 47 49 48 40 42 41 35 37 36 33 35 34 33 35 34 33 35 34 33 35 34 33 35 34 33 35 34 33 35 34 33 35 34 33 35 34 32 34 33 32 34 33 32 34 33 32 34 33 32 34 33 32 34 33 32 34 33 32 34 33 36 38 37 36 38 37 36 38 37 36 38 37 36 38 37 36 38 37 36 38 37 36 38 37
130 108 129 130 108 129 130 108 129 130 108 129 122 100 121 122 100 121 122 100 121 122 100 121 122 100 121 122 100 121 122 100 121 122 100 121 120 98 119 120 98 119 120 98 119 120 98 119 120 98 119 120 98 119 120 98 119 120 98 119 110 88 109 110 88 109 110 88 109 110 88 109 110 88 109 110 88 109 110 88 109 108 89 109 111 92 114 109 91 113 106 88 110 103 85 107 100 82 104 96 78 100 94 76 98 93 75 97 99 81 103 98 80 102 95 77 99 92 74 96 89 71 93 85 67 89 83 65 87 80 65 86 58 45 65 56 44 64 54 42 62 50 38 58 47 35 55 44 32 52 41 29 49 40 28 48 27 15 35 27 15 35 27 15 35 27 15 35 27 15 35 27 15 35 27 15 35 25 16 35 14 7 23 12 8 23 12 8 23 12 8 23 12 8 23 12 8 23 12 8 23 12 8 23 11 7 22 11 7 22 11 7 22 11 7 22 11 7 22 11 7 22 11 7 22 10 8 22 9 9 21 7 9 21 7 9 21 7 9 21 7 9 21 7 9 21 7 9 21 7 9 21 13 15 27 13 15 27 13 15 27 13 15 27 13 15 27 13 15 27 13 15 27 13 15 27 14 18 27 14 18 27 14 18 27 14 18 27 14 18 27 14 18 27 14 18 27 14 18 27 14 18 27 12 16 25 10 14 23 7 11 20 3 7 16 0 4 13 0 2 11 0 0 9 0 3 10 0 3 10 0 3 10 0 3 10 0 3 10 0 3 10 0 3 10 0 3 10 7 10 17 9 12 19 11 14 21 14 17 24 18 21 28 21 24 31 23 26 33 24 29 33 39 44 48 39 47 49 41 49 51 44 52 54 48 56 58 51 59 61 53 61 63 55 63 65 69 77 79 69 77 79 69 77 79 69 77 79 69 77 79 69 77 79 69 77 79 71 77 77 65 69 70 65 67 66 60 62 61 53 55 54 47 49 48 40 42 41 35 37 36 33 35 34 33 35 34 33 35 34 33 35 34 33 35 34 33 35 34 33 35 34 33 35 34 33 35 34 32 34 33 32 34 33 32 34 33 32 34 33 32 34 33 32 34 33 32 34 33 32 34 33 36 38 37 36 38 37 36 38 37 36 38 37 36 38 37 36 38 37 36 38 37 36 38 37
130 108 129 130 108 129 130 108 129 130 108 129 122 100 121 122 100 121 122 100 121 122 100 121 122 100 121 122 100 121 122 100 121 122 100 121 120 98 119 120 98 119 120 98 119 120 98 119 120 98 119 120 98 119 120 98 119 120 98 119 110 88 109 110 88 109 110 88 109 110 88 109 110 88 109 110 88 109 110 88 109 108 89 109 109 90 112 106 88 110 104 86 108 101 83 105 97 79 101 94 76 98 92 74 96 90 72 94 89 71 93 88 70 92 86 68 90 82 64 86 79 61 83 76 58 80 73 55 77 70 55 76 46 33 53 43 31 51 41 29 49 38 26 46 34 22 42 31 19 39 28 16 36 27 15 35 25 13 33 25 13 33 25 13 33 25 13 33 25 13 33 25 13 33 25 13 33 23 14 33 14 7 23 12 8 23 12 8 23 12 8 23 12 8 23 12 8 23 12 8 23 12 8 23 11 7 22 11 7 22 11 7 22 11 7 22 11 7 22 11 7 22 11 7 22 10 8 22 9 9 21 7 9 21 7 9 21 7 9 21 7 9 21 7 9 21 7 9 21 7 9 21 13 15 27 13 15 27 13 15 27 13 15 27 13 15 27 13 15 27 13 15 27 13 15 27 16 20 29 16 20 29 16 20 29 16 20 29 16 20 29 16 20 29 16 20 29 16 20 29 14 18 27 12 16 25 10 14 23 7 11 20 3 7 16 0 4 13 0 2 11 0 0 9 0 3 10 0 3 10 0 3 10 0 3 10 0 3 10 0 3 10 0 3 10 0 3 10 7 10 17 9 12 19 11 14 21 14 17 24 18 21 28 21 24 31 23 26 33 24 29 33 39 44 48 39 47 49 41 49 51 44 52 54 48 56 58 51 59 61 53 61 63 55 63 65 67 75 77 67 75 77 67 75 77 67 75 77 67 75 77 67 75 77 67 75 77 69 75 75 65 69 70 65 67 66 60 62 61 53 55 54 47 49 48 40 42 41 35 37 36 33 35 34 33 35 34 33 35 34 33 35 34 33 35 34 33 35 34 33 35 34 33 35 34 33 35 34 32 34 33 32 34 33 32 34 33 32 34 33 32 34 33 32 34 33 32 34 33 32 34 33 36 38 37 36 38 37 36 38 37 36 38 37 36 38 37 36 38 37 36 38 37 36 38 37
130 108 129 130 108 129 130 108 129 130 108 129 122 100 121 122 100 121 122 100 121 122 100 121 122 100 121 122 100 121 122 100 121 122 100 121 120 98 119 120 98 119 120 98 119 120 98 119 120 98 119 120 98 119 120 98 119 120 98 119 110 88 109 110 88 109 110 88 109 110 88 109 110 88 109 110 88 109 110 88 109 108 89 109 105 86 108 103 85 107 101 83 105 97 79 101 94 76 98 91 73 95 88 70 92 87 69 91 77 59 81 75 57 79 73 55 77 70 52 74 66 48 70 63 45 67 61 43 65 57 42 63 33 20 40 31 19 39 29 17 37 26 14 34 22 10 30 19 7 27 16 4 24 15 3 23 22 10 30 22 10 30 22 10 30 22 10 30 22 10 30 22 10 30 22 10 30 20 11 30 14 7 23 12 8 23 12 8 23 12 8 23 12 8 23 12 8 23 12 8 23 12 8 23 11 7 22 11 7 22 11 7 22 11 7 22 11 7 22 11 7 22 11 7 22 10 8 22 9 9 21 7 9 21 7 9 21 7 9 21 7 9 21 7 9 21 7 9 21 7 9 21 13 15 27 13 15 27 13 15 27 13 15 27 13 15 27 13 15 27 13 15 27 13 15 27 19 23 32 19 23 32 19 23 32 19 23 32 19 23 32 19 23 32 19 23 32 19 23 32 14 18 27 12 16 25 10 14 23 7 11 20 3 7 16 0 4 13 0 2 11 0 0 9 0 3 10 0 3 10 0 3 10 0 3 10 0 3 10 0 3 10 0 3 10 0 3 10 7 10 17 9 12 19 11 14 21 14 17 24 18 21 28 21 24 31 23 26 33 24 29 33 39 44 48 39 47 49 41 49 51 44 52 54 48 56 58 51 59 61 53 61 63 55 63 65 64 72 74 64 72 74 64 72 74 64 72 74 64 72 74 64 72 74 64 72 74 66 72 72 65 69 70 65 67 66 60 62 61 53 55 54 47 49 48 40 42 41 35 37 36 33 35 34 33 35 34 33 35 34 33 35 34 33 35 34 33 35 34 33 35 34 33 35 34 33 35 34 32 34 33 32 34 33 32 34 33 32 34 33 32 34 33 32 34 33 32 34 33 32 34 33 36 38 37 36 38 37 36 38 37 36 38 37 36 38 37 36 38 37 36 38 37 36 38 37
130 108 129 130 108 129 130 108 129 130 108 129 122 100 121 122 100 121 122 100 121 122 100 121 122 100 121 122 100 121 122 100 121 122 100 121 120 98 119 120 98 119 120 98 119 120 98 119 120 98 119 120 98 119 120 98 119 120 98 119 110 88 109 110 88 109 110 88 109 110 88 109 110 88 109 110 88 109 110 88 109 108 89 109 102 83 105 100 82 104 97 79 101 94 76 98 91 73 95 87 69 91 85 67 89 84 66 88 63 45 67 61 43 65 59 41 63 56 38 60 52 34 56 49 31 53 47 29 51 43 28 49 27 14 34 24 12 32 22 10 30 19 7 27 15 3 23 12 0 20 10 0 18 8 0 16 18 6 26 18 6 26 18 6 26 18 6 26 18 6 26 18 6 26 18 6 26 16 7 26 14 7 23 12 8 23 12 8 23 12 8 23 12 8 23 12 8 23 12 8 23 12 8 23 11 7 22 11 7 22 11 7 22 11 7 22 11 7 22 11 7 22 11 7 22 10 8 22 9 9 21 7 9 21 7 9 21 7 9 21 7 9 21 7 9 21 7 9 21 7 9 21 13 15 27 13 15 27 13 15 27 13 15 27 13 15 27 13 15 27 13 15 27 13 15 27 23 27 36 23 27 36 23 27 36 23 27 36 23 27 36 23 27 36 23 27 36 23 27 36 14 18 27 12 16 25 10 14 23 7 11 20 3 7 16 0 4 13 0 2 11 0 0 9 0 3 10 0 3 10 0 3 10 0 3 10 0 3 10 0 3 10 0 3 10 0 3 10 7 10 17 9 12 19 11 14 21 14 17 24 18 21 28 21 24 31 23 26 33 24 29 33 39 44 48 39 47 49 41 49 51 44 52 54 48 56 58 51 59 61 53 61 63 55 63 65 60 68 70 60 68 70 60 68 70 60 68 70 60 68 70 60 68 70 60 68 70 62 68 68 65 69 70 65 67 66 60 62 61 53 55 54 47 49 48 40 42 41 35 37 36 33 35 34 33 35 34 33 35 34 33 35 34 33 35 34 33 35 34 33 35 34 33 35 34 33 35 34 32 34 33 32 34 33 32 34 33 32 34 33 32 34 33 32 34 33 32 34 33 32 34 33 36 38 37 36 38 37 36 38 37 36 38 37 36 38 37 36 38 37 36 38 37 36 38 37
130 108 129 130 108 129 130 108 129 130 108 129 122 100 121 122 100 121 122 100 121 122 100 121 122 100 121 122 100 121 122 100 121 122 100 121 120 98 119 120 98 119 120 98 119 120 98 119 120 98 119 120 98 119 120 98 119 120 98 119 110 88 109 110 88 109 110 88 109 110 88 109 110 88 109 110 88 109 110 88 109 108 89 109 99 80 102 96 78 100 94 76 98 91 73 95 87 69 91 84 66 88 82 64 86 80 62 84 50 32 54 49 31 53 46 28 50 43 25 47 40 22 44 36 18 40 34 16 38 31 16 37 26 13 33 24 12 32 21 9 29 18 6 26 14 2 22 11 0 19 9 0 17 8 0 16 15 3 23 15 3 23 15 3 23 15 3 23 15 3 23 15 3 23 15 3 23 13 4 23 14 7 23 12 8 23 12 8 23 12 8 23 12 8 23 12 8 23 12 8 23 12 8 23 11 7 22 11 7 22 11 7 22 11 7 22 11 7 22 11 7 22 11 7 22 10 8 22 9 9 21 7 9 21 7 9 21 7 9 21 7 9 21 7 9 21 7 9 21 7 9 21 13 15 27 13 15 27 13 15 27 13 15 27 13 15 27 13 15 27 13 15 27 13 15 27 26 30 39 26 30 39 26 30 39 26 30 39 26 30 39 26 30 39 26 30 39 26 30 39 14 18 27 12 16 25 10 14 23 7 11 20 3 7 16 0 4 13 0 2 11 0 0 9 0 3 10 0 3 10 0 3 10 0 3 10 0 3 10 0 3 10 0 3 10 0 3 10 7 10 17 9 12 19 11 14 21 14 17 24 18 21 28 21 24 31 23 26 33 24 29 33 39 44 48 39 47 49 41 49 51 44 52 54 48 56 58 51 59 61 53 61 63 55 63 65 57 65 67 57 65 67 57 65 67 57 65 67 57 65 67 57 65 67 57 65 67 59 65 65 65 69 70 65 67 66 60 62 61 53 55 54 47 49 48 40 42 41 35 37 36 33 35 34 33 35 34 33 35 34 33 35 34 33 35 34 33 35 34 33 35 34 33 35 34 33 35 34 32 34 33 32 34 33 32 34 33 32 34 33 32 34 33 32 34 33 32 34 33 32 34 33 36 38 37 36 38 37 36 38 37 36 38 37 36 38 37 36 38 37 36 38 37 36 38 37
130 108 129 130 108 129 130 108 129 130 108 129 122 100 121 122 100 121 122 100 121 122 100 121 122 100 121 122 100 121 122 100 121 122 100 121 120 98 119 120 98 119 120 98 119 120 98 119 120 98 119 120 98 119 120 98 119 120 98 119 110 88 109 110 88 109 110 88 109 110 88 109 110 88 109 110 88 109 110 88 109 108 89 109 96 77 99 94 76 98 92 74 96 88 70 92 85 67 89 82 64 86 79 61 83 78 60 82 40 22 44 39 21 43 37 19 41 33 15 37 30 12 34 27 9 31 24 6 28 21 6 27 29 16 36 27 15 35 24 12 32 21 9 29 18 6 26 14 2 22 12 0 20 11 0 19 13 1 21 13 1 21 13 1 21 13 1 21 13 1 21 13 1 21 13 1 21 11 2 21 14 7 23 12 8 23 12 8 23 12 8 23 12 8 23 12 8 23 12 8 23 12 8 23 11 7 22 11 7 22 11 7 22 11 7 22 11 7 22 11 7 22 11 7 22 10 8 22 9 9 21 7 9 21 7 9 21 7 9 21 7 9 21 7 9 21 7 9 21 7 9 21 13 15 27 13 15 27 13 15 27 13 15 27 13 15 27 13 15 27 13 15 27 13 15 27 28 32 41 28 32 41 28 32 41 28 32 41 28 32 41 28 32 41 28 32 41 28 32 41 14 18 27 12 16 25 10 14 23 7 11 20 3 7 16 0 4 13 0 2 11 0 0 9 0 3 10 0 3 10 0 3 10 0 3 10 0 3 10 0 3 10 0 3 10 0 3 10 7 10 17 9 12 19 11 14 21 14 17 24 18 21 28 21 24 31 23 26 33 24 29 33 39 44 48 39 47 49 41 49 51 44 52 54 48 56 58 51 59 61 53 61 63 55 63 65 55 63 65 55 63 65 55 63 65 55 63 65 55 63 65 55 63 65 55 63 65 57 63 63 65 69 70 65 67 66 60 62 61 53 55 54 47 49 48 40 42 41 35 37 36 33 35 34 33 35 34 33 35 34 33 35 34 33 35 34 33 35 34 33 35 34 33 35 34 33 35 34 32 34 33 32 34 33 32 34 33 32 34 33 32 34 33 32 34 33 32 34 33 32 34 33 36 38 37 36 38 37 36 38 37 36 38 37 36 38 37 36 38 37 36 38 37 36 38 37
130 108 129 130 108 129 130 108 129 130 108 129 122 100 121 122 100 121 122 100 121 122 100 121 122 100 121 122 100 121 122 100 121 120 101 121 118 99 119 118 99 119 118 99 121 118 99 119 118 99 121 118 99 119 118 99 121 118 99 119 108 89 111 108 89 109 108 89 111 108 89 109 108 89 111 108 89 109 108 89 111 107 89 111 92 77 98 90 77 97 88 73 94 84 71 91 82 67 88 77 64 84 76 61 82 74 61 81 33 18 39 31 18 38 29 14 35 25 12 32 23 8 29 18 5 25 17 2 23 15 2 22 29 20 39 27 20 36 25 16 35 21 14 30 19 10 29 14 7 23 13 4 23 11 4 20 9 0 19 8 1 17 9 0 19 8 1 17 9 0 19 8 1 17 9 0 19 8 1 17 12 8 23 11 9 23 11 9 23 11 9 23 11 9 23 11 9 23 11 9 23 11 9 23 10 8 22 10 8 22 10 8 22 10 8 22 10 8 22 10 8 22 10 8 22 9 9 21 7 9 21 6 10 21 7 9 21 6 10 21 7 9 21 6 10 21 7 9 21 6 10 21 13 15 27 12 16 27 13 15 27 12 16 27 13 15 27 12 16 27 13 15 27 12 16 27 30 34 43 30 34 43 30 34 43 30 34 43 30 34 43 30 34 43 30 34 43 30 34 43 14 18 27 12 16 25 10 14 23 7 11 20 3 7 16 0 4 13 0 2 11 0 0 9 0 4 10 0 4 10 0 3 10 0 4 10 0 3 10 0 4 10 0 3 10 0 4 10 7 10 17 8 13 19 11 14 21 13 18 24 18 21 28 20 25 31 23 26 33 24 29 33 37 45 47 39 47 49 41 49 51 44 52 54 48 56 58 51 59 61 53 61 63 55 63 65 53 61 63 53 61 63 53 61 63 53 61 63 53 61 63 53 61 63 53 61 63 55 61 61 67 69 68 65 67 66 61 61 61 53 55 54 48 48 48 40 42 41 36 36 36 33 35 34 34 34 34 33 35 34 34 34 34 33 35 34 34 34 34 33 35 34 34 34 34 34 34 34 33 33 33 33 33 33 33 33 33 33 33 33 33 33 33 33 33 33 33 33 33 33 33 33 37 37 37 37 37 37 37 37 37 37 37 37 37 37 37 37 37 37 37 37 37 37 37 37
120 101 123 120 101 123 120 101 123 120 101 123 115 96 118 115 96 118 115 96 118 115 96 118 115 96 118 115 96 118 115 96 118 114 96 118 117 102 123 115 102 122 113 99 122 109 96 116 106 92 115 103 90 110 100 86 109 99 86 106 102 88 111 102 89 109 100 86 109 98 85 105 96 82 105 94 81 101 92 78 101 92 78 101 73 64 85 68 60 81 64 55 76 55 47 68 48 39 60 39 31 52 34 25 46 30 22 43 10 1 22 9 1 22 10 1 22 9 1 22 10 1 22 9 1 22 10 1 22 9 2 20 6 4 18 5 5 17 6 4 18 5 5 17 6 4 18 5 5 17 6 4 18 5 5 17 10 8 22 9 9 21 10 8 22 9 9 21 10 8 22 9 9 21 10 8 22 9 9 21 9 11 23 9 11 23 9 11 23 9 11 23 9 11 23 9 11 23 9 11 23 9 11 23 10 12 24 10 12 24 10 12 24 10 12 24 10 12 24 10 12 24 10 12 24 10 12 24 11 15 26 9 16 24 11 15 24 9 16 24 11 15 24 9 16 24 11 15 24 9 16 24 14 18 27 13 20 28 17 21 30 19 26 34 24 28 37 25 32 40 30 34 43 29 36 44 34 41 49 34 41 49 34 41 49 34 41 49 34 41 49 34 41 49 34 41 49 34 41 49 16 23 31 14 21 29 12 19 27 9 16 24 5 12 20 2 9 17 0 7 15 0 5 13 0 5 11 0 6 9 0 5 9 0 6 9 0 5 9 0 6 9 0 5 9 0 6 9 9 14 18 9 17 20 13 18 22 14 22 25 20 25 29 21 29 32 25 30 34 25 33 36 37 45 47 37 46 45 37 46 45 37 46 45 37 46 45 37 46 45 37 46 45 37 46 45 55 64 63 55 64 63 55 64 63 55 64 63 55 64 63 55 64 63 55 64 63 57 63 63 50 52 51 49 49 49 48 46 47 44 44 44 41 39 40 37 37 37 36 34 35 33 33 33 34 32 33 33 33 33 34 32 33 33 33 33 34 32 33 33 33 33 34 32 33 34 32 33 35 33 34 35 33 34 35 33 34 35 33 34 35 33 34 35 33 34 35 33 34 35 33 34 36 34 35 36 34 35 36 34 35 36 34 35 36 34 35 36 34 35 36 34 35 36 34 35
120 101 123 120 101 123 120 101 123 120 101 123 115 96 118 115 96 118 115 96 118 115 96 118 115 96 118 115 96 118 115 96 118 114 96 118 115 101 124 113 101 123 110 98 120 107 95 117 104 92 114 100 88 110 98 86 108 97 85 107 99 87 109 98 86 108 96 84 106 93 81 103 91 79 101 88 76 98 86 74 96 83 74 95 62 54 75 57 52 72 51 46 66 44 39 59 37 32 52 30 25 45 25 20 40 22 17 37 7 2 22 7 2 22 7 2 22 7 2 22 7 2 22 7 2 22 7 2 22 6 3 20 5 4 18 3 5 17 3 5 17 3 5 17 3 5 17 3 5 17 3 5 17 3 5 17 7 9 21 7 9 21 7 9 21 7 9 21 7 9 21 7 9 21 7 9 21 7 9 21 8 12 23 8 12 23 8 12 23 8 12 23 8 12 23 8 12 23 8 12 23 8 12 23 9 13 24 9 13 24 9 13 24 9 13 24 9 13 24 9 13 24 9 13 24 9 13 24 9 16 24 9 16 24 9 16 24 9 16 24 9 16 24 9 16 24 9 16 24 9 16 24 13 20 28 14 21 29 17 24 32 20 27 35 23 30 38 27 34 42 29 36 44 30 37 45 34 41 49 34 41 49 34 41 49 34 41 49 34 41 49 34 41 49 34 41 49 34 41 49 16 23 31 14 21 29 12 19 27 9 16 24 5 12 20 2 9 17 0 7 15 0 5 11 0 5 11 0 6 9 0 6 9 0 6 9 0 6 9 0 6 9 0 6 9 0 6 9 7 15 18 9 17 20 11 19 22 14 22 25 18 26 29 21 29 32 23 31 34 25 33 35 37 45 47 37 46 45 37 46 45 37 46 45 37 46 45 37 46 45 37 46 45 37 46 45 53 62 61 53 62 61 53 62 61 53 62 61 53 62 61 53 62 61 53 62 61 55 61 61 51 51 51 50 48 49 48 46 47 45 43 44 41 39 40 38 36 37 36 34 35 34 32 33 34 32 33 34 32 33 34 32 33 34 32 33 34 32 33 34 32 33 34 32 33 34 32 33 37 33 34 37 33 34 37 33 34 37 33 34 37 33 34 37 33 34 37 33 34 37 33 34 38 34 35 38 34 35 38 34 35 38 34 35 38 34 35 38 34 35 38 34 35 38 34 35
120 101 123 120 101 123 120 101 123 120 101 123 115 96 118 115 96 118 115 96 118 115 96 118 115 96 118 115 96 118 115 96 118 114 96 118 113 99 122 110 98 120 108 96 118 105 93 115 101 89 111 98 86 108 96 84 106 94 82 104 95 83 105 94 82 104 91 79 101 87 75 97 83 71 93 79 67 89 76 64 86 72 63 84 45 37 58 41 36 56 37 32 52 31 26 46 25 20 40 19 14 34 15 10 30 12 7 27 7 2 22 7 2 22 7 2 22 7 2 22 7 2 22 7 2 22 7 2 22 6 3 20 5 4 18 3 5 17 3 5 17 3 5 17 3 5 17 3 5 17 3 5 17 3 5 17 7 9 21 7 9 21 7 9 21 7 9 21 7 9 21 7 9 21 7 9 21 7 9 21 8 12 23 8 12 23 8 12 23 8 12 23 8 12 23 8 12 23 8 12 23 8 12 23 9 13 24 9 13 24 9 13 24 9 13 24 9 13 24 9 13 24 9 13 24 9 13 24 9 16 24 9 16 24 9 16 24 9 16 24 9 16 24 9 16 24 9 16 24 9 16 24 15 22 30 17 24 32 19 26 34 22 29 37 26 33 41 29 36 44 31 38 46 33 40 48 34 41 49 34 41 49 34 41 49 34 41 49 34 41 49 34 41 49 34 41 49 34 41 49 16 23 31 14 21 29 12 19 27 9 16 24 5 12 20 2 9 17 0 7 15 0 5 11 0 5 11 0 6 9 0 6 9 0 6 9 0 6 9 0 6 9 0 6 9 0 6 9 7 15 18 9 17 20 11 19 22 14 22 25 18 26 29 21 29 32 23 31 34 25 33 35 37 45 47 37 46 45 37 46 45 37 46 45 37 46 45 37 46 45 37 46 45 37 46 45 51 60 59 51 60 59 51 60 59 51 60 59 51 60 59 51 60 59 51 60 59 53 59 59 51 51 51 50 48 49 48 46 47 45 43 44 41 39 40 38 36 37 36 34 35 34 32 33 34 32 33 34 32 33 34 32 33 34 32 33 34 32 33 34 32 33 34 32 33 34 32 33 37 33 34 37 33 34 37 33 34 37 33 34 37 33 34 37 33 34 37 33 34 37 33 34 38 34 35 38 34 35 38 34 35 38 34 35 38 34 35 38 34 35 38 34 35 38 34 35
120 101 123 120 101 123 120 101 123 120 101 123 115 96 118 115 96 118 115 96 118 115 96 118 115 96 118 115 96 118 115 96 118 114 96 118 109 95 118 107 95 117 105 93 115 101 89 111 98 86 108 95 83 105 92 80 102 91 79 101 90 78 100 88 76 98 84 72 94 78 66 88 72 60 82 67 55 77 63 51 73 58 49 70 29 21 42 25 20 40 22 17 37 18 13 33 14 9 29 10 5 25 6 1 21 5 0 20 7 2 22 7 2 22 7 2 22 7 2 22 7 2 22 7 2 22 7 2 22 6 3 20 5 4 18 3 5 17 3 5 17 3 5 17 3 5 17 3 5 17 3 5 17 3 5 17 7 9 21 7 9 21 7 9 21 7 9 21 7 9 21 7 9 21 7 9 21 7 9 21 8 12 23 8 12 23 8 12 23 8 12 23 8 12 23 8 12 23 8 12 23 8 12 23 9 13 24 9 13 24 9 13 24 9 13 24 9 13 24 9 13 24 9 13 24 9 13 24 9 16 24 9 16 24 9 16 24 9 16 24 9 16 24 9 16 24 9 16 24 9 16 24 19 26 34 20 27 35 22 29 37 26 33 41 29 36 44 32 39 47 35 42 50 36 43 51 34 41 49 34 41 49 34 41 49 34 41 49 34 41 49 34 41 49 34 41 49 34 41 49 16 23 31 14 21 29 12 19 27 9 16 24 5 12 20 2 9 17 0 7 15 0 5 11 0 5 11 0 6 9 0 6 9 0 6 9 0 6 9 0 6 9 0 6 9 0 6 9 7 15 18 9 17 20 11 19 22 14 22 25 18 26 29 21 29 32 23 31 34 25 33 35 37 45 47 37 46 45 37 46 45 37 46 45 37 46 45 37 46 45 37 46 45 37 46 45 48 57 56 48 57 56 48 57 56 48 57 56 48 57 56 48 57 56 48 57 56 50 56 56 51 51 51 50 48 49 48 46 47 45 43 44 41 39 40 38 36 37 36 34 35 34 32 33 34 32 33 34 32 33 34 32 33 34 32 33 34 32 33 34 32 33 34 32 33 34 32 33 37 33 34 37 33 34 37 33 34 37 33 34 37 33 34 37 33 34 37 33 34 37 33 34 38 34 35 38 34 35 38 34 35 38 34 35 38 34 35 38 34 35 38 34 35 38 34 35
120 101 123 120 101 123 120 101 123 120 101 123 115 96 118 115 96 118 115 96 118 115 96 118 115 96 118 115 96 118 115 96 118 114 96 118 106 92 115 104 92 114 101 89 111 98 86 108 95 83 105 91 79 101 89 77 99 88 76 98 85 73 95 82 70 92 76 64 86 69 57 79 61 49 71 54 42 64 48 36 58 43 34 55 17 9 30 14 9 29 12 7 27 10 5 25 8 3 23 5 0 20 4 0 19 3 0 18 7 2 22 7 2 22 7 2 22 7 2 22 7 2 22 7 2 22 7 2 22 6 3 20 5 4 18 3 5 17 3 5 17 3 5 17 3 5 17 3 5 17 3 5 17 3 5 17 7 9 21 7 9 21 7 9 21 7 9 21 7 9 21 7 9 21 7 9 21 7 9 21 8 12 23 8 12 23 8 12 23 8 12 23 8 12 23 8 12 23 8 12 23 8 12 23 9 13 24 9 13 24 9 13 24 9 13 24 9 13 24 9 13 24 9 13 24 9 13 24 9 16 24 9 16 24 9 16 24 9 16 24 9 16 24 9 16 24 9 16 24 9 16 24 22 29 37 23 30 38 26 33 41 29 36 44 32 39 47 36 43 51 38 45 53 39 46 54 34 41 49 34 41 49 34 41 49 34 41 49 34 41 49 34 41 49 34 41 49 34 41 49 16 23 31 14 21 29 12 19 27 9 16 24 5 12 20 2 9 17 0 7 15 0 5 11 0 5 11 0 6 9 0 6 9 0 6 9 0 6 9 0 6 9 0 6 9 0 6 9 7 15 18 9 17 20 11 19 22 14 22 25 18 26 29 21 29 32 23 31 34 25 33 35 37 45 47 37 46 45 37 46 45 37 46 45 37 46 45 37 46 45 37 46 45 37 46 45 44 53 52 44 53 52 44 53 52 44 53 52 44 53 52 44 53 52 44 53 52 46 52 52 51 51 51 50 48 49 48 46 47 45 43 44 41 39 40 38 36 37 36 34 35 34 32 33 34 32 33 34 32 33 34 32 33 34 32 33 34 32 33 34 32 33 34 32 33 34 32 33 37 33 34 37 33 34 37 33 34 37 33 34 37 33 34 37 33 34 37 33 34 37 33 34 38 34 35 38 34 35 38 34 35 38 34 35 38 34 35 38 34 35 38 34 35 38 34 35
120 101 123 120 101 123 120 101 123 120 101 123 115 96 118 115 96 118 115 96 118 115 96 118 115 96 118 115 96 118 115 96 118 114 96 118 103 89 112 100 88 110 98 86 108 95 83 105 91 79 101 88 76 98 86 74 96 84 72 94 79 67 89 76 64 86 69 57 79 60 48 70 50 38 60 42 30 52 35 23 45 29 20 41 12 4 25 10 5 25 9 4 24 9 4 24 8 3 23 7 2 22 7 2 22 6 1 21 7 2 22 7 2 22 7 2 22 7 2 22 7 2 22 7 2 22 7 2 22 6 3 20 5 4 18 3 5 17 3 5 17 3 5 17 3 5 17 3 5 17 3 5 17 3 5 17 7 9 21 7 9 21 7 9 21 7 9 21 7 9 21 7 9 21 7 9 21 7 9 21 8 12 23 8 12 23 8 12 23 8 12 23 8 12 23 8 12 23 8 12 23 8 12 23 9 13 24 9 13 24 9 13 24 9 13 24 9 13 24 9 13 24 9 13 24 9 13 24 9 16 24 9 16 24 9 16 24 9 16 24 9 16 24 9 16 24 9 16 24 9 16 24 25 32 40 27 34 42 29 36 44 32 39 47 36 43 51 39 46 54 41 48 56 43 50 58 34 41 49 34 41 49 34 41 49 34 41 49 34 41 49 34 41 49 34 41 49 34 41 49 16 23 31 14 21 29 12 19 27 9 16 24 5 12 20 2 9 17 0 7 15 0 5 11 0 5 11 0 6 9 0 6 9 0 6 9 0 6 9 0 6 9 0 6 9 0 6 9 7 15 18 9 17 20 11 19 22 14 22 25 18 26 29 21 29 32 23 31 34 25 33 35 37 45 47 37 46 45 37 46 45 37 46 45 37 46 45 37 46 45 37 46 45 37 46 45 41 50 49 41 50 49 41 50 49 41 50 49 41 50 49 41 50 49 41 50 49 43 49 49 51 51 51 50 48 49 48 46 47 45 43 44 41 39 40 38 36 37 36 34 35 34 32 33 34 32 33 34 32 33 34 32 33 34 32 33 34 32 33 34 32 33 34 32 33 34 32 33 37 33 34 37 33 34 37 33 34 37 33 34 37 33 34 37 33 34 37 33 34 37 33 34 38 34 35 38 34 35 38 34 35 38 34 35 38 34 35 38 34 35 38 34 35 38 34 35
120 101 123 120 101 123 120 101 123 120 101 123 115 96 118 115 96 118 115 96 118 115 96 118 115 96 118 115 96 118 115 96 118 114 96 118 100 86 109 98 86 108 96 84 106 92 80 102 89 77 99 86 74 96 83 71 93 82 70 92 75 63 85 71 59 81 64 52 74 53 41 63 42 30 52 32 20 42 25 13 35 18 9 30 12 4 25 10 5 25 10 5 25 11 6 26 12 7 27 12 7 27 13 8 28 13 8 28 7 2 22 7 2 22 7 2 22 7 2 22 7 2 22 7 2 22 7 2 22 6 3 20 5 4 18 3 5 17 3 5 17 3 5 17 3 5 17 3 5 17 3 5 17 3 5 17 7 9 21 7 9 21 7 9 21 7 9 21 7 9 21 7 9 21 7 9 21 7 9 21 8 12 23 8 12 23 8 12 23 8 12 23 8 12 23 8 12 23 8 12 23 8 12 23 9 13 24 9 13 24 9 13 24 9 13 24 9 13 24 9 13 24 9 13 24 9 13 24 9 16 24 9 16 24 9 16 24 9 16 24 9 16 24 9 16 24 9 16 24 9 16 24 28 35 43 29 36 44 31 38 46 35 42 50 38 45 53 41 48 56 44 51 59 45 52 60 34 41 49 34 41 49 34 41 49 34 41 49 34 41 49 34 41 49 34 41 49 34 41 49 16 23 31 14 21 29 12 19 27 9 16 24 5 12 20 2 9 17 0 7 15 0 5 11 0 5 11 0 6 9 0 6 9 0 6 9 0 6 9 0 6 9 0 6 9 0 6 9 7 15 18 9 17 20 11 19 22 14 22 25 18 26 29 21 29 32 23 31 34 25 33 35 37 45 47 37 46 45 37 46 45 37 46 45 37 46 45 37 46 45 37 46 45 37 46 45 39 48 47 39 48 47 39 48 47 39 48 47 39 48 47 39 48 47 39 48 47 41 47 47 51 51 51 50 48 49 48 46 47 45 43 44 41 39 40 38 36 37 36 34 35 34 32 33 34 32 33 34 32 33 34 32 33 34 32 33 34 32 33 34 32 33 34 32 33 34 32 33 37 33 34 37 33 34 37 33 34 37 33 34 37 33 34 37 33 34 37 33 34 37 33 34 38 34 35 38 34 35 38 34 35 38 34 35 38 34 35 38 34 35 38 34 35 38 34 35
120 101 123 120 101 123 120 101 123 120 101 123 115 96 118 115 96 118 115 96 118 115 96 118 115 96 118 115 96 118 115 96 118 114 96 118 99 85 108 97 85 107 94 82 104 91 79 101 88 76 98 84 72 94 82 70 92 81 69 91 73 61 83 69 57 79 61 49 71 50 38 60 38 26 48 27 15 37 19 7 29 13 4 25 13 5 26 11 6 26 12 7 27 14 9 29 15 10 30 16 11 31 17 12 32 18 13 33 7 2 22 7 2 22 7 2 22 7 2 22 7 2 22 7 2 22 7 2 22 6 3 20 5 4 18 3 5 17 3 5 17 3 5 17 3 5 17 3 5 17 3 5 17 3 5 17 7 9 21 7 9 21 7 9 21 7 9 21 7 9 21 7 9 21 7 9 21 7 9 21 8 12 23 8 12 23 8 12 23 8 12 23 8 12 23 8 12 23 8 12 23 8 12 23 9 13 24 9 13 24 9 13 24 9 13 24 9 13 24 9 13 24 9 13 24 9 13 24 9 16 24 9 16 24 9 16 24 9 16 24 9 16 24 9 16 24 9 16 24 9 16 24 29 36 44 30 37 45 33 40 48 36 43 51 39 46 54 43 50 58 45 52 60 46 53 61 34 41 49 34 41 49 34 41 49 34 41 49 34 41 49 34 41 49 34 41 49 34 41 49 16 23 31 14 21 29 12 19 27 9 16 24 5 12 20 2 9 17 0 7 15 0 5 11 0 5 11 0 6 9 0 6 9 0 6 9 0 6 9 0 6 9 0 6 9 0 6 9 7 15 18 9 17 20 11 19 22 14 22 25 18 26 29 21 29 32 23 31 34 25 33 35 37 45 47 37 46 45 37 46 45 37 46 45 37 46 45 37 46 45 37 46 45 37 46 45 37 46 45 37 46 45 37 46 45 37 46 45 37 46 45 37 46 45 37 46 45 39 45 45 51 51 51 50 48 49 48 46 47 45 43 44 41 39 40 38 36 37 36 34 35 34 32 33 34 32 33 34 32 33 34 32 33 34 32 33 34 32 33 34 32 33 34 32 33 34 32 33 37 33 34 37 33 34 37 33 34 37 33 34 37 33 34 37 33 34 37 33 34 37 33 34 38 34 35 38 34 35 38 34 35 38 34 35 38 34 35 38 34 35 38 34 35 38 34 35
120 101 123 120 101 123 120 101 123 120 101 123 109 90 112 109 90 112 107 88 110 105 86 108 103 84 106 101 82 104 100 81 103 98 80 102 100 86 109 95 83 105 86 74 96 75 63 85 64 52 74 53 41 63 45 33 55 40 28 50 13 1 23 13 1 23 13 1 23 13 1 23 13 1 23 13 1 23 13 1 23 11 2 23 9 1 22 7 2 22 7 2 22 7 2 22 7 2 22 7 2 22 7 2 22 7 2 22 8 3 23 8 3 23 8 3 23 8 3 23 8 3 23 8 3 23 8 3 23 7 4 21 7 6 20 5 7 19 5 7 19 5 7 19 5 7 19 5 7 19 5 7 19 5 7 19 8 10 22 8 10 22 8 10 22 8 10 22 8 10 22 8 10 22 8 10 22 8 10 22 8 12 23 8 12 23 8 12 23 8 12 23 8 12 23 8 12 23 8 12 23 8 12 23 11 15 26 11 15 26 11 15 26 11 15 26 11 15 26 11 15 26 11 15 26 11 15 26 0 1 9 0 4 12 5 12 20 16 23 31 27 34 42 38 45 53 47 54 62 51 58 66 52 59 67 52 59 67 52 59 67 52 59 67 52 59 67 52 59 67 52 59 67 52 59 67 47 54 62 45 52 60 43 50 58 40 47 55 36 43 51 33 40 48 31 38 46 29 36 44 20 27 35 18 25 33 16 23 31 13 20 28 9 16 24 6 13 21 4 11 19 2 9 15 3 10 16 3 11 14 3 11 14 3 11 14 3 11 14 3 11 14 3 11 14 3 11 14 8 16 19 10 18 21 12 20 23 15 23 26 19 27 30 22 30 33 24 32 35 26 34 36 28 36 38 28 37 36 28 37 36 28 37 36 28 37 36 28 37 36 28 37 36 28 37 36 31 40 39 31 40 39 31 40 39 31 40 39 31 40 39 31 40 39 31 40 39 33 39 39 33 33 33 34 32 33 34 32 33 34 32 33 34 32 33 34 32 33 34 32 33 34 32 33 33 31 32 33 31 32 33 31 32 33 31 32 33 31 32 33 31 32 33 31 32 33 31 32 36 32 33 36 32 33 36 32 33 36 32 33 36 32 33 36 32 33 36 32 33 36 32 33 37 33 34 37 33 34 37 33 34 37 33 34 37 33 34 37 33 34 37 33 34 37 33 34
110 91 113 110 91 113 110 91 113 110 91 113 112 93 115 110 91 113 108 89 111 106 87 109 103 84 106 100 81 103 98 79 101 96 78 100 89 75 98 83 71 93 76 64 86 66 54 76 55 43 65 44 32 54 37 25 47 33 21 43 13 1 23 13 1 23 13 1 23 13 1 23 13 1 23 13 1 23 13 1 23 11 2 23 9 1 22 7 2 22 7 2 22 7 2 22 7 2 22 7 2 22 7 2 22 7 2 22 8 3 23 8 3 23 8 3 23 8 3 23 8 3 23 8 3 23 8 3 23 7 4 21 7 6 20 5 7 19 5 7 19 5 7 19 5 7 19 5 7 19 5 7 19 5 7 19 8 10 22 8 10 22 8 10 22 8 10 22 8 10 22 8 10 22 8 10 22 8 10 22 8 12 23 8 12 23 8 12 23 8 12 23 8 12 23 8 12 23 8 12 23 8 12 23 11 15 26 11 15 26 11 15 26 11 15 26 11 15 26 11 15 26 11 15 26 11 15 26 0 4 12 1 8 16 9 16 24 19 26 34 30 37 45 40 47 55 48 55 63 52 59 67 52 59 67 52 59 67 52 59 67 52 59 67 52 59 67 52 59 67 52 59 67 52 59 67 47 54 62 45 52 60 43 50 58 40 47 55 36 43 51 33 40 48 31 38 46 29 36 44 20 27 35 18 25 33 16 23 31 13 20 28 9 16 24 6 13 21 4 11 19 2 9 15 3 10 16 3 11 14 3 11 14 3 11 14 3 11 14 3 11 14 3 11 14 3 11 14 8 16 19 10 18 21 12 20 23 15 23 26 19 27 30 22 30 33 24 32 35 26 34 36 28 36 38 28 37 36 28 37 36 28 37 36 28 37 36 28 37 36 28 37 36 28 37 36 31 40 39 31 40 39 31 40 39 31 40 39 31 40 39 31 40 39 31 40 39 33 39 39 33 33 33 34 32 33 34 32 33 34 32 33 34 32 33 34 32 33 34 32 33 34 32 33 33 31 32 33 31 32 33 31 32 33 31 32 33 31 32 33 31 32 33 31 32 33 31 32 36 32 33 36 32 33 36 32 33 36 32 33 36 32 33 36 32 33 36 32 33 36 32 33 37 33 34 37 33 34 37 33 34 37 33 34 37 33 34 37 33 34 37 33 34 37 33 34
101 82 104 101 82 104 101 82 104 101 82 104 113 94 116 112 93 115 109 90 112 105 86 108 101 82 104 97 78 100 94 75 97 91 73 95 70 56 79 65 53 75 58 46 68 50 38 60 40 28 50 31 19 41 24 12 34 21 9 31 13 1 23 13 1 23 13 1 23 13 1 23 13 1 23 13 1 23 13 1 23 11 2 23 9 1 22 7 2 22 7 2 22 7 2 22 7 2 22 7 2 22 7 2 22 7 2 22 8 3 23 8 3 23 8 3 23 8 3 23 8 3 23 8 3 23 8 3 23 7 4 21 7 6 20 5 7 19 5 7 19 5 7 19 5 7 19 5 7 19 5 7 19 5 7 19 8 10 22 8 10 22 8 10 22 8 10 22 8 10 22 8 10 22 8 10 22 8 10 22 8 12 23 8 12 23 8 12 23 8 12 23 8 12 23 8 12 23 8 12 23 8 12 23 11 15 26 11 15 26 11 15 26 11 15 26 11 15 26 11 15 26 11 15 26 11 15 26 5 12 20 9 16 24 16 23 31 24 31 39 34 41 49 43 50 58 50 57 65 53 60 68 52 59 67 52 59 67 52 59 67 52 59 67 52 59 67 52 59 67 52 59 67 52 59 67 47 54 62 45 52 60 43 50 58 40 47 55 36 43 51 33 40 48 31 38 46 29 36 44 20 27 35 18 25 33 16 23 31 13 20 28 9 16 24 6 13 21 4 11 19 2 9 15 3 10 16 3 11 14 3 11 14 3 11 14 3 11 14 3 11 14 3 11 14 3 11 14 8 16 19 10 18 21 12 20 23 15 23 26 19 27 30 22 30 33 24 32 35 26 34 36 28 36 38 28 37 36 28 37 36 28 37 36 28 37 36 28 37 36 28 37 36 28 37 36 31 40 39 31 40 39 31 40 39 31 40 39 31 40 39 31 40 39 31 40 39 33 39 39 33 33 33 34 32 33 34 32 33 34 32 33 34 32 33 34 32 33 34 32 33 34 32 33 33 31 32 33 31 32 33 31 32 33 31 32 33 31 32 33 31 32 33 31 32 33 31 32 36 32 33 36 32 33 36 32 33 36 32 33 36 32 33 36 32 33 36 32 33 36 32 33 37 33 34 37 33 34 37 33 34 37 33 34 37 33 34 37 33 34 37 33 34 37 33 34
102 83 105 102 83 105 102 83 105 102 83 105 110 91 113 108 89 111 104 85 107 99 80 102 93 74 96 87 68 90 83 64 86 80 62 84 50 36 59 46 34 56 41 29 51 33 21 43 26 14 36 18 6 28 13 1 23 10 0 20 13 1 23 13 1 23 13 1 23 13 1 23 13 1 23 13 1 23 13 1 23 11 2 23 9 1 22 7 2 22 7 2 22 7 2 22 7 2 22 7 2 22 7 2 22 7 2 22 8 3 23 8 3 23 8 3 23 8 3 23 8 3 23 8 3 23 8 3 23 7 4 21 7 6 20 5 7 19 5 7 19 5 7 19 5 7 19 5 7 19 5 7 19 5 7 19 8 10 22 8 10 22 8 10 22 8 10 22 8 10 22 8 10 22 8 10 22 8 10 22 8 12 23 8 12 23 8 12 23 8 12 23 8 12 23 8 12 23 8 12 23 8 12 23 11 15 26 11 15 26 11 15 26 11 15 26 11 15 26 11 15 26 11 15 26 11 15 26 16 23 31 19 26 34 24 31 39 32 39 47 39 46 54 47 54 62 52 59 67 55 62 70 52 59 67 52 59 67 52 59 67 52 59 67 52 59 67 52 59 67 52 59 67 52 59 67 47 54 62 45 52 60 43 50 58 40 47 55 36 43 51 33 40 48 31 38 46 29 36 44 20 27 35 18 25 33 16 23 31 13 20 28 9 16 24 6 13 21 4 11 19 2 9 15 3 10 16 3 11 14 3 11 14 3 11 14 3 11 14 3 11 14 3 11 14 3 11 14 8 16 19 10 18 21 12 20 23 15 23 26 19 27 30 22 30 33 24 32 35 26 34 36 28 36 38 28 37 36 28 37 36 28 37 36 28 37 36 28 37 36 28 37 36 28 37 36 31 40 39 31 40 39 31 40 39 31 40 39 31 40 39 31 40 39 31 40 39 33 39 39 33 33 33 34 32 33 34 32 33 34 32 33 34 32 33 34 32 33 34 32 33 34 32 33 33 31 32 33 31 32 33 31 32 33 31 32 33 31 32 33 31 32 33 31 32 33 31 32 36 32 33 36 32 33 36 32 33 36 32 33 36 32 33 36 32 33 36 32 33 36 32 33 37 33 34 37 33 34 37 33 34 37 33 34 37 33 34 37 33 34 37 33 34 37 33 34
105 86 108 105 86 108 105 86 108 105 86 108 101 82 104 98 79 101 93 74 96 86 67 89 78 59 81 71 52 74 65 46 68 61 43 65 35 21 44 32 20 42 28 16 38 22 10 32 16 4 26 11 0 21 7 0 17 6 0 16 13 1 23 13 1 23 13 1 23 13 1 23 13 1 23 13 1 23 13 1 23 11 2 23 9 1 22 7 2 22 7 2 22 7 2 22 7 2 22 7 2 22 7 2 22 7 2 22 8 3 23 8 3 23 8 3 23 8 3 23 8 3 23 8 3 23 8 3 23 7 4 21 7 6 20 5 7 19 5 7 19 5 7 19 5 7 19 5 7 19 5 7 19 5 7 19 8 10 22 8 10 22 8 10 22 8 10 22 8 10 22 8 10 22 8 10 22 8 10 22 8 12 23 8 12 23 8 12 23 8 12 23 8 12 23 8 12 23 8 12 23 8 12 23 11 15 26 11 15 26 11 15 26 11 15 26 11 15 26 11 15 26 11 15 26 11 15 26 27 34 42 30 37 45 34 41 49 39 46 54 45 52 60 51 58 66 55 62 70 57 64 72 52 59 67 52 59 67 52 59 67 52 59 67 52 59 67 52 59 67 52 59 67 52 59 67 47 54 62 45 52 60 43 50 58 40 47 55 36 43 51 33 40 48 31 38 46 29 36 44 20 27 35 18 25 33 16 23 31 13 20 28 9 16 24 6 13 21 4 11 19 2 9 15 3 10 16 3 11 14 3 11 14 3 11 14 3 11 14 3 11 14 3 11 14 3 11 14 8 16 19 10 18 21 12 20 23 15 23 26 19 27 30 22 30 33 24 32 35 26 34 36 28 36 38 28 37 36 28 37 36 28 37 36 28 37 36 28 37 36 28 37 36 28 37 36 31 40 39 31 40 39 31 40 39 31 40 39 31 40 39 31 40 39 31 40 39 33 39 39 33 33 33 34 32 33 34 32 33 34 32 33 34 32 33 34 32 33 34 32 33 34 32 33 33 31 32 33 31 32 33 31 32 33 31 32 33 31 32 33 31 32 33 31 32 33 31 32 36 32 33 36 32 33 36 32 33 36 32 33 36 32 33 36 32 33 36 32 33 36 32 33 37 33 34 37 33 34 37 33 34 37 33 34 37 33 34 37 33 34 37 33 34 37 33 34
95 76 98 95 76 98 95 76 98 95 76 98 87 68 90 84 65 87 77 58 80 68 49 71 59 40 62 50 31 53 43 24 46 38 20 42 27 13 36 24 12 34 21 9 31 17 5 27 13 1 23 9 0 19 6 0 16 6 0 16 13 1 23 13 1 23 13 1 23 13 1 23 13 1 23 13 1 23 13 1 23 11 2 23 9 1 22 7 2 22 7 2 22 7 2 22 7 2 22 7 2 22 7 2 22 7 2 22 8 3 23 8 3 23 8 3 23 8 3 23 8 3 23 8 3 23 8 3 23 7 4 21 7 6 20 5 7 19 5 7 19 5 7 19 5 7 19 5 7 19 5 7 19 5 7 19 8 10 22 8 10 22 8 10 22 8 10 22 8 10 22 8 10 22 8 10 22 8 10 22 8 12 23 8 12 23 8 12 23 8 12 23 8 12 23 8 12 23 8 12 23 8 12 23 11 15 26 11 15 26 11 15 26 11 15 26 11 15 26 11 15 26 11 15 26 11 15 26 38 45 53 40 47 55 43 50 58 47 54 62 51 58 66 55 62 70 58 65 73 59 66 74 52 59 67 52 59 67 52 59 67 52 59 67 52 59 67 52 59 67 52 59 67 52 59 67 47 54 62 45 52 60 43 50 58 40 47 55 36 43 51 33 40 48 31 38 46 29 36 44 20 27 35 18 25 33 16 23 31 13 20 28 9 16 24 6 13 21 4 11 19 2 9 15 3 10 16 3 11 14 3 11 14 3 11 14 3 11 14 3 11 14 3 11 14 3 11 14 8 16 19 10 18 21 12 20 23 15 23 26 19 27 30 22 30 33 24 32 35 26 34 36 28 36 38 28 37 36 28 37 36 28 37 36 28 37 36 28 37 36 28 37 36 28 37 36 31 40 39 31 40 39 31 40 39 31 40 39 31 40 39 31 40 39 31 40 39 33 39 39 33 33 33 34 32 33 34 32 33 34 32 33 34 32 33 34 32 33 34 32 33 34 32 33 33 31 32 33 31 32 33 31 32 33 31 32 33 31 32 33 31 32 33 31 32 33 31 32 36 32 33 36 32 33 36 32 33 36 32 33 36 32 33 36 32 33 36 32 33 36 32 33 37 33 34 37 33 34 37 33 34 37 33 34 37 33 34 37 33 34 37 33 34 37 33 34
70 51 73 70 51 73 70 51 73 70 51 73 73 54 76 69 50 72 61 42 64 51 32 54 40 21 43 30 11 33 22 3 25 17 0 21 24 10 33 22 10 32 20 8 30 17 5 27 15 3 25 12 0 22 10 0 20 9 0 19 13 1 23 13 1 23 13 1 23 13 1 23 13 1 23 13 1 23 13 1 23 11 2 23 9 1 22 7 2 22 7 2 22 7 2 22 7 2 22 7 2 22 7 2 22 7 2 22 8 3 23 8 3 23 8 3 23 8 3 23 8 3 23 8 3 23 8 3 23 7 4 21 7 6 20 5 7 19 5 7 19 5 7 19 5 7 19 5 7 19 5 7 19 5 7 19 8 10 22 8 10 22 8 10 22 8 10 22 8 10 22 8 10 22 8 10 22 8 10 22 8 12 23 8 12 23 8 12 23 8 12 23 8 12 23 8 12 23 8 12 23 8 12 23 11 15 26 11 15 26 11 15 26 11 15 26 11 15 26 11 15 26 11 15 26 11 15 26 47 54 62 48 55 63 50 57 65 52 59 67 55 62 70 58 65 73 60 67 75 61 68 76 52 59 67 52 59 67 52 59 67 52 59 67 52 59 67 52 59 67 52 59 67 52 59 67 47 54 62 45 52 60 43 50 58 40 47 55 36 43 51 33 40 48 31 38 46 29 36 44 20 27 35 18 25 33 16 23 31 13 20 28 9 16 24 6 13 21 4 11 19 2 9 15 3 10 16 3 11 14 3 11 14 3 11 14 3 11 14 3 11 14 3 11 14 3 11 14 8 16 19 10 18 21 12 20 23 15 23 26 19 27 30 22 30 33 24 32 35 26 34 36 28 36 38 28 37 36 28 37 36 28 37 36 28 37 36 28 37 36 28 37 36 28 37 36 31 40 39 31 40 39 31 40 39 31 40 39 31 40 39 31 40 39 31 40 39 33 39 39 33 33 33 34 32 33 34 32 33 34 32 33 34 32 33 34 32 33 34 32 33 34 32 33 33 31 32 33 31 32 33 31 32 33 31 32 33 31 32 33 31 32 33 31 32 33 31 32 36 32 33 36 32 33 36 32 33 36 32 33 36 32 33 36 32 33 36 32 33 36 32 33 37 33 34 37 33 34 37 33 34 37 33 34 37 33 34 37 33 34 37 33 34 37 33 34
45 30 51 45 30 51 45 30 51 45 30 51 61 46 67 57 42 63 48 33 54 38 23 44 26 11 32 15 0 21 8 0 14 7 0 14 23 11 31 20 11 30 19 10 31 17 8 27 15 6 27 13 4 23 11 2 23 10 1 20 11 2 23 11 2 21 11 2 23 11 2 21 11 2 23 11 2 21 11 2 23 10 3 21 7 2 22 7 3 20 7 2 22 7 3 20 7 2 22 7 3 20 7 2 22 7 3 20 8 3 23 8 4 21 8 3 23 8 4 21 8 3 23 8 4 21 8 3 23 7 4 21 7 7 19 5 7 19 5 7 19 5 7 19 5 7 19 5 7 19 5 7 19 5 7 19 8 10 22 8 10 22 8 10 22 8 10 22 8 10 22 8 10 22 8 10 22 8 10 22 8 12 23 6 13 23 8 12 23 6 13 23 8 12 23 6 13 23 8 12 23 6 13 23 11 15 26 9 16 26 11 15 26 9 16 26 11 15 26 9 16 26 11 15 26 9 16 26 51 58 66 52 59 67 53 60 68 55 62 70 57 64 72 59 66 74 61 68 76 62 69 77 52 59 67 52 59 67 52 59 67 52 59 67 52 59 67 52 59 67 52 59 67 52 59 67 47 54 62 45 52 60 43 50 58 40 47 55 36 43 51 33 40 48 31 38 46 29 36 44 20 27 35 18 25 33 16 23 31 13 20 28 9 16 24 6 13 21 4 11 19 2 9 17 3 10 16 3 11 14 3 11 14 3 11 14 3 11 14 3 11 14 3 11 14 3 11 14 8 16 19 10 18 21 12 20 23 15 23 26 19 27 30 22 30 33 24 32 35 26 34 37 28 36 38 28 37 36 28 36 38 28 37 36 28 36 38 28 37 36 28 36 38 28 37 36 31 39 41 31 40 39 31 39 41 31 40 39 31 39 41 31 40 39 31 39 41 33 39 39 33 33 33 34 32 33 34 32 33 34 32 33 34 32 33 34 32 33 34 32 33 34 32 33 33 31 32 33 31 32 33 31 32 33 31 32 33 31 32 33 31 32 33 31 32 33 31 32 36 32 33 36 32 31 36 32 33 36 32 31 36 32 33 36 32 31 36 32 33 36 32 31 37 33 34 37 33 32 37 33 34 37 33 32 37 33 34 37 33 32 37 33 34 37 33 32
10 1 20 10 1 20 10 1 20 10 1 20 10 1 20 10 1 20 10 1 20 10 1 20 10 1 20 10 1 20 10 1 20 9 2 20 5 1 18 5 1 16 5 1 18 5 1 16 5 1 18 5 1 16 5 1 18 5 1 16 5 1 18 5 1 16 5 1 18 5 1 16 5 1 18 5 1 16 5 1 18 5 1 16 6 3 20 6 4 18 6 3 20 6 4 18 6 3 20 6 4 18 6 3 20 6 4 18 6 3 20 6 4 18 6 3 20 6 4 18 6 3 20 6 4 18 6 3 20 6 4 18 6 6 18 4 7 16 4 7 16 4 7 16 4 7 16 4 7 16 4 7 16 4 7 16 8 11 20 8 11 20 8 11 20 8 11 20 8 11 20 8 11 20 8 11 20 7 11 20 13 20 28 11 20 27 11 18 26 9 18 25 9 16 24 6 15 22 6 13 21 5 14 21 15 22 30 17 26 33 24 31 39 30 39 46 39 46 54 46 55 62 53 60 68 55 64 71 56 65 72 56 65 72 56 65 72 56 65 72 56 65 72 56 65 72 56 65 72 56 65 72 54 63 70 54 63 70 54 63 70 54 63 70 54 63 70 54 63 70 54 63 70 54 63 70 49 56 64 47 54 62 45 52 60 42 49 57 38 45 53 35 42 50 33 40 48 31 38 46 19 26 34 17 24 32 15 22 30 12 19 27 8 15 23 5 12 20 3 10 18 1 8 16 8 17 22 8 17 22 8 17 22 8 17 22 8 17 22 8 17 22 8 17 22 8 17 22 7 16 21 9 18 23 11 20 25 14 23 28 18 27 32 21 30 35 23 32 37 25 35 37 23 31 34 23 31 33 23 31 34 23 31 33 23 31 34 23 31 33 23 31 34 23 31 33 22 30 33 22 30 32 22 30 33 22 30 32 22 30 33 22 30 32 22 30 33 24 29 32 28 28 30 31 27 28 31 27 28 31 27 28 31 27 28 31 27 28 31 27 28 31 27 28 34 30 31 34 30 31 34 30 31 34 30 31 34 30 31 34 30 31 34 30 31 34 30 31 37 31 31 37 32 29 37 31 31 37 32 29 37 31 31 37 32 29 37 31 31 37 32 29 37 31 31 37 32 29 37 31 31 37 32 29 37 31 31 37 32 29 37 31 31 37 32 29
7 3 20 7 3 20 7 3 20 7 3 20 7 3 20 7 3 20 7 3 20 7 3 20 7 3 20 7 3 20 7 3 20 7 3 20 4 2 16 4 2 16 4 2 16 4 2 16 4 2 16 4 2 16 4 2 16 4 2 16 4 2 16 4 2 16 4 2 16 4 2 16 4 2 16 4 2 16 4 2 16 4 2 16 6 4 18 6 4 18 6 4 18 6 4 18 6 4 18 6 4 18 6 4 18 6 4 18 6 4 18 6 4 18 6 4 18 6 4 18 6 4 18 6 4 18 6 4 18 5 5 17 6 6 18 4 7 16 4 7 16 4 7 16 4 7 16 4 7 16 4 7 16 4 7 16 8 11 20 8 11 20 8 11 20 8 11 20 8 11 20 8 11 20 8 11 20 7 11 20 8 15 23 7 16 23 6 15 22 6 15 22 5 14 21 4 13 20 4 13 20 4 13 20 17 26 33 20 29 36 25 34 41 32 41 48 39 48 55 46 55 62 52 61 68 55 64 71 56 65 72 56 65 72 56 65 72 56 65 72 56 65 72 56 65 72 56 65 72 56 65 72 54 63 70 54 63 70 54 63 70 54 63 70 54 63 70 54 63 70 54 63 70 54 63 70 49 56 64 47 54 62 45 52 60 42 49 57 38 45 53 35 42 50 33 40 48 31 38 46 19 26 34 17 24 32 15 22 30 12 19 27 8 15 23 5 12 20 3 10 18 1 8 16 8 17 22 8 17 22 8 17 22 8 17 22 8 17 22 8 17 22 8 17 22 8 17 22 7 16 21 9 18 23 11 20 25 14 23 28 18 27 32 21 30 35 23 32 37 25 34 39 23 31 34 23 31 34 23 31 34 23 31 34 23 31 34 23 31 34 23 31 34 23 31 34 22 30 33 22 30 33 22 30 33 22 30 33 22 30 33 22 30 33 22 30 33 24 29 32 29 27 30 31 27 28 31 27 28 31 27 28 31 27 28 31 27 28 31 27 28 31 27 28 34 30 31 34 30 31 34 30 31 34 30 31 34 30 31 34 30 31 34 30 31 34 30 29 37 31 31 37 32 29 37 32 29 37 32 29 37 32 29 37 32 29 37 32 29 37 32 29 37 32 29 37 32 29 37 32 29 37 32 29 37 32 29 37 32 29 37 32 29 37 32 29
7 3 20 7 3 20 7 3 20 7 3 20 7 3 20 7 3 20 7 3 20 7 3 20 7 3 20 7 3 20 7 3 20 7 3 20 4 2 16 4 2 16 4 2 16 4 2 16 4 2 16 4 2 16 4 2 16 4 2 16 4 2 16 4 2 16 4 2 16 4 2 16 4 2 16 4 2 16 4 2 16 4 2 16 6 4 18 6 4 18 6 4 18 6 4 18 6 4 18 6 4 18 6 4 18 6 4 18 6 4 18 6 4 18 6 4 18 6 4 18 6 4 18 6 4 18 6 4 18 5 5 17 6 6 18 4 7 16 4 7 16 4 7 16 4 7 16 4 7 16 4 7 16 4 7 16 8 11 20 8 11 20 8 11 20 8 11 20 8 11 20 8 11 20 8 11 20 7 11 20 1 8 16 1 10 17 1 10 17 2 11 18 3 12 19 3 12 19 4 13 20 4 13 20 23 32 39 25 34 41 29 38 45 35 44 51 41 50 57 47 56 63 51 60 67 54 63 70 56 65 72 56 65 72 56 65 72 56 65 72 56 65 72 56 65 72 56 65 72 56 65 72 54 63 70 54 63 70 54 63 70 54 63 70 54 63 70 54 63 70 54 63 70 54 63 70 49 56 64 47 54 62 45 52 60 42 49 57 38 45 53 35 42 50 33 40 48 31 38 46 19 26 34 17 24 32 15 22 30 12 19 27 8 15 23 5 12 20 3 10 18 1 8 16 8 17 22 8 17 22 8 17 22 8 17 22 8 17 22 8 17 22 8 17 22 8 17 22 7 16 21 9 18 23 11 20 25 14 23 28 18 27 32 21 30 35 23 32 37 25 34 39 23 31 34 23 31 34 23 31 34 23 31 34 23 31 34 23 31 34 23 31 34 23 31 34 22 30 33 22 30 33 22 30 33 22 30 33 22 30 33 22 30 33 22 30 33 24 29 32 29 27 30 31 27 28 31 27 28 31 27 28 31 27 28 31 27 28 31 27 28 31 27 28 34 30 31 34 30 31 34 30 31 34 30 31 34 30 31 34 30 31 34 30 31 34 30 29 37 31 31 37 32 29 37 32 29 37 32 29 37 32 29 37 32 29 37 32 29 37 32 29 37 32 29 37 32 29 37 32 29 37 32 29 37 32 29 37 32 29 37 32 29 37 32 29
