P3
172 37
255
0 9 0 0 9 0 0 9 0 0 9 0 0 9 0 0 9 0 0 9 0 0 9 0 0 9 0 0 9 0 0 9 0 0 9 0 0 9 0 0 9 0 0 9 0 0 9 0 0 9 0 0 9 0 0 9 0 0 9 0 0 9 0 0 9 0 0 9 0 0 9 0 0 9 0 0 9 0 0 9 0 0 9 0 0 9 0 0 9 0 0 9 0 0 9 0 0 9 0 0 9 0 0 9 0 0 9 0 0 9 0 0 9 0 0 9 0 0 9 0 0 9 0 0 9 0 0 9 0 0 9 0 0 9 0 0 9 0 0 9 0 0 9 0 0 9 0 0 9 0 0 9 0 0 9 0 0 9 0 0 9 0 0 9 0 0 9 0 0 9 0 0 9 0 0 9 0 0 9 0 0 8 1 0 8 1 0 8 1 0 8 1 0 8 1 0 8 1 0 8 1 0 8 1 3 16 9 3 16 9 3 16 9 3 16 9 3 16 9 3 16 9 3 16 9 1 16 9 4 19 12 3 20 12 3 20 12 3 20 12 3 20 12 3 20 12 3 20 12 3 20 12 5 22 14 5 22 14 5 22 14 5 22 14 5 22 14 5 22 14 5 22 14 2 23 14 3 29 18 0 30 18 0 30 18 0 30 18 0 30 18 0 30 18 0 30 18 0 30 18 0 26 14 0 24 12 0 22 10 0 19 7 0 15 3 0 12 0 0 10 0 0 10 0 0 9 0 0 9 0 0 9 0 0 9 0 0 9 0 0 9 0 0 9 0 0 9 0 0 17 4 0 19 6 0 24 11 5 31 18 11 37 24 18 44 31 23 49 36 25 51 38 43 67 54 45 69 56 47 71 58 50 74 61 54 78 65 57 81 68 59 83 70 61 85 72 64 88 75 64 88 75 64 88 75 64 88 75 64 88 75 64 88 75 64 88 75 68 85 77 77 78 80 84 77 84 86 79 86 89 82 89 93 86 93 96 89 96 98 91 98 100 93 100 102 95 102 102 95 102 102 95 102 102 95 102 102 95 102 102 95 102 102 95 102 104 94 102 109 96 105 109 96 105 111 95 105 109 96 105 111 95 105 109 96 105 111 95 105 109 96 105 96 80 90 94 81 90 96 80 90 94 81 90 96 80 90 94 81 90 96 80 90 94 81 88
0 8 0 0 9 0 0 8 0 0 9 0 0 8 0 0 9 0 0 8 0 0 9 0 0 8 0 0 9 0 0 8 0 0 9 0 0 8 0 0 9 0 0 8 0 0 9 0 0 8 0 0 9 0 0 8 0 0 9 0 0 8 0 0 9 0 0 8 0 0 9 0 0 8 0 0 9 0 0 8 0 0 9 0 0 8 0 0 9 0 0 8 0 0 9 0 0 8 0 0 9 0 0 8 0 0 9 0 0 8 0 0 9 0 0 8 0 0 9 0 0 8 0 0 9 0 0 8 0 0 9 0 0 8 0 0 9 0 0 8 0 0 9 0 0 8 0 0 9 0 0 8 0 0 9 0 0 8 0 0 9 0 0 8 0 0 9 0 0 8 0 0 9 0 0 8 0 0 7 0 0 8 1 0 7 3 0 6 3 0 7 3 0 6 3 0 7 3 0 6 3 0 7 3 5 14 11 4 15 11 5 14 11 4 15 11 5 14 11 4 15 11 5 14 11 4 15 11 6 18 14 4 19 12 4 19 14 4 19 12 4 19 14 4 19 12 4 19 14 4 19 12 6 21 16 6 21 14 6 21 16 6 21 14 6 21 16 6 21 14 6 21 16 3 23 14 3 29 20 0 30 18 0 30 20 0 30 18 0 30 20 0 30 18 0 30 20 0 30 18 0 26 16 0 24 12 0 22 12 0 19 7 0 15 5 0 12 0 0 10 0 0 10 0 0 9 0 0 9 0 0 8 0 0 9 0 0 8 0 0 9 0 0 8 0 0 9 0 0 16 6 0 19 8 0 23 13 5 31 20 13 36 26 18 44 33 25 48 38 27 50 40 43 66 56 45 69 56 47 70 60 50 74 61 54 77 67 57 81 68 59 82 72 61 85 72 64 87 77 64 88 75 64 87 77 64 88 75 64 87 77 64 88 75 64 87 77 68 85 77 75 79 80 81 79 84 85 80 86 86 84 89 92 87 93 93 91 96 97 92 98 97 95 100 101 96 102 99 97 102 101 96 102 99 97 102 101 96 102 99 97 102 101 96 102 102 95 102 111 95 105 112 95 105 112 95 105 112 95 105 112 95 105 112 95 105 112 95 105 112 95 105 95 78 88 95 78 88 95 78 88 95 78 88 95 78 88 95 78 88 95 78 88 94 78 88
0 3 0 0 3 0 0 3 0 0 3 0 0 3 0 0 3 0 0 3 0 0 3 0 0 3 0 0 3 0 0 3 0 0 3 0 0 3 0 0 3 0 0 3 0 0 3 0 0 3 0 0 3 0 0 3 0 0 3 0 0 3 0 0 3 0 0 3 0 0 3 0 0 3 0 0 3 0 0 3 0 0 3 0 0 3 0 0 3 0 0 3 0 0 3 0 0 3 0 0 3 0 0 3 0 0 3 0 0 3 0 0 3 0 0 3 0 0 3 0 0 3 0 0 3 0 0 3 0 0 3 0 0 3 0 0 3 0 0 3 0 0 3 0 0 3 0 0 3 0 0 3 0 0 3 0 0 3 0 0 3 0 0 3 0 0 3 0 0 3 0 0 3 0 0 3 0 0 2 0 0 3 4 0 3 4 1 2 4 0 3 4 1 2 4 0 3 4 1 2 4 0 3 4 4 5 7 2 6 7 4 5 7 2 6 7 4 5 7 2 6 7 4 5 7 2 6 7 7 16 15 6 17 13 6 16 15 6 17 13 6 16 15 6 17 13 6 16 15 6 17 13 7 17 16 7 18 14 7 17 16 7 18 14 7 17 16 7 18 14 7 17 16 6 18 14 10 25 22 10 25 20 10 25 22 10 25 20 10 25 22 10 25 20 10 25 22 10 25 20 3 18 15 7 22 17 13 28 25 15 30 25 12 27 24 3 18 13 0 8 5 0 5 0 0 4 0 0 4 0 0 3 0 0 4 0 0 3 0 0 4 0 0 3 0 0 4 0 0 3 0 0 6 2 1 10 7 7 18 14 14 23 20 20 31 27 26 35 32 28 37 34 48 57 54 49 58 53 52 61 58 55 64 59 58 67 64 62 71 66 64 73 70 65 74 69 65 74 71 65 74 69 65 74 71 65 74 69 65 74 71 65 74 69 65 74 71 68 72 71 72 67 71 77 67 75 80 69 77 82 72 80 87 76 84 89 79 87 92 81 89 93 83 91 96 85 93 95 85 93 96 85 93 95 85 93 96 85 93 95 85 93 96 85 93 97 84 93 100 83 93 102 82 93 102 82 93 102 82 93 102 82 93 102 82 93 102 82 93 102 82 93 93 73 84 93 73 84 93 73 84 93 73 84 93 73 84 93 73 84 93 73 84 91 74 84
0 0 0 0 0 0 0 0 0 0 0 0 0 0 0 0 0 0 0 0 0 0 0 0 0 0 0 0 0 0 0 0 0 0 0 0 0 0 0 0 0 0 0 0 0 0 0 0 0 0 0 0 0 0 0 0 0 0 0 0 0 0 0 0 0 0 0 0 0 0 0 0 0 0 0 0 0 0 0 0 0 0 0 0 0 0 0 0 0 0 0 0 0 0 0 0 0 0 0 0 0 0 0 0 0 0 0 0 0 0 0 0 0 0 0 0 0 0 0 0 0 0 0 0 0 0 0 0 0 0 0 0 0 0 0 0 0 0 0 0 0 0 0 0 0 0 0 0 0 0 0 0 0 0 0 0 0 0 0 0 0 0 0 0 0 0 0 0 0 0 0 0 0 0 0 0 0 0 0 0 2 1 6 2 1 6 2 1 6 2 1 6 2 1 6 2 1 6 2 1 6 2 1 6 5 4 9 5 4 9 5 4 9 5 4 9 5 4 9 5 4 9 5 4 9 4 5 9 9 15 15 7 16 15 7 16 15 7 16 15 7 16 15 7 16 15 7 16 15 7 16 15 8 17 16 8 17 16 8 17 16 8 17 16 8 17 16 8 17 16 8 17 16 8 17 16 14 23 22 14 23 22 14 23 22 14 23 22 14 23 22 14 23 22 14 23 22 14 23 22 7 16 15 11 20 19 17 26 25 19 28 27 16 25 24 7 16 15 0 6 5 0 2 2 0 1 2 0 0 2 0 0 2 0 0 2 0 0 2 0 0 2 0 0 2 0 0 2 0 0 2 1 2 4 6 7 9 13 14 16 19 20 22 26 27 29 31 32 34 33 34 36 52 54 53 53 55 54 55 57 56 59 61 60 62 64 63 65 67 66 68 70 69 69 71 70 70 72 71 70 72 71 70 72 71 70 72 71 70 72 71 70 72 71 70 72 71 72 70 71 75 65 73 79 66 75 81 68 77 84 71 80 88 75 84 91 78 87 93 80 89 95 82 91 97 84 93 97 84 93 97 84 93 97 84 93 97 84 93 97 84 93 97 84 93 99 83 93 100 83 93 102 82 93 102 82 93 102 82 93 102 82 93 102 82 93 102 82 93 102 82 93 93 73 84 93 73 84 93 73 84 93 73 84 93 73 84 93 73 84 93 73 84 93 73 84
0 0 0 0 0 0 0 0 0 0 0 0 0 0 0 0 0 0 0 0 0 0 0 0 0 0 0 0 0 0 0 0 0 0 0 0 0 0 0 0 0 0 0 0 0 0 0 0 0 0 0 0 0 0 0 0 0 0 0 0 0 0 0 0 0 0 0 0 0 0 0 0 0 0 0 0 0 0 0 0 0 0 0 0 0 0 0 0 0 0 0 0 0 0 0 0 0 0 0 0 0 0 0 0 0 0 0 0 0 0 0 0 0 0 0 0 0 0 0 0 0 0 0 0 0 0 0 0 0 0 0 0 0 0 0 0 0 0 0 0 0 0 0 0 0 0 0 0 0 0 0 0 0 0 0 0 0 0 0 0 0 0 0 0 0 0 0 0 0 0 0 0 0 0 0 0 0 0 0 0 2 1 6 2 1 6 2 1 6 2 1 6 2 1 6 2 1 6 2 1 6 2 1 6 5 4 9 5 4 9 5 4 9 5 4 9 5 4 9 5 4 9 5 4 9 4 5 9 9 15 15 7 16 15 7 16 15 7 16 15 7 16 15 7 16 15 7 16 15 7 16 15 8 17 16 8 17 16 8 17 16 8 17 16 8 17 16 8 17 16 8 17 16 8 17 16 14 23 22 14 23 22 14 23 22 14 23 22 14 23 22 14 23 22 14 23 22 14 23 22 7 16 15 11 20 19 17 26 25 19 28 27 16 25 24 7 16 15 0 6 5 0 2 2 0 1 2 0 0 2 0 0 2 0 0 2 0 0 2 0 0 2 0 0 2 0 0 2 0 0 2 1 2 4 6 7 9 13 14 16 19 20 22 26 27 29 31 32 34 33 34 36 49 51 50 51 53 52 53 55 54 56 58 57 60 62 61 63 65 64 65 67 66 67 69 68 70 72 71 70 72 71 70 72 71 70 72 71 70 72 71 70 72 71 70 72 71 72 70 71 75 65 73 79 66 75 81 68 77 84 71 80 88 75 84 91 78 87 93 80 89 95 82 91 97 84 93 97 84 93 97 84 93 97 84 93 97 84 93 97 84 93 97 84 93 99 83 93 100 83 93 102 82 93 102 82 93 102 82 93 102 82 93 102 82 93 102 82 93 102 82 93 93 73 84 93 73 84 93 73 84 93 73 84 93 73 84 93 73 84 93 73 84 93 73 84
0 0 0 0 0 0 0 0 0 0 0 0 0 0 0 0 0 0 0 0 0 0 0 0 0 0 0 0 0 0 0 0 0 0 0 0 0 0 0 0 0 0 0 0 0 0 0 0 0 0 0 0 0 0 0 0 0 0 0 0 0 0 0 0 0 0 0 0 0 0 0 0 0 0 0 0 0 0 0 0 0 0 0 0 0 0 0 0 0 0 0 0 0 0 0 0 0 0 0 0 0 0 0 0 0 0 0 0 0 0 0 0 0 0 0 0 0 0 0 0 0 0 0 0 0 0 0 0 0 0 0 0 0 0 0 0 0 0 0 0 0 0 0 0 0 0 0 0 0 0 0 0 0 0 0 0 0 0 0 0 0 0 0 0 0 0 0 0 0 0 0 0 0 0 0 0 0 0 0 0 2 1 6 2 1 6 2 1 6 2 1 6 2 1 6 2 1 6 2 1 6 2 1 6 5 4 9 5 4 9 5 4 9 5 4 9 5 4 9 5 4 9 5 4 9 4 5 9 9 15 15 7 16 15 7 16 15 7 16 15 7 16 15 7 16 15 7 16 15 7 16 15 8 17 16 8 17 16 8 17 16 8 17 16 8 17 16 8 17 16 8 17 16 8 17 16 14 23 22 14 23 22 14 23 22 14 23 22 14 23 22 14 23 22 14 23 22 14 23 22 7 16 15 11 20 19 17 26 25 19 28 27 16 25 24 7 16 15 0 6 5 0 2 2 0 1 2 0 0 2 0 0 2 0 0 2 0 0 2 0 0 2 0 0 2 0 0 2 0 0 2 1 2 4 6 7 9 13 14 16 19 20 22 26 27 29 31 32 34 33 34 36 46 48 47 47 49 48 50 52 51 53 55 54 56 58 57 60 62 61 62 64 63 63 65 64 70 72 71 70 72 71 70 72 71 70 72 71 70 72 71 70 72 71 70 72 71 72 70 71 75 65 73 79 66 75 81 68 77 84 71 80 88 75 84 91 78 87 93 80 89 95 82 91 97 84 93 97 84 93 97 84 93 97 84 93 97 84 93 97 84 93 97 84 93 99 83 93 100 83 93 102 82 93 102 82 93 102 82 93 102 82 93 102 82 93 102 82 93 102 82 93 93 73 84 93 73 84 93 73 84 93 73 84 93 73 84 93 73 84 93 73 84 93 73 84
0 0 0 0 0 0 0 0 0 0 0 0 0 0 0 0 0 0 0 0 0 0 0 0 0 0 0 0 0 0 0 0 0 0 0 0 0 0 0 0 0 0 0 0 0 0 0 0 0 0 0 0 0 0 0 0 0 0 0 0 0 0 0 0 0 0 0 0 0 0 0 0 0 0 0 0 0 0 0 0 0 0 0 0 0 0 0 0 0 0 0 0 0 0 0 0 0 0 0 0 0 0 0 0 0 0 0 0 0 0 0 0 0 0 0 0 0 0 0 0 0 0 0 0 0 0 0 0 0 0 0 0 0 0 0 0 0 0 0 0 0 0 0 0 0 0 0 0 0 0 0 0 0 0 0 0 0 0 0 0 0 0 0 0 0 0 0 0 0 0 0 0 0 0 0 0 0 0 0 0 2 1 6 2 1 6 2 1 6 2 1 6 2 1 6 2 1 6 2 1 6 2 1 6 5 4 9 5 4 9 5 4 9 5 4 9 5 4 9 5 4 9 5 4 9 4 5 9 9 15 15 7 16 15 7 16 15 7 16 15 7 16 15 7 16 15 7 16 15 7 16 15 8 17 16 8 17 16 8 17 16 8 17 16 8 17 16 8 17 16 8 17 16 8 17 16 14 23 22 14 23 22 14 23 22 14 23 22 14 23 22 14 23 22 14 23 22 14 23 22 7 16 15 11 20 19 17 26 25 19 28 27 16 25 24 7 16 15 0 6 5 0 2 2 0 1 2 0 0 2 0 0 2 0 0 2 0 0 2 0 0 2 0 0 2 0 0 2 0 0 2 1 2 4 6 7 9 13 14 16 19 20 22 26 27 29 31 32 34 33 34 36 43 45 44 44 46 45 46 48 47 50 52 51 53 55 54 56 58 57 59 61 60 60 62 61 70 72 71 70 72 71 70 72 71 70 72 71 70 72 71 70 72 71 70 72 71 72 70 71 75 65 73 79 66 75 81 68 77 84 71 80 88 75 84 91 78 87 93 80 89 95 82 91 97 84 93 97 84 93 97 84 93 97 84 93 97 84 93 97 84 93 97 84 93 99 83 93 100 83 93 102 82 93 102 82 93 102 82 93 102 82 93 102 82 93 102 82 93 102 82 93 93 73 84 93 73 84 93 73 84 93 73 84 93 73 84 93 73 84 93 73 84 93 73 84
0 0 0 0 0 0 0 0 0 0 0 0 0 0 0 0 0 0 0 0 0 0 0 0 0 0 0 0 0 0 0 0 0 0 0 0 0 0 0 0 0 0 0 0 0 0 0 0 0 0 0 0 0 0 0 0 0 0 0 0 0 0 0 0 0 0 0 0 0 0 0 0 0 0 0 0 0 0 0 0 0 0 0 0 0 0 0 0 0 0 0 0 0 0 0 0 0 0 0 0 0 0 0 0 0 0 0 0 0 0 0 0 0 0 0 0 0 0 0 0 0 0 0 0 0 0 0 0 0 0 0 0 0 0 0 0 0 0 0 0 0 0 0 0 0 0 0 0 0 0 0 0 0 0 0 0 0 0 0 0 0 0 0 0 0 0 0 0 0 0 0 0 0 0 0 0 0 0 0 0 2 1 6 2 1 6 2 1 6 2 1 6 2 1 6 2 1 6 2 1 6 2 1 6 5 4 9 5 4 9 5 4 9 5 4 9 5 4 9 5 4 9 5 4 9 4 5 9 9 15 15 7 16 15 7 16 15 7 16 15 7 16 15 7 16 15 7 16 15 7 16 15 8 17 16 8 17 16 8 17 16 8 17 16 8 17 16 8 17 16 8 17 16 8 17 16 14 23 22 14 23 22 14 23 22 14 23 22 14 23 22 14 23 22 14 23 22 14 23 22 7 16 15 11 20 19 17 26 25 19 28 27 16 25 24 7 16 15 0 6 5 0 2 2 0 1 2 0 0 2 0 0 2 0 0 2 0 0 2 0 0 2 0 0 2 0 0 2 0 0 2 1 2 4 6 7 9 13 14 16 19 20 22 26 27 29 31 32 34 33 34 36 39 41 40 41 43 42 43 45 44 46 48 47 50 52 51 53 55 54 55 57 56 57 59 58 70 72 71 70 72 71 70 72 71 70 72 71 70 72 71 70 72 71 70 72 71 72 70 71 75 65 73 79 66 75 81 68 77 84 71 80 88 75 84 91 78 87 93 80 89 95 82 91 97 84 93 97 84 93 97 84 93 97 84 93 97 84 93 97 84 93 97 84 93 99 83 93 100 83 93 102 82 93 102 82 93 102 82 93 102 82 93 102 82 93 102 82 93 102 82 93 93 73 84 93 73 84 93 73 84 93 73 84 93 73 84 93 73 84 93 73 84 93 73 84
0 0 0 0 0 0 0 0 0 0 0 0 0 0 0 0 0 0 0 0 0 0 0 0 0 0 0 0 0 0 0 0 0 0 0 0 0 0 0 0 0 0 0 0 0 0 0 0 0 0 0 0 0 0 0 0 0 0 0 0 0 0 0 0 0 0 0 0 0 0 0 0 0 0 0 0 0 0 0 0 0 0 0 0 0 0 0 0 0 0 0 0 0 0 0 0 0 0 0 0 0 0 0 0 0 0 0 0 0 0 0 0 0 0 0 0 0 0 0 0 0 0 0 0 0 0 0 0 0 0 0 0 0 0 0 0 0 0 0 0 0 0 0 0 0 0 0 0 0 0 0 0 0 0 0 0 0 0 0 0 0 0 0 0 0 0 0 0 0 0 0 0 0 0 0 0 0 0 0 0 2 1 6 2 1 6 2 1 6 2 1 6 2 1 6 2 1 6 2 1 6 2 1 6 5 4 9 5 4 9 5 4 9 5 4 9 5 4 9 5 4 9 5 4 9 4 5 9 9 15 15 7 16 15 7 16 15 7 16 15 7 16 15 7 16 15 7 16 15 7 16 15 8 17 16 8 17 16 8 17 16 8 17 16 8 17 16 8 17 16 8 17 16 8 17 16 14 23 22 14 23 22 14 23 22 14 23 22 14 23 22 14 23 22 14 23 22 14 23 22 7 16 15 11 20 19 17 26 25 19 28 27 16 25 24 7 16 15 0 6 5 0 2 2 0 1 2 0 0 2 0 0 2 0 0 2 0 0 2 0 0 2 0 0 2 0 0 2 0 0 2 1 2 4 6 7 9 13 14 16 19 20 22 26 27 29 31 32 34 33 34 36 37 39 38 38 40 39 41 43 42 44 46 45 47 49 48 51 53 52 53 55 54 54 56 55 70 72 71 70 72 71 70 72 71 70 72 71 70 72 71 70 72 71 70 72 71 72 70 71 75 65 73 79 66 75 81 68 77 84 71 80 88 75 84 91 78 87 93 80 89 95 82 91 97 84 93 97 84 93 97 84 93 97 84 93 97 84 93 97 84 93 97 84 93 99 83 93 100 83 93 102 82 93 102 82 93 102 82 93 102 82 93 102 82 93 102 82 93 102 82 93 93 73 84 93 73 84 93 73 84 93 73 84 93 73 84 93 73 84 93 73 84 93 73 84
0 0 0 0 0 0 0 0 0 0 0 0 0 0 0 0 0 0 0 0 0 0 0 0 0 0 0 0 0 0 0 0 0 0 0 0 0 0 0 0 0 0 0 0 0 0 0 0 0 0 0 0 0 0 0 0 0 0 0 0 0 0 0 0 0 0 0 0 0 0 0 0 0 0 0 0 0 0 0 0 0 0 0 0 0 0 0 0 0 0 0 0 0 0 0 0 0 0 0 0 0 0 0 0 0 0 0 0 0 0 0 0 0 0 0 0 0 0 0 0 0 0 0 0 0 0 0 0 0 0 0 0 0 0 0 0 0 0 0 0 0 0 0 0 0 0 0 0 0 0 0 0 0 0 0 0 0 0 0 0 0 0 0 0 0 0 0 0 0 0 0 0 0 0 0 0 0 0 0 0 2 1 6 2 1 6 2 1 6 2 1 6 2 1 6 2 1 6 2 1 6 2 1 6 5 4 9 5 4 9 5 4 9 5 4 9 5 4 9 5 4 9 5 4 9 4 5 9 9 15 15 7 16 15 7 16 15 7 16 15 7 16 15 7 16 15 7 16 15 7 16 15 8 17 16 8 17 16 8 17 16 8 17 16 8 17 16 8 17 16 8 17 16 8 17 16 14 23 22 14 23 22 14 23 22 14 23 22 14 23 22 14 23 22 14 23 22 14 23 22 7 16 15 11 20 19 17 26 25 19 28 27 16 25 24 7 16 15 0 6 5 0 2 2 0 1 2 0 0 2 0 0 2 0 0 2 0 0 2 0 0 2 0 0 2 0 0 2 0 0 2 1 2 4 6 7 9 13 14 16 19 20 22 26 27 29 31 32 34 33 34 36 36 38 37 37 39 38 39 41 40 43 45 44 46 48 47 49 51 50 52 54 53 53 55 54 70 72 71 70 72 71 70 72 71 70 72 71 70 72 71 70 72 71 70 72 71 72 70 71 75 65 73 79 66 75 81 68 77 84 71 80 88 75 84 91 78 87 93 80 89 95 82 91 97 84 93 97 84 93 97 84 93 97 84 93 97 84 93 97 84 93 97 84 93 99 83 93 100 83 93 102 82 93 102 82 93 102 82 93 102 82 93 102 82 93 102 82 93 102 82 93 93 73 84 93 73 84 93 73 84 93 73 84 93 73 84 93 73 84 93 73 84 93 73 84
0 0 0 0 0 0 0 0 0 0 0 0 0 0 0 0 0 0 0 0 0 0 0 0 0 0 0 0 0 0 0 0 0 0 0 0 0 0 0 0 0 0 0 0 0 0 0 0 0 0 0 0 0 0 0 0 0 0 0 0 0 0 0 0 0 0 0 0 0 0 0 0 0 0 0 0 0 0 0 0 0 0 0 0 0 0 0 0 0 0 0 0 0 0 0 0 0 0 0 0 0 0 0 0 0 0 0 0 0 0 0 0 0 0 0 0 0 0 0 0 0 0 0 0 0 0 0 0 0 0 0 0 0 0 0 0 0 0 0 0 0 0 0 0 0 0 0 0 0 0 0 0 0 0 0 0 0 0 0 0 0 0 0 0 0 0 0 0 0 0 0 0 0 0 0 0 0 0 0 0 1 0 5 1 0 5 1 0 5 1 0 5 1 0 5 1 0 5 1 0 5 1 0 5 1 0 5 1 0 5 1 0 5 1 0 5 1 0 5 1 0 5 1 0 5 0 1 5 6 12 12 4 13 12 4 13 12 4 13 12 4 13 12 4 13 12 4 13 12 4 13 12 8 17 16 8 17 16 8 17 16 8 17 16 8 17 16 8 17 16 8 17 16 8 17 16 15 24 23 15 24 23 15 24 23 15 24 23 15 24 23 15 24 23 15 24 23 15 24 23 11 20 19 9 18 17 7 16 15 4 13 12 0 9 8 0 6 5 0 4 3 0 2 2 0 2 3 0 1 3 0 1 3 0 1 3 0 1 3 0 1 3 0 1 3 0 1 3 1 2 4 3 4 6 5 6 8 8 9 11 12 13 15 15 16 18 17 18 20 19 20 22 33 35 34 35 37 36 37 39 38 40 42 41 44 46 45 47 49 48 49 51 50 51 53 52 66 68 67 66 68 67 66 68 67 66 68 67 66 68 67 66 68 67 66 68 67 68 66 67 82 72 80 84 71 80 84 71 80 84 71 80 84 71 80 84 71 80 84 71 80 84 71 80 87 74 83 87 74 83 87 74 83 87 74 83 87 74 83 87 74 83 87 74 83 89 73 83 90 73 83 92 72 83 92 72 83 92 72 83 92 72 83 92 72 83 92 72 83 92 72 83 90 70 81 90 70 81 90 70 81 90 70 81 90 70 81 90 70 81 90 70 81 90 70 81
0 0 0 0 0 0 0 0 0 0 0 0 0 0 0 0 0 0 0 0 0 0 0 0 0 0 0 0 0 0 0 0 0 0 0 0 0 0 0 0 0 0 0 0 0 0 0 0 0 0 0 0 0 0 0 0 0 0 0 0 0 0 0 0 0 0 0 0 0 0 0 0 0 0 0 0 0 0 0 0 0 0 0 0 0 0 0 0 0 0 0 0 0 0 0 0 0 0 0 0 0 0 0 0 0 0 0 0 0 0 0 0 0 0 0 0 0 0 0 0 0 0 0 0 0 0 0 0 0 0 0 0 0 0 0 0 0 0 0 0 0 0 0 0 0 0 0 0 0 0 0 0 0 0 0 0 0 0 0 0 0 0 0 0 0 0 0 0 0 0 0 0 0 0 0 0 0 0 0 0 1 0 5 1 0 5 1 0 5 1 0 5 1 0 5 1 0 5 1 0 5 1 0 5 1 0 5 1 0 5 1 0 5 1 0 5 1 0 5 1 0 5 1 0 5 0 1 5 6 12 12 4 13 12 4 13 12 4 13 12 4 13 12 4 13 12 4 13 12 4 13 12 8 17 16 8 17 16 8 17 16 8 17 16 8 17 16 8 17 16 8 17 16 8 17 16 15 24 23 15 24 23 15 24 23 15 24 23 15 24 23 15 24 23 15 24 23 15 24 23 11 20 19 9 18 17 7 16 15 4 13 12 0 9 8 0 6 5 0 4 3 0 2 2 0 2 3 0 1 3 0 1 3 0 1 3 0 1 3 0 1 3 0 1 3 0 1 3 1 2 4 3 4 6 5 6 8 8 9 11 12 13 15 15 16 18 17 18 20 19 20 22 33 35 34 35 37 36 37 39 38 40 42 41 44 46 45 47 49 48 49 51 50 51 53 52 64 66 65 64 66 65 64 66 65 64 66 65 64 66 65 64 66 65 64 66 65 66 64 65 80 70 78 82 69 78 82 69 78 82 69 78 82 69 78 82 69 78 82 69 78 82 69 78 87 74 83 87 74 83 87 74 83 87 74 83 87 74 83 87 74 83 87 74 83 89 73 83 90 73 83 92 72 83 92 72 83 92 72 83 92 72 83 92 72 83 92 72 83 92 72 83 90 70 81 90 70 81 90 70 81 90 70 81 90 70 81 90 70 81 90 70 81 90 70 81
0 0 0 0 0 0 0 0 0 0 0 0 0 0 0 0 0 0 0 0 0 0 0 0 0 0 0 0 0 0 0 0 0 0 0 0 0 0 0 0 0 0 0 0 0 0 0 0 0 0 0 0 0 0 0 0 0 0 0 0 0 0 0 0 0 0 0 0 0 0 0 0 0 0 0 0 0 0 0 0 0 0 0 0 0 0 0 0 0 0 0 0 0 0 0 0 0 0 0 0 0 0 0 0 0 0 0 0 0 0 0 0 0 0 0 0 0 0 0 0 0 0 0 0 0 0 0 0 0 0 0 0 0 0 0 0 0 0 0 0 0 0 0 0 0 0 0 0 0 0 0 0 0 0 0 0 0 0 0 0 0 0 0 0 0 0 0 0 0 0 0 0 0 0 0 0 0 0 0 0 1 0 5 1 0 5 1 0 5 1 0 5 1 0 5 1 0 5 1 0 5 1 0 5 1 0 5 1 0 5 1 0 5 1 0 5 1 0 5 1 0 5 1 0 5 0 1 5 6 12 12 4 13 12 4 13 12 4 13 12 4 13 12 4 13 12 4 13 12 4 13 12 8 17 16 8 17 16 8 17 16 8 17 16 8 17 16 8 17 16 8 17 16 8 17 16 15 24 23 15 24 23 15 24 23 15 24 23 15 24 23 15 24 23 15 24 23 15 24 23 11 20 19 9 18 17 7 16 15 4 13 12 0 9 8 0 6 5 0 4 3 0 2 2 0 2 3 0 1 3 0 1 3 0 1 3 0 1 3 0 1 3 0 1 3 0 1 3 1 2 4 3 4 6 5 6 8 8 9 11 12 13 15 15 16 18 17 18 20 19 20 22 33 35 34 35 37 36 37 39 38 40 42 41 44 46 45 47 49 48 49 51 50 51 53 52 62 64 63 62 64 63 62 64 63 62 64 63 62 64 63 62 64 63 62 64 63 64 62 63 78 68 76 80 67 76 80 67 76 80 67 76 80 67 76 80 67 76 80 67 76 80 67 76 87 74 83 87 74 83 87 74 83 87 74 83 87 74 83 87 74 83 87 74 83 89 73 83 90 73 83 92 72 83 92 72 83 92 72 83 92 72 83 92 72 83 92 72 83 92 72 83 90 70 81 90 70 81 90 70 81 90 70 81 90 70 81 90 70 81 90 70 81 90 70 81
0 0 0 0 0 0 0 0 0 0 0 0 0 0 0 0 0 0 0 0 0 0 0 0 0 0 0 0 0 0 0 0 0 0 0 0 0 0 0 0 0 0 0 0 0 0 0 0 0 0 0 0 0 0 0 0 0 0 0 0 0 0 0 0 0 0 0 0 0 0 0 0 0 0 0 0 0 0 0 0 0 0 0 0 0 0 0 0 0 0 0 0 0 0 0 0 0 0 0 0 0 0 0 0 0 0 0 0 0 0 0 0 0 0 0 0 0 0 0 0 0 0 0 0 0 0 0 0 0 0 0 0 0 0 0 0 0 0 0 0 0 0 0 0 0 0 0 0 0 0 0 0 0 0 0 0 0 0 0 0 0 0 0 0 0 0 0 0 0 0 0 0 0 0 0 0 0 0 0 0 1 0 5 1 0 5 1 0 5 1 0 5 1 0 5 1 0 5 1 0 5 1 0 5 1 0 5 1 0 5 1 0 5 1 0 5 1 0 5 1 0 5 1 0 5 0 1 5 6 12 12 4 13 12 4 13 12 4 13 12 4 13 12 4 13 12 4 13 12 4 13 12 8 17 16 8 17 16 8 17 16 8 17 16 8 17 16 8 17 16 8 17 16 8 17 16 15 24 23 15 24 23 15 24 23 15 24 23 15 24 23 15 24 23 15 24 23 15 24 23 11 20 19 9 18 17 7 16 15 4 13 12 0 9 8 0 6 5 0 4 3 0 2 2 0 2 3 0 1 3 0 1 3 0 1 3 0 1 3 0 1 3 0 1 3 0 1 3 1 2 4 3 4 6 5 6 8 8 9 11 12 13 15 15 16 18 17 18 20 19 20 22 33 35 34 35 37 36 37 39 38 40 42 41 44 46 45 47 49 48 49 51 50 51 53 52 59 61 60 59 61 60 59 61 60 59 61 60 59 61 60 59 61 60 59 61 60 61 59 60 75 65 73 77 64 73 77 64 73 77 64 73 77 64 73 77 64 73 77 64 73 77 64 73 87 74 83 87 74 83 87 74 83 87 74 83 87 74 83 87 74 83 87 74 83 89 73 83 90 73 83 92 72 83 92 72 83 92 72 83 92 72 83 92 72 83 92 72 83 92 72 83 90 70 81 90 70 81 90 70 81 90 70 81 90 70 81 90 70 81 90 70 81 90 70 81
0 0 0 0 0 0 0 0 0 0 0 0 0 0 0 0 0 0 0 0 0 0 0 0 0 0 0 0 0 0 0 0 0 0 0 0 0 0 0 0 0 0 0 0 0 0 0 0 0 0 0 0 0 0 0 0 0 0 0 0 0 0 0 0 0 0 0 0 0 0 0 0 0 0 0 0 0 0 0 0 0 0 0 0 0 0 0 0 0 0 0 0 0 0 0 0 0 0 0 0 0 0 0 0 0 0 0 0 0 0 0 0 0 0 0 0 0 0 0 0 0 0 0 0 0 0 0 0 0 0 0 0 0 0 0 0 0 0 0 0 0 0 0 0 0 0 0 0 0 0 0 0 0 0 0 0 0 0 0 0 0 0 0 0 0 0 0 0 0 0 0 0 0 0 0 0 0 0 0 0 1 0 5 1 0 5 1 0 5 1 0 5 1 0 5 1 0 5 1 0 5 1 0 5 1 0 5 1 0 5 1 0 5 1 0 5 1 0 5 1 0 5 1 0 5 0 1 5 6 12 12 4 13 12 4 13 12 4 13 12 4 13 12 4 13 12 4 13 12 4 13 12 8 17 16 8 17 16 8 17 16 8 17 16 8 17 16 8 17 16 8 17 16 8 17 16 15 24 23 15 24 23 15 24 23 15 24 23 15 24 23 15 24 23 15 24 23 15 24 23 11 20 19 9 18 17 7 16 15 4 13 12 0 9 8 0 6 5 0 4 3 0 2 2 0 2 3 0 1 3 0 1 3 0 1 3 0 1 3 0 1 3 0 1 3 0 1 3 1 2 4 3 4 6 5 6 8 8 9 11 12 13 15 15 16 18 17 18 20 19 20 22 33 35 34 35 37 36 37 39 38 40 42 41 44 46 45 47 49 48 49 51 50 51 53 52 55 57 56 55 57 56 55 57 56 55 57 56 55 57 56 55 57 56 55 57 56 57 55 56 71 61 69 73 60 69 73 60 69 73 60 69 73 60 69 73 60 69 73 60 69 73 60 69 87 74 83 87 74 83 87 74 83 87 74 83 87 74 83 87 74 83 87 74 83 89 73 83 90 73 83 92 72 83 92 72 83 92 72 83 92 72 83 92 72 83 92 72 83 92 72 83 90 70 81 90 70 81 90 70 81 90 70 81 90 70 81 90 70 81 90 70 81 90 70 81
0 0 0 0 0 0 0 0 0 0 0 0 0 0 0 0 0 0 0 0 0 0 0 0 0 0 0 0 0 0 0 0 0 0 0 0 0 0 0 0 0 0 0 0 0 0 0 0 0 0 0 0 0 0 0 0 0 0 0 0 0 0 0 0 0 0 0 0 0 0 0 0 0 0 0 0 0 0 0 0 0 0 0 0 0 0 0 0 0 0 0 0 0 0 0 0 0 0 0 0 0 0 0 0 0 0 0 0 0 0 0 0 0 0 0 0 0 0 0 0 0 0 0 0 0 0 0 0 0 0 0 0 0 0 0 0 0 0 0 0 0 0 0 0 0 0 0 0 0 0 0 0 0 0 0 0 0 0 0 0 0 0 0 0 0 0 0 0 0 0 0 0 0 0 0 0 0 0 0 0 1 0 5 1 0 5 1 0 5 1 0 5 1 0 5 1 0 5 1 0 5 1 0 5 1 0 5 1 0 5 1 0 5 1 0 5 1 0 5 1 0 5 1 0 5 0 1 5 6 12 12 4 13 12 4 13 12 4 13 12 4 13 12 4 13 12 4 13 12 4 13 12 8 17 16 8 17 16 8 17 16 8 17 16 8 17 16 8 17 16 8 17 16 8 17 16 15 24 23 15 24 23 15 24 23 15 24 23 15 24 23 15 24 23 15 24 23 15 24 23 11 20 19 9 18 17 7 16 15 4 13 12 0 9 8 0 6 5 0 4 3 0 2 2 0 2 3 0 1 3 0 1 3 0 1 3 0 1 3 0 1 3 0 1 3 0 1 3 1 2 4 3 4 6 5 6 8 8 9 11 12 13 15 15 16 18 17 18 20 19 20 22 33 35 34 35 37 36 37 39 38 40 42 41 44 46 45 47 49 48 49 51 50 51 53 52 52 54 53 52 54 53 52 54 53 52 54 53 52 54 53 52 54 53 52 54 53 54 52 53 68 58 66 70 57 66 70 57 66 70 57 66 70 57 66 70 57 66 70 57 66 70 57 66 87 74 83 87 74 83 87 74 83 87 74 83 87 74 83 87 74 83 87 74 83 89 73 83 90 73 83 92 72 83 92 72 83 92 72 83 92 72 83 92 72 83 92 72 83 92 72 83 90 70 81 90 70 81 90 70 81 90 70 81 90 70 81 90 70 81 90 70 81 90 70 81
0 0 0 0 0 0 0 0 0 0 0 0 0 0 0 0 0 0 0 0 0 0 0 0 0 0 0 0 0 0 0 0 0 0 0 0 0 0 0 0 0 0 0 0 0 0 0 0 0 0 0 0 0 0 0 0 0 0 0 0 0 0 0 0 0 0 0 0 0 0 0 0 0 0 0 0 0 0 0 0 0 0 0 0 0 0 0 0 0 0 0 0 0 0 0 0 0 0 0 0 0 0 0 0 0 0 0 0 0 0 0 0 0 0 0 0 0 0 0 0 0 0 0 0 0 0 0 0 0 0 0 0 0 0 0 0 0 0 0 0 0 0 0 0 0 0 0 0 0 0 0 0 0 0 0 0 0 0 0 0 0 0 0 0 0 0 0 0 0 0 0 0 0 0 0 0 0 0 0 0 1 0 5 1 0 5 1 0 5 1 0 5 1 0 5 1 0 5 1 0 5 1 0 5 1 0 5 1 0 5 1 0 5 1 0 5 1 0 5 1 0 5 1 0 5 0 1 5 6 12 12 4 13 12 4 13 12 4 13 12 4 13 12 4 13 12 4 13 12 4 13 12 8 17 16 8 17 16 8 17 16 8 17 16 8 17 16 8 17 16 8 17 16 8 17 16 15 24 23 15 24 23 15 24 23 15 24 23 15 24 23 15 24 23 15 24 23 15 24 23 11 20 19 9 18 17 7 16 15 4 13 12 0 9 8 0 6 5 0 4 3 0 2 2 0 2 3 0 1 3 0 1 3 0 1 3 0 1 3 0 1 3 0 1 3 0 1 3 1 2 4 3 4 6 5 6 8 8 9 11 12 13 15 15 16 18 17 18 20 19 20 22 33 35 34 35 37 36 37 39 38 40 42 41 44 46 45 47 49 48 49 51 50 51 53 52 50 52 51 50 52 51 50 52 51 50 52 51 50 52 51 50 52 51 50 52 51 52 50 51 66 56 64 68 55 64 68 55 64 68 55 64 68 55 64 68 55 64 68 55 64 68 55 64 87 74 83 87 74 83 87 74 83 87 74 83 87 74 83 87 74 83 87 74 83 89 73 83 90 73 83 92 72 83 92 72 83 92 72 83 92 72 83 92 72 83 92 72 83 92 72 83 90 70 81 90 70 81 90 70 81 90 70 81 90 70 81 90 70 81 90 70 81 90 70 81
0 0 0 0 0 0 0 0 0 0 0 0 0 0 0 0 0 0 0 0 0 0 0 0 0 0 0 0 0 0 0 0 0 0 0 0 0 0 0 0 0 0 0 0 0 0 0 0 0 0 0 0 0 0 0 0 0 0 0 0 0 0 0 0 0 0 0 0 0 0 0 0 0 0 0 0 0 0 0 0 0 0 0 0 0 0 0 0 0 0 0 0 0 0 0 0 0 0 0 0 0 0 0 0 0 0 0 0 0 0 0 0 0 0 0 0 0 0 0 0 0 0 0 0 0 0 0 0 0 0 0 0 0 0 0 0 0 0 0 0 0 0 0 0 0 0 0 0 0 0 0 0 0 0 0 0 0 0 0 0 0 0 0 0 0 0 0 0 0 0 0 0 0 0 0 0 0 0 0 0 1 1 3 1 1 3 1 0 5 1 1 3 1 0 5 1 1 3 1 0 5 1 1 3 1 0 5 1 1 3 1 0 5 1 1 3 1 0 5 1 1 3 1 0 5 0 1 3 6 12 12 4 13 12 4 13 12 4 13 12 4 13 12 4 13 12 4 13 12 4 13 12 8 17 16 8 17 16 8 17 16 8 17 16 8 17 16 8 17 16 8 17 16 8 17 16 15 24 23 15 24 23 17 23 23 15 24 23 17 23 23 15 24 23 17 23 23 15 24 23 13 19 19 9 18 17 9 15 15 4 13 12 2 8 8 0 6 5 0 3 3 0 2 2 0 2 3 0 1 3 0 1 3 0 1 3 0 1 3 0 1 3 0 1 3 0 1 3 1 2 4 3 4 6 5 6 8 8 9 11 12 13 15 15 16 18 17 18 20 19 20 22 33 35 34 35 37 36 37 39 38 40 42 41 44 46 45 47 49 48 49 51 50 51 53 52 48 50 49 48 50 49 48 50 49 48 50 49 48 50 49 48 50 49 48 50 49 49 49 51 62 56 60 65 54 60 65 54 62 65 54 60 65 54 62 65 54 60 65 54 62 65 54 60 86 75 83 86 75 81 86 75 83 86 75 81 86 75 83 86 75 81 86 75 83 87 74 81 90 73 81 92 72 81 92 72 81 92 72 81 92 72 81 92 72 81 92 72 81 92 72 81 90 70 79 90 70 79 90 70 79 90 70 79 90 70 79 90 70 79 90 70 79 90 70 79
0 0 0 0 0 0 0 0 0 0 0 0 0 0 0 0 0 0 0 0 0 0 0 0 0 0 0 0 0 0 0 0 0 0 0 0 0 0 0 0 0 0 0 0 0 0 0 0 0 0 0 0 0 0 0 0 0 0 0 0 0 0 0 0 0 0 0 0 0 0 0 0 0 0 0 0 0 0 0 0 0 0 0 0 0 0 0 0 0 0 0 0 0 0 0 0 0 0 0 0 0 0 0 0 0 0 0 0 0 0 0 0 0 0 0 0 0 0 0 0 0 0 0 0 0 0 0 0 0 0 0 0 0 0 0 0 0 0 0 0 0 0 0 0 0 0 0 0 0 0 0 0 0 0 0 0 0 0 0 0 0 0 0 0 0 0 0 0 0 0 0 0 0 0 0 0 0 0 0 0 0 0 0 0 0 0 0 0 2 0 0 0 0 0 2 0 0 0 0 0 2 0 0 0 0 0 2 0 0 0 0 0 2 0 0 0 0 0 2 0 0 0 0 0 2 0 1 0 3 7 6 2 8 6 2 8 6 2 8 6 2 8 6 2 8 6 2 8 6 2 8 6 11 17 15 10 16 14 9 15 13 8 14 12 7 13 11 5 11 9 5 11 9 4 10 8 11 17 17 13 19 19 18 22 23 21 27 27 27 31 32 30 36 36 35 39 40 35 41 41 18 22 23 15 21 21 14 18 19 10 16 16 7 11 12 3 9 9 2 6 7 0 4 5 0 0 2 0 0 2 0 0 2 0 0 2 0 0 2 0 0 2 0 0 2 0 0 2 0 0 2 0 1 3 2 3 5 5 6 8 9 10 12 12 13 15 14 15 17 16 17 19 20 24 25 22 26 27 24 28 29 27 31 32 31 35 36 34 38 39 36 40 41 38 42 43 41 45 46 41 45 46 41 45 46 41 45 46 41 45 46 41 45 46 41 45 46 43 44 46 59 54 58 60 54 56 60 54 58 60 54 56 60 54 58 60 54 56 60 54 58 60 54 56 64 58 62 66 60 62 68 62 66 71 65 67 75 69 73 78 72 74 80 74 78 84 75 78 84 67 73 86 67 73 86 67 73 86 67 73 86 67 73 86 67 73 86 67 73 86 67 73 82 63 69 84 65 71 86 67 73 89 70 76 93 74 80 96 77 83 98 79 85 100 81 87
0 0 0 0 0 0 0 0 0 0 0 0 0 0 0 0 0 0 0 0 0 0 0 0 0 0 0 0 0 0 0 0 0 0 0 0 0 0 0 0 0 0 0 0 0 0 0 0 0 0 0 0 0 0 0 0 0 0 0 0 0 0 0 0 0 0 0 0 0 0 0 0 0 0 0 0 0 0 0 0 0 0 0 0 0 0 0 0 0 0 0 0 0 0 0 0 0 0 0 0 0 0 0 0 0 0 0 0 0 0 0 0 0 0 0 0 0 0 0 0 0 0 0 0 0 0 0 0 0 0 0 0 0 0 0 0 0 0 0 0 0 0 0 0 0 0 0 0 0 0 0 0 0 0 0 0 0 0 0 0 0 0 0 0 0 0 0 0 0 0 0 0 0 0 0 0 0 0 0 0 0 0 0 0 0 0 0 0 0 0 0 0 0 0 0 0 0 0 0 0 0 0 0 0 0 0 0 0 0 0 0 0 0 0 0 0 0 0 0 0 0 0 0 0 0 0 1 0 3 7 6 2 8 6 2 8 6 2 8 6 2 8 6 2 8 6 2 8 6 2 8 6 10 16 14 10 16 14 10 16 14 9 15 13 8 14 12 8 14 12 7 13 11 7 13 11 15 19 20 17 21 22 20 24 25 24 28 29 28 32 33 31 35 36 34 38 39 36 40 41 18 22 23 16 20 21 14 18 19 11 15 16 7 11 12 4 8 9 2 6 7 0 4 5 0 0 2 0 0 2 0 0 2 0 0 2 0 0 2 0 0 2 0 0 2 0 0 2 0 0 2 0 1 3 2 3 5 5 6 8 9 10 12 12 13 15 14 15 17 16 17 19 20 24 25 22 26 27 24 28 29 27 31 32 31 35 36 34 38 39 36 40 41 38 42 43 41 45 46 41 45 46 41 45 46 41 45 46 41 45 46 41 45 46 41 45 46 43 44 46 55 53 54 57 53 54 57 53 54 57 53 54 57 53 54 57 53 54 57 53 54 57 53 54 63 59 60 65 61 62 67 63 64 70 66 67 74 70 71 77 73 74 79 75 76 84 75 78 83 68 71 86 67 71 86 67 71 86 67 71 86 67 71 86 67 71 86 67 71 86 67 71 82 63 67 84 65 69 86 67 71 89 70 74 93 74 78 96 77 81 98 79 83 100 81 85
0 0 0 0 0 0 0 0 0 0 0 0 0 0 0 0 0 0 0 0 0 0 0 0 0 0 0 0 0 0 0 0 0 0 0 0 0 0 0 0 0 0 0 0 0 0 0 0 0 0 0 0 0 0 0 0 0 0 0 0 0 0 0 0 0 0 0 0 0 0 0 0 0 0 0 0 0 0 0 0 0 0 0 0 0 0 0 0 0 0 0 0 0 0 0 0 0 0 0 0 0 0 0 0 0 0 0 0 0 0 0 0 0 0 0 0 0 0 0 0 0 0 0 0 0 0 0 0 0 0 0 0 0 0 0 0 0 0 0 0 0 0 0 0 0 0 0 0 0 0 0 0 0 0 0 0 0 0 0 0 0 0 0 0 0 0 0 0 0 0 0 0 0 0 0 0 0 0 0 0 0 0 0 0 0 0 0 0 0 0 0 0 0 0 0 0 0 0 0 0 0 0 0 0 0 0 0 0 0 0 0 0 0 0 0 0 0 0 0 0 0 0 0 0 0 0 1 0 3 7 6 2 8 6 2 8 6 2 8 6 2 8 6 2 8 6 2 8 6 2 8 6 9 15 13 10 16 14 10 16 14 11 17 15 11 17 15 12 18 16 13 19 17 13 19 17 21 25 26 22 26 27 24 28 29 27 31 32 29 33 34 32 36 37 34 38 39 35 39 40 18 22 23 16 20 21 14 18 19 11 15 16 7 11 12 4 8 9 2 6 7 0 4 5 0 0 2 0 0 2 0 0 2 0 0 2 0 0 2 0 0 2 0 0 2 0 0 2 0 0 2 0 1 3 2 3 5 5 6 8 9 10 12 12 13 15 14 15 17 16 17 19 20 24 25 22 26 27 24 28 29 27 31 32 31 35 36 34 38 39 36 40 41 38 42 43 41 45 46 41 45 46 41 45 46 41 45 46 41 45 46 41 45 46 41 45 46 43 44 46 53 51 52 55 51 52 55 51 52 55 51 52 55 51 52 55 51 52 55 51 52 55 51 52 63 59 60 65 61 62 67 63 64 70 66 67 74 70 71 77 73 74 79 75 76 84 75 78 83 68 71 86 67 71 86 67 71 86 67 71 86 67 71 86 67 71 86 67 71 86 67 71 82 63 67 84 65 69 86 67 71 89 70 74 93 74 78 96 77 81 98 79 83 100 81 85
0 0 0 0 0 0 0 0 0 0 0 0 0 0 0 0 0 0 0 0 0 0 0 0 0 0 0 0 0 0 0 0 0 0 0 0 0 0 0 0 0 0 0 0 0 0 0 0 0 0 0 0 0 0 0 0 0 0 0 0 0 0 0 0 0 0 0 0 0 0 0 0 0 0 0 0 0 0 0 0 0 0 0 0 0 0 0 0 0 0 0 0 0 0 0 0 0 0 0 0 0 0 0 0 0 0 0 0 0 0 0 0 0 0 0 0 0 0 0 0 0 0 0 0 0 0 0 0 0 0 0 0 0 0 0 0 0 0 0 0 0 0 0 0 0 0 0 0 0 0 0 0 0 0 0 0 0 0 0 0 0 0 0 0 0 0 0 0 0 0 0 0 0 0 0 0 0 0 0 0 0 0 0 0 0 0 0 0 0 0 0 0 0 0 0 0 0 0 0 0 0 0 0 0 0 0 0 0 0 0 0 0 0 0 0 0 0 0 0 0 0 0 0 0 0 0 1 0 3 7 6 2 8 6 2 8 6 2 8 6 2 8 6 2 8 6 2 8 6 2 8 6 8 14 12 9 15 13 11 17 15 13 19 17 16 22 20 18 24 22 20 26 24 21 27 25 29 33 34 29 33 34 30 34 35 31 35 36 32 36 37 33 37 38 33 37 38 34 38 39 18 22 23 16 20 21 14 18 19 11 15 16 7 11 12 4 8 9 2 6 7 0 4 5 0 0 2 0 0 2 0 0 2 0 0 2 0 0 2 0 0 2 0 0 2 0 0 2 0 0 2 0 1 3 2 3 5 5 6 8 9 10 12 12 13 15 14 15 17 16 17 19 20 24 25 22 26 27 24 28 29 27 31 32 31 35 36 34 38 39 36 40 41 38 42 43 41 45 46 41 45 46 41 45 46 41 45 46 41 45 46 41 45 46 41 45 46 43 44 46 50 48 49 52 48 49 52 48 49 52 48 49 52 48 49 52 48 49 52 48 49 52 48 49 63 59 60 65 61 62 67 63 64 70 66 67 74 70 71 77 73 74 79 75 76 84 75 78 83 68 71 86 67 71 86 67 71 86 67 71 86 67 71 86 67 71 86 67 71 86 67 71 82 63 67 84 65 69 86 67 71 89 70 74 93 74 78 96 77 81 98 79 83 100 81 85
0 0 0 0 0 0 0 0 0 0 0 0 0 0 0 0 0 0 0 0 0 0 0 0 0 0 0 0 0 0 0 0 0 0 0 0 0 0 0 0 0 0 0 0 0 0 0 0 0 0 0 0 0 0 0 0 0 0 0 0 0 0 0 0 0 0 0 0 0 0 0 0 0 0 0 0 0 0 0 0 0 0 0 0 0 0 0 0 0 0 0 0 0 0 0 0 0 0 0 0 0 0 0 0 0 0 0 0 0 0 0 0 0 0 0 0 0 0 0 0 0 0 0 0 0 0 0 0 0 0 0 0 0 0 0 0 0 0 0 0 0 0 0 0 0 0 0 0 0 0 0 0 0 0 0 0 0 0 0 0 0 0 0 0 0 0 0 0 0 0 0 0 0 0 0 0 0 0 0 0 0 0 0 0 0 0 0 0 0 0 0 0 0 0 0 0 0 0 0 0 0 0 0 0 0 0 0 0 0 0 0 0 0 0 0 0 0 0 0 0 0 0 0 0 0 0 1 0 3 7 6 2 8 6 2 8 6 2 8 6 2 8 6 2 8 6 2 8 6 2 8 6 7 13 11 8 14 12 11 17 15 16 22 20 20 26 24 24 30 28 27 33 31 29 35 33 37 41 42 37 41 42 36 40 41 35 39 40 34 38 39 33 37 38 33 37 38 32 36 37 18 22 23 16 20 21 14 18 19 11 15 16 7 11 12 4 8 9 2 6 7 0 4 5 0 0 2 0 0 2 0 0 2 0 0 2 0 0 2 0 0 2 0 0 2 0 0 2 0 0 2 0 1 3 2 3 5 5 6 8 9 10 12 12 13 15 14 15 17 16 17 19 20 24 25 22 26 27 24 28 29 27 31 32 31 35 36 34 38 39 36 40 41 38 42 43 41 45 46 41 45 46 41 45 46 41 45 46 41 45 46 41 45 46 41 45 46 43 44 46 46 44 45 48 44 45 48 44 45 48 44 45 48 44 45 48 44 45 48 44 45 48 44 45 63 59 60 65 61 62 67 63 64 70 66 67 74 70 71 77 73 74 79 75 76 84 75 78 83 68 71 86 67 71 86 67 71 86 67 71 86 67 71 86 67 71 86 67 71 86 67 71 82 63 67 84 65 69 86 67 71 89 70 74 93 74 78 96 77 81 98 79 83 100 81 85
0 0 0 0 0 0 0 0 0 0 0 0 0 0 0 0 0 0 0 0 0 0 0 0 0 0 0 0 0 0 0 0 0 0 0 0 0 0 0 0 0 0 0 0 0 0 0 0 0 0 0 0 0 0 0 0 0 0 0 0 0 0 0 0 0 0 0 0 0 0 0 0 0 0 0 0 0 0 0 0 0 0 0 0 0 0 0 0 0 0 0 0 0 0 0 0 0 0 0 0 0 0 0 0 0 0 0 0 0 0 0 0 0 0 0 0 0 0 0 0 0 0 0 0 0 0 0 0 0 0 0 0 0 0 0 0 0 0 0 0 0 0 0 0 0 0 0 0 0 0 0 0 0 0 0 0 0 0 0 0 0 0 0 0 0 0 0 0 0 0 0 0 0 0 0 0 0 0 0 0 0 0 0 0 0 0 0 0 0 0 0 0 0 0 0 0 0 0 0 0 0 0 0 0 0 0 0 0 0 0 0 0 0 0 0 0 0 0 0 0 0 0 0 0 0 0 1 0 3 7 6 2 8 6 2 8 6 2 8 6 2 8 6 2 8 6 2 8 6 2 8 6 5 11 9 8 14 12 12 18 16 18 24 22 24 30 28 30 36 34 34 40 38 36 42 40 45 49 50 44 48 49 42 46 47 39 43 44 37 41 42 34 38 39 32 36 37 31 35 36 18 22 23 16 20 21 14 18 19 11 15 16 7 11 12 4 8 9 2 6 7 0 4 5 0 0 2 0 0 2 0 0 2 0 0 2 0 0 2 0 0 2 0 0 2 0 0 2 0 0 2 0 1 3 2 3 5 5 6 8 9 10 12 12 13 15 14 15 17 16 17 19 20 24 25 22 26 27 24 28 29 27 31 32 31 35 36 34 38 39 36 40 41 38 42 43 41 45 46 41 45 46 41 45 46 41 45 46 41 45 46 41 45 46 41 45 46 43 44 46 43 41 42 45 41 42 45 41 42 45 41 42 45 41 42 45 41 42 45 41 42 45 41 42 63 59 60 65 61 62 67 63 64 70 66 67 74 70 71 77 73 74 79 75 76 84 75 78 83 68 71 86 67 71 86 67 71 86 67 71 86 67 71 86 67 71 86 67 71 86 67 71 82 63 67 84 65 69 86 67 71 89 70 74 93 74 78 96 77 81 98 79 83 100 81 85
0 0 0 0 0 0 0 0 0 0 0 0 0 0 0 0 0 0 0 0 0 0 0 0 0 0 0 0 0 0 0 0 0 0 0 0 0 0 0 0 0 0 0 0 0 0 0 0 0 0 0 0 0 0 0 0 0 0 0 0 0 0 0 0 0 0 0 0 0 0 0 0 0 0 0 0 0 0 0 0 0 0 0 0 0 0 0 0 0 0 0 0 0 0 0 0 0 0 0 0 0 0 0 0 0 0 0 0 0 0 0 0 0 0 0 0 0 0 0 0 0 0 0 0 0 0 0 0 0 0 0 0 0 0 0 0 0 0 0 0 0 0 0 0 0 0 0 0 0 0 0 0 0 0 0 0 0 0 0 0 0 0 0 0 0 0 0 0 0 0 0 0 0 0 0 0 0 0 0 0 0 0 0 0 0 0 0 0 0 0 0 0 0 0 0 0 0 0 0 0 0 0 0 0 0 0 0 0 0 0 0 0 0 0 0 0 0 0 0 0 0 0 0 0 0 0 1 0 3 7 6 2 8 6 2 8 6 2 8 6 2 8 6 2 8 6 2 8 6 2 8 6 4 10 8 7 13 11 13 19 17 20 26 24 27 33 31 34 40 38 39 45 43 42 48 46 51 55 56 49 53 54 46 50 51 42 46 47 38 42 43 35 39 40 32 36 37 30 34 35 18 22 23 16 20 21 14 18 19 11 15 16 7 11 12 4 8 9 2 6 7 0 4 5 0 0 2 0 0 2 0 0 2 0 0 2 0 0 2 0 0 2 0 0 2 0 0 2 0 0 2 0 1 3 2 3 5 5 6 8 9 10 12 12 13 15 14 15 17 16 17 19 20 24 25 22 26 27 24 28 29 27 31 32 31 35 36 34 38 39 36 40 41 38 42 43 41 45 46 41 45 46 41 45 46 41 45 46 41 45 46 41 45 46 41 45 46 43 44 46 41 39 40 43 39 40 43 39 40 43 39 40 43 39 40 43 39 40 43 39 40 43 39 40 63 59 60 65 61 62 67 63 64 70 66 67 74 70 71 77 73 74 79 75 76 84 75 78 83 68 71 86 67 71 86 67 71 86 67 71 86 67 71 86 67 71 86 67 71 86 67 71 82 63 67 84 65 69 86 67 71 89 70 74 93 74 78 96 77 81 98 79 83 100 81 85
0 0 0 0 0 0 0 0 0 0 0 0 0 0 0 0 0 0 0 0 0 0 0 0 0 0 0 0 0 0 0 0 0 0 0 0 0 0 0 0 0 0 0 0 0 0 0 0 0 0 0 0 0 0 0 0 0 0 0 0 0 0 0 0 0 0 0 0 0 0 0 0 0 0 0 0 0 0 0 0 0 0 0 0 0 0 0 0 0 0 0 0 0 0 0 0 0 0 0 0 0 0 0 0 0 0 0 0 0 0 0 0 0 0 0 0 0 0 0 0 0 0 0 0 0 0 0 0 0 0 0 0 0 0 0 0 0 0 0 0 0 0 0 0 0 0 0 0 0 0 0 0 0 0 0 0 0 0 0 0 0 0 0 0 0 0 0 0 0 0 0 0 0 0 0 0 0 0 0 0 0 0 0 0 0 0 0 0 0 0 0 0 0 0 0 0 0 0 0 0 0 0 0 0 0 0 0 0 0 0 0 0 0 0 0 0 0 0 0 0 0 0 0 0 0 0 1 0 3 7 6 2 8 6 2 8 6 2 8 6 2 8 6 2 8 6 2 8 6 2 8 6 4 10 8 7 13 11 13 19 17 21 27 25 29 35 33 36 42 40 42 48 46 45 51 49 54 58 59 52 56 57 48 52 53 44 48 49 39 43 44 35 39 40 31 35 36 30 34 35 18 22 23 16 20 21 14 18 19 11 15 16 7 11 12 4 8 9 2 6 7 0 4 5 0 0 2 0 0 2 0 0 2 0 0 2 0 0 2 0 0 2 0 0 2 0 0 2 0 0 2 0 1 3 2 3 5 5 6 8 9 10 12 12 13 15 14 15 17 16 17 19 20 24 25 22 26 27 24 28 29 27 31 32 31 35 36 34 38 39 36 40 41 38 42 43 41 45 46 41 45 46 41 45 46 41 45 46 41 45 46 41 45 46 41 45 46 43 44 46 39 37 38 41 37 38 41 37 38 41 37 38 41 37 38 41 37 38 41 37 38 41 37 38 63 59 60 65 61 62 67 63 64 70 66 67 74 70 71 77 73 74 79 75 76 84 75 78 83 68 71 86 67 71 86 67 71 86 67 71 86 67 71 86 67 71 86 67 71 86 67 71 82 63 67 84 65 69 86 67 71 89 70 74 93 74 78 96 77 81 98 79 83 100 81 85
0 0 0 0 0 0 0 0 0 0 0 0 0 0 0 0 0 0 0 0 0 0 0 0 0 0 0 0 0 0 0 0 0 0 0 0 0 0 0 0 0 0 0 0 0 0 0 0 0 0 0 0 0 0 0 0 0 0 0 0 0 0 0 0 0 0 0 0 0 0 0 0 0 0 0 0 0 0 0 0 0 0 0 0 0 0 0 0 0 0 0 0 0 0 0 0 0 0 0 0 0 0 0 0 0 0 0 0 0 0 0 0 0 0 0 0 0 0 0 0 0 0 0 0 0 0 0 0 0 0 0 0 0 0 0 0 0 0 0 0 0 0 0 0 0 0 0 0 0 0 0 0 0 0 0 0 0 0 0 0 0 0 0 0 0 0 0 0 0 0 0 0 0 0 0 0 0 0 0 0 0 0 0 0 0 0 0 0 0 0 0 0 0 0 0 0 0 0 0 0 0 0 0 0 0 0 0 0 0 0 0 0 0 0 0 0 0 0 0 0 0 0 0 0 0 0 1 0 7 11 10 5 11 9 4 10 8 3 9 7 2 8 6 0 6 4 0 6 4 0 5 3 23 29 27 24 30 28 29 35 33 38 44 42 53 59 57 72 78 76 89 95 93 99 105 103 68 72 73 65 69 70 60 64 65 54 58 59 47 51 52 41 45 46 36 40 41 33 37 38 30 34 35 28 32 33 23 27 28 16 20 21 10 14 15 3 7 8 0 2 3 0 1 2 0 0 2 0 0 2 0 0 2 0 0 2 0 0 2 0 0 2 0 0 2 0 0 2 0 1 3 2 3 5 4 5 7 7 8 10 11 12 14 14 15 17 16 17 19 18 19 21 12 16 17 14 18 19 16 20 21 19 23 24 23 27 28 26 30 31 28 32 33 30 34 35 29 33 34 29 33 34 29 33 34 29 33 34 29 33 34 29 33 34 29 33 34 31 32 34 35 33 34 37 33 34 37 33 34 37 33 34 37 33 34 37 33 34 37 33 34 37 33 34 44 40 41 46 42 43 51 47 48 58 54 55 64 60 61 71 67 68 76 72 73 81 72 75 77 62 65 80 61 65 80 61 65 80 61 65 80 61 65 80 61 65 80 61 65 80 61 65 95 76 80 95 76 80 95 76 80 95 76 80 95 76 80 95 76 80 95 76 80 95 76 80
0 0 0 0 0 0 0 0 0 0 0 0 0 0 0 0 0 0 0 0 0 0 0 0 0 0 0 0 0 0 0 0 0 0 0 0 0 0 0 0 0 0 0 0 0 0 0 0 0 0 0 0 0 0 0 0 0 0 0 0 0 0 0 0 0 0 0 0 0 0 0 0 0 0 0 0 0 0 0 0 0 0 0 0 0 0 0 0 0 0 0 0 0 0 0 0 0 0 0 0 0 0 0 0 0 0 0 0 0 0 0 0 0 0 0 0 0 0 0 0 0 0 0 0 0 0 0 0 0 0 0 0 0 0 0 0 0 0 0 0 0 0 0 0 0 0 0 0 0 0 0 0 0 0 0 0 0 0 0 0 0 0 0 0 0 0 0 0 0 0 0 0 0 0 0 0 0 0 0 0 0 0 0 0 0 0 0 0 0 0 0 0 0 0 0 0 0 0 0 0 0 0 0 0 0 0 0 0 0 0 0 0 0 0 0 0 0 0 0 0 0 0 0 0 0 0 1 0 6 10 9 5 11 9 5 11 9 4 10 8 3 9 7 3 9 7 2 8 6 2 8 6 20 26 24 27 33 31 39 45 43 54 60 58 68 74 72 80 86 84 88 94 92 92 98 96 66 70 71 64 68 69 59 63 64 52 56 57 45 49 50 39 43 44 34 38 39 32 36 37 30 34 35 28 32 33 23 27 28 16 20 21 10 14 15 3 7 8 0 2 3 0 1 2 0 0 2 0 0 2 0 0 2 0 0 2 0 0 2 0 0 2 0 0 2 0 0 2 0 1 3 2 3 5 4 5 7 7 8 10 11 12 14 14 15 17 16 17 19 18 19 21 12 16 17 14 18 19 16 20 21 19 23 24 23 27 28 26 30 31 28 32 33 30 34 35 29 33 34 29 33 34 29 33 34 29 33 34 29 33 34 29 33 34 29 33 34 31 32 34 35 33 34 37 33 34 37 33 34 37 33 34 37 33 34 37 33 34 37 33 34 37 33 34 44 40 41 46 42 43 51 47 48 58 54 55 64 60 61 71 67 68 76 72 73 81 72 75 77 62 65 80 61 65 80 61 65 80 61 65 80 61 65 80 61 65 80 61 65 80 61 65 95 76 80 95 76 80 95 76 80 95 76 80 95 76 80 95 76 80 95 76 80 95 76 80
0 0 0 0 0 0 0 0 0 0 0 0 0 0 0 0 0 0 0 0 0 0 0 0 0 0 0 0 0 0 0 0 0 0 0 0 0 0 0 0 0 0 0 0 0 0 0 0 0 0 0 0 0 0 0 0 0 0 0 0 0 0 0 0 0 0 0 0 0 0 0 0 0 0 0 0 0 0 0 0 0 0 0 0 0 0 0 0 0 0 0 0 0 0 0 0 0 0 0 0 0 0 0 0 0 0 0 0 0 0 0 0 0 0 0 0 0 0 0 0 0 0 0 0 0 0 0 0 0 0 0 0 0 0 0 0 0 0 0 0 0 0 0 0 0 0 0 0 0 0 0 0 0 0 0 0 0 0 0 0 0 0 0 0 0 0 0 0 0 0 0 0 0 0 0 0 0 0 0 0 0 0 0 0 0 0 0 0 0 0 0 0 0 0 0 0 0 0 0 0 0 0 0 0 0 0 0 0 0 0 0 0 0 0 0 0 0 0 0 0 0 0 0 0 0 0 1 0 5 9 8 5 11 9 5 11 9 6 12 10 6 12 10 7 13 11 8 14 12 8 14 12 19 25 23 34 40 38 57 63 61 79 85 83 92 98 96 94 100 98 89 95 93 84 90 88 66 70 71 63 67 68 58 62 63 52 56 57 45 49 50 38 42 43 34 38 39 31 35 36 30 34 35 28 32 33 23 27 28 16 20 21 10 14 15 3 7 8 0 2 3 0 1 2 0 0 2 0 0 2 0 0 2 0 0 2 0 0 2 0 0 2 0 0 2 0 0 2 0 1 3 2 3 5 4 5 7 7 8 10 11 12 14 14 15 17 16 17 19 18 19 21 12 16 17 14 18 19 16 20 21 19 23 24 23 27 28 26 30 31 28 32 33 30 34 35 29 33 34 29 33 34 29 33 34 29 33 34 29 33 34 29 33 34 29 33 34 31 32 34 35 33 34 37 33 34 37 33 34 37 33 34 37 33 34 37 33 34 37 33 34 37 33 34 44 40 41 46 42 43 51 47 48 58 54 55 64 60 61 71 67 68 76 72 73 81 72 75 77 62 65 80 61 65 80 61 65 80 61 65 80 61 65 80 61 65 80 61 65 80 61 65 95 76 80 95 76 80 95 76 80 95 76 80 95 76 80 95 76 80 95 76 80 95 76 80
0 0 0 0 0 0 0 0 0 0 0 0 0 0 0 0 0 0 0 0 0 0 0 0 0 0 0 0 0 0 0 0 0 0 0 0 0 0 0 0 0 0 0 0 0 0 0 0 0 0 0 0 0 0 0 0 0 0 0 0 0 0 0 0 0 0 0 0 0 0 0 0 0 0 0 0 0 0 0 0 0 0 0 0 0 0 0 0 0 0 0 0 0 0 0 0 0 0 0 0 0 0 0 0 0 0 0 0 0 0 0 0 0 0 0 0 0 0 0 0 0 0 0 0 0 0 0 0 0 0 0 0 0 0 0 0 0 0 0 0 0 0 0 0 0 0 0 0 0 0 0 0 0 0 0 0 0 0 0 0 0 0 0 0 0 0 0 0 0 0 0 0 0 0 0 0 0 0 0 0 0 0 0 0 0 0 0 0 0 0 0 0 0 0 0 0 0 0 0 0 0 0 0 0 0 0 0 0 0 0 0 0 0 0 0 0 0 0 0 0 0 0 0 0 0 0 1 0 4 8 7 4 10 8 6 12 10 8 14 12 11 17 15 13 19 17 15 21 19 16 22 20 26 32 30 46 52 50 76 82 80 102 108 106 114 120 118 108 114 112 94 100 98 83 89 87 70 74 75 67 71 72 62 66 67 56 60 61 49 53 54 42 46 47 37 41 42 35 39 40 30 34 35 28 32 33 23 27 28 16 20 21 10 14 15 3 7 8 0 2 3 0 1 2 0 0 2 0 0 2 0 0 2 0 0 2 0 0 2 0 0 2 0 0 2 0 0 2 0 1 3 2 3 5 4 5 7 7 8 10 11 12 14 14 15 17 16 17 19 18 19 21 12 16 17 14 18 19 16 20 21 19 23 24 23 27 28 26 30 31 28 32 33 30 34 35 29 33 34 29 33 34 29 33 34 29 33 34 29 33 34 29 33 34 29 33 34 31 32 34 35 33 34 37 33 34 37 33 34 37 33 34 37 33 34 37 33 34 37 33 34 37 33 34 44 40 41 46 42 43 51 47 48 58 54 55 64 60 61 71 67 68 76 72 73 81 72 75 77 62 65 80 61 65 80 61 65 80 61 65 80 61 65 80 61 65 80 61 65 80 61 65 95 76 80 95 76 80 95 76 80 95 76 80 95 76 80 95 76 80 95 76 80 95 76 80
0 0 0 0 0 0 0 0 0 0 0 0 0 0 0 0 0 0 0 0 0 0 0 0 0 0 0 0 0 0 0 0 0 0 0 0 0 0 0 0 0 0 0 0 0 0 0 0 0 0 0 0 0 0 0 0 0 0 0 0 0 0 0 0 0 0 0 0 0 0 0 0 0 0 0 0 0 0 0 0 0 0 0 0 0 0 0 0 0 0 0 0 0 0 0 0 0 0 0 0 0 0 0 0 0 0 0 0 0 0 0 0 0 0 0 0 0 0 0 0 0 0 0 0 0 0 0 0 0 0 0 0 0 0 0 0 0 0 0 0 0 0 0 0 0 0 0 0 0 0 0 0 0 0 0 0 0 0 0 0 0 0 0 0 0 0 0 0 0 0 0 0 0 0 0 0 0 0 0 0 0 0 0 0 0 0 0 0 0 0 0 0 0 0 0 0 0 0 0 0 0 0 0 0 0 0 0 0 0 0 0 0 0 0 0 0 0 0 0 0 0 0 0 0 0 0 1 0 3 7 6 3 9 7 6 12 10 11 17 15 15 21 19 19 25 23 22 28 26 24 30 28 44 50 48 64 70 68 93 99 97 117 123 121 127 133 131 119 125 123 104 110 108 92 98 96 80 84 85 77 81 82 72 76 77 66 70 71 59 63 64 53 57 58 48 52 53 45 49 50 30 34 35 28 32 33 23 27 28 16 20 21 10 14 15 3 7 8 0 2 3 0 1 2 0 0 2 0 0 2 0 0 2 0 0 2 0 0 2 0 0 2 0 0 2 0 0 2 0 1 3 2 3 5 4 5 7 7 8 10 11 12 14 14 15 17 16 17 19 18 19 21 12 16 17 14 18 19 16 20 21 19 23 24 23 27 28 26 30 31 28 32 33 30 34 35 29 33 34 29 33 34 29 33 34 29 33 34 29 33 34 29 33 34 29 33 34 31 32 34 35 33 34 37 33 34 37 33 34 37 33 34 37 33 34 37 33 34 37 33 34 37 33 34 44 40 41 46 42 43 51 47 48 58 54 55 64 60 61 71 67 68 76 72 73 81 72 75 77 62 65 80 61 65 80 61 65 80 61 65 80 61 65 80 61 65 80 61 65 80 61 65 95 76 80 95 76 80 95 76 80 95 76 80 95 76 80 95 76 80 95 76 80 95 76 80
0 0 0 0 0 0 0 0 0 0 0 0 0 0 0 0 0 0 0 0 0 0 0 0 0 0 0 0 0 0 0 0 0 0 0 0 0 0 0 0 0 0 0 0 0 0 0 0 0 0 0 0 0 0 0 0 0 0 0 0 0 0 0 0 0 0 0 0 0 0 0 0 0 0 0 0 0 0 0 0 0 0 0 0 0 0 0 0 0 0 0 0 0 0 0 0 0 0 0 0 0 0 0 0 0 0 0 0 0 0 0 0 0 0 0 0 0 0 0 0 0 0 0 0 0 0 0 0 0 0 0 0 0 0 0 0 0 0 0 0 0 0 0 0 0 0 0 0 0 0 0 0 0 0 0 0 0 0 0 0 0 0 0 0 0 0 0 0 0 0 0 0 0 0 0 0 0 0 0 0 0 0 0 0 0 0 0 0 0 0 0 0 0 0 0 0 0 0 0 0 0 0 0 0 0 0 0 0 0 0 0 0 0 0 0 0 0 0 0 0 0 0 0 0 0 0 1 0 1 5 4 3 9 7 7 13 11 13 19 17 19 25 23 25 31 29 29 35 33 31 37 35 72 78 76 84 90 88 104 110 108 121 127 125 128 134 132 125 131 129 117 123 121 110 116 114 95 99 100 92 96 97 88 92 93 81 85 86 74 78 79 68 72 73 63 67 68 60 64 65 30 34 35 28 32 33 23 27 28 16 20 21 10 14 15 3 7 8 0 2 3 0 1 2 0 0 2 0 0 2 0 0 2 0 0 2 0 0 2 0 0 2 0 0 2 0 0 2 0 1 3 2 3 5 4 5 7 7 8 10 11 12 14 14 15 17 16 17 19 18 19 21 12 16 17 14 18 19 16 20 21 19 23 24 23 27 28 26 30 31 28 32 33 30 34 35 29 33 34 29 33 34 29 33 34 29 33 34 29 33 34 29 33 34 29 33 34 31 32 34 35 33 34 37 33 34 37 33 34 37 33 34 37 33 34 37 33 34 37 33 34 37 33 34 44 40 41 46 42 43 51 47 48 58 54 55 64 60 61 71 67 68 76 72 73 81 72 75 77 62 65 80 61 65 80 61 65 80 61 65 80 61 65 80 61 65 80 61 65 80 61 65 95 76 80 95 76 80 95 76 80 95 76 80 95 76 80 95 76 80 95 76 80 95 76 80
0 0 0 0 0 0 0 0 0 0 0 0 0 0 0 0 0 0 0 0 0 0 0 0 0 0 0 0 0 0 0 0 0 0 0 0 0 0 0 0 0 0 0 0 0 0 0 0 0 0 0 0 0 0 0 0 0 0 0 0 0 0 0 0 0 0 0 0 0 0 0 0 0 0 0 0 0 0 0 0 0 0 0 0 0 0 0 0 0 0 0 0 0 0 0 0 0 0 0 0 0 0 0 0 0 0 0 0 0 0 0 0 0 0 0 0 0 0 0 0 0 0 0 0 0 0 0 0 0 0 0 0 0 0 0 0 0 0 0 0 0 0 0 0 0 0 0 0 0 0 0 0 0 0 0 0 0 0 0 0 0 0 0 0 0 0 0 0 0 0 0 0 0 0 0 0 0 0 0 0 0 0 0 0 0 0 0 0 0 0 0 0 0 0 0 0 0 0 0 0 0 0 0 0 0 0 0 0 0 0 0 0 0 0 0 0 0 0 0 0 0 0 0 0 0 0 1 0 0 4 3 2 8 6 8 14 12 15 21 19 22 28 26 29 35 33 34 40 38 37 43 41 99 105 103 103 109 107 109 115 113 117 123 121 123 129 127 127 133 131 130 136 134 131 137 135 110 114 115 108 112 113 103 107 108 96 100 101 90 94 95 83 87 88 78 82 83 76 80 81 30 34 35 28 32 33 23 27 28 16 20 21 10 14 15 3 7 8 0 2 3 0 1 2 0 0 2 0 0 2 0 0 2 0 0 2 0 0 2 0 0 2 0 0 2 0 0 2 0 1 3 2 3 5 4 5 7 7 8 10 11 12 14 14 15 17 16 17 19 18 19 21 12 16 17 14 18 19 16 20 21 19 23 24 23 27 28 26 30 31 28 32 33 30 34 35 29 33 34 29 33 34 29 33 34 29 33 34 29 33 34 29 33 34 29 33 34 31 32 34 35 33 34 37 33 34 37 33 34 37 33 34 37 33 34 37 33 34 37 33 34 37 33 34 44 40 41 46 42 43 51 47 48 58 54 55 64 60 61 71 67 68 76 72 73 81 72 75 77 62 65 80 61 65 80 61 65 80 61 65 80 61 65 80 61 65 80 61 65 80 61 65 95 76 80 95 76 80 95 76 80 95 76 80 95 76 80 95 76 80 95 76 80 95 76 80
0 0 0 0 0 0 0 0 0 0 0 0 0 0 0 0 0 0 0 0 0 0 0 0 0 0 0 0 0 0 0 0 0 0 0 0 0 0 0 0 0 0 0 0 0 0 0 0 0 0 0 0 0 0 0 0 0 0 0 0 0 0 0 0 0 0 0 0 0 0 0 0 0 0 0 0 0 0 0 0 0 0 0 0 0 0 0 0 0 0 0 0 0 0 0 0 0 0 0 0 0 0 0 0 0 0 0 0 0 0 0 0 0 0 0 0 0 0 0 0 0 0 0 0 0 0 0 0 0 0 0 0 0 0 0 0 0 0 0 0 0 0 0 0 0 0 0 0 0 0 0 0 0 0 0 0 0 0 0 0 0 0 0 0 0 0 0 0 0 0 0 0 0 0 0 0 0 0 0 0 0 0 0 0 0 0 0 0 0 0 0 0 0 0 0 0 0 0 0 0 0 0 0 0 0 0 0 0 0 0 0 0 0 0 0 0 0 0 0 0 0 0 0 0 0 0 1 0 0 4 3 2 8 6 9 13 12 16 22 20 25 29 28 31 37 35 38 42 41 40 46 44 117 121 120 114 120 118 113 117 116 112 118 116 119 123 122 127 133 131 139 143 142 145 149 148 120 124 123 117 121 120 112 116 117 106 110 109 99 103 104 93 97 96 88 92 93 85 89 88 30 34 35 28 32 31 23 27 28 16 20 19 10 14 15 3 7 6 0 2 3 0 1 2 0 1 2 0 1 2 0 1 2 0 1 2 0 1 2 0 1 2 0 1 2 0 1 2 0 2 3 0 4 5 2 6 7 5 9 10 9 13 14 12 16 17 14 18 19 16 20 21 12 16 17 14 18 19 16 20 21 19 23 24 23 27 28 26 30 31 28 32 33 30 34 35 29 33 34 29 33 34 29 33 34 29 33 34 29 33 34 29 33 34 29 33 34 31 32 34 35 33 34 37 33 34 37 33 34 37 33 34 37 33 34 37 33 34 37 33 34 37 33 34 44 40 41 46 42 43 51 47 48 58 54 55 64 60 61 71 67 68 76 72 73 81 72 75 77 62 65 80 61 65 80 61 65 80 61 65 80 61 65 80 61 65 80 61 65 80 61 65 95 76 80 95 76 80 95 76 80 95 76 80 95 76 80 95 76 80 95 76 80 95 76 80
0 0 0 0 0 0 0 0 0 0 0 0 0 0 0 0 0 0 0 0 0 0 0 0 0 0 0 0 0 0 0 0 0 0 0 0 0 0 0 0 0 0 0 0 0 0 0 0 0 0 0 0 0 0 0 0 0 0 0 0 0 0 0 0 0 0 0 0 0 0 0 0 0 0 0 0 0 0 0 0 0 0 0 0 0 0 0 0 0 0 0 0 0 0 0 0 0 0 0 0 0 0 0 0 0 0 0 0 0 0 0 0 0 0 0 0 0 0 0 0 0 0 0 0 0 0 0 0 0 0 0 0 0 0 0 0 0 0 0 0 0 0 0 0 0 0 0 0 0 0 0 0 0 0 0 0 0 0 0 0 0 0 0 0 0 0 0 0 0 0 0 0 0 0 0 0 0 0 0 0 0 1 0 0 1 0 0 1 0 0 1 0 0 1 0 0 1 0 0 1 0 0 1 0 4 6 5 3 5 4 2 4 3 1 3 2 0 2 1 0 1 0 0 1 0 0 1 0 3 5 4 8 12 11 22 24 23 36 40 39 55 57 56 69 73 72 83 85 84 88 92 91 144 146 145 142 146 145 144 146 145 142 146 145 144 146 145 142 146 145 144 146 145 144 146 145 143 145 144 138 140 137 130 132 131 119 121 118 108 110 109 97 99 96 88 90 89 84 86 83 56 58 57 48 50 47 36 38 37 25 27 24 20 22 21 20 22 19 24 26 25 26 30 29 1 7 7 1 7 7 1 7 7 1 7 7 1 7 7 1 7 7 1 7 7 1 7 7 8 14 14 8 14 14 8 14 14 8 14 14 8 14 14 8 14 14 8 14 14 8 14 14 16 22 22 16 22 22 16 22 22 16 22 22 16 22 22 16 22 22 16 22 22 16 22 22 18 24 24 18 24 24 18 24 24 18 24 24 18 24 24 18 24 24 18 24 24 21 22 24 25 23 24 28 22 22 28 22 22 28 22 22 28 22 22 28 22 22 28 22 22 28 22 22 35 29 29 37 31 31 42 36 36 49 43 43 55 49 49 62 56 56 67 61 61 71 62 63 68 53 56 73 54 58 75 56 60 78 59 63 82 63 67 85 66 70 87 68 72 89 70 74 86 67 71 88 69 73 90 71 75 93 74 78 97 78 82 100 81 85 102 83 87 104 85 89
0 0 0 0 0 0 0 0 0 0 0 0 0 0 0 0 0 0 0 0 0 0 0 0 0 0 0 0 0 0 0 0 0 0 0 0 0 0 0 0 0 0 0 0 0 0 0 0 0 0 0 0 0 0 0 0 0 0 0 0 0 0 0 0 0 0 0 0 0 0 0 0 0 0 0 0 0 0 0 0 0 0 0 0 0 0 0 0 0 0 0 0 0 0 0 0 0 0 0 0 0 0 0 0 0 0 0 0 0 0 0 0 0 0 0 0 0 0 0 0 0 0 0 0 0 0 0 0 0 0 0 0 0 0 0 0 0 0 0 0 0 0 0 0 0 0 0 0 0 0 0 0 0 0 0 0 0 0 0 0 0 0 0 0 0 0 0 0 0 0 0 0 0 0 0 0 0 0 0 0 0 1 0 0 1 0 0 1 0 0 1 0 0 1 0 0 1 0 0 1 0 0 1 0 3 5 4 3 5 4 3 5 4 2 4 3 1 3 2 1 3 2 0 2 1 0 2 1 8 10 9 15 17 16 27 29 28 43 45 44 60 62 61 76 78 77 88 90 89 95 97 96 144 146 145 144 146 145 144 146 145 144 146 145 144 146 145 144 146 145 144 146 145 144 146 145 142 144 141 138 140 137 130 132 129 120 122 119 109 111 108 99 101 98 91 93 90 87 89 86 59 61 58 51 53 50 39 41 38 27 29 26 21 23 20 21 23 20 24 26 23 25 30 26 3 9 9 1 10 9 1 10 9 1 10 9 1 10 9 1 10 9 1 10 9 1 10 9 6 15 14 6 15 14 6 15 14 6 15 14 6 15 14 6 15 14 6 15 14 6 15 14 16 22 22 16 22 22 16 22 22 16 22 22 16 22 22 16 22 22 16 22 22 16 22 22 18 24 24 18 24 24 18 24 24 18 24 24 18 24 24 18 24 24 18 24 24 19 23 22 27 23 24 28 22 22 28 22 22 28 22 22 28 22 22 28 22 22 28 22 22 28 22 22 35 29 29 37 31 31 42 36 36 49 43 43 55 49 49 62 56 56 67 61 61 71 62 63 69 53 56 73 54 58 75 56 60 78 59 63 82 63 67 85 66 70 87 68 72 89 70 74 86 67 71 88 69 73 90 71 75 93 74 78 97 78 82 100 81 85 102 83 87 104 85 89
0 0 0 0 0 0 0 0 0 0 0 0 0 0 0 0 0 0 0 0 0 0 0 0 0 0 0 0 0 0 0 0 0 0 0 0 0 0 0 0 0 0 0 0 0 0 0 0 0 0 0 0 0 0 0 0 0 0 0 0 0 0 0 0 0 0 0 0 0 0 0 0 0 0 0 0 0 0 0 0 0 0 0 0 0 0 0 0 0 0 0 0 0 0 0 0 0 0 0 0 0 0 0 0 0 0 0 0 0 0 0 0 0 0 0 0 0 0 0 0 0 0 0 0 0 0 0 0 0 0 0 0 0 0 0 0 0 0 0 0 0 0 0 0 0 0 0 0 0 0 0 0 0 0 0 0 0 0 0 0 0 0 0 0 0 0 0 0 0 0 0 0 0 0 0 0 0 0 0 0 0 1 0 0 1 0 0 1 0 0 1 0 0 1 0 0 1 0 0 1 0 0 1 0 2 4 3 3 5 4 3 5 4 4 6 5 4 6 5 5 7 6 6 8 7 6 8 7 18 20 19 25 27 26 37 39 38 53 55 54 70 72 71 86 88 87 98 100 99 105 107 106 144 146 145 144 146 145 144 146 145 144 146 145 144 146 145 144 146 145 144 146 145 144 146 145 141 143 140 138 140 137 131 133 130 122 124 121 112 114 111 103 105 102 97 99 96 93 95 92 65 67 64 56 58 55 43 45 42 30 32 29 23 25 22 21 23 20 24 26 23 25 30 26 5 11 11 3 12 11 3 12 11 3 12 11 3 12 11 3 12 11 3 12 11 3 12 11 6 15 14 6 15 14 6 15 14 6 15 14 6 15 14 6 15 14 6 15 14 6 15 14 16 22 22 16 22 22 16 22 22 16 22 22 16 22 22 16 22 22 16 22 22 16 22 22 18 24 24 18 24 24 18 24 24 18 24 24 18 24 24 18 24 24 18 24 24 19 23 22 27 23 24 28 22 22 28 22 22 28 22 22 28 22 22 28 22 22 28 22 22 28 22 22 35 29 29 37 31 31 42 36 36 49 43 43 55 49 49 62 56 56 67 61 61 71 62 63 69 53 56 73 54 58 75 56 60 78 59 63 82 63 67 85 66 70 87 68 72 89 70 74 86 67 71 88 69 73 90 71 75 93 74 78 97 78 82 100 81 85 102 83 87 104 85 89
