P3
172 37
255
102 88 101 102 88 101 102 88 101 102 88 101 89 75 88 89 75 88 89 75 88 89 75 88 89 75 88 89 75 88 89 75 88 89 75 88 81 67 82 81 67 82 81 67 82 81 67 82 81 67 82 81 67 82 81 67 82 81 67 82 66 52 67 63 49 64 58 44 59 51 37 52 43 29 44 36 22 37 31 17 32 27 15 29 24 13 29 21 13 28 19 11 26 15 7 22 12 4 19 9 1 16 6 0 13 5 0 12 16 8 23 14 6 21 12 4 19 9 1 16 5 0 12 4 0 11 4 0 11 3 0 11 10 7 18 9 7 18 9 7 18 9 7 18 9 7 18 9 7 18 9 7 18 9 7 18 9 7 18 9 7 18 9 7 18 9 7 18 9 7 18 9 7 18 9 7 18 8 8 18 7 7 15 5 8 15 5 8 15 5 8 15 5 8 15 5 8 15 5 8 15 5 8 15 5 8 15 5 8 15 5 8 15 5 8 15 5 8 15 5 8 15 5 8 15 5 8 15 9 14 18 9 14 18 9 14 18 9 14 18 9 14 18 9 14 18 9 14 18 9 14 18 9 14 18 9 14 18 9 14 18 9 14 18 9 14 18 9 14 18 9 14 18 9 14 18 9 13 16 9 13 16 9 13 16 9 13 16 9 13 16 9 13 16 9 13 16 9 13 16 0 3 6 0 3 6 0 3 6 0 3 6 0 3 6 0 3 6 0 3 6 0 3 6 7 13 13 7 13 13 7 13 13 7 13 13 7 13 13 7 13 13 7 13 13 7 13 13 12 18 18 14 20 20 19 25 25 26 32 32 32 38 38 39 45 45 44 50 50 46 52 52 63 64 66 67 68 70 74 75 77 84 85 87 94 95 97 104 105 107 111 112 114 115 116 118 126 127 129 129 130 132 132 133 135 131 132 134 124 125 127 112 113 115 99 100 102 91 92 94 45 43 46 45 43 46 45 43 46 45 43 46 45 43 46 45 43 46 45 43 46 45 43 46 42 40 43 42 40 43 42 40 43 42 40 43 42 40 43 42 40 43 42 40 43 42 40 43 39 37 40 39 37 40 39 37 40 39 37 40 39 37 40 39 37 40 39 37 40 39 37 40 43 41 44 43 41 44 43 41 44 43 41 44 43 41 44 43 41 44 43 41 44 43 41 44
99 87 101 99 87 101 99 87 101 99 87 101 86 74 88 86 74 88 86 74 88 86 74 88 86 74 88 86 74 88 86 74 88 86 74 88 78 66 80 78 66 80 78 66 80 78 66 80 78 66 80 78 66 80 78 66 80 78 66 80 57 45 59 54 42 56 48 36 50 40 28 42 32 20 34 25 13 27 19 7 21 15 4 18 17 9 24 15 9 23 12 6 20 9 3 17 6 0 14 3 0 11 3 0 11 3 0 11 16 10 24 15 9 23 13 7 21 9 3 17 6 0 14 3 0 11 3 0 11 1 0 11 13 11 22 12 12 22 12 12 22 12 12 22 12 12 22 12 12 22 12 12 22 12 12 22 8 8 18 8 8 18 8 8 18 8 8 18 8 8 18 8 8 18 8 8 18 8 8 18 5 8 15 5 8 15 5 8 15 5 8 15 5 8 15 5 8 15 5 8 15 5 8 15 5 8 15 5 8 15 5 8 15 5 8 15 5 8 15 5 8 15 5 8 15 5 8 15 9 14 18 9 14 18 9 14 18 9 14 18 9 14 18 9 14 18 9 14 18 9 14 18 9 14 18 9 14 18 9 14 18 9 14 18 9 14 18 9 14 18 9 14 18 9 14 18 9 13 16 9 13 16 9 13 16 9 13 16 9 13 16 9 13 16 9 13 16 9 13 16 0 3 6 0 3 6 0 3 6 0 3 6 0 3 6 0 3 6 0 3 6 0 3 6 7 13 13 7 13 13 7 13 13 7 13 13 7 13 13 7 13 13 7 13 13 7 13 13 12 18 18 14 20 20 19 25 25 26 32 32 32 38 38 39 45 45 44 50 50 47 51 52 61 65 66 67 69 68 74 75 77 84 86 85 94 95 97 104 106 105 111 112 114 115 117 116 126 127 129 129 131 130 132 133 135 131 133 132 124 125 127 112 114 113 99 100 102 91 92 94 44 44 46 45 43 46 45 43 46 45 43 46 45 43 46 45 43 46 45 43 46 45 43 46 42 40 43 42 40 43 42 40 43 42 40 43 42 40 43 42 40 43 42 40 43 42 40 43 39 37 40 39 37 40 39 37 40 39 37 40 39 37 40 39 37 40 39 37 40 39 37 40 43 41 44 43 41 44 43 41 44 43 41 44 43 41 44 43 41 44 43 41 44 43 41 42
79 71 86 79 71 86 79 71 86 79 71 86 64 56 71 64 56 71 64 56 71 64 56 71 64 56 71 64 56 71 64 56 71 64 56 71 45 39 53 45 39 53 45 39 53 45 39 53 45 39 53 45 39 53 45 39 53 45 39 53 8 2 16 8 2 16 8 2 16 8 2 16 8 2 16 8 2 16 8 2 16 8 2 16 5 1 15 4 2 15 4 2 15 4 2 15 4 2 15 4 2 15 4 2 15 4 2 15 5 3 16 5 3 16 5 3 16 5 3 16 5 3 16 5 3 16 5 3 16 4 4 16 3 6 15 3 6 15 3 6 15 3 6 15 3 6 15 3 6 15 3 6 15 3 6 15 7 10 19 7 10 19 7 10 19 7 10 19 7 10 19 7 10 19 7 10 19 7 10 19 7 12 18 7 12 18 7 12 18 7 12 18 7 12 18 7 12 18 7 12 18 7 12 18 6 11 17 6 11 17 6 11 17 6 11 17 6 11 17 6 11 17 6 11 17 6 11 17 7 12 16 7 12 16 7 12 16 7 12 16 7 12 16 7 12 16 7 12 16 7 12 16 8 13 17 8 13 17 8 13 17 8 13 17 8 13 17 8 13 17 8 13 17 8 13 17 6 11 14 6 11 14 6 11 14 6 11 14 6 11 14 6 11 14 6 11 14 6 11 14 0 3 6 0 3 6 0 3 6 0 3 6 0 3 6 0 3 6 0 3 6 0 3 6 0 1 2 0 2 3 0 4 5 3 7 8 7 11 12 10 14 15 12 16 17 14 18 19 18 22 23 20 24 25 25 29 30 32 36 37 38 42 43 45 49 50 50 54 55 52 56 57 66 70 69 69 74 70 74 78 77 80 85 81 87 91 90 93 98 94 98 102 101 101 106 102 98 102 101 104 109 105 112 116 115 117 122 118 117 121 120 112 117 113 104 108 107 100 102 101 53 53 53 52 50 51 50 48 49 47 45 46 43 41 42 40 38 39 38 36 37 36 34 35 41 39 40 41 39 40 41 39 40 41 39 40 41 39 40 41 39 40 41 39 40 41 39 40 39 37 38 39 37 38 39 37 38 39 37 38 39 37 38 39 37 38 39 37 38 39 37 38 37 35 36 37 35 36 37 35 36 37 35 36 37 35 36 37 35 36 37 35 36 37 35 36
67 60 76 67 60 76 67 60 76 67 60 76 53 46 62 53 46 62 53 46 62 53 46 62 53 46 62 53 46 62 53 46 62 53 46 62 35 31 45 35 31 45 35 31 45 35 31 45 35 31 45 35 31 45 35 31 45 35 31 45 6 2 16 6 2 16 6 2 16 6 2 16 6 2 16 6 2 16 6 2 16 5 3 16 4 2 15 3 3 15 3 3 15 3 3 15 3 3 15 3 3 15 3 3 15 3 3 15 4 4 16 4 4 16 4 4 16 4 4 16 4 4 16 4 4 16 4 4 16 2 4 16 3 6 15 2 6 15 2 6 15 2 6 15 2 6 15 2 6 15 2 6 15 2 6 15 6 10 19 6 10 19 6 10 19 6 10 19 6 10 19 6 10 19 6 10 19 6 10 19 7 12 18 7 12 18 7 12 18 7 12 18 7 12 18 7 12 18 7 12 18 7 12 18 6 11 17 6 11 17 6 11 17 6 11 17 6 11 17 6 11 17 6 11 17 6 11 17 7 12 16 7 12 16 7 12 16 7 12 16 7 12 16 7 12 16 7 12 16 7 12 16 8 13 17 8 13 17 8 13 17 8 13 17 8 13 17 8 13 17 8 13 17 8 13 17 6 11 14 6 11 14 6 11 14 6 11 14 6 11 14 6 11 14 6 11 14 6 11 14 0 3 6 0 3 6 0 3 6 0 3 6 0 3 6 0 3 6 0 3 6 0 3 6 0 1 2 0 2 3 0 4 5 3 7 8 7 11 12 10 14 15 12 16 17 14 18 19 18 22 23 20 24 25 25 29 30 32 36 37 38 42 43 45 49 50 50 54 55 52 56 55 65 69 68 68 73 69 73 78 74 79 84 80 86 91 87 92 97 93 97 102 98 100 105 101 97 102 98 102 107 103 110 115 111 116 121 117 116 121 117 110 115 111 102 107 103 99 101 98 53 53 53 52 50 51 50 48 49 47 45 46 43 41 42 40 38 39 38 36 37 36 34 35 41 39 40 41 39 40 41 39 40 41 39 40 41 39 40 41 39 40 41 39 40 41 39 40 39 37 38 39 37 38 39 37 38 39 37 38 39 37 38 39 37 38 39 37 38 39 37 38 37 35 36 37 35 36 37 35 36 37 35 36 37 35 36 37 35 36 37 35 36 37 35 36
50 43 59 50 43 59 50 43 59 50 43 59 38 31 47 38 31 47 38 31 47 38 31 47 38 31 47 38 31 47 38 31 47 38 31 47 22 18 32 22 18 32 22 18 32 22 18 32 22 18 32 22 18 32 22 18 32 22 18 32 6 2 16 6 2 16 6 2 16 6 2 16 6 2 16 6 2 16 6 2 16 5 3 16 4 2 15 3 3 15 3 3 15 3 3 15 3 3 15 3 3 15 3 3 15 3 3 15 4 4 16 4 4 16 4 4 16 4 4 16 4 4 16 4 4 16 4 4 16 2 4 16 3 6 15 2 6 15 2 6 15 2 6 15 2 6 15 2 6 15 2 6 15 2 6 15 6 10 19 6 10 19 6 10 19 6 10 19 6 10 19 6 10 19 6 10 19 6 10 19 7 12 18 7 12 18 7 12 18 7 12 18 7 12 18 7 12 18 7 12 18 7 12 18 6 11 17 6 11 17 6 11 17 6 11 17 6 11 17 6 11 17 6 11 17 6 11 17 7 12 16 7 12 16 7 12 16 7 12 16 7 12 16 7 12 16 7 12 16 7 12 16 8 13 17 8 13 17 8 13 17 8 13 17 8 13 17 8 13 17 8 13 17 8 13 17 6 11 14 6 11 14 6 11 14 6 11 14 6 11 14 6 11 14 6 11 14 6 11 14 0 3 6 0 3 6 0 3 6 0 3 6 0 3 6 0 3 6 0 3 6 0 3 6 0 1 2 0 2 3 0 4 5 3 7 8 7 11 12 10 14 15 12 16 17 14 18 19 18 22 23 20 24 25 25 29 30 32 36 37 38 42 43 45 49 50 50 54 55 52 56 55 63 67 66 65 70 66 70 75 71 76 81 77 83 88 84 90 95 91 95 100 96 97 102 98 94 99 95 100 105 101 108 113 109 114 119 115 114 119 115 108 113 109 100 105 101 96 98 95 53 53 53 52 50 51 50 48 49 47 45 46 43 41 42 40 38 39 38 36 37 36 34 35 41 39 40 41 39 40 41 39 40 41 39 40 41 39 40 41 39 40 41 39 40 41 39 40 39 37 38 39 37 38 39 37 38 39 37 38 39 37 38 39 37 38 39 37 38 39 37 38 37 35 36 37 35 36 37 35 36 37 35 36 37 35 36 37 35 36 37 35 36 37 35 36
31 24 40 31 24 40 31 24 40 31 24 40 23 16 32 23 16 32 23 16 32 23 16 32 23 16 32 23 16 32 23 16 32 23 16 32 10 6 20 10 6 20 10 6 20 10 6 20 10 6 20 10 6 20 10 6 20 10 6 20 6 2 16 6 2 16 6 2 16 6 2 16 6 2 16 6 2 16 6 2 16 5 3 16 4 2 15 3 3 15 3 3 15 3 3 15 3 3 15 3 3 15 3 3 15 3 3 15 4 4 16 4 4 16 4 4 16 4 4 16 4 4 16 4 4 16 4 4 16 2 4 16 3 6 15 2 6 15 2 6 15 2 6 15 2 6 15 2 6 15 2 6 15 2 6 15 6 10 19 6 10 19 6 10 19 6 10 19 6 10 19 6 10 19 6 10 19 6 10 19 7 12 18 7 12 18 7 12 18 7 12 18 7 12 18 7 12 18 7 12 18 7 12 18 6 11 17 6 11 17 6 11 17 6 11 17 6 11 17 6 11 17 6 11 17 6 11 17 7 12 16 7 12 16 7 12 16 7 12 16 7 12 16 7 12 16 7 12 16 7 12 16 8 13 17 8 13 17 8 13 17 8 13 17 8 13 17 8 13 17 8 13 17 8 13 17 6 11 14 6 11 14 6 11 14 6 11 14 6 11 14 6 11 14 6 11 14 6 11 14 0 3 6 0 3 6 0 3 6 0 3 6 0 3 6 0 3 6 0 3 6 0 3 6 0 1 2 0 2 3 0 4 5 3 7 8 7 11 12 10 14 15 12 16 17 14 18 19 18 22 23 20 24 25 25 29 30 32 36 37 38 42 43 45 49 50 50 54 55 52 56 55 59 63 62 62 67 63 67 72 68 73 78 74 80 85 81 87 92 88 91 96 92 94 99 95 91 96 92 97 102 98 105 110 106 110 115 111 110 115 111 105 110 106 97 102 98 93 95 92 53 53 53 52 50 51 50 48 49 47 45 46 43 41 42 40 38 39 38 36 37 36 34 35 41 39 40 41 39 40 41 39 40 41 39 40 41 39 40 41 39 40 41 39 40 41 39 40 39 37 38 39 37 38 39 37 38 39 37 38 39 37 38 39 37 38 39 37 38 39 37 38 37 35 36 37 35 36 37 35 36 37 35 36 37 35 36 37 35 36 37 35 36 37 35 36
17 10 26 17 10 26 17 10 26 17 10 26 12 5 21 12 5 21 12 5 21 12 5 21 12 5 21 12 5 21 12 5 21 12 5 21 3 0 13 3 0 13 3 0 13 3 0 13 3 0 13 3 0 13 3 0 13 3 0 13 6 2 16 6 2 16 6 2 16 6 2 16 6 2 16 6 2 16 6 2 16 5 3 16 4 2 15 3 3 15 3 3 15 3 3 15 3 3 15 3 3 15 3 3 15 3 3 15 4 4 16 4 4 16 4 4 16 4 4 16 4 4 16 4 4 16 4 4 16 2 4 16 3 6 15 2 6 15 2 6 15 2 6 15 2 6 15 2 6 15 2 6 15 2 6 15 6 10 19 6 10 19 6 10 19 6 10 19 6 10 19 6 10 19 6 10 19 6 10 19 7 12 18 7 12 18 7 12 18 7 12 18 7 12 18 7 12 18 7 12 18 7 12 18 6 11 17 6 11 17 6 11 17 6 11 17 6 11 17 6 11 17 6 11 17 6 11 17 7 12 16 7 12 16 7 12 16 7 12 16 7 12 16 7 12 16 7 12 16 7 12 16 8 13 17 8 13 17 8 13 17 8 13 17 8 13 17 8 13 17 8 13 17 8 13 17 6 11 14 6 11 14 6 11 14 6 11 14 6 11 14 6 11 14 6 11 14 6 11 14 0 3 6 0 3 6 0 3 6 0 3 6 0 3 6 0 3 6 0 3 6 0 3 6 0 1 2 0 2 3 0 4 5 3 7 8 7 11 12 10 14 15 12 16 17 14 18 19 18 22 23 20 24 25 25 29 30 32 36 37 38 42 43 45 49 50 50 54 55 52 56 55 56 60 59 59 64 60 63 68 64 70 75 71 77 82 78 83 88 84 88 93 89 91 96 92 88 93 89 93 98 94 101 106 102 107 112 108 107 112 108 101 106 102 93 98 94 90 92 89 53 53 53 52 50 51 50 48 49 47 45 46 43 41 42 40 38 39 38 36 37 36 34 35 41 39 40 41 39 40 41 39 40 41 39 40 41 39 40 41 39 40 41 39 40 41 39 40 39 37 38 39 37 38 39 37 38 39 37 38 39 37 38 39 37 38 39 37 38 39 37 38 37 35 36 37 35 36 37 35 36 37 35 36 37 35 36 37 35 36 37 35 36 37 35 36
10 3 19 10 3 19 10 3 19 10 3 19 8 1 17 8 1 17 8 1 17 8 1 17 8 1 17 8 1 17 8 1 17 8 1 17 2 0 12 2 0 12 2 0 12 2 0 12 2 0 12 2 0 12 2 0 12 2 0 12 6 2 16 6 2 16 6 2 16 6 2 16 6 2 16 6 2 16 6 2 16 5 3 16 4 2 15 3 3 15 3 3 15 3 3 15 3 3 15 3 3 15 3 3 15 3 3 15 4 4 16 4 4 16 4 4 16 4 4 16 4 4 16 4 4 16 4 4 16 2 4 16 3 6 15 2 6 15 2 6 15 2 6 15 2 6 15 2 6 15 2 6 15 2 6 15 6 10 19 6 10 19 6 10 19 6 10 19 6 10 19 6 10 19 6 10 19 6 10 19 7 12 18 7 12 18 7 12 18 7 12 18 7 12 18 7 12 18 7 12 18 7 12 18 6 11 17 6 11 17 6 11 17 6 11 17 6 11 17 6 11 17 6 11 17 6 11 17 7 12 16 7 12 16 7 12 16 7 12 16 7 12 16 7 12 16 7 12 16 7 12 16 8 13 17 8 13 17 8 13 17 8 13 17 8 13 17 8 13 17 8 13 17 8 13 17 6 11 14 6 11 14 6 11 14 6 11 14 6 11 14 6 11 14 6 11 14 6 11 14 0 3 6 0 3 6 0 3 6 0 3 6 0 3 6 0 3 6 0 3 6 0 3 6 0 1 2 0 2 3 0 4 5 3 7 8 7 11 12 10 14 15 12 16 17 14 18 19 18 22 23 20 24 25 25 29 30 32 36 37 38 42 43 45 49 50 50 54 55 52 56 55 53 57 56 55 60 56 60 65 61 67 72 68 74 79 75 80 85 81 85 90 86 87 92 88 84 89 85 90 95 91 98 103 99 104 109 105 104 109 105 98 103 99 90 95 91 86 88 85 53 53 53 52 50 51 50 48 49 47 45 46 43 41 42 40 38 39 38 36 37 36 34 35 41 39 40 41 39 40 41 39 40 41 39 40 41 39 40 41 39 40 41 39 40 41 39 40 39 37 38 39 37 38 39 37 38 39 37 38 39 37 38 39 37 38 39 37 38 39 37 38 37 35 36 37 35 36 37 35 36 37 35 36 37 35 36 37 35 36 37 35 36 37 35 36
9 2 18 9 2 18 9 2 18 9 2 18 9 2 18 9 2 18 9 2 18 9 2 18 9 2 18 9 2 18 9 2 18 9 2 18 5 1 15 5 1 15 5 1 15 5 1 15 5 1 15 5 1 15 5 1 15 5 1 15 6 2 16 6 2 16 6 2 16 6 2 16 6 2 16 6 2 16 6 2 16 5 3 16 4 2 15 3 3 15 3 3 15 3 3 15 3 3 15 3 3 15 3 3 15 3 3 15 4 4 16 4 4 16 4 4 16 4 4 16 4 4 16 4 4 16 4 4 16 2 4 16 3 6 15 2 6 15 2 6 15 2 6 15 2 6 15 2 6 15 2 6 15 2 6 15 6 10 19 6 10 19 6 10 19 6 10 19 6 10 19 6 10 19 6 10 19 6 10 19 7 12 18 7 12 18 7 12 18 7 12 18 7 12 18 7 12 18 7 12 18 7 12 18 6 11 17 6 11 17 6 11 17 6 11 17 6 11 17 6 11 17 6 11 17 6 11 17 7 12 16 7 12 16 7 12 16 7 12 16 7 12 16 7 12 16 7 12 16 7 12 16 8 13 17 8 13 17 8 13 17 8 13 17 8 13 17 8 13 17 8 13 17 8 13 17 6 11 14 6 11 14 6 11 14 6 11 14 6 11 14 6 11 14 6 11 14 6 11 14 0 3 6 0 3 6 0 3 6 0 3 6 0 3 6 0 3 6 0 3 6 0 3 6 0 1 2 0 2 3 0 4 5 3 7 8 7 11 12 10 14 15 12 16 17 14 18 19 18 22 23 20 24 25 25 29 30 32 36 37 38 42 43 45 49 50 50 54 55 52 56 55 50 54 53 53 58 54 58 63 59 64 69 65 71 76 72 77 82 78 82 87 83 85 90 86 82 87 83 88 93 89 96 101 97 101 106 102 101 106 102 96 101 97 88 93 89 84 86 83 53 53 53 52 50 51 50 48 49 47 45 46 43 41 42 40 38 39 38 36 37 36 34 35 41 39 40 41 39 40 41 39 40 41 39 40 41 39 40 41 39 40 41 39 40 41 39 40 39 37 38 39 37 38 39 37 38 39 37 38 39 37 38 39 37 38 39 37 38 39 37 38 37 35 36 37 35 36 37 35 36 37 35 36 37 35 36 37 35 36 37 35 36 37 35 36
9 2 18 9 2 18 9 2 18 9 2 18 11 4 20 11 4 20 11 4 20 11 4 20 11 4 20 11 4 20 11 4 20 11 4 20 8 4 18 8 4 18 8 4 18 8 4 18 8 4 18 8 4 18 8 4 18 8 4 18 6 2 16 6 2 16 6 2 16 6 2 16 6 2 16 6 2 16 6 2 16 5 3 16 4 2 15 3 3 15 3 3 15 3 3 15 3 3 15 3 3 15 3 3 15 3 3 15 4 4 16 4 4 16 4 4 16 4 4 16 4 4 16 4 4 16 4 4 16 2 4 16 3 6 15 2 6 15 2 6 15 2 6 15 2 6 15 2 6 15 2 6 15 2 6 15 6 10 19 6 10 19 6 10 19 6 10 19 6 10 19 6 10 19 6 10 19 6 10 19 7 12 18 7 12 18 7 12 18 7 12 18 7 12 18 7 12 18 7 12 18 7 12 18 6 11 17 6 11 17 6 11 17 6 11 17 6 11 17 6 11 17 6 11 17 6 11 17 7 12 16 7 12 16 7 12 16 7 12 16 7 12 16 7 12 16 7 12 16 7 12 16 8 13 17 8 13 17 8 13 17 8 13 17 8 13 17 8 13 17 8 13 17 8 13 17 6 11 14 6 11 14 6 11 14 6 11 14 6 11 14 6 11 14 6 11 14 6 11 14 0 3 6 0 3 6 0 3 6 0 3 6 0 3 6 0 3 6 0 3 6 0 3 6 0 1 2 0 2 3 0 4 5 3 7 8 7 11 12 10 14 15 12 16 17 14 18 19 18 22 23 20 24 25 25 29 30 32 36 37 38 42 43 45 49 50 50 54 55 52 56 55 49 53 52 52 57 53 57 62 58 63 68 64 70 75 71 76 81 77 81 86 82 84 89 85 81 86 82 86 91 87 94 99 95 100 105 101 100 105 101 94 99 95 86 91 87 83 85 82 53 53 53 52 50 51 50 48 49 47 45 46 43 41 42 40 38 39 38 36 37 36 34 35 41 39 40 41 39 40 41 39 40 41 39 40 41 39 40 41 39 40 41 39 40 41 39 40 39 37 38 39 37 38 39 37 38 39 37 38 39 37 38 39 37 38 39 37 38 39 37 38 37 35 36 37 35 36 37 35 36 37 35 36 37 35 36 37 35 36 37 35 36 37 35 36
8 1 17 8 1 17 8 1 17 8 1 17 7 0 16 7 0 16 7 0 16 7 0 16 7 0 16 7 0 16 7 0 16 7 0 16 4 0 14 4 0 14 4 0 14 4 0 14 4 0 14 4 0 14 4 0 14 4 0 14 6 2 16 6 2 16 6 2 16 6 2 16 6 2 16 6 2 16 6 2 16 5 3 16 6 4 17 5 5 17 5 5 17 5 5 17 5 5 17 5 5 17 5 5 17 5 5 17 7 7 19 7 7 19 7 7 19 7 7 19 7 7 19 7 7 19 7 7 19 5 7 19 3 6 15 2 6 15 2 6 15 2 6 15 2 6 15 2 6 15 2 6 15 2 6 15 5 9 18 5 9 18 5 9 18 5 9 18 5 9 18 5 9 18 5 9 18 5 9 18 6 11 17 6 11 17 6 11 17 6 11 17 6 11 17 6 11 17 6 11 17 6 11 17 6 11 17 6 11 17 6 11 17 6 11 17 6 11 17 6 11 17 6 11 17 6 11 17 7 12 16 7 12 16 7 12 16 7 12 16 7 12 16 7 12 16 7 12 16 7 12 16 9 14 18 9 14 18 9 14 18 9 14 18 9 14 18 9 14 18 9 14 18 9 14 18 0 5 8 0 5 8 0 5 8 0 5 8 0 5 8 0 5 8 0 5 8 0 5 8 0 4 7 0 4 7 0 4 7 0 4 7 0 4 7 0 4 7 0 4 7 0 4 7 0 1 2 0 3 4 1 5 6 4 8 9 8 12 13 11 15 16 13 17 18 15 19 20 27 31 32 29 33 34 31 35 36 34 38 39 38 42 43 41 45 46 43 47 48 45 49 48 52 56 55 54 59 55 56 61 57 59 64 60 63 68 64 66 71 67 68 73 69 70 75 71 85 90 86 85 90 86 85 90 86 85 90 86 85 90 86 85 90 86 85 90 86 87 89 86 48 48 48 47 45 46 45 43 44 42 40 41 38 36 37 35 33 34 33 31 32 31 29 30 35 33 34 35 33 34 35 33 34 35 33 34 35 33 34 35 33 34 35 33 34 35 33 34 35 33 34 35 33 34 35 33 34 35 33 34 35 33 34 35 33 34 35 33 34 35 33 34 37 35 36 37 35 36 37 35 36 37 35 36 37 35 36 37 35 36 37 35 36 37 35 36
8 1 17 8 1 17 8 1 17 8 1 17 7 0 16 7 0 16 7 0 16 7 0 16 7 0 16 7 0 16 7 0 16 7 0 16 4 0 14 4 0 14 4 0 14 4 0 14 4 0 14 4 0 14 4 0 14 4 0 14 6 2 16 6 2 16 6 2 16 6 2 16 6 2 16 6 2 16 6 2 16 5 3 16 6 4 17 5 5 17 5 5 17 5 5 17 5 5 17 5 5 17 5 5 17 5 5 17 7 7 19 7 7 19 7 7 19 7 7 19 7 7 19 7 7 19 7 7 19 5 7 19 3 6 15 2 6 15 2 6 15 2 6 15 2 6 15 2 6 15 2 6 15 2 6 15 5 9 18 5 9 18 5 9 18 5 9 18 5 9 18 5 9 18 5 9 18 5 9 18 6 11 17 6 11 17 6 11 17 6 11 17 6 11 17 6 11 17 6 11 17 6 11 17 6 11 17 6 11 17 6 11 17 6 11 17 6 11 17 6 11 17 6 11 17 6 11 17 7 12 16 7 12 16 7 12 16 7 12 16 7 12 16 7 12 16 7 12 16 7 12 16 9 14 18 9 14 18 9 14 18 9 14 18 9 14 18 9 14 18 9 14 18 9 14 18 2 7 10 2 7 10 2 7 10 2 7 10 2 7 10 2 7 10 2 7 10 2 7 10 0 4 7 0 4 7 0 4 7 0 4 7 0 4 7 0 4 7 0 4 7 0 4 7 0 1 2 0 3 4 1 5 6 4 8 9 8 12 13 11 15 16 13 17 18 15 19 20 27 31 32 29 33 34 31 35 36 34 38 39 38 42 43 41 45 46 43 47 48 45 49 48 52 56 55 54 59 55 56 61 57 59 64 60 63 68 64 66 71 67 68 73 69 70 75 71 83 88 84 83 88 84 83 88 84 83 88 84 83 88 84 83 88 84 83 88 84 85 87 84 48 48 48 47 45 46 45 43 44 42 40 41 38 36 37 35 33 34 33 31 32 31 29 30 35 33 34 35 33 34 35 33 34 35 33 34 35 33 34 35 33 34 35 33 34 35 33 34 35 33 34 35 33 34 35 33 34 35 33 34 35 33 34 35 33 34 35 33 34 35 33 34 37 35 36 37 35 36 37 35 36 37 35 36 37 35 36 37 35 36 37 35 36 37 35 36
8 1 17 8 1 17 8 1 17 8 1 17 7 0 16 7 0 16 7 0 16 7 0 16 7 0 16 7 0 16 7 0 16 7 0 16 4 0 14 4 0 14 4 0 14 4 0 14 4 0 14 4 0 14 4 0 14 4 0 14 6 2 16 6 2 16 6 2 16 6 2 16 6 2 16 6 2 16 6 2 16 5 3 16 6 4 17 5 5 17 5 5 17 5 5 17 5 5 17 5 5 17 5 5 17 5 5 17 7 7 19 7 7 19 7 7 19 7 7 19 7 7 19 7 7 19 7 7 19 5 7 19 3 6 15 2 6 15 2 6 15 2 6 15 2 6 15 2 6 15 2 6 15 2 6 15 5 9 18 5 9 18 5 9 18 5 9 18 5 9 18 5 9 18 5 9 18 5 9 18 6 11 17 6 11 17 6 11 17 6 11 17 6 11 17 6 11 17 6 11 17 6 11 17 6 11 17 6 11 17 6 11 17 6 11 17 6 11 17 6 11 17 6 11 17 6 11 17 7 12 16 7 12 16 7 12 16 7 12 16 7 12 16 7 12 16 7 12 16 7 12 16 9 14 18 9 14 18 9 14 18 9 14 18 9 14 18 9 14 18 9 14 18 9 14 18 4 9 12 4 9 12 4 9 12 4 9 12 4 9 12 4 9 12 4 9 12 4 9 12 0 4 7 0 4 7 0 4 7 0 4 7 0 4 7 0 4 7 0 4 7 0 4 7 0 1 2 0 3 4 1 5 6 4 8 9 8 12 13 11 15 16 13 17 18 15 19 20 27 31 32 29 33 34 31 35 36 34 38 39 38 42 43 41 45 46 43 47 48 45 49 48 52 56 55 54 59 55 56 61 57 59 64 60 63 68 64 66 71 67 68 73 69 70 75 71 81 86 82 81 86 82 81 86 82 81 86 82 81 86 82 81 86 82 81 86 82 83 85 82 48 48 48 47 45 46 45 43 44 42 40 41 38 36 37 35 33 34 33 31 32 31 29 30 35 33 34 35 33 34 35 33 34 35 33 34 35 33 34 35 33 34 35 33 34 35 33 34 35 33 34 35 33 34 35 33 34 35 33 34 35 33 34 35 33 34 35 33 34 35 33 34 37 35 36 37 35 36 37 35 36 37 35 36 37 35 36 37 35 36 37 35 36 37 35 36
8 1 17 8 1 17 8 1 17 8 1 17 7 0 16 7 0 16 7 0 16 7 0 16 7 0 16 7 0 16 7 0 16 7 0 16 4 0 14 4 0 14 4 0 14 4 0 14 4 0 14 4 0 14 4 0 14 4 0 14 6 2 16 6 2 16 6 2 16 6 2 16 6 2 16 6 2 16 6 2 16 5 3 16 6 4 17 5 5 17 5 5 17 5 5 17 5 5 17 5 5 17 5 5 17 5 5 17 7 7 19 7 7 19 7 7 19 7 7 19 7 7 19 7 7 19 7 7 19 5 7 19 3 6 15 2 6 15 2 6 15 2 6 15 2 6 15 2 6 15 2 6 15 2 6 15 5 9 18 5 9 18 5 9 18 5 9 18 5 9 18 5 9 18 5 9 18 5 9 18 6 11 17 6 11 17 6 11 17 6 11 17 6 11 17 6 11 17 6 11 17 6 11 17 6 11 17 6 11 17 6 11 17 6 11 17 6 11 17 6 11 17 6 11 17 6 11 17 7 12 16 7 12 16 7 12 16 7 12 16 7 12 16 7 12 16 7 12 16 7 12 16 9 14 18 9 14 18 9 14 18 9 14 18 9 14 18 9 14 18 9 14 18 9 14 18 7 12 15 7 12 15 7 12 15 7 12 15 7 12 15 7 12 15 7 12 15 7 12 15 0 4 7 0 4 7 0 4 7 0 4 7 0 4 7 0 4 7 0 4 7 0 4 7 0 1 2 0 3 4 1 5 6 4 8 9 8 12 13 11 15 16 13 17 18 15 19 20 27 31 32 29 33 34 31 35 36 34 38 39 38 42 43 41 45 46 43 47 48 45 49 48 52 56 55 54 59 55 56 61 57 59 64 60 63 68 64 66 71 67 68 73 69 70 75 71 78 83 79 78 83 79 78 83 79 78 83 79 78 83 79 78 83 79 78 83 79 80 82 79 48 48 48 47 45 46 45 43 44 42 40 41 38 36 37 35 33 34 33 31 32 31 29 30 35 33 34 35 33 34 35 33 34 35 33 34 35 33 34 35 33 34 35 33 34 35 33 34 35 33 34 35 33 34 35 33 34 35 33 34 35 33 34 35 33 34 35 33 34 35 33 34 37 35 36 37 35 36 37 35 36 37 35 36 37 35 36 37 35 36 37 35 36 37 35 36
8 1 17 8 1 17 8 1 17 8 1 17 7 0 16 7 0 16 7 0 16 7 0 16 7 0 16 7 0 16 7 0 16 7 0 16 4 0 14 4 0 14 4 0 14 4 0 14 4 0 14 4 0 14 4 0 14 4 0 14 6 2 16 6 2 16 6 2 16 6 2 16 6 2 16 6 2 16 6 2 16 5 3 16 6 4 17 5 5 17 5 5 17 5 5 17 5 5 17 5 5 17 5 5 17 5 5 17 7 7 19 7 7 19 7 7 19 7 7 19 7 7 19 7 7 19 7 7 19 5 7 19 3 6 15 2 6 15 2 6 15 2 6 15 2 6 15 2 6 15 2 6 15 2 6 15 5 9 18 5 9 18 5 9 18 5 9 18 5 9 18 5 9 18 5 9 18 5 9 18 6 11 17 6 11 17 6 11 17 6 11 17 6 11 17 6 11 17 6 11 17 6 11 17 6 11 17 6 11 17 6 11 17 6 11 17 6 11 17 6 11 17 6 11 17 6 11 17 7 12 16 7 12 16 7 12 16 7 12 16 7 12 16 7 12 16 7 12 16 7 12 16 9 14 18 9 14 18 9 14 18 9 14 18 9 14 18 9 14 18 9 14 18 9 14 18 11 16 19 11 16 19 11 16 19 11 16 19 11 16 19 11 16 19 11 16 19 11 16 19 0 4 7 0 4 7 0 4 7 0 4 7 0 4 7 0 4 7 0 4 7 0 4 7 0 1 2 0 3 4 1 5 6 4 8 9 8 12 13 11 15 16 13 17 18 15 19 20 27 31 32 29 33 34 31 35 36 34 38 39 38 42 43 41 45 46 43 47 48 45 49 48 52 56 55 54 59 55 56 61 57 59 64 60 63 68 64 66 71 67 68 73 69 70 75 71 74 79 75 74 79 75 74 79 75 74 79 75 74 79 75 74 79 75 74 79 75 76 78 75 48 48 48 47 45 46 45 43 44 42 40 41 38 36 37 35 33 34 33 31 32 31 29 30 35 33 34 35 33 34 35 33 34 35 33 34 35 33 34 35 33 34 35 33 34 35 33 34 35 33 34 35 33 34 35 33 34 35 33 34 35 33 34 35 33 34 35 33 34 35 33 34 37 35 36 37 35 36 37 35 36 37 35 36 37 35 36 37 35 36 37 35 36 37 35 36
8 1 17 8 1 17 8 1 17 8 1 17 7 0 16 7 0 16 7 0 16 7 0 16 7 0 16 7 0 16 7 0 16 7 0 16 4 0 14 4 0 14 4 0 14 4 0 14 4 0 14 4 0 14 4 0 14 4 0 14 6 2 16 6 2 16 6 2 16 6 2 16 6 2 16 6 2 16 6 2 16 5 3 16 6 4 17 5 5 17 5 5 17 5 5 17 5 5 17 5 5 17 5 5 17 5 5 17 7 7 19 7 7 19 7 7 19 7 7 19 7 7 19 7 7 19 7 7 19 5 7 19 3 6 15 2 6 15 2 6 15 2 6 15 2 6 15 2 6 15 2 6 15 2 6 15 5 9 18 5 9 18 5 9 18 5 9 18 5 9 18 5 9 18 5 9 18 5 9 18 6 11 17 6 11 17 6 11 17 6 11 17 6 11 17 6 11 17 6 11 17 6 11 17 6 11 17 6 11 17 6 11 17 6 11 17 6 11 17 6 11 17 6 11 17 6 11 17 7 12 16 7 12 16 7 12 16 7 12 16 7 12 16 7 12 16 7 12 16 7 12 16 9 14 18 9 14 18 9 14 18 9 14 18 9 14 18 9 14 18 9 14 18 9 14 18 14 19 22 14 19 22 14 19 22 14 19 22 14 19 22 14 19 22 14 19 22 14 19 22 0 4 7 0 4 7 0 4 7 0 4 7 0 4 7 0 4 7 0 4 7 0 4 7 0 1 2 0 3 4 1 5 6 4 8 9 8 12 13 11 15 16 13 17 18 15 19 20 27 31 32 29 33 34 31 35 36 34 38 39 38 42 43 41 45 46 43 47 48 45 49 48 52 56 55 54 59 55 56 61 57 59 64 60 63 68 64 66 71 67 68 73 69 70 75 71 71 76 72 71 76 72 71 76 72 71 76 72 71 76 72 71 76 72 71 76 72 73 75 72 48 48 48 47 45 46 45 43 44 42 40 41 38 36 37 35 33 34 33 31 32 31 29 30 35 33 34 35 33 34 35 33 34 35 33 34 35 33 34 35 33 34 35 33 34 35 33 34 35 33 34 35 33 34 35 33 34 35 33 34 35 33 34 35 33 34 35 33 34 35 33 34 37 35 36 37 35 36 37 35 36 37 35 36 37 35 36 37 35 36 37 35 36 37 35 36
8 1 17 8 1 17 8 1 17 8 1 17 7 0 16 7 0 16 7 0 16 7 0 16 7 0 16 7 0 16 7 0 16 7 0 16 4 0 14 4 0 14 4 0 14 4 0 14 4 0 14 4 0 14 4 0 14 4 0 14 6 2 16 6 2 16 6 2 16 6 2 16 6 2 16 6 2 16 6 2 16 5 3 16 6 4 17 5 5 17 5 5 17 5 5 17 5 5 17 5 5 17 5 5 17 5 5 17 7 7 19 7 7 19 7 7 19 7 7 19 7 7 19 7 7 19 7 7 19 5 7 19 3 6 15 2 6 15 2 6 15 2 6 15 2 6 15 2 6 15 2 6 15 2 6 15 5 9 18 5 9 18 5 9 18 5 9 18 5 9 18 5 9 18 5 9 18 5 9 18 6 11 17 6 11 17 6 11 17 6 11 17 6 11 17 6 11 17 6 11 17 6 11 17 6 11 17 6 11 17 6 11 17 6 11 17 6 11 17 6 11 17 6 11 17 6 11 17 7 12 16 7 12 16 7 12 16 7 12 16 7 12 16 7 12 16 7 12 16 7 12 16 9 14 18 9 14 18 9 14 18 9 14 18 9 14 18 9 14 18 9 14 18 9 14 18 16 21 24 16 21 24 16 21 24 16 21 24 16 21 24 16 21 24 16 21 24 16 21 24 0 4 7 0 4 7 0 4 7 0 4 7 0 4 7 0 4 7 0 4 7 0 4 7 0 1 2 0 3 4 1 5 6 4 8 9 8 12 13 11 15 16 13 17 18 15 19 20 27 31 32 29 33 34 31 35 36 34 38 39 38 42 43 41 45 46 43 47 48 45 49 48 52 56 55 54 59 55 56 61 57 59 64 60 63 68 64 66 71 67 68 73 69 70 75 71 69 74 70 69 74 70 69 74 70 69 74 70 69 74 70 69 74 70 69 74 70 71 73 70 48 48 48 47 45 46 45 43 44 42 40 41 38 36 37 35 33 34 33 31 32 31 29 30 35 33 34 35 33 34 35 33 34 35 33 34 35 33 34 35 33 34 35 33 34 35 33 34 35 33 34 35 33 34 35 33 34 35 33 34 35 33 34 35 33 34 35 33 34 35 33 34 37 35 36 37 35 36 37 35 36 37 35 36 37 35 36 37 35 36 37 35 36 37 35 36
8 1 17 6 2 17 8 1 17 6 2 17 7 0 16 5 1 16 7 0 16 5 1 16 7 0 16 5 1 16 7 0 16 5 1 16 4 0 14 4 0 14 4 0 14 4 0 14 4 0 14 4 0 14 4 0 14 4 0 14 6 2 16 6 2 16 6 2 16 6 2 16 6 2 16 6 2 16 6 2 16 5 3 16 6 4 17 5 5 17 5 5 17 5 5 17 5 5 17 5 5 17 5 5 17 5 5 17 7 7 19 7 7 19 7 7 19 7 7 19 7 7 19 7 7 19 7 7 19 7 7 19 3 6 15 2 6 15 2 6 15 2 6 15 2 6 15 2 6 15 2 6 15 2 6 15 5 9 18 5 9 18 5 9 18 5 9 18 5 9 18 5 9 18 5 9 18 5 9 18 6 11 17 6 11 17 6 11 17 6 11 17 6 11 17 6 11 17 6 11 17 6 11 17 6 11 17 6 11 17 6 11 17 6 11 17 6 11 17 6 11 17 6 11 17 6 11 17 7 12 16 7 12 16 7 12 16 7 12 16 7 12 16 7 12 16 7 12 16 7 12 16 9 14 18 9 14 18 9 14 18 9 14 18 9 14 18 9 14 18 9 14 18 9 14 18 18 23 26 18 23 26 18 23 26 18 23 26 18 23 26 18 23 26 18 23 26 18 23 26 0 4 7 0 4 7 0 4 7 0 4 7 0 4 7 0 4 7 0 4 7 0 4 7 0 1 4 0 3 4 1 5 6 4 8 9 8 12 13 11 15 16 13 17 18 15 19 20 27 31 32 29 33 34 31 35 36 34 38 39 38 42 43 41 45 46 43 47 48 45 49 50 52 56 55 54 59 55 56 61 57 59 64 60 63 68 64 66 71 67 68 73 69 70 75 71 67 72 68 67 72 68 67 72 68 67 72 68 67 72 68 67 72 68 67 72 68 69 71 68 49 48 46 47 46 44 47 43 44 42 41 39 40 36 37 35 34 32 35 31 32 31 30 28 37 33 34 35 34 32 37 33 34 35 34 32 37 33 34 35 34 32 37 33 34 37 33 32 37 33 34 37 33 32 37 33 34 37 33 32 37 33 34 37 33 32 37 33 34 37 33 32 39 35 36 39 35 34 39 35 36 39 35 34 39 35 36 39 35 34 39 35 36 39 35 34
4 0 14 3 1 14 4 0 14 3 1 14 4 0 14 3 1 14 4 0 14 3 1 14 4 0 14 3 1 14 4 0 14 3 1 14 4 2 15 4 2 15 4 2 15 4 2 15 4 2 15 4 2 15 4 2 15 4 2 15 7 5 18 7 5 18 7 5 18 7 5 18 7 5 18 7 5 18 7 5 18 7 5 18 7 5 16 7 5 16 7 5 16 7 5 16 7 5 16 7 5 16 7 5 16 7 5 16 6 4 15 6 4 15 6 4 15 6 4 15 6 4 15 6 4 15 6 4 15 5 5 15 3 6 15 3 6 15 3 6 15 3 6 15 3 6 15 3 6 15 3 6 15 3 6 15 5 8 17 5 8 17 5 8 17 5 8 17 5 8 17 5 8 17 5 8 17 4 8 17 8 13 19 6 14 17 6 14 17 6 14 17 6 14 17 6 14 17 6 14 17 6 14 17 6 14 17 6 14 17 6 14 17 6 14 17 6 14 17 6 14 17 6 14 17 6 14 17 9 17 20 9 17 20 9 17 20 9 17 20 9 17 20 9 17 20 9 17 20 9 17 20 2 10 13 5 13 16 11 19 22 18 26 29 26 34 37 34 42 45 40 48 51 43 51 54 41 46 50 39 44 48 37 42 46 34 39 43 30 35 39 27 32 36 25 30 34 23 28 32 12 17 21 10 15 19 8 13 17 5 10 14 1 6 10 0 3 7 0 1 5 0 1 4 0 2 5 0 4 7 1 6 9 4 9 12 8 13 16 11 16 19 13 18 21 15 20 23 23 28 31 25 30 33 27 32 35 30 35 38 34 39 42 37 42 45 39 44 47 41 47 47 49 53 52 49 53 52 49 53 52 49 53 52 49 53 52 49 53 52 49 53 52 49 53 52 64 68 67 64 68 67 64 68 67 64 68 67 64 68 67 64 68 67 64 68 67 66 68 65 45 44 42 45 41 38 44 38 38 40 36 33 37 31 31 33 29 26 32 26 26 29 25 22 36 30 30 35 31 28 36 30 30 35 31 28 36 30 30 35 31 28 36 30 30 36 31 28 38 32 32 38 33 30 38 32 32 38 33 30 38 32 32 38 33 30 38 32 32 38 33 30 38 32 32 38 33 30 38 32 32 38 33 30 38 32 32 38 33 30 38 32 32 38 33 30
3 1 14 3 1 14 3 1 14 3 1 14 3 1 14 3 1 14 3 1 14 3 1 14 3 1 14 3 1 14 3 1 14 3 1 14 4 2 15 4 2 15 4 2 15 4 2 15 4 2 15 4 2 15 4 2 15 4 2 15 7 5 18 7 5 18 7 5 18 7 5 18 7 5 18 7 5 18 7 5 18 7 5 18 7 5 16 7 5 16 7 5 16 7 5 16 7 5 16 7 5 16 7 5 16 7 5 16 6 4 15 6 4 15 6 4 15 6 4 15 6 4 15 6 4 15 6 4 15 5 5 15 5 5 15 3 6 15 3 6 15 3 6 15 3 6 15 3 6 15 3 6 15 3 6 15 5 8 17 5 8 17 5 8 17 5 8 17 5 8 17 5 8 17 5 8 17 4 9 15 8 13 19 6 14 17 6 14 17 6 14 17 6 14 17 6 14 17 6 14 17 6 14 17 6 14 17 6 14 17 6 14 17 6 14 17 6 14 17 6 14 17 6 14 17 6 14 17 9 17 20 9 17 20 9 17 20 9 17 20 9 17 20 9 17 20 9 17 20 9 17 20 5 13 16 8 16 19 13 21 24 20 28 31 27 35 38 34 42 45 40 48 51 43 51 54 41 46 50 39 44 48 37 42 46 34 39 43 30 35 39 27 32 36 25 30 34 23 28 32 12 17 21 10 15 19 8 13 17 5 10 14 1 6 10 0 3 7 0 1 5 0 1 5 0 2 5 0 4 7 1 6 9 4 9 12 8 13 16 11 16 19 13 18 21 15 20 23 23 28 31 25 30 33 27 32 35 30 35 38 34 39 42 37 42 45 39 44 47 41 47 47 49 53 54 49 53 52 49 53 52 49 53 52 49 53 52 49 53 52 49 53 52 49 53 52 62 66 65 62 66 65 62 66 65 62 66 65 62 66 65 62 66 65 62 66 65 64 66 63 47 43 42 46 41 38 44 39 36 41 36 33 37 32 29 34 29 26 32 27 24 30 25 22 36 31 28 36 31 28 36 31 28 36 31 28 36 31 28 36 31 28 36 31 28 36 31 28 40 32 30 40 32 30 40 32 30 40 32 30 40 32 30 40 32 30 40 32 30 40 32 30 40 32 30 40 32 30 40 32 30 40 32 30 40 32 30 40 32 30 40 32 30 40 32 30
3 1 14 3 1 14 3 1 14 3 1 14 3 1 14 3 1 14 3 1 14 3 1 14 3 1 14 3 1 14 3 1 14 3 1 14 4 2 15 4 2 15 4 2 15 4 2 15 4 2 15 4 2 15 4 2 15 4 2 15 7 5 18 7 5 18 7 5 18 7 5 18 7 5 18 7 5 18 7 5 18 7 5 18 7 5 16 7 5 16 7 5 16 7 5 16 7 5 16 7 5 16 7 5 16 7 5 16 6 4 15 6 4 15 6 4 15 6 4 15 6 4 15 6 4 15 6 4 15 5 5 15 5 5 15 3 6 15 3 6 15 3 6 15 3 6 15 3 6 15 3 6 15 3 6 15 5 8 17 5 8 17 5 8 17 5 8 17 5 8 17 5 8 17 5 8 17 4 9 15 8 13 19 6 14 17 6 14 17 6 14 17 6 14 17 6 14 17 6 14 17 6 14 17 6 14 17 6 14 17 6 14 17 6 14 17 6 14 17 6 14 17 6 14 17 6 14 17 9 17 20 9 17 20 9 17 20 9 17 20 9 17 20 9 17 20 9 17 20 9 17 20 11 19 22 13 21 24 17 25 28 23 31 34 29 37 40 35 43 46 39 47 50 42 50 53 41 46 50 39 44 48 37 42 46 34 39 43 30 35 39 27 32 36 25 30 34 23 28 32 12 17 21 10 15 19 8 13 17 5 10 14 1 6 10 0 3 7 0 1 5 0 1 5 0 2 5 0 4 7 1 6 9 4 9 12 8 13 16 11 16 19 13 18 21 15 20 23 23 28 31 25 30 33 27 32 35 30 35 38 34 39 42 37 42 45 39 44 47 41 47 47 49 53 54 49 53 52 49 53 52 49 53 52 49 53 52 49 53 52 49 53 52 49 53 52 60 64 63 60 64 63 60 64 63 60 64 63 60 64 63 60 64 63 60 64 63 62 64 61 47 43 42 46 41 38 44 39 36 41 36 33 37 32 29 34 29 26 32 27 24 30 25 22 36 31 28 36 31 28 36 31 28 36 31 28 36 31 28 36 31 28 36 31 28 36 31 28 40 32 30 40 32 30 40 32 30 40 32 30 40 32 30 40 32 30 40 32 30 40 32 30 40 32 30 40 32 30 40 32 30 40 32 30 40 32 30 40 32 30 40 32 30 40 32 30
3 1 14 3 1 14 3 1 14 3 1 14 3 1 14 3 1 14 3 1 14 3 1 14 3 1 14 3 1 14 3 1 14 3 1 14 4 2 15 4 2 15 4 2 15 4 2 15 4 2 15 4 2 15 4 2 15 4 2 15 7 5 18 7 5 18 7 5 18 7 5 18 7 5 18 7 5 18 7 5 18 7 5 18 7 5 16 7 5 16 7 5 16 7 5 16 7 5 16 7 5 16 7 5 16 7 5 16 6 4 15 6 4 15 6 4 15 6 4 15 6 4 15 6 4 15 6 4 15 5 5 15 5 5 15 3 6 15 3 6 15 3 6 15 3 6 15 3 6 15 3 6 15 3 6 15 5 8 17 5 8 17 5 8 17 5 8 17 5 8 17 5 8 17 5 8 17 4 9 15 8 13 19 6 14 17 6 14 17 6 14 17 6 14 17 6 14 17 6 14 17 6 14 17 6 14 17 6 14 17 6 14 17 6 14 17 6 14 17 6 14 17 6 14 17 6 14 17 9 17 20 9 17 20 9 17 20 9 17 20 9 17 20 9 17 20 9 17 20 9 17 20 18 26 29 20 28 31 23 31 34 27 35 38 31 39 42 36 44 47 39 47 50 40 48 51 41 46 50 39 44 48 37 42 46 34 39 43 30 35 39 27 32 36 25 30 34 23 28 32 12 17 21 10 15 19 8 13 17 5 10 14 1 6 10 0 3 7 0 1 5 0 1 5 0 2 5 0 4 7 1 6 9 4 9 12 8 13 16 11 16 19 13 18 21 15 20 23 23 28 31 25 30 33 27 32 35 30 35 38 34 39 42 37 42 45 39 44 47 41 47 47 49 53 54 49 53 52 49 53 52 49 53 52 49 53 52 49 53 52 49 53 52 49 53 52 57 61 60 57 61 60 57 61 60 57 61 60 57 61 60 57 61 60 57 61 60 59 61 58 47 43 42 46 41 38 44 39 36 41 36 33 37 32 29 34 29 26 32 27 24 30 25 22 36 31 28 36 31 28 36 31 28 36 31 28 36 31 28 36 31 28 36 31 28 36 31 28 40 32 30 40 32 30 40 32 30 40 32 30 40 32 30 40 32 30 40 32 30 40 32 30 40 32 30 40 32 30 40 32 30 40 32 30 40 32 30 40 32 30 40 32 30 40 32 30
3 1 14 3 1 14 3 1 14 3 1 14 3 1 14 3 1 14 3 1 14 3 1 14 3 1 14 3 1 14 3 1 14 3 1 14 4 2 15 4 2 15 4 2 15 4 2 15 4 2 15 4 2 15 4 2 15 4 2 15 7 5 18 7 5 18 7 5 18 7 5 18 7 5 18 7 5 18 7 5 18 7 5 18 7 5 16 7 5 16 7 5 16 7 5 16 7 5 16 7 5 16 7 5 16 7 5 16 6 4 15 6 4 15 6 4 15 6 4 15 6 4 15 6 4 15 6 4 15 5 5 15 5 5 15 3 6 15 3 6 15 3 6 15 3 6 15 3 6 15 3 6 15 3 6 15 5 8 17 5 8 17 5 8 17 5 8 17 5 8 17 5 8 17 5 8 17 4 9 15 8 13 19 6 14 17 6 14 17 6 14 17 6 14 17 6 14 17 6 14 17 6 14 17 6 14 17 6 14 17 6 14 17 6 14 17 6 14 17 6 14 17 6 14 17 6 14 17 9 17 20 9 17 20 9 17 20 9 17 20 9 17 20 9 17 20 9 17 20 9 17 20 26 34 37 27 35 38 29 37 40 31 39 42 34 42 45 36 44 47 38 46 49 39 47 50 41 46 50 39 44 48 37 42 46 34 39 43 30 35 39 27 32 36 25 30 34 23 28 32 12 17 21 10 15 19 8 13 17 5 10 14 1 6 10 0 3 7 0 1 5 0 1 5 0 2 5 0 4 7 1 6 9 4 9 12 8 13 16 11 16 19 13 18 21 15 20 23 23 28 31 25 30 33 27 32 35 30 35 38 34 39 42 37 42 45 39 44 47 41 47 47 49 53 54 49 53 52 49 53 52 49 53 52 49 53 52 49 53 52 49 53 52 49 53 52 53 57 56 53 57 56 53 57 56 53 57 56 53 57 56 53 57 56 53 57 56 55 57 54 47 43 42 46 41 38 44 39 36 41 36 33 37 32 29 34 29 26 32 27 24 30 25 22 36 31 28 36 31 28 36 31 28 36 31 28 36 31 28 36 31 28 36 31 28 36 31 28 40 32 30 40 32 30 40 32 30 40 32 30 40 32 30 40 32 30 40 32 30 40 32 30 40 32 30 40 32 30 40 32 30 40 32 30 40 32 30 40 32 30 40 32 30 40 32 30
3 1 14 3 1 14 3 1 14 3 1 14 3 1 14 3 1 14 3 1 14 3 1 14 3 1 14 3 1 14 3 1 14 3 1 14 4 2 15 4 2 15 4 2 15 4 2 15 4 2 15 4 2 15 4 2 15 4 2 15 7 5 18 7 5 18 7 5 18 7 5 18 7 5 18 7 5 18 7 5 18 7 5 18 7 5 16 7 5 16 7 5 16 7 5 16 7 5 16 7 5 16 7 5 16 7 5 16 6 4 15 6 4 15 6 4 15 6 4 15 6 4 15 6 4 15 6 4 15 5 5 15 5 5 15 3 6 15 3 6 15 3 6 15 3 6 15 3 6 15 3 6 15 3 6 15 5 8 17 5 8 17 5 8 17 5 8 17 5 8 17 5 8 17 5 8 17 4 9 15 8 13 19 6 14 17 6 14 17 6 14 17 6 14 17 6 14 17 6 14 17 6 14 17 6 14 17 6 14 17 6 14 17 6 14 17 6 14 17 6 14 17 6 14 17 6 14 17 9 17 20 9 17 20 9 17 20 9 17 20 9 17 20 9 17 20 9 17 20 9 17 20 34 42 45 34 42 45 35 43 46 36 44 47 36 44 47 37 45 48 37 45 48 38 46 49 41 46 50 39 44 48 37 42 46 34 39 43 30 35 39 27 32 36 25 30 34 23 28 32 12 17 21 10 15 19 8 13 17 5 10 14 1 6 10 0 3 7 0 1 5 0 1 5 0 2 5 0 4 7 1 6 9 4 9 12 8 13 16 11 16 19 13 18 21 15 20 23 23 28 31 25 30 33 27 32 35 30 35 38 34 39 42 37 42 45 39 44 47 41 47 47 49 53 54 49 53 52 49 53 52 49 53 52 49 53 52 49 53 52 49 53 52 49 53 52 50 54 53 50 54 53 50 54 53 50 54 53 50 54 53 50 54 53 50 54 53 52 54 51 47 43 42 46 41 38 44 39 36 41 36 33 37 32 29 34 29 26 32 27 24 30 25 22 36 31 28 36 31 28 36 31 28 36 31 28 36 31 28 36 31 28 36 31 28 36 31 28 40 32 30 40 32 30 40 32 30 40 32 30 40 32 30 40 32 30 40 32 30 40 32 30 40 32 30 40 32 30 40 32 30 40 32 30 40 32 30 40 32 30 40 32 30 40 32 30
3 1 14 3 1 14 3 1 14 3 1 14 3 1 14 3 1 14 3 1 14 3 1 14 3 1 14 3 1 14 3 1 14 3 1 14 4 2 15 4 2 15 4 2 15 4 2 15 4 2 15 4 2 15 4 2 15 4 2 15 7 5 18 7 5 18 7 5 18 7 5 18 7 5 18 7 5 18 7 5 18 7 5 18 7 5 16 7 5 16 7 5 16 7 5 16 7 5 16 7 5 16 7 5 16 7 5 16 6 4 15 6 4 15 6 4 15 6 4 15 6 4 15 6 4 15 6 4 15 5 5 15 5 5 15 3 6 15 3 6 15 3 6 15 3 6 15 3 6 15 3 6 15 3 6 15 5 8 17 5 8 17 5 8 17 5 8 17 5 8 17 5 8 17 5 8 17 4 9 15 8 13 19 6 14 17 6 14 17 6 14 17 6 14 17 6 14 17 6 14 17 6 14 17 6 14 17 6 14 17 6 14 17 6 14 17 6 14 17 6 14 17 6 14 17 6 14 17 9 17 20 9 17 20 9 17 20 9 17 20 9 17 20 9 17 20 9 17 20 9 17 20 40 48 51 40 48 51 39 47 50 39 47 50 38 46 49 37 45 48 37 45 48 37 45 48 41 46 50 39 44 48 37 42 46 34 39 43 30 35 39 27 32 36 25 30 34 23 28 32 12 17 21 10 15 19 8 13 17 5 10 14 1 6 10 0 3 7 0 1 5 0 1 5 0 2 5 0 4 7 1 6 9 4 9 12 8 13 16 11 16 19 13 18 21 15 20 23 23 28 31 25 30 33 27 32 35 30 35 38 34 39 42 37 42 45 39 44 47 41 47 47 49 53 54 49 53 52 49 53 52 49 53 52 49 53 52 49 53 52 49 53 52 49 53 52 48 52 51 48 52 51 48 52 51 48 52 51 48 52 51 48 52 51 48 52 51 50 52 49 47 43 42 46 41 38 44 39 36 41 36 33 37 32 29 34 29 26 32 27 24 30 25 22 36 31 28 36 31 28 36 31 28 36 31 28 36 31 28 36 31 28 36 31 28 36 31 28 40 32 30 40 32 30 40 32 30 40 32 30 40 32 30 40 32 30 40 32 30 40 32 30 40 32 30 40 32 30 40 32 30 40 32 30 40 32 30 40 32 30 40 32 30 40 32 30
3 1 14 3 1 14 3 1 14 3 1 14 3 1 14 3 1 14 3 1 14 3 1 14 3 1 14 3 1 14 3 1 14 3 1 14 4 2 15 4 2 15 4 2 15 4 2 15 4 2 15 4 2 15 4 2 15 4 2 15 7 5 18 7 5 18 7 5 18 7 5 18 7 5 18 7 5 18 7 5 18 7 5 18 7 5 16 7 5 16 7 5 16 7 5 16 7 5 16 7 5 16 7 5 16 7 5 16 6 4 15 6 4 15 6 4 15 6 4 15 6 4 15 6 4 15 6 4 15 5 5 15 5 5 15 3 6 15 3 6 15 3 6 15 3 6 15 3 6 15 3 6 15 3 6 15 5 8 17 5 8 17 5 8 17 5 8 17 5 8 17 5 8 17 5 8 17 4 9 15 8 13 19 6 14 17 6 14 17 6 14 17 6 14 17 6 14 17 6 14 17 6 14 17 6 14 17 6 14 17 6 14 17 6 14 17 6 14 17 6 14 17 6 14 17 6 14 17 9 17 20 9 17 20 9 17 20 9 17 20 9 17 20 9 17 20 9 17 20 9 17 20 43 51 54 42 50 53 42 50 53 40 48 51 39 47 50 38 46 49 37 45 48 36 44 47 41 46 50 39 44 48 37 42 46 34 39 43 30 35 39 27 32 36 25 30 34 23 28 32 12 17 21 10 15 19 8 13 17 5 10 14 1 6 10 0 3 7 0 1 5 0 1 5 0 2 5 0 4 7 1 6 9 4 9 12 8 13 16 11 16 19 13 18 21 15 20 23 23 28 31 25 30 33 27 32 35 30 35 38 34 39 42 37 42 45 39 44 47 41 47 47 49 53 54 49 53 52 49 53 52 49 53 52 49 53 52 49 53 52 49 53 52 49 53 52 46 50 49 46 50 49 46 50 49 46 50 49 46 50 49 46 50 49 46 50 49 48 50 47 47 43 42 46 41 38 44 39 36 41 36 33 37 32 29 34 29 26 32 27 24 30 25 22 36 31 28 36 31 28 36 31 28 36 31 28 36 31 28 36 31 28 36 31 28 36 31 28 40 32 30 40 32 30 40 32 30 40 32 30 40 32 30 40 32 30 40 32 30 40 32 30 40 32 30 40 32 30 40 32 30 40 32 30 40 32 30 40 32 30 40 32 30 40 32 30
3 1 14 3 1 14 3 1 14 3 1 14 3 1 14 3 1 14 3 1 14 3 1 14 3 1 14 3 1 14 3 1 14 3 1 14 4 2 15 4 2 15 4 2 15 4 2 15 4 2 15 4 2 15 4 2 15 4 2 15 5 3 16 5 3 16 5 3 16 5 3 16 5 3 16 5 3 16 5 3 16 5 3 16 5 3 14 5 3 14 5 3 14 5 3 14 5 3 14 5 3 14 5 3 14 5 3 14 6 4 15 6 4 15 6 4 15 6 4 15 6 4 15 6 4 15 6 4 15 5 5 15 4 4 14 2 5 14 2 5 14 2 5 14 2 5 14 2 5 14 2 5 14 2 5 14 5 8 17 5 8 17 5 8 17 5 8 17 5 8 17 5 8 17 5 8 17 4 9 15 7 12 18 5 13 16 5 13 16 5 13 16 5 13 16 5 13 16 5 13 16 5 13 16 3 11 14 2 10 13 2 10 13 0 8 11 0 7 10 0 6 9 0 5 8 0 4 7 20 28 31 21 29 32 24 32 35 27 35 38 30 38 41 34 42 45 36 44 47 37 45 48 49 57 60 49 57 60 49 57 60 49 57 60 49 57 60 49 57 60 49 57 60 49 57 60 49 54 58 47 52 56 45 50 54 42 47 51 38 43 47 35 40 44 33 38 42 31 36 40 15 20 24 13 18 22 11 16 20 8 13 17 4 9 13 1 6 10 0 4 8 0 2 6 0 3 6 0 5 8 2 7 10 5 10 13 9 14 17 12 17 20 14 19 22 16 21 24 27 32 35 27 32 35 27 32 35 27 32 35 27 32 35 27 32 35 27 32 35 27 33 33 36 40 41 36 40 39 36 40 39 36 40 39 36 40 39 36 40 39 36 40 39 36 40 39 47 51 50 47 51 50 47 51 50 47 51 50 47 51 50 47 51 50 47 51 50 49 51 48 33 29 28 34 29 26 34 29 26 34 29 26 34 29 26 34 29 26 34 29 26 34 29 26 35 30 27 35 30 27 35 30 27 35 30 27 35 30 27 35 30 27 35 30 27 35 30 27 38 30 28 38 30 28 38 30 28 38 30 28 38 30 28 38 30 28 38 30 28 38 30 28 38 30 28 38 30 28 38 30 28 38 30 28 38 30 28 38 30 28 38 30 28 38 30 28
3 1 14 3 1 14 3 1 14 3 1 14 3 1 14 3 1 14 3 1 14 3 1 14 3 1 14 3 1 14 3 1 14 3 1 14 4 2 15 4 2 15 4 2 15 4 2 15 4 2 15 4 2 15 4 2 15 4 2 15 5 3 16 5 3 16 5 3 16 5 3 16 5 3 16 5 3 16 5 3 16 5 3 16 5 3 14 5 3 14 5 3 14 5 3 14 5 3 14 5 3 14 5 3 14 5 3 14 6 4 15 6 4 15 6 4 15 6 4 15 6 4 15 6 4 15 6 4 15 5 5 15 4 4 14 2 5 14 2 5 14 2 5 14 2 5 14 2 5 14 2 5 14 2 5 14 5 8 17 5 8 17 5 8 17 5 8 17 5 8 17 5 8 17 5 8 17 4 9 15 7 12 18 5 13 16 5 13 16 5 13 16 5 13 16 5 13 16 5 13 16 5 13 16 4 12 15 4 12 15 3 11 14 3 11 14 2 10 13 1 9 12 1 9 12 1 9 12 23 31 34 24 32 35 26 34 37 30 38 41 33 41 44 36 44 47 39 47 50 40 48 51 51 59 62 51 59 62 51 59 62 51 59 62 51 59 62 51 59 62 51 59 62 51 59 62 49 54 58 47 52 56 45 50 54 42 47 51 38 43 47 35 40 44 33 38 42 31 36 40 15 20 24 13 18 22 11 16 20 8 13 17 4 9 13 1 6 10 0 4 8 0 2 6 0 3 6 0 5 8 2 7 10 5 10 13 9 14 17 12 17 20 14 19 22 16 21 24 27 32 35 27 32 35 27 32 35 27 32 35 27 32 35 27 32 35 27 32 35 27 33 33 36 40 41 36 40 39 36 40 39 36 40 39 36 40 39 36 40 39 36 40 39 36 40 39 45 49 48 45 49 48 45 49 48 45 49 48 45 49 48 45 49 48 45 49 48 47 49 46 33 29 28 34 29 26 34 29 26 34 29 26 34 29 26 34 29 26 34 29 26 34 29 26 35 30 27 35 30 27 35 30 27 35 30 27 35 30 27 35 30 27 35 30 27 35 30 27 38 30 28 38 30 28 38 30 28 38 30 28 38 30 28 38 30 28 38 30 28 38 30 28 38 30 28 38 30 28 38 30 28 38 30 28 38 30 28 38 30 28 38 30 28 38 30 28
3 1 14 3 1 14 3 1 14 3 1 14 3 1 14 3 1 14 3 1 14 3 1 14 3 1 14 3 1 14 3 1 14 3 1 14 4 2 15 4 2 15 4 2 15 4 2 15 4 2 15 4 2 15 4 2 15 4 2 15 5 3 16 5 3 16 5 3 16 5 3 16 5 3 16 5 3 16 5 3 16 5 3 16 5 3 14 5 3 14 5 3 14 5 3 14 5 3 14 5 3 14 5 3 14 5 3 14 6 4 15 6 4 15 6 4 15 6 4 15 6 4 15 6 4 15 6 4 15 5 5 15 4 4 14 2 5 14 2 5 14 2 5 14 2 5 14 2 5 14 2 5 14 2 5 14 5 8 17 5 8 17 5 8 17 5 8 17 5 8 17 5 8 17 5 8 17 4 9 15 7 12 18 5 13 16 5 13 16 5 13 16 5 13 16 5 13 16 5 13 16 5 13 16 5 13 16 6 14 17 6 14 17 7 15 18 8 16 19 8 16 19 9 17 20 9 17 20 28 36 39 29 37 40 31 39 42 34 42 45 38 46 49 41 49 52 44 52 55 45 53 56 53 61 64 53 61 64 53 61 64 53 61 64 53 61 64 53 61 64 53 61 64 53 61 64 49 54 58 47 52 56 45 50 54 42 47 51 38 43 47 35 40 44 33 38 42 31 36 40 15 20 24 13 18 22 11 16 20 8 13 17 4 9 13 1 6 10 0 4 8 0 2 6 0 3 6 0 5 8 2 7 10 5 10 13 9 14 17 12 17 20 14 19 22 16 21 24 27 32 35 27 32 35 27 32 35 27 32 35 27 32 35 27 32 35 27 32 35 27 33 33 36 40 41 36 40 39 36 40 39 36 40 39 36 40 39 36 40 39 36 40 39 36 40 39 43 47 46 43 47 46 43 47 46 43 47 46 43 47 46 43 47 46 43 47 46 45 47 44 33 29 28 34 29 26 34 29 26 34 29 26 34 29 26 34 29 26 34 29 26 34 29 26 35 30 27 35 30 27 35 30 27 35 30 27 35 30 27 35 30 27 35 30 27 35 30 27 38 30 28 38 30 28 38 30 28 38 30 28 38 30 28 38 30 28 38 30 28 38 30 28 38 30 28 38 30 28 38 30 28 38 30 28 38 30 28 38 30 28 38 30 28 38 30 28
3 1 14 3 1 14 3 1 14 3 1 14 3 1 14 3 1 14 3 1 14 3 1 14 3 1 14 3 1 14 3 1 14 3 1 14 4 2 15 4 2 15 4 2 15 4 2 15 4 2 15 4 2 15 4 2 15 4 2 15 5 3 16 5 3 16 5 3 16 5 3 16 5 3 16 5 3 16 5 3 16 5 3 16 5 3 14 5 3 14 5 3 14 5 3 14 5 3 14 5 3 14 5 3 14 5 3 14 6 4 15 6 4 15 6 4 15 6 4 15 6 4 15 6 4 15 6 4 15 5 5 15 4 4 14 2 5 14 2 5 14 2 5 14 2 5 14 2 5 14 2 5 14 2 5 14 5 8 17 5 8 17 5 8 17 5 8 17 5 8 17 5 8 17 5 8 17 4 9 15 7 12 18 5 13 16 5 13 16 5 13 16 5 13 16 5 13 16 5 13 16 5 13 16 7 15 18 8 16 19 10 18 21 12 20 23 15 23 26 17 25 28 19 27 30 20 28 31 34 42 45 35 43 46 38 46 49 41 49 52 44 52 55 47 55 58 50 58 61 51 59 62 56 64 67 56 64 67 56 64 67 56 64 67 56 64 67 56 64 67 56 64 67 56 64 67 49 54 58 47 52 56 45 50 54 42 47 51 38 43 47 35 40 44 33 38 42 31 36 40 15 20 24 13 18 22 11 16 20 8 13 17 4 9 13 1 6 10 0 4 8 0 2 6 0 3 6 0 5 8 2 7 10 5 10 13 9 14 17 12 17 20 14 19 22 16 21 24 27 32 35 27 32 35 27 32 35 27 32 35 27 32 35 27 32 35 27 32 35 27 33 33 36 40 41 36 40 39 36 40 39 36 40 39 36 40 39 36 40 39 36 40 39 36 40 39 40 44 43 40 44 43 40 44 43 40 44 43 40 44 43 40 44 43 40 44 43 42 44 41 33 29 28 34 29 26 34 29 26 34 29 26 34 29 26 34 29 26 34 29 26 34 29 26 35 30 27 35 30 27 35 30 27 35 30 27 35 30 27 35 30 27 35 30 27 35 30 27 38 30 28 38 30 28 38 30 28 38 30 28 38 30 28 38 30 28 38 30 28 38 30 28 38 30 28 38 30 28 38 30 28 38 30 28 38 30 28 38 30 28 38 30 28 38 30 28
3 1 14 3 1 14 3 1 14 3 1 14 3 1 14 3 1 14 3 1 14 3 1 14 3 1 14 3 1 14 3 1 14 3 1 14 4 2 15 4 2 15 4 2 15 4 2 15 4 2 15 4 2 15 4 2 15 4 2 15 5 3 16 5 3 16 5 3 16 5 3 16 5 3 16 5 3 16 5 3 16 5 3 16 5 3 14 5 3 14 5 3 14 5 3 14 5 3 14 5 3 14 5 3 14 5 3 14 6 4 15 6 4 15 6 4 15 6 4 15 6 4 15 6 4 15 6 4 15 5 5 15 4 4 14 2 5 14 2 5 14 2 5 14 2 5 14 2 5 14 2 5 14 2 5 14 5 8 17 5 8 17 5 8 17 5 8 17 5 8 17 5 8 17 5 8 17 4 9 15 7 12 18 5 13 16 5 13 16 5 13 16 5 13 16 5 13 16 5 13 16 5 13 16 9 17 20 11 19 22 14 22 25 18 26 29 23 31 34 27 35 38 30 38 41 31 39 42 41 49 52 42 50 53 45 53 56 48 56 59 51 59 62 54 62 65 57 65 68 58 66 69 60 68 71 60 68 71 60 68 71 60 68 71 60 68 71 60 68 71 60 68 71 60 68 71 49 54 58 47 52 56 45 50 54 42 47 51 38 43 47 35 40 44 33 38 42 31 36 40 15 20 24 13 18 22 11 16 20 8 13 17 4 9 13 1 6 10 0 4 8 0 2 6 0 3 6 0 5 8 2 7 10 5 10 13 9 14 17 12 17 20 14 19 22 16 21 24 27 32 35 27 32 35 27 32 35 27 32 35 27 32 35 27 32 35 27 32 35 27 33 33 36 40 41 36 40 39 36 40 39 36 40 39 36 40 39 36 40 39 36 40 39 36 40 39 36 40 39 36 40 39 36 40 39 36 40 39 36 40 39 36 40 39 36 40 39 38 40 37 33 29 28 34 29 26 34 29 26 34 29 26 34 29 26 34 29 26 34 29 26 34 29 26 35 30 27 35 30 27 35 30 27 35 30 27 35 30 27 35 30 27 35 30 27 35 30 27 38 30 28 38 30 28 38 30 28 38 30 28 38 30 28 38 30 28 38 30 28 38 30 28 38 30 28 38 30 28 38 30 28 38 30 28 38 30 28 38 30 28 38 30 28 38 30 28
3 1 14 3 1 14 3 1 14 3 1 14 3 1 14 3 1 14 3 1 14 3 1 14 3 1 14 3 1 14 3 1 14 3 1 14 4 2 15 4 2 15 4 2 15 4 2 15 4 2 15 4 2 15 4 2 15 4 2 15 5 3 16 5 3 16 5 3 16 5 3 16 5 3 16 5 3 16 5 3 16 5 3 16 5 3 14 5 3 14 5 3 14 5 3 14 5 3 14 5 3 14 5 3 14 5 3 14 6 4 15 6 4 15 6 4 15 6 4 15 6 4 15 6 4 15 6 4 15 5 5 15 4 4 14 2 5 14 2 5 14 2 5 14 2 5 14 2 5 14 2 5 14 2 5 14 5 8 17 5 8 17 5 8 17 5 8 17 5 8 17 5 8 17 5 8 17 4 9 15 7 12 18 5 13 16 5 13 16 5 13 16 5 13 16 5 13 16 5 13 16 5 13 16 11 19 22 14 22 25 18 26 29 24 32 35 30 38 41 36 44 47 40 48 51 42 50 53 47 55 58 48 56 59 51 59 62 54 62 65 58 66 69 61 69 72 63 71 74 64 72 75 63 71 74 63 71 74 63 71 74 63 71 74 63 71 74 63 71 74 63 71 74 63 71 74 49 54 58 47 52 56 45 50 54 42 47 51 38 43 47 35 40 44 33 38 42 31 36 40 15 20 24 13 18 22 11 16 20 8 13 17 4 9 13 1 6 10 0 4 8 0 2 6 0 3 6 0 5 8 2 7 10 5 10 13 9 14 17 12 17 20 14 19 22 16 21 24 27 32 35 27 32 35 27 32 35 27 32 35 27 32 35 27 32 35 27 32 35 27 33 33 36 40 41 36 40 39 36 40 39 36 40 39 36 40 39 36 40 39 36 40 39 36 40 39 33 37 36 33 37 36 33 37 36 33 37 36 33 37 36 33 37 36 33 37 36 35 37 34 33 29 28 34 29 26 34 29 26 34 29 26 34 29 26 34 29 26 34 29 26 34 29 26 35 30 27 35 30 27 35 30 27 35 30 27 35 30 27 35 30 27 35 30 27 35 30 27 38 30 28 38 30 28 38 30 28 38 30 28 38 30 28 38 30 28 38 30 28 38 30 28 38 30 28 38 30 28 38 30 28 38 30 28 38 30 28 38 30 28 38 30 28 38 30 28
3 1 14 3 1 14 3 1 14 3 1 14 3 1 14 3 1 14 3 1 14 3 1 14 3 1 14 3 1 14 3 1 14 3 1 14 4 2 15 4 2 15 4 2 15 4 2 15 4 2 15 4 2 15 4 2 15 4 2 15 5 3 16 5 3 16 5 3 16 5 3 16 5 3 16 5 3 16 5 3 16 5 3 16 5 3 14 5 3 14 5 3 14 5 3 14 5 3 14 5 3 14 5 3 14 5 3 14 6 4 15 6 4 15 6 4 15 6 4 15 6 4 15 6 4 15 6 4 15 5 5 15 4 4 14 2 5 14 2 5 14 2 5 14 2 5 14 2 5 14 2 5 14 2 5 14 5 8 17 5 8 17 5 8 17 5 8 17 5 8 17 5 8 17 5 8 17 4 9 15 7 12 18 5 13 16 5 13 16 5 13 16 5 13 16 5 13 16 5 13 16 5 13 16 13 21 24 16 24 27 21 29 32 28 36 39 35 43 46 42 50 53 48 56 59 51 59 62 52 60 63 53 61 64 56 64 67 59 67 70 62 70 73 66 74 77 68 76 79 69 77 80 65 73 76 65 73 76 65 73 76 65 73 76 65 73 76 65 73 76 65 73 76 65 73 76 49 54 58 47 52 56 45 50 54 42 47 51 38 43 47 35 40 44 33 38 42 31 36 40 15 20 24 13 18 22 11 16 20 8 13 17 4 9 13 1 6 10 0 4 8 0 2 6 0 3 6 0 5 8 2 7 10 5 10 13 9 14 17 12 17 20 14 19 22 16 21 24 27 32 35 27 32 35 27 32 35 27 32 35 27 32 35 27 32 35 27 32 35 27 33 33 36 40 41 36 40 39 36 40 39 36 40 39 36 40 39 36 40 39 36 40 39 36 40 39 31 35 34 31 35 34 31 35 34 31 35 34 31 35 34 31 35 34 31 35 34 33 35 32 33 29 28 34 29 26 34 29 26 34 29 26 34 29 26 34 29 26 34 29 26 34 29 26 35 30 27 35 30 27 35 30 27 35 30 27 35 30 27 35 30 27 35 30 27 35 30 27 38 30 28 38 30 28 38 30 28 38 30 28 38 30 28 38 30 28 38 30 28 38 30 28 38 30 28 38 30 28 38 30 28 38 30 28 38 30 28 38 30 28 38 30 28 38 30 28
3 1 14 3 1 12 3 1 14 3 1 12 3 1 14 3 1 12 3 1 14 3 1 12 3 1 14 3 1 12 3 1 14 3 1 12 4 2 15 4 2 13 4 2 15 4 2 13 4 2 15 4 2 13 4 2 15 4 2 13 5 3 16 5 3 14 5 3 16 5 3 14 5 3 16 5 3 14 5 3 16 5 3 14 5 3 14 4 4 14 5 3 14 4 4 14 5 3 14 4 4 14 5 3 14 4 4 14 6 4 15 5 5 15 6 4 15 5 5 15 6 4 15 5 5 15 6 4 15 5 5 15 2 5 14 1 5 14 2 5 14 1 5 14 2 5 14 1 5 14 2 5 14 1 5 14 5 8 17 4 8 17 5 8 17 4 8 17 5 8 17 4 8 17 5 8 17 4 9 15 5 12 18 5 13 16 5 13 16 5 13 16 5 13 16 5 13 16 5 13 16 5 13 16 14 22 25 17 25 28 23 31 34 30 38 41 38 46 49 46 54 57 52 60 63 55 63 66 55 63 66 56 64 67 58 66 69 62 70 73 65 73 76 68 76 79 71 79 82 72 80 83 67 75 78 67 75 78 67 75 78 67 75 78 67 75 78 67 75 78 67 75 78 67 75 78 49 54 58 47 52 56 45 50 54 42 47 51 38 43 47 35 40 44 33 38 42 31 36 40 15 20 24 13 18 22 11 16 20 8 13 17 4 9 13 1 6 10 0 4 8 0 2 6 0 3 6 0 5 8 2 7 10 5 10 13 9 14 17 12 17 20 14 19 22 16 21 24 27 32 35 27 32 35 27 32 35 27 32 35 27 32 35 27 32 35 27 32 35 27 32 35 36 40 41 36 40 39 36 40 41 36 40 39 36 40 41 36 40 39 36 40 41 36 40 39 29 33 34 29 33 32 29 33 34 29 33 32 29 33 34 29 33 32 29 33 34 31 33 32 33 29 28 34 29 26 34 29 26 34 29 26 34 29 26 34 29 26 34 29 26 34 29 26 35 30 27 35 30 27 35 30 27 35 30 27 35 30 27 35 30 27 35 30 27 35 30 27 38 30 28 38 30 28 38 30 28 38 30 28 38 30 28 38 30 28 38 30 28 38 30 28 38 30 28 38 30 28 38 30 28 38 30 28 38 30 28 38 30 28 38 30 28 38 30 28
3 1 12 3 2 10 3 1 12 3 2 10 3 1 12 3 2 10 3 1 12 3 2 10 3 1 12 3 2 10 3 1 12 3 2 10 3 1 12 3 2 10 3 1 12 3 2 10 3 1 12 3 2 10 3 1 12 3 2 10 4 2 13 4 3 11 4 2 13 4 3 11 4 2 13 4 3 11 4 2 13 4 3 11 4 4 12 2 5 12 4 4 12 2 5 12 4 4 12 2 5 12 4 4 12 2 5 12 4 4 12 2 5 12 4 4 12 2 5 12 4 4 12 2 5 12 4 4 12 2 5 12 3 8 14 1 8 14 3 8 14 1 8 14 3 8 14 1 8 14 3 8 14 1 8 14 5 10 16 3 10 16 5 10 16 3 10 16 5 10 16 3 10 16 5 10 16 3 10 16 0 7 13 2 9 15 4 11 17 7 14 20 11 18 24 14 21 27 16 23 29 18 25 31 44 51 57 45 52 58 47 54 60 51 58 64 54 61 67 57 64 70 60 67 73 61 68 74 73 81 84 73 81 84 73 81 84 73 81 84 73 81 84 73 81 84 73 81 84 73 81 84 69 77 80 69 77 80 69 77 80 69 77 80 69 77 80 69 77 80 69 77 80 69 77 80 57 65 68 55 63 66 50 58 61 43 51 54 37 45 48 30 38 41 25 33 36 23 31 34 6 14 17 6 14 17 6 14 17 6 14 17 6 14 17 6 14 17 6 14 17 6 14 17 10 18 20 10 18 20 10 18 20 10 18 20 10 18 20 10 18 20 10 18 20 10 18 20 23 31 33 23 31 33 23 31 33 23 31 33 23 31 33 23 31 33 23 31 33 25 30 33 26 30 33 26 30 31 26 30 33 26 30 31 26 30 33 26 30 31 26 30 33 26 30 31 25 29 32 25 29 30 25 29 32 25 29 30 25 29 32 25 29 30 25 29 32 27 28 30 32 28 27 33 28 25 33 28 25 33 28 25 33 28 25 33 28 25 33 28 25 33 28 25 34 29 26 34 29 26 34 29 26 34 29 26 34 29 26 34 29 26 34 29 26 34 29 26 37 29 27 38 28 27 38 28 27 38 28 27 38 28 27 38 28 27 38 28 27 38 28 27 39 29 28 39 29 28 39 29 28 39 29 28 39 29 28 39 29 28 39 29 28 38 30 28
3 2 10 3 2 10 3 2 10 3 2 10 3 2 10 3 2 10 3 2 10 3 2 10 3 2 10 3 2 10 3 2 10 3 2 10 3 2 10 3 2 10 3 2 10 3 2 10 3 2 10 3 2 10 3 2 10 3 2 10 4 3 11 4 3 11 4 3 11 4 3 11 4 3 11 4 3 11 4 3 11 3 3 11 4 4 12 2 5 12 2 5 12 2 5 12 2 5 12 2 5 12 2 5 12 2 5 12 2 5 12 2 5 12 2 5 12 2 5 12 2 5 12 2 5 12 2 5 12 1 6 12 3 8 14 1 8 14 1 8 14 1 8 14 1 8 14 1 8 14 1 8 14 1 8 14 5 12 18 5 12 18 5 12 18 5 12 18 5 12 18 5 12 18 5 12 18 5 12 18 4 11 17 6 13 19 8 15 21 11 18 24 15 22 28 18 25 31 20 27 33 22 29 35 45 52 58 46 53 59 49 56 62 52 59 65 55 62 68 59 66 72 61 68 74 62 69 75 73 81 84 73 81 84 73 81 84 73 81 84 73 81 84 73 81 84 73 81 84 73 81 84 69 77 80 69 77 80 69 77 80 69 77 80 69 77 80 69 77 80 69 77 80 69 77 80 57 65 68 55 63 66 50 58 61 43 51 54 37 45 48 30 38 41 25 33 36 23 31 34 6 14 17 6 14 17 6 14 17 6 14 17 6 14 17 6 14 17 6 14 17 6 14 17 10 18 20 10 18 20 10 18 20 10 18 20 10 18 20 10 18 20 10 18 20 10 18 20 23 31 33 23 31 33 23 31 33 23 31 33 23 31 33 23 31 33 23 31 33 23 31 33 26 30 33 26 30 33 26 30 33 26 30 33 26 30 33 26 30 33 26 30 33 26 30 33 25 29 32 25 29 32 25 29 32 25 29 32 25 29 32 25 29 32 25 29 32 27 28 30 32 28 27 33 28 25 33 28 25 33 28 25 33 28 25 33 28 25 33 28 25 33 28 25 34 29 26 34 29 26 34 29 26 34 29 26 34 29 26 34 29 26 34 29 26 34 29 26 38 28 27 38 28 27 38 28 27 38 28 27 38 28 27 38 28 27 38 28 27 38 28 27 39 29 28 39 29 28 39 29 28 39 29 28 39 29 28 39 29 28 39 29 28 38 30 28
3 2 10 3 2 10 3 2 10 3 2 10 3 2 10 3 2 10 3 2 10 3 2 10 3 2 10 3 2 10 3 2 10 3 2 10 3 2 10 3 2 10 3 2 10 3 2 10 3 2 10 3 2 10 3 2 10 3 2 10 4 3 11 4 3 11 4 3 11 4 3 11 4 3 11 4 3 11 4 3 11 3 3 11 4 4 12 2 5 12 2 5 12 2 5 12 2 5 12 2 5 12 2 5 12 2 5 12 2 5 12 2 5 12 2 5 12 2 5 12 2 5 12 2 5 12 2 5 12 1 6 12 3 8 14 1 8 14 1 8 14 1 8 14 1 8 14 1 8 14 1 8 14 1 8 14 7 14 20 7 14 20 7 14 20 7 14 20 7 14 20 7 14 20 7 14 20 7 14 20 12 19 25 13 20 26 15 22 28 19 26 32 22 29 35 25 32 38 28 35 41 29 36 42 47 54 60 49 56 62 51 58 64 54 61 67 58 65 71 61 68 74 63 70 76 65 72 78 73 81 84 73 81 84 73 81 84 73 81 84 73 81 84 73 81 84 73 81 84 73 81 84 69 77 80 69 77 80 69 77 80 69 77 80 69 77 80 69 77 80 69 77 80 69 77 80 57 65 68 55 63 66 50 58 61 43 51 54 37 45 48 30 38 41 25 33 36 23 31 34 6 14 17 6 14 17 6 14 17 6 14 17 6 14 17 6 14 17 6 14 17 6 14 17 10 18 20 10 18 20 10 18 20 10 18 20 10 18 20 10 18 20 10 18 20 10 18 20 23 31 33 23 31 33 23 31 33 23 31 33 23 31 33 23 31 33 23 31 33 23 31 33 26 30 33 26 30 33 26 30 33 26 30 33 26 30 33 26 30 33 26 30 33 26 30 33 25 29 32 25 29 32 25 29 32 25 29 32 25 29 32 25 29 32 25 29 32 27 28 30 32 28 27 33 28 25 33 28 25 33 28 25 33 28 25 33 28 25 33 28 25 33 28 25 34 29 26 34 29 26 34 29 26 34 29 26 34 29 26 34 29 26 34 29 26 34 29 26 38 28 27 38 28 27 38 28 27 38 28 27 38 28 27 38 28 27 38 28 27 38 28 27 39 29 28 39 29 28 39 29 28 39 29 28 39 29 28 39 29 28 39 29 28 38 30 28
