P3
172 37
255
126 115 131 126 115 131 126 115 131 126 115 131 125 114 130 125 114 130 125 114 130 125 114 130 125 114 130 125 114 130 125 114 130 125 114 130 114 101 119 113 100 118 111 98 116 107 94 112 104 91 109 101 88 106 98 85 103 97 84 102 110 97 115 106 93 111 98 85 103 88 75 93 77 64 82 67 54 72 59 46 64 54 43 60 20 11 28 18 11 27 16 9 25 13 6 22 11 4 20 8 1 17 6 0 15 5 0 14 9 2 18 9 2 18 9 2 18 9 2 18 9 2 18 9 2 18 9 2 18 7 3 17 8 8 20 6 9 18 6 9 18 6 9 18 6 9 18 6 9 18 6 9 18 6 9 18 8 11 20 8 11 20 8 11 20 8 11 20 8 11 20 8 11 20 8 11 20 8 11 20 9 12 19 9 12 19 9 12 19 9 12 19 9 12 19 9 12 19 9 12 19 9 12 19 10 13 20 10 13 20 10 13 20 10 13 20 10 13 20 10 13 20 10 13 20 10 13 20 9 14 20 9 14 20 9 14 20 9 14 20 9 14 20 9 14 20 9 14 20 9 14 20 10 15 21 10 15 21 10 15 21 10 15 21 10 15 21 10 15 21 10 15 21 10 15 21 1 4 9 2 5 10 5 8 13 9 12 17 13 16 21 17 20 25 20 23 28 21 24 29 5 8 13 5 8 13 5 8 13 5 8 13 5 8 13 5 8 13 5 8 13 5 9 12 8 13 16 8 14 14 8 14 14 8 14 14 8 14 14 8 14 14 8 14 14 8 14 14 16 22 22 18 24 24 23 29 29 30 36 36 36 42 42 43 49 49 48 54 54 50 56 56 56 60 59 58 62 61 63 67 66 70 74 73 76 80 79 83 87 86 88 92 91 90 94 93 88 92 91 89 93 92 92 96 95 95 99 98 98 102 101 102 106 105 104 108 107 107 109 108 82 82 84 75 73 76 62 60 63 50 48 51 43 41 44 42 40 43 45 43 46 48 46 49 42 40 43 42 40 43 42 40 43 42 40 43 42 40 43 42 40 43 42 40 43 42 40 43 39 37 40 39 37 40 39 37 40 39 37 40 39 37 40 39 37 40 39 37 40 39 37 40 42 40 43 42 40 43 42 40 43 42 40 43 42 40 43 42 40 43 42 40 43 42 40 43
126 115 132 126 115 132 126 115 132 126 115 132 125 114 131 125 114 131 125 114 131 125 114 131 125 114 131 125 114 131 125 114 131 125 114 131 112 101 118 111 100 117 108 96 116 105 94 111 102 90 110 98 87 104 96 84 104 95 84 101 110 98 118 105 94 111 97 85 105 86 75 92 75 63 83 64 53 70 55 43 63 49 40 57 13 6 24 11 7 22 11 4 22 7 3 18 7 0 18 3 0 14 3 0 14 1 0 12 9 2 20 7 3 18 9 2 20 7 3 18 9 2 20 7 3 18 9 2 20 6 4 18 8 8 20 5 9 18 6 9 18 5 9 18 6 9 18 5 9 18 6 9 18 5 9 18 8 11 20 7 11 20 8 11 20 7 11 20 8 11 20 7 11 20 8 11 20 7 11 20 8 13 19 8 13 19 8 13 19 8 13 19 8 13 19 8 13 19 8 13 19 8 13 19 9 14 20 9 14 20 9 14 20 9 14 20 9 14 20 9 14 20 9 14 20 9 14 20 9 14 20 9 14 20 9 14 20 9 14 20 9 14 20 9 14 20 9 14 20 9 14 20 10 15 21 10 15 21 10 15 21 10 15 21 10 15 21 10 15 21 10 15 21 10 15 21 0 2 7 1 4 9 4 7 12 9 12 17 13 16 21 18 21 26 21 24 29 23 26 31 5 8 13 5 8 13 5 8 13 5 8 13 5 8 13 5 8 13 5 8 13 5 8 13 8 13 16 8 14 14 8 13 16 8 14 14 8 13 16 8 14 14 8 13 16 8 14 14 16 21 24 18 24 24 23 28 31 30 36 36 36 41 44 43 49 49 48 53 56 50 56 56 56 60 59 58 62 61 63 67 66 70 74 73 76 80 79 83 87 86 88 92 91 90 94 93 87 91 90 88 92 91 90 94 93 94 98 97 97 101 100 100 104 103 103 107 106 106 108 107 82 82 84 75 73 76 62 60 63 50 48 51 43 41 44 42 40 43 45 43 46 48 46 49 42 40 43 42 40 43 42 40 43 42 40 43 42 40 43 42 40 43 42 40 43 42 40 43 39 37 40 39 37 40 39 37 40 39 37 40 39 37 40 39 37 40 39 37 40 39 37 40 42 40 43 42 40 43 42 40 43 42 40 43 42 40 43 42 40 43 42 40 43 42 40 43
131 119 141 133 121 143 133 121 143 134 122 144 122 110 132 121 109 131 119 107 129 115 103 125 112 100 122 109 97 119 106 94 116 103 94 115 104 95 116 103 96 114 102 94 115 102 95 113 101 93 114 100 93 111 100 92 113 99 92 110 68 60 81 64 57 75 59 51 72 51 44 62 43 35 56 35 28 46 29 21 42 26 19 37 7 2 22 6 3 20 7 2 22 6 3 20 7 2 22 6 3 20 7 2 22 6 3 20 7 2 22 6 3 20 7 2 22 6 3 20 7 2 22 6 3 20 7 2 22 5 4 20 8 10 22 5 12 22 7 11 22 5 12 22 7 11 22 5 12 22 7 11 22 5 12 22 8 12 23 6 13 23 8 12 23 6 13 23 8 12 23 6 13 23 8 12 23 6 13 21 8 15 21 8 15 21 8 15 21 8 15 21 8 15 21 8 15 21 8 15 21 8 15 21 9 16 22 9 16 22 9 16 22 9 16 22 9 16 22 9 16 22 9 16 22 9 16 22 9 16 22 9 16 22 9 16 22 9 16 22 9 16 22 9 16 22 9 16 22 9 16 22 9 16 22 9 16 22 9 16 22 9 16 22 9 16 22 9 16 22 9 16 22 9 16 22 0 2 6 0 4 8 3 8 12 7 12 16 12 17 21 16 21 25 20 25 29 21 26 30 28 33 37 26 31 35 21 26 30 14 19 23 8 13 17 1 6 10 0 1 5 0 1 5 5 10 14 5 10 13 5 10 14 5 10 13 5 10 14 5 10 13 5 10 14 5 10 13 22 27 31 24 29 32 26 31 35 29 34 37 33 38 42 36 41 44 38 43 47 40 45 48 62 66 67 63 67 66 66 70 69 69 73 72 72 76 75 76 80 79 78 82 81 79 83 82 80 84 83 81 85 84 84 88 87 87 91 90 90 94 93 94 98 97 96 100 99 99 101 100 80 80 80 73 71 72 60 58 59 48 46 47 41 39 40 40 38 39 43 41 42 46 44 45 41 39 40 41 39 40 41 39 40 41 39 40 41 39 40 41 39 40 41 39 40 41 39 40 39 37 40 39 37 40 39 37 40 39 37 40 39 37 40 39 37 40 39 37 40 39 37 40 37 35 38 37 35 38 37 35 38 37 35 38 37 35 38 37 35 38 37 35 38 37 35 38
130 118 142 130 118 142 131 119 143 131 119 143 113 101 125 112 100 124 109 97 121 106 94 118 103 91 115 99 87 111 97 85 109 94 84 108 106 98 119 102 97 117 99 94 114 95 90 110 91 86 106 87 82 102 83 78 98 82 77 97 56 51 71 53 48 68 47 42 62 40 35 55 33 28 48 26 21 41 21 16 36 18 13 33 6 3 22 6 3 22 6 3 22 6 3 22 6 3 22 6 3 22 6 3 22 6 3 22 6 3 22 6 3 22 6 3 22 6 3 22 6 3 22 6 3 22 6 3 22 5 4 20 7 11 23 5 12 22 5 12 22 5 12 22 5 12 22 5 12 22 5 12 22 5 12 22 6 13 23 6 13 23 6 13 23 6 13 23 6 13 23 6 13 23 6 13 23 6 13 21 7 16 23 7 16 21 7 16 21 7 16 21 7 16 21 7 16 21 7 16 21 7 16 21 8 17 22 8 17 22 8 17 22 8 17 22 8 17 22 8 17 22 8 17 22 8 17 22 9 16 22 9 16 22 9 16 22 9 16 22 9 16 22 9 16 22 9 16 22 9 16 22 9 16 22 9 16 22 9 16 22 9 16 22 9 16 22 9 16 22 9 16 22 9 16 22 0 5 9 2 7 11 5 10 14 9 14 18 13 18 22 16 21 25 19 24 28 21 26 30 28 33 37 26 31 35 21 26 30 14 19 23 8 13 17 1 6 10 0 1 5 0 1 5 5 10 14 5 10 14 5 10 14 5 10 14 5 10 14 5 10 14 5 10 14 5 10 14 22 27 31 24 29 33 26 31 35 29 34 38 33 38 42 36 41 45 38 43 47 40 45 48 61 65 66 62 66 65 64 68 67 68 72 71 71 75 74 74 78 77 77 81 80 78 82 81 79 83 82 80 84 83 82 86 85 86 90 89 89 93 92 92 96 95 95 99 98 98 100 99 80 80 80 73 71 72 60 58 59 48 46 47 41 39 40 40 38 39 43 41 42 46 44 45 41 39 40 41 39 40 41 39 40 41 39 40 41 39 40 41 39 40 41 39 40 41 39 40 39 37 40 39 37 40 39 37 40 39 37 40 39 37 40 39 37 40 39 37 40 39 37 40 37 35 38 37 35 38 37 35 38 37 35 38 37 35 38 37 35 38 37 35 38 37 35 38
127 115 139 126 114 138 125 113 137 125 113 137 107 95 119 105 93 117 103 91 115 100 88 112 96 84 108 93 81 105 91 79 103 87 77 101 106 98 119 101 96 116 94 89 109 85 80 100 76 71 91 67 62 82 60 55 75 57 52 72 39 34 54 37 32 52 33 28 48 27 22 42 21 16 36 15 10 30 11 6 26 8 3 23 6 3 22 6 3 22 6 3 22 6 3 22 6 3 22 6 3 22 6 3 22 6 3 22 6 3 22 6 3 22 6 3 22 6 3 22 6 3 22 6 3 22 6 3 22 5 4 20 7 11 23 5 12 22 5 12 22 5 12 22 5 12 22 5 12 22 5 12 22 5 12 22 6 13 23 6 13 23 6 13 23 6 13 23 6 13 23 6 13 23 6 13 23 6 13 21 7 16 23 7 16 21 7 16 21 7 16 21 7 16 21 7 16 21 7 16 21 7 16 21 8 17 22 8 17 22 8 17 22 8 17 22 8 17 22 8 17 22 8 17 22 8 17 22 9 16 22 9 16 22 9 16 22 9 16 22 9 16 22 9 16 22 9 16 22 9 16 22 9 16 22 9 16 22 9 16 22 9 16 22 9 16 22 9 16 22 9 16 22 9 16 22 6 11 15 7 12 16 9 14 18 12 17 21 14 19 23 17 22 26 19 24 28 20 25 29 28 33 37 26 31 35 21 26 30 14 19 23 8 13 17 1 6 10 0 1 5 0 1 5 5 10 14 5 10 14 5 10 14 5 10 14 5 10 14 5 10 14 5 10 14 5 10 14 22 27 31 24 29 33 26 31 35 29 34 38 33 38 42 36 41 45 38 43 47 40 45 48 58 62 63 60 64 63 62 66 65 65 69 68 69 73 72 72 76 75 74 78 77 76 80 79 76 80 79 78 82 81 80 84 83 83 87 86 87 91 90 90 94 93 92 96 95 96 98 97 80 80 80 73 71 72 60 58 59 48 46 47 41 39 40 40 38 39 43 41 42 46 44 45 41 39 40 41 39 40 41 39 40 41 39 40 41 39 40 41 39 40 41 39 40 41 39 40 39 37 40 39 37 40 39 37 40 39 37 40 39 37 40 39 37 40 39 37 40 39 37 40 37 35 38 37 35 38 37 35 38 37 35 38 37 35 38 37 35 38 37 35 38 37 35 38
122 110 134 120 108 132 118 106 130 117 105 129 111 99 123 110 98 122 107 95 119 104 92 116 101 89 113 97 85 109 95 83 107 92 82 106 99 91 112 92 87 107 83 78 98 71 66 86 58 53 73 46 41 61 37 32 52 32 27 47 23 18 38 21 16 36 18 13 33 14 9 29 10 5 25 6 1 21 2 0 17 1 0 16 6 3 22 6 3 22 6 3 22 6 3 22 6 3 22 6 3 22 6 3 22 6 3 22 6 3 22 6 3 22 6 3 22 6 3 22 6 3 22 6 3 22 6 3 22 5 4 20 7 11 23 5 12 22 5 12 22 5 12 22 5 12 22 5 12 22 5 12 22 5 12 22 6 13 23 6 13 23 6 13 23 6 13 23 6 13 23 6 13 23 6 13 23 6 13 21 7 16 23 7 16 21 7 16 21 7 16 21 7 16 21 7 16 21 7 16 21 7 16 21 8 17 22 8 17 22 8 17 22 8 17 22 8 17 22 8 17 22 8 17 22 8 17 22 9 16 22 9 16 22 9 16 22 9 16 22 9 16 22 9 16 22 9 16 22 9 16 22 9 16 22 9 16 22 9 16 22 9 16 22 9 16 22 9 16 22 9 16 22 9 16 22 14 19 23 14 19 23 15 20 24 16 21 25 17 22 26 18 23 27 18 23 27 19 24 28 28 33 37 26 31 35 21 26 30 14 19 23 8 13 17 1 6 10 0 1 5 0 1 5 5 10 14 5 10 14 5 10 14 5 10 14 5 10 14 5 10 14 5 10 14 5 10 14 22 27 31 24 29 33 26 31 35 29 34 38 33 38 42 36 41 45 38 43 47 40 45 48 55 59 60 56 60 59 59 63 62 62 66 65 65 69 68 69 73 72 71 75 74 72 76 75 73 77 76 74 78 77 77 81 80 80 84 83 83 87 86 87 91 90 89 93 92 92 94 93 80 80 80 73 71 72 60 58 59 48 46 47 41 39 40 40 38 39 43 41 42 46 44 45 41 39 40 41 39 40 41 39 40 41 39 40 41 39 40 41 39 40 41 39 40 41 39 40 39 37 40 39 37 40 39 37 40 39 37 40 39 37 40 39 37 40 39 37 40 39 37 40 37 35 38 37 35 38 37 35 38 37 35 38 37 35 38 37 35 38 37 35 38 37 35 38
118 106 130 114 102 126 111 99 123 109 97 121 118 106 130 116 104 128 114 102 126 111 99 123 107 95 119 104 92 116 102 90 114 98 88 112 82 74 95 75 70 90 66 61 81 54 49 69 41 36 56 29 24 44 20 15 35 15 10 30 11 6 26 10 5 25 8 3 23 6 1 21 4 0 19 1 0 16 1 0 16 1 0 16 6 3 22 6 3 22 6 3 22 6 3 22 6 3 22 6 3 22 6 3 22 6 3 22 6 3 22 6 3 22 6 3 22 6 3 22 6 3 22 6 3 22 6 3 22 5 4 20 7 11 23 5 12 22 5 12 22 5 12 22 5 12 22 5 12 22 5 12 22 5 12 22 6 13 23 6 13 23 6 13 23 6 13 23 6 13 23 6 13 23 6 13 23 6 13 21 7 16 23 7 16 21 7 16 21 7 16 21 7 16 21 7 16 21 7 16 21 7 16 21 8 17 22 8 17 22 8 17 22 8 17 22 8 17 22 8 17 22 8 17 22 8 17 22 9 16 22 9 16 22 9 16 22 9 16 22 9 16 22 9 16 22 9 16 22 9 16 22 9 16 22 9 16 22 9 16 22 9 16 22 9 16 22 9 16 22 9 16 22 9 16 22 22 27 31 22 27 31 21 26 30 20 25 29 19 24 28 18 23 27 18 23 27 17 22 26 28 33 37 26 31 35 21 26 30 14 19 23 8 13 17 1 6 10 0 1 5 0 1 5 5 10 14 5 10 14 5 10 14 5 10 14 5 10 14 5 10 14 5 10 14 5 10 14 22 27 31 24 29 33 26 31 35 29 34 38 33 38 42 36 41 45 38 43 47 40 45 48 52 56 57 53 57 56 55 59 58 59 63 62 62 66 65 65 69 68 68 72 71 69 73 72 70 74 73 71 75 74 73 77 76 77 81 80 80 84 83 83 87 86 86 90 89 89 91 90 80 80 80 73 71 72 60 58 59 48 46 47 41 39 40 40 38 39 43 41 42 46 44 45 41 39 40 41 39 40 41 39 40 41 39 40 41 39 40 41 39 40 41 39 40 41 39 40 39 37 40 39 37 40 39 37 40 39 37 40 39 37 40 39 37 40 39 37 40 39 37 40 37 35 38 37 35 38 37 35 38 37 35 38 37 35 38 37 35 38 37 35 38 37 35 38
114 102 126 108 96 120 104 92 116 102 90 114 111 99 123 109 97 121 107 95 119 104 92 116 100 88 112 97 85 109 95 83 107 91 81 105 57 49 70 52 47 67 45 40 60 36 31 51 27 22 42 18 13 33 11 6 26 8 3 23 6 1 21 6 1 21 5 0 20 5 0 20 4 0 19 3 0 18 3 0 18 2 0 17 6 3 22 6 3 22 6 3 22 6 3 22 6 3 22 6 3 22 6 3 22 6 3 22 6 3 22 6 3 22 6 3 22 6 3 22 6 3 22 6 3 22 6 3 22 5 4 20 7 11 23 5 12 22 5 12 22 5 12 22 5 12 22 5 12 22 5 12 22 5 12 22 6 13 23 6 13 23 6 13 23 6 13 23 6 13 23 6 13 23 6 13 23 6 13 21 7 16 23 7 16 21 7 16 21 7 16 21 7 16 21 7 16 21 7 16 21 7 16 21 8 17 22 8 17 22 8 17 22 8 17 22 8 17 22 8 17 22 8 17 22 8 17 22 9 16 22 9 16 22 9 16 22 9 16 22 9 16 22 9 16 22 9 16 22 9 16 22 9 16 22 9 16 22 9 16 22 9 16 22 9 16 22 9 16 22 9 16 22 9 16 22 30 35 39 29 34 38 27 32 36 24 29 33 22 27 31 19 24 28 17 22 26 16 21 25 28 33 37 26 31 35 21 26 30 14 19 23 8 13 17 1 6 10 0 1 5 0 1 5 5 10 14 5 10 14 5 10 14 5 10 14 5 10 14 5 10 14 5 10 14 5 10 14 22 27 31 24 29 33 26 31 35 29 34 38 33 38 42 36 41 45 38 43 47 40 45 48 48 52 53 50 54 53 52 56 55 55 59 58 59 63 62 62 66 65 64 68 67 66 70 69 66 70 69 68 72 71 70 74 73 73 77 76 77 81 80 80 84 83 82 86 85 86 88 87 80 80 80 73 71 72 60 58 59 48 46 47 41 39 40 40 38 39 43 41 42 46 44 45 41 39 40 41 39 40 41 39 40 41 39 40 41 39 40 41 39 40 41 39 40 41 39 40 39 37 40 39 37 40 39 37 40 39 37 40 39 37 40 39 37 40 39 37 40 39 37 40 37 35 38 37 35 38 37 35 38 37 35 38 37 35 38 37 35 38 37 35 38 37 35 38
111 99 123 104 92 116 99 87 111 96 84 108 88 76 100 87 75 99 85 73 97 81 69 93 78 66 90 75 63 87 72 60 84 69 59 83 32 24 45 29 24 44 25 20 40 21 16 36 17 12 32 13 8 28 10 5 25 8 3 23 6 1 21 6 1 21 6 1 21 7 2 22 8 3 23 8 3 23 9 4 24 9 4 24 6 3 22 6 3 22 6 3 22 6 3 22 6 3 22 6 3 22 6 3 22 6 3 22 6 3 22 6 3 22 6 3 22 6 3 22 6 3 22 6 3 22 6 3 22 5 4 20 7 11 23 5 12 22 5 12 22 5 12 22 5 12 22 5 12 22 5 12 22 5 12 22 6 13 23 6 13 23 6 13 23 6 13 23 6 13 23 6 13 23 6 13 23 6 13 21 7 16 23 7 16 21 7 16 21 7 16 21 7 16 21 7 16 21 7 16 21 7 16 21 8 17 22 8 17 22 8 17 22 8 17 22 8 17 22 8 17 22 8 17 22 8 17 22 9 16 22 9 16 22 9 16 22 9 16 22 9 16 22 9 16 22 9 16 22 9 16 22 9 16 22 9 16 22 9 16 22 9 16 22 9 16 22 9 16 22 9 16 22 9 16 22 36 41 45 34 39 43 31 36 40 27 32 36 23 28 32 20 25 29 17 22 26 15 20 24 28 33 37 26 31 35 21 26 30 14 19 23 8 13 17 1 6 10 0 1 5 0 1 5 5 10 14 5 10 14 5 10 14 5 10 14 5 10 14 5 10 14 5 10 14 5 10 14 22 27 31 24 29 33 26 31 35 29 34 38 33 38 42 36 41 45 38 43 47 40 45 48 46 50 51 47 51 50 50 54 53 53 57 56 56 60 59 60 64 63 62 66 65 63 67 66 64 68 67 65 69 68 68 72 71 71 75 74 74 78 77 78 82 81 80 84 83 83 85 84 80 80 80 73 71 72 60 58 59 48 46 47 41 39 40 40 38 39 43 41 42 46 44 45 41 39 40 41 39 40 41 39 40 41 39 40 41 39 40 41 39 40 41 39 40 41 39 40 39 37 40 39 37 40 39 37 40 39 37 40 39 37 40 39 37 40 39 37 40 39 37 40 37 35 38 37 35 38 37 35 38 37 35 38 37 35 38 37 35 38 37 35 38 37 35 38
109 97 121 102 90 114 96 84 108 93 81 105 68 56 80 66 54 78 64 52 76 61 49 73 57 45 69 54 42 66 52 40 64 48 38 62 17 9 30 14 9 29 14 9 29 13 8 28 12 7 27 12 7 27 11 6 26 11 6 26 7 2 22 7 2 22 8 3 23 10 5 25 11 6 26 12 7 27 13 8 28 14 9 29 6 3 22 6 3 22 6 3 22 6 3 22 6 3 22 6 3 22 6 3 22 6 3 22 6 3 22 6 3 22 6 3 22 6 3 22 6 3 22 6 3 22 6 3 22 5 4 20 7 11 23 5 12 22 5 12 22 5 12 22 5 12 22 5 12 22 5 12 22 5 12 22 6 13 23 6 13 23 6 13 23 6 13 23 6 13 23 6 13 23 6 13 23 6 13 21 7 16 23 7 16 21 7 16 21 7 16 21 7 16 21 7 16 21 7 16 21 7 16 21 8 17 22 8 17 22 8 17 22 8 17 22 8 17 22 8 17 22 8 17 22 8 17 22 9 16 22 9 16 22 9 16 22 9 16 22 9 16 22 9 16 22 9 16 22 9 16 22 9 16 22 9 16 22 9 16 22 9 16 22 9 16 22 9 16 22 9 16 22 9 16 22 39 44 48 37 42 46 33 38 42 29 34 38 24 29 33 20 25 29 16 21 25 15 20 24 28 33 37 26 31 35 21 26 30 14 19 23 8 13 17 1 6 10 0 1 5 0 1 5 5 10 14 5 10 14 5 10 14 5 10 14 5 10 14 5 10 14 5 10 14 5 10 14 22 27 31 24 29 33 26 31 35 29 34 38 33 38 42 36 41 45 38 43 47 40 45 48 45 49 50 46 50 49 48 52 51 52 56 55 55 59 58 58 62 61 61 65 64 62 66 65 63 67 66 64 68 67 66 70 69 70 74 73 73 77 76 76 80 79 79 83 82 82 84 83 80 80 80 73 71 72 60 58 59 48 46 47 41 39 40 40 38 39 43 41 42 46 44 45 41 39 40 41 39 40 41 39 40 41 39 40 41 39 40 41 39 40 41 39 40 41 39 40 39 37 40 39 37 40 39 37 40 39 37 40 39 37 40 39 37 40 39 37 40 39 37 40 37 35 38 37 35 38 37 35 38 37 35 38 37 35 38 37 35 38 37 35 38 37 35 38
92 80 104 81 69 93 73 61 85 69 57 81 24 12 36 24 12 36 24 12 36 24 12 36 24 12 36 24 12 36 24 12 36 22 12 36 9 1 22 7 2 22 7 2 22 7 2 22 7 2 22 7 2 22 7 2 22 7 2 22 8 3 23 8 3 23 8 3 23 8 3 23 8 3 23 8 3 23 8 3 23 8 3 23 8 5 24 8 5 24 8 5 24 8 5 24 8 5 24 8 5 24 8 5 24 8 5 24 8 5 24 8 5 24 8 5 24 8 5 24 8 5 24 8 5 24 8 5 24 7 6 22 6 10 22 4 11 21 4 11 21 4 11 21 4 11 21 4 11 21 4 11 21 4 11 21 6 13 23 6 13 23 6 13 23 6 13 23 6 13 23 6 13 23 6 13 23 6 13 21 5 14 21 5 14 19 5 14 19 5 14 19 5 14 19 5 14 19 5 14 19 5 14 19 7 16 21 7 16 21 7 16 21 7 16 21 7 16 21 7 16 21 7 16 21 7 16 21 9 16 22 8 15 21 7 14 20 6 13 19 5 12 18 3 10 16 3 10 16 2 9 15 28 35 41 28 35 41 28 35 41 28 35 41 28 35 41 28 35 41 28 35 41 28 35 41 44 49 53 42 47 51 40 45 49 37 42 46 33 38 42 30 35 39 28 33 37 26 31 35 18 23 27 16 21 25 14 19 23 11 16 20 7 12 16 4 9 13 2 7 11 0 5 9 6 11 15 6 11 15 6 11 15 6 11 15 6 11 15 6 11 15 6 11 15 6 11 15 17 22 26 19 24 28 21 26 30 24 29 33 28 33 37 31 36 40 33 38 42 35 40 43 40 44 45 42 46 45 44 48 47 47 51 50 51 55 54 54 58 57 56 60 59 58 62 61 69 73 72 69 73 72 69 73 72 69 73 72 69 73 72 69 73 72 69 73 72 71 73 72 54 54 54 53 51 52 51 49 50 48 46 47 44 42 43 41 39 40 39 37 38 37 35 36 35 33 34 35 33 34 35 33 34 35 33 34 35 33 34 35 33 34 35 33 34 35 33 34 34 32 35 34 32 35 34 32 35 34 32 35 34 32 35 34 32 35 34 32 35 34 32 35 37 35 38 37 35 38 37 35 38 37 35 38 37 35 38 37 35 38 37 35 38 37 35 38
80 68 92 70 58 82 62 50 74 58 46 70 22 10 34 22 10 34 22 10 34 22 10 34 22 10 34 22 10 34 22 10 34 20 10 34 9 1 22 7 2 22 7 2 22 7 2 22 7 2 22 7 2 22 7 2 22 7 2 22 8 3 23 8 3 23 8 3 23 8 3 23 8 3 23 8 3 23 8 3 23 8 3 23 8 5 24 8 5 24 8 5 24 8 5 24 8 5 24 8 5 24 8 5 24 8 5 24 8 5 24 8 5 24 8 5 24 8 5 24 8 5 24 8 5 24 8 5 24 7 6 22 6 10 22 4 11 21 4 11 21 4 11 21 4 11 21 4 11 21 4 11 21 4 11 21 6 13 23 6 13 23 6 13 23 6 13 23 6 13 23 6 13 23 6 13 23 6 13 21 5 14 21 5 14 19 5 14 19 5 14 19 5 14 19 5 14 19 5 14 19 5 14 19 7 16 21 7 16 21 7 16 21 7 16 21 7 16 21 7 16 21 7 16 21 7 16 21 8 15 21 8 15 21 8 15 21 7 14 20 6 13 19 6 13 19 5 12 18 5 12 18 30 37 43 30 37 43 30 37 43 30 37 43 30 37 43 30 37 43 30 37 43 30 37 43 44 49 53 42 47 51 40 45 49 37 42 46 33 38 42 30 35 39 28 33 37 26 31 35 18 23 27 16 21 25 14 19 23 11 16 20 7 12 16 4 9 13 2 7 11 0 5 9 6 11 15 6 11 15 6 11 15 6 11 15 6 11 15 6 11 15 6 11 15 6 11 15 17 22 26 19 24 28 21 26 30 24 29 33 28 33 37 31 36 40 33 38 42 35 40 43 40 44 45 42 46 45 44 48 47 47 51 50 51 55 54 54 58 57 56 60 59 58 62 61 67 71 70 67 71 70 67 71 70 67 71 70 67 71 70 67 71 70 67 71 70 69 71 70 54 54 54 53 51 52 51 49 50 48 46 47 44 42 43 41 39 40 39 37 38 37 35 36 35 33 34 35 33 34 35 33 34 35 33 34 35 33 34 35 33 34 35 33 34 35 33 34 34 32 35 34 32 35 34 32 35 34 32 35 34 32 35 34 32 35 34 32 35 34 32 35 37 35 38 37 35 38 37 35 38 37 35 38 37 35 38 37 35 38 37 35 38 37 35 38
61 49 73 52 40 64 45 33 57 41 29 53 20 8 32 20 8 32 20 8 32 20 8 32 20 8 32 20 8 32 20 8 32 18 8 32 9 1 22 7 2 22 7 2 22 7 2 22 7 2 22 7 2 22 7 2 22 7 2 22 8 3 23 8 3 23 8 3 23 8 3 23 8 3 23 8 3 23 8 3 23 8 3 23 8 5 24 8 5 24 8 5 24 8 5 24 8 5 24 8 5 24 8 5 24 8 5 24 8 5 24 8 5 24 8 5 24 8 5 24 8 5 24 8 5 24 8 5 24 7 6 22 6 10 22 4 11 21 4 11 21 4 11 21 4 11 21 4 11 21 4 11 21 4 11 21 6 13 23 6 13 23 6 13 23 6 13 23 6 13 23 6 13 23 6 13 23 6 13 21 5 14 21 5 14 19 5 14 19 5 14 19 5 14 19 5 14 19 5 14 19 5 14 19 7 16 21 7 16 21 7 16 21 7 16 21 7 16 21 7 16 21 7 16 21 7 16 21 7 14 20 8 15 21 8 15 21 9 16 22 9 16 22 10 17 23 11 18 24 11 18 24 32 39 45 32 39 45 32 39 45 32 39 45 32 39 45 32 39 45 32 39 45 32 39 45 44 49 53 42 47 51 40 45 49 37 42 46 33 38 42 30 35 39 28 33 37 26 31 35 18 23 27 16 21 25 14 19 23 11 16 20 7 12 16 4 9 13 2 7 11 0 5 9 6 11 15 6 11 15 6 11 15 6 11 15 6 11 15 6 11 15 6 11 15 6 11 15 17 22 26 19 24 28 21 26 30 24 29 33 28 33 37 31 36 40 33 38 42 35 40 43 40 44 45 42 46 45 44 48 47 47 51 50 51 55 54 54 58 57 56 60 59 58 62 61 65 69 68 65 69 68 65 69 68 65 69 68 65 69 68 65 69 68 65 69 68 67 69 68 54 54 54 53 51 52 51 49 50 48 46 47 44 42 43 41 39 40 39 37 38 37 35 36 35 33 34 35 33 34 35 33 34 35 33 34 35 33 34 35 33 34 35 33 34 35 33 34 34 32 35 34 32 35 34 32 35 34 32 35 34 32 35 34 32 35 34 32 35 34 32 35 37 35 38 37 35 38 37 35 38 37 35 38 37 35 38 37 35 38 37 35 38 37 35 38
40 28 52 33 21 45 27 15 39 24 12 36 17 5 29 17 5 29 17 5 29 17 5 29 17 5 29 17 5 29 17 5 29 15 5 29 9 1 22 7 2 22 7 2 22 7 2 22 7 2 22 7 2 22 7 2 22 7 2 22 8 3 23 8 3 23 8 3 23 8 3 23 8 3 23 8 3 23 8 3 23 8 3 23 8 5 24 8 5 24 8 5 24 8 5 24 8 5 24 8 5 24 8 5 24 8 5 24 8 5 24 8 5 24 8 5 24 8 5 24 8 5 24 8 5 24 8 5 24 7 6 22 6 10 22 4 11 21 4 11 21 4 11 21 4 11 21 4 11 21 4 11 21 4 11 21 6 13 23 6 13 23 6 13 23 6 13 23 6 13 23 6 13 23 6 13 23 6 13 21 5 14 21 5 14 19 5 14 19 5 14 19 5 14 19 5 14 19 5 14 19 5 14 19 7 16 21 7 16 21 7 16 21 7 16 21 7 16 21 7 16 21 7 16 21 7 16 21 6 13 19 7 14 20 9 16 22 11 18 24 14 21 27 16 23 29 18 25 31 19 26 32 35 42 48 35 42 48 35 42 48 35 42 48 35 42 48 35 42 48 35 42 48 35 42 48 44 49 53 42 47 51 40 45 49 37 42 46 33 38 42 30 35 39 28 33 37 26 31 35 18 23 27 16 21 25 14 19 23 11 16 20 7 12 16 4 9 13 2 7 11 0 5 9 6 11 15 6 11 15 6 11 15 6 11 15 6 11 15 6 11 15 6 11 15 6 11 15 17 22 26 19 24 28 21 26 30 24 29 33 28 33 37 31 36 40 33 38 42 35 40 43 40 44 45 42 46 45 44 48 47 47 51 50 51 55 54 54 58 57 56 60 59 58 62 61 62 66 65 62 66 65 62 66 65 62 66 65 62 66 65 62 66 65 62 66 65 64 66 65 54 54 54 53 51 52 51 49 50 48 46 47 44 42 43 41 39 40 39 37 38 37 35 36 35 33 34 35 33 34 35 33 34 35 33 34 35 33 34 35 33 34 35 33 34 35 33 34 34 32 35 34 32 35 34 32 35 34 32 35 34 32 35 34 32 35 34 32 35 34 32 35 37 35 38 37 35 38 37 35 38 37 35 38 37 35 38 37 35 38 37 35 38 37 35 38
24 12 36 18 6 30 14 2 26 12 0 24 13 1 25 13 1 25 13 1 25 13 1 25 13 1 25 13 1 25 13 1 25 11 1 25 9 1 22 7 2 22 7 2 22 7 2 22 7 2 22 7 2 22 7 2 22 7 2 22 8 3 23 8 3 23 8 3 23 8 3 23 8 3 23 8 3 23 8 3 23 8 3 23 8 5 24 8 5 24 8 5 24 8 5 24 8 5 24 8 5 24 8 5 24 8 5 24 8 5 24 8 5 24 8 5 24 8 5 24 8 5 24 8 5 24 8 5 24 7 6 22 6 10 22 4 11 21 4 11 21 4 11 21 4 11 21 4 11 21 4 11 21 4 11 21 6 13 23 6 13 23 6 13 23 6 13 23 6 13 23 6 13 23 6 13 23 6 13 21 5 14 21 5 14 19 5 14 19 5 14 19 5 14 19 5 14 19 5 14 19 5 14 19 7 16 21 7 16 21 7 16 21 7 16 21 7 16 21 7 16 21 7 16 21 7 16 21 5 12 18 6 13 19 9 16 22 14 21 27 18 25 31 22 29 35 25 32 38 27 34 40 39 46 52 39 46 52 39 46 52 39 46 52 39 46 52 39 46 52 39 46 52 39 46 52 44 49 53 42 47 51 40 45 49 37 42 46 33 38 42 30 35 39 28 33 37 26 31 35 18 23 27 16 21 25 14 19 23 11 16 20 7 12 16 4 9 13 2 7 11 0 5 9 6 11 15 6 11 15 6 11 15 6 11 15 6 11 15 6 11 15 6 11 15 6 11 15 17 22 26 19 24 28 21 26 30 24 29 33 28 33 37 31 36 40 33 38 42 35 40 43 40 44 45 42 46 45 44 48 47 47 51 50 51 55 54 54 58 57 56 60 59 58 62 61 58 62 61 58 62 61 58 62 61 58 62 61 58 62 61 58 62 61 58 62 61 60 62 61 54 54 54 53 51 52 51 49 50 48 46 47 44 42 43 41 39 40 39 37 38 37 35 36 35 33 34 35 33 34 35 33 34 35 33 34 35 33 34 35 33 34 35 33 34 35 33 34 34 32 35 34 32 35 34 32 35 34 32 35 34 32 35 34 32 35 34 32 35 34 32 35 37 35 38 37 35 38 37 35 38 37 35 38 37 35 38 37 35 38 37 35 38 37 35 38
14 2 26 11 0 23 8 0 20 6 0 18 10 0 22 10 0 22 10 0 22 10 0 22 10 0 22 10 0 22 10 0 22 8 0 22 9 1 22 7 2 22 7 2 22 7 2 22 7 2 22 7 2 22 7 2 22 7 2 22 8 3 23 8 3 23 8 3 23 8 3 23 8 3 23 8 3 23 8 3 23 8 3 23 8 5 24 8 5 24 8 5 24 8 5 24 8 5 24 8 5 24 8 5 24 8 5 24 8 5 24 8 5 24 8 5 24 8 5 24 8 5 24 8 5 24 8 5 24 7 6 22 6 10 22 4 11 21 4 11 21 4 11 21 4 11 21 4 11 21 4 11 21 4 11 21 6 13 23 6 13 23 6 13 23 6 13 23 6 13 23 6 13 23 6 13 23 6 13 21 5 14 21 5 14 19 5 14 19 5 14 19 5 14 19 5 14 19 5 14 19 5 14 19 7 16 21 7 16 21 7 16 21 7 16 21 7 16 21 7 16 21 7 16 21 7 16 21 3 10 16 6 13 19 10 17 23 16 23 29 22 29 35 28 35 41 32 39 45 34 41 47 42 49 55 42 49 55 42 49 55 42 49 55 42 49 55 42 49 55 42 49 55 42 49 55 44 49 53 42 47 51 40 45 49 37 42 46 33 38 42 30 35 39 28 33 37 26 31 35 18 23 27 16 21 25 14 19 23 11 16 20 7 12 16 4 9 13 2 7 11 0 5 9 6 11 15 6 11 15 6 11 15 6 11 15 6 11 15 6 11 15 6 11 15 6 11 15 17 22 26 19 24 28 21 26 30 24 29 33 28 33 37 31 36 40 33 38 42 35 40 43 40 44 45 42 46 45 44 48 47 47 51 50 51 55 54 54 58 57 56 60 59 58 62 61 55 59 58 55 59 58 55 59 58 55 59 58 55 59 58 55 59 58 55 59 58 57 59 58 54 54 54 53 51 52 51 49 50 48 46 47 44 42 43 41 39 40 39 37 38 37 35 36 35 33 34 35 33 34 35 33 34 35 33 34 35 33 34 35 33 34 35 33 34 35 33 34 34 32 35 34 32 35 34 32 35 34 32 35 34 32 35 34 32 35 34 32 35 34 32 35 37 35 38 37 35 38 37 35 38 37 35 38 37 35 38 37 35 38 37 35 38 37 35 38
11 0 23 8 0 20 6 0 18 6 0 18 8 0 20 8 0 20 8 0 20 8 0 20 8 0 20 8 0 20 8 0 20 6 0 20 9 1 22 7 2 22 7 2 22 7 2 22 7 2 22 7 2 22 7 2 22 7 2 22 8 3 23 8 3 23 8 3 23 8 3 23 8 3 23 8 3 23 8 3 23 8 3 23 8 5 24 8 5 24 8 5 24 8 5 24 8 5 24 8 5 24 8 5 24 8 5 24 8 5 24 8 5 24 8 5 24 8 5 24 8 5 24 8 5 24 8 5 24 7 6 22 6 10 22 4 11 21 4 11 21 4 11 21 4 11 21 4 11 21 4 11 21 4 11 21 6 13 23 6 13 23 6 13 23 6 13 23 6 13 23 6 13 23 6 13 23 6 13 21 5 14 21 5 14 19 5 14 19 5 14 19 5 14 19 5 14 19 5 14 19 5 14 19 7 16 21 7 16 21 7 16 21 7 16 21 7 16 21 7 16 21 7 16 21 7 16 21 2 9 15 5 12 18 11 18 24 18 25 31 25 32 38 32 39 45 37 44 50 40 47 53 44 51 57 44 51 57 44 51 57 44 51 57 44 51 57 44 51 57 44 51 57 44 51 57 44 49 53 42 47 51 40 45 49 37 42 46 33 38 42 30 35 39 28 33 37 26 31 35 18 23 27 16 21 25 14 19 23 11 16 20 7 12 16 4 9 13 2 7 11 0 5 9 6 11 15 6 11 15 6 11 15 6 11 15 6 11 15 6 11 15 6 11 15 6 11 15 17 22 26 19 24 28 21 26 30 24 29 33 28 33 37 31 36 40 33 38 42 35 40 43 40 44 45 42 46 45 44 48 47 47 51 50 51 55 54 54 58 57 56 60 59 58 62 61 53 57 56 53 57 56 53 57 56 53 57 56 53 57 56 53 57 56 53 57 56 55 57 56 54 54 54 53 51 52 51 49 50 48 46 47 44 42 43 41 39 40 39 37 38 37 35 36 35 33 34 35 33 34 35 33 34 35 33 34 35 33 34 35 33 34 35 33 34 35 33 34 34 32 35 34 32 35 34 32 35 34 32 35 34 32 35 34 32 35 34 32 35 34 32 35 37 35 38 37 35 38 37 35 38 37 35 38 37 35 38 37 35 38 37 35 38 37 35 38
8 0 20 6 0 18 5 0 17 4 0 16 4 0 16 4 0 16 4 0 16 4 0 16 4 0 16 4 0 16 4 0 16 3 0 16 7 2 22 7 2 22 7 2 22 7 2 22 7 2 22 7 2 22 7 2 22 7 2 22 8 3 23 8 3 23 8 3 23 8 3 23 8 3 23 8 3 23 8 3 23 7 4 23 8 5 22 7 6 22 7 6 22 7 6 22 7 6 22 7 6 22 7 6 22 7 6 22 7 6 22 7 6 22 7 6 22 7 6 22 7 6 22 7 6 22 7 6 22 5 7 20 6 10 21 4 11 21 4 11 21 4 11 21 4 11 21 4 11 21 4 11 21 4 11 21 6 13 23 6 13 23 6 13 23 6 13 23 6 13 23 6 13 23 6 13 23 6 13 21 5 14 21 5 14 19 5 14 19 5 14 19 5 14 19 5 14 19 5 14 19 5 14 19 7 16 21 7 16 21 7 16 21 7 16 21 7 16 21 7 16 21 7 16 21 7 16 21 2 9 15 5 12 18 11 18 24 19 26 32 27 34 40 34 41 47 40 47 53 43 50 56 46 53 59 46 53 59 46 53 59 46 53 59 46 53 59 46 53 59 46 53 59 46 53 59 44 49 53 42 47 51 40 45 49 37 42 46 33 38 42 30 35 39 28 33 37 26 31 35 18 23 27 16 21 25 14 19 23 11 16 20 7 12 16 4 9 13 2 7 11 0 5 9 6 11 15 6 11 15 6 11 15 6 11 15 6 11 15 6 11 15 6 11 15 6 11 15 17 22 26 19 24 28 21 26 30 24 29 33 28 33 37 31 36 40 33 38 42 35 40 43 40 44 45 42 46 45 44 48 49 47 51 50 51 55 56 54 58 57 56 60 61 58 62 61 51 55 56 51 55 54 51 55 56 51 55 54 51 55 56 51 55 54 51 55 56 53 55 54 54 54 54 53 51 52 51 49 50 48 46 47 44 42 43 41 39 40 39 37 38 37 35 36 35 33 34 35 33 34 35 33 34 35 33 34 35 33 34 35 33 34 35 33 34 35 33 34 34 32 33 34 32 33 36 32 33 34 32 33 36 32 33 34 32 33 36 32 33 34 32 33 39 35 36 37 35 36 39 35 36 37 35 36 39 35 36 37 35 36 39 35 36 37 35 36
6 2 19 6 2 19 6 2 19 6 2 19 8 4 21 8 4 21 8 4 21 8 4 21 8 4 21 8 4 21 8 4 21 8 4 21 5 2 19 5 2 19 5 2 19 5 2 19 5 2 19 5 2 19 5 2 19 5 2 19 7 4 21 7 4 21 7 4 21 7 4 21 7 4 21 7 4 21 7 4 21 7 4 21 7 9 22 7 9 21 7 9 21 7 9 21 7 9 21 7 9 21 7 9 21 7 9 21 7 9 21 7 9 21 7 9 21 7 9 21 7 9 21 7 9 21 7 9 21 6 10 21 6 10 19 6 10 19 6 10 19 6 10 19 6 10 19 6 10 19 6 10 19 6 10 19 6 10 19 6 10 19 6 10 19 6 10 19 6 10 19 6 10 19 6 10 19 4 11 19 6 15 22 6 15 22 6 15 22 6 15 22 6 15 22 6 15 22 6 15 22 6 15 22 13 22 29 12 21 28 11 20 27 10 19 26 9 18 25 7 16 23 7 16 23 6 15 22 24 31 37 25 32 38 28 35 41 31 38 44 34 41 47 38 45 51 40 47 53 41 48 54 59 66 72 59 66 72 59 66 72 59 66 72 59 66 72 59 66 72 59 66 72 59 66 72 49 57 60 47 55 58 45 53 56 42 50 53 38 46 49 35 43 46 33 41 44 31 39 42 17 25 28 15 23 26 13 21 24 10 18 21 6 14 17 3 11 14 1 9 12 0 7 10 5 13 15 5 13 15 5 13 15 5 13 15 5 13 15 5 13 15 5 13 15 5 13 15 11 19 21 13 21 23 15 23 25 18 26 28 22 30 32 25 33 35 27 35 37 29 37 39 35 40 43 35 41 41 35 40 43 35 41 41 35 40 43 35 41 41 35 40 43 35 41 41 48 53 56 48 54 54 48 53 56 48 54 54 48 53 56 48 54 54 48 53 56 49 53 54 45 43 44 45 41 42 43 39 40 40 36 37 36 32 33 33 29 30 31 27 28 29 25 26 35 31 32 35 31 32 35 31 32 35 31 32 35 31 32 35 31 32 35 31 32 35 31 32 36 32 31 36 32 31 37 31 31 36 32 31 37 31 31 36 32 31 37 31 31 36 32 31 39 33 33 38 34 33 39 33 33 38 34 33 39 33 33 38 34 33 39 33 33 38 34 33
5 3 17 5 3 17 5 3 17 5 3 17 7 5 19 7 5 19 7 5 19 7 5 19 7 5 19 7 5 19 7 5 19 7 5 19 5 2 19 5 2 19 5 2 19 5 2 19 5 2 19 5 2 19 5 2 19 5 2 19 7 4 21 7 4 21 7 4 21 7 4 21 7 4 21 7 4 21 7 4 21 6 5 19 7 9 21 6 10 19 6 10 19 6 10 19 6 10 19 6 10 19 6 10 19 6 10 19 6 10 19 6 10 19 6 10 19 6 10 19 6 10 19 6 10 19 6 10 19 6 10 19 6 10 19 6 10 19 6 10 19 6 10 19 6 10 19 6 10 19 6 10 19 6 10 19 6 10 19 6 10 19 6 10 19 6 10 19 6 10 19 6 10 19 6 10 19 4 11 19 7 14 22 6 15 22 6 15 22 6 15 22 6 15 22 6 15 22 6 15 22 6 15 22 12 21 28 12 21 28 12 21 28 11 20 27 10 19 26 10 19 26 9 18 25 9 18 25 27 34 40 28 35 41 30 37 43 34 41 47 37 44 50 40 47 53 43 50 56 44 51 57 59 66 72 59 66 72 59 66 72 59 66 72 59 66 72 59 66 72 59 66 72 59 66 72 49 57 60 47 55 58 45 53 56 42 50 53 38 46 49 35 43 46 33 41 44 31 39 42 17 25 28 15 23 26 13 21 24 10 18 21 6 14 17 3 11 14 1 9 12 0 7 10 5 13 15 5 13 15 5 13 15 5 13 15 5 13 15 5 13 15 5 13 15 5 13 15 11 19 21 13 21 23 15 23 25 18 26 28 22 30 32 25 33 35 27 35 37 29 37 39 35 40 43 35 40 43 35 40 43 35 40 43 35 40 43 35 40 43 35 40 43 35 40 43 46 51 54 46 51 54 46 51 54 46 51 54 46 51 54 46 51 54 46 51 54 47 51 52 45 43 46 45 41 42 43 39 40 40 36 37 36 32 33 33 29 30 31 27 28 29 25 26 35 31 32 35 31 32 35 31 32 35 31 32 35 31 32 35 31 32 35 31 32 35 31 30 37 31 31 37 32 29 37 32 29 37 32 29 37 32 29 37 32 29 37 32 29 37 32 29 39 34 31 39 34 31 39 34 31 39 34 31 39 34 31 39 34 31 39 34 31 39 34 31
5 3 17 5 3 17 5 3 17 5 3 17 7 5 19 7 5 19 7 5 19 7 5 19 7 5 19 7 5 19 7 5 19 7 5 19 5 2 19 5 2 19 5 2 19 5 2 19 5 2 19 5 2 19 5 2 19 5 2 19 7 4 21 7 4 21 7 4 21 7 4 21 7 4 21 7 4 21 7 4 21 6 5 19 7 9 21 6 10 19 6 10 19 6 10 19 6 10 19 6 10 19 6 10 19 6 10 19 6 10 19 6 10 19 6 10 19 6 10 19 6 10 19 6 10 19 6 10 19 6 10 19 6 10 19 6 10 19 6 10 19 6 10 19 6 10 19 6 10 19 6 10 19 6 10 19 6 10 19 6 10 19 6 10 19 6 10 19 6 10 19 6 10 19 6 10 19 4 11 19 7 14 22 6 15 22 6 15 22 6 15 22 6 15 22 6 15 22 6 15 22 6 15 22 11 20 27 12 21 28 12 21 28 13 22 29 13 22 29 14 23 30 15 24 31 15 24 31 32 39 45 33 40 46 35 42 48 38 45 51 42 49 55 45 52 58 48 55 61 49 56 62 59 66 72 59 66 72 59 66 72 59 66 72 59 66 72 59 66 72 59 66 72 59 66 72 49 57 60 47 55 58 45 53 56 42 50 53 38 46 49 35 43 46 33 41 44 31 39 42 17 25 28 15 23 26 13 21 24 10 18 21 6 14 17 3 11 14 1 9 12 0 7 10 5 13 15 5 13 15 5 13 15 5 13 15 5 13 15 5 13 15 5 13 15 5 13 15 11 19 21 13 21 23 15 23 25 18 26 28 22 30 32 25 33 35 27 35 37 29 37 39 35 40 43 35 40 43 35 40 43 35 40 43 35 40 43 35 40 43 35 40 43 35 40 43 44 49 52 44 49 52 44 49 52 44 49 52 44 49 52 44 49 52 44 49 52 45 49 50 45 43 46 45 41 42 43 39 40 40 36 37 36 32 33 33 29 30 31 27 28 29 25 26 35 31 32 35 31 32 35 31 32 35 31 32 35 31 32 35 31 32 35 31 32 35 31 30 37 31 31 37 32 29 37 32 29 37 32 29 37 32 29 37 32 29 37 32 29 37 32 29 39 34 31 39 34 31 39 34 31 39 34 31 39 34 31 39 34 31 39 34 31 39 34 31
5 3 17 5 3 17 5 3 17 5 3 17 7 5 19 7 5 19 7 5 19 7 5 19 7 5 19 7 5 19 7 5 19 7 5 19 5 2 19 5 2 19 5 2 19 5 2 19 5 2 19 5 2 19 5 2 19 5 2 19 7 4 21 7 4 21 7 4 21 7 4 21 7 4 21 7 4 21 7 4 21 6 5 19 7 9 21 6 10 19 6 10 19 6 10 19 6 10 19 6 10 19 6 10 19 6 10 19 6 10 19 6 10 19 6 10 19 6 10 19 6 10 19 6 10 19 6 10 19 6 10 19 6 10 19 6 10 19 6 10 19 6 10 19 6 10 19 6 10 19 6 10 19 6 10 19 6 10 19 6 10 19 6 10 19 6 10 19 6 10 19 6 10 19 6 10 19 4 11 19 7 14 22 6 15 22 6 15 22 6 15 22 6 15 22 6 15 22 6 15 22 6 15 22 10 19 26 11 20 27 13 22 29 15 24 31 18 27 34 20 29 36 22 31 38 23 32 39 38 45 51 39 46 52 42 49 55 45 52 58 48 55 61 51 58 64 54 61 67 55 62 68 59 66 72 59 66 72 59 66 72 59 66 72 59 66 72 59 66 72 59 66 72 59 66 72 49 57 60 47 55 58 45 53 56 42 50 53 38 46 49 35 43 46 33 41 44 31 39 42 17 25 28 15 23 26 13 21 24 10 18 21 6 14 17 3 11 14 1 9 12 0 7 10 5 13 15 5 13 15 5 13 15 5 13 15 5 13 15 5 13 15 5 13 15 5 13 15 11 19 21 13 21 23 15 23 25 18 26 28 22 30 32 25 33 35 27 35 37 29 37 39 35 40 43 35 40 43 35 40 43 35 40 43 35 40 43 35 40 43 35 40 43 35 40 43 41 46 49 41 46 49 41 46 49 41 46 49 41 46 49 41 46 49 41 46 49 42 46 47 45 43 46 45 41 42 43 39 40 40 36 37 36 32 33 33 29 30 31 27 28 29 25 26 35 31 32 35 31 32 35 31 32 35 31 32 35 31 32 35 31 32 35 31 32 35 31 30 37 31 31 37 32 29 37 32 29 37 32 29 37 32 29 37 32 29 37 32 29 37 32 29 39 34 31 39 34 31 39 34 31 39 34 31 39 34 31 39 34 31 39 34 31 39 34 31
5 3 17 5 3 17 5 3 17 5 3 17 7 5 19 7 5 19 7 5 19 7 5 19 7 5 19 7 5 19 7 5 19 7 5 19 5 2 19 5 2 19 5 2 19 5 2 19 5 2 19 5 2 19 5 2 19 5 2 19 7 4 21 7 4 21 7 4 21 7 4 21 7 4 21 7 4 21 7 4 21 6 5 19 7 9 21 6 10 19 6 10 19 6 10 19 6 10 19 6 10 19 6 10 19 6 10 19 6 10 19 6 10 19 6 10 19 6 10 19 6 10 19 6 10 19 6 10 19 6 10 19 6 10 19 6 10 19 6 10 19 6 10 19 6 10 19 6 10 19 6 10 19 6 10 19 6 10 19 6 10 19 6 10 19 6 10 19 6 10 19 6 10 19 6 10 19 4 11 19 7 14 22 6 15 22 6 15 22 6 15 22 6 15 22 6 15 22 6 15 22 6 15 22 9 18 25 10 19 26 13 22 29 18 27 34 22 31 38 26 35 42 29 38 45 31 40 47 45 52 58 46 53 59 49 56 62 52 59 65 55 62 68 58 65 71 61 68 74 62 69 75 59 66 72 59 66 72 59 66 72 59 66 72 59 66 72 59 66 72 59 66 72 59 66 72 49 57 60 47 55 58 45 53 56 42 50 53 38 46 49 35 43 46 33 41 44 31 39 42 17 25 28 15 23 26 13 21 24 10 18 21 6 14 17 3 11 14 1 9 12 0 7 10 5 13 15 5 13 15 5 13 15 5 13 15 5 13 15 5 13 15 5 13 15 5 13 15 11 19 21 13 21 23 15 23 25 18 26 28 22 30 32 25 33 35 27 35 37 29 37 39 35 40 43 35 40 43 35 40 43 35 40 43 35 40 43 35 40 43 35 40 43 35 40 43 37 42 45 37 42 45 37 42 45 37 42 45 37 42 45 37 42 45 37 42 45 38 42 43 45 43 46 45 41 42 43 39 40 40 36 37 36 32 33 33 29 30 31 27 28 29 25 26 35 31 32 35 31 32 35 31 32 35 31 32 35 31 32 35 31 32 35 31 32 35 31 30 37 31 31 37 32 29 37 32 29 37 32 29 37 32 29 37 32 29 37 32 29 37 32 29 39 34 31 39 34 31 39 34 31 39 34 31 39 34 31 39 34 31 39 34 31 39 34 31
5 3 17 5 3 17 5 3 17 5 3 17 7 5 19 7 5 19 7 5 19 7 5 19 7 5 19 7 5 19 7 5 19 7 5 19 5 2 19 5 2 19 5 2 19 5 2 19 5 2 19 5 2 19 5 2 19 5 2 19 7 4 21 7 4 21 7 4 21 7 4 21 7 4 21 7 4 21 7 4 21 6 5 19 7 9 21 6 10 19 6 10 19 6 10 19 6 10 19 6 10 19 6 10 19 6 10 19 6 10 19 6 10 19 6 10 19 6 10 19 6 10 19 6 10 19 6 10 19 6 10 19 6 10 19 6 10 19 6 10 19 6 10 19 6 10 19 6 10 19 6 10 19 6 10 19 6 10 19 6 10 19 6 10 19 6 10 19 6 10 19 6 10 19 6 10 19 4 11 19 7 14 22 6 15 22 6 15 22 6 15 22 6 15 22 6 15 22 6 15 22 6 15 22 7 16 23 10 19 26 14 23 30 20 29 36 26 35 42 32 41 48 36 45 52 38 47 54 51 58 64 52 59 65 55 62 68 58 65 71 62 69 75 65 72 78 67 74 80 68 75 81 59 66 72 59 66 72 59 66 72 59 66 72 59 66 72 59 66 72 59 66 72 59 66 72 49 57 60 47 55 58 45 53 56 42 50 53 38 46 49 35 43 46 33 41 44 31 39 42 17 25 28 15 23 26 13 21 24 10 18 21 6 14 17 3 11 14 1 9 12 0 7 10 5 13 15 5 13 15 5 13 15 5 13 15 5 13 15 5 13 15 5 13 15 5 13 15 11 19 21 13 21 23 15 23 25 18 26 28 22 30 32 25 33 35 27 35 37 29 37 39 35 40 43 35 40 43 35 40 43 35 40 43 35 40 43 35 40 43 35 40 43 35 40 43 34 39 42 34 39 42 34 39 42 34 39 42 34 39 42 34 39 42 34 39 42 35 39 40 45 43 46 45 41 42 43 39 40 40 36 37 36 32 33 33 29 30 31 27 28 29 25 26 35 31 32 35 31 32 35 31 32 35 31 32 35 31 32 35 31 32 35 31 32 35 31 30 37 31 31 37 32 29 37 32 29 37 32 29 37 32 29 37 32 29 37 32 29 37 32 29 39 34 31 39 34 31 39 34 31 39 34 31 39 34 31 39 34 31 39 34 31 39 34 31
5 3 17 5 3 17 5 3 17 5 3 17 7 5 19 7 5 19 7 5 19 7 5 19 7 5 19 7 5 19 7 5 19 7 5 19 5 2 19 5 2 19 5 2 19 5 2 19 5 2 19 5 2 19 5 2 19 5 2 19 7 4 21 7 4 21 7 4 21 7 4 21 7 4 21 7 4 21 7 4 21 6 5 19 7 9 21 6 10 19 6 10 19 6 10 19 6 10 19 6 10 19 6 10 19 6 10 19 6 10 19 6 10 19 6 10 19 6 10 19 6 10 19 6 10 19 6 10 19 6 10 19 6 10 19 6 10 19 6 10 19 6 10 19 6 10 19 6 10 19 6 10 19 6 10 19 6 10 19 6 10 19 6 10 19 6 10 19 6 10 19 6 10 19 6 10 19 4 11 19 7 14 22 6 15 22 6 15 22 6 15 22 6 15 22 6 15 22 6 15 22 6 15 22 6 15 22 9 18 25 15 24 31 22 31 38 29 38 45 36 45 52 41 50 57 44 53 60 56 63 69 57 64 70 60 67 73 63 70 76 66 73 79 70 77 83 72 79 85 73 80 86 59 66 72 59 66 72 59 66 72 59 66 72 59 66 72 59 66 72 59 66 72 59 66 72 49 57 60 47 55 58 45 53 56 42 50 53 38 46 49 35 43 46 33 41 44 31 39 42 17 25 28 15 23 26 13 21 24 10 18 21 6 14 17 3 11 14 1 9 12 0 7 10 5 13 15 5 13 15 5 13 15 5 13 15 5 13 15 5 13 15 5 13 15 5 13 15 11 19 21 13 21 23 15 23 25 18 26 28 22 30 32 25 33 35 27 35 37 29 37 39 35 40 43 35 40 43 35 40 43 35 40 43 35 40 43 35 40 43 35 40 43 35 40 43 32 37 40 32 37 40 32 37 40 32 37 40 32 37 40 32 37 40 32 37 40 33 37 38 45 43 46 45 41 42 43 39 40 40 36 37 36 32 33 33 29 30 31 27 28 29 25 26 35 31 32 35 31 32 35 31 32 35 31 32 35 31 32 35 31 32 35 31 32 35 31 30 37 31 31 37 32 29 37 32 29 37 32 29 37 32 29 37 32 29 37 32 29 37 32 29 39 34 31 39 34 31 39 34 31 39 34 31 39 34 31 39 34 31 39 34 31 39 34 31
5 3 17 5 3 17 5 3 17 5 3 17 7 5 19 7 5 19 7 5 19 7 5 19 7 5 19 7 5 19 7 5 19 7 5 19 5 2 19 5 2 19 5 2 19 5 2 19 5 2 19 5 2 19 5 2 19 5 2 19 7 4 21 7 4 21 7 4 21 7 4 21 7 4 21 7 4 21 7 4 21 6 5 19 7 9 21 6 10 19 6 10 19 6 10 19 6 10 19 6 10 19 6 10 19 6 10 19 6 10 19 6 10 19 6 10 19 6 10 19 6 10 19 6 10 19 6 10 19 6 10 19 6 10 19 6 10 19 6 10 19 6 10 19 6 10 19 6 10 19 6 10 19 6 10 19 6 10 19 6 10 19 6 10 19 6 10 19 6 10 19 6 10 19 6 10 19 4 11 19 7 14 22 6 15 22 6 15 22 6 15 22 6 15 22 6 15 22 6 15 22 6 15 22 6 15 22 9 18 25 15 24 31 23 32 39 31 40 47 38 47 54 44 53 60 47 56 63 59 66 72 60 67 73 62 69 75 66 73 79 69 76 82 72 79 85 75 82 88 76 83 89 59 66 72 59 66 72 59 66 72 59 66 72 59 66 72 59 66 72 59 66 72 59 66 72 49 57 60 47 55 58 45 53 56 42 50 53 38 46 49 35 43 46 33 41 44 31 39 42 17 25 28 15 23 26 13 21 24 10 18 21 6 14 17 3 11 14 1 9 12 0 7 10 5 13 15 5 13 15 5 13 15 5 13 15 5 13 15 5 13 15 5 13 15 5 13 15 11 19 21 13 21 23 15 23 25 18 26 28 22 30 32 25 33 35 27 35 37 29 37 39 35 40 43 35 40 43 35 40 43 35 40 43 35 40 43 35 40 43 35 40 43 35 40 43 30 35 38 30 35 38 30 35 38 30 35 38 30 35 38 30 35 38 30 35 38 31 35 36 45 43 46 45 41 42 43 39 40 40 36 37 36 32 33 33 29 30 31 27 28 29 25 26 35 31 32 35 31 32 35 31 32 35 31 32 35 31 32 35 31 32 35 31 32 35 31 30 37 31 31 37 32 29 37 32 29 37 32 29 37 32 29 37 32 29 37 32 29 37 32 29 39 34 31 39 34 31 39 34 31 39 34 31 39 34 31 39 34 31 39 34 31 39 34 31
5 3 17 5 3 17 5 3 17 5 3 17 5 3 17 5 3 17 5 3 17 5 3 17 5 3 17 5 3 17 5 3 17 5 3 17 5 2 19 5 2 19 5 2 19 5 2 19 5 2 19 5 2 19 5 2 19 5 2 19 9 6 23 9 6 23 9 6 23 9 6 23 9 6 23 9 6 23 9 6 23 8 7 21 7 9 21 6 10 19 6 10 19 6 10 19 6 10 19 6 10 19 6 10 19 6 10 19 6 10 19 6 10 19 6 10 19 6 10 19 6 10 19 6 10 19 6 10 19 6 10 19 8 12 21 8 12 21 8 12 21 8 12 21 8 12 21 8 12 21 8 12 21 8 12 21 0 4 13 0 4 13 0 4 13 0 4 13 0 4 13 0 4 13 0 4 13 0 5 13 0 1 9 0 2 9 0 3 10 1 10 17 7 16 23 14 23 30 19 28 35 21 30 37 32 41 48 35 44 51 41 50 57 48 57 64 56 65 72 64 73 80 70 79 86 73 82 89 71 78 84 71 78 84 71 78 84 71 78 84 71 78 84 71 78 84 71 78 84 71 78 84 75 82 88 73 80 86 71 78 84 68 75 81 64 71 77 61 68 74 59 66 72 57 64 70 50 58 61 48 56 59 46 54 57 43 51 54 39 47 50 36 44 47 34 42 45 32 40 43 10 18 21 10 18 21 10 18 21 10 18 21 10 18 21 10 18 21 10 18 21 10 18 21 10 18 20 10 18 20 10 18 20 10 18 20 10 18 20 10 18 20 10 18 20 10 18 20 11 19 21 13 21 23 15 23 25 18 26 28 22 30 32 25 33 35 27 35 37 29 37 39 28 33 36 28 33 36 28 33 36 28 33 36 28 33 36 28 33 36 28 33 36 28 33 36 28 33 36 28 33 36 28 33 36 28 33 36 28 33 36 28 33 36 28 33 36 29 33 34 30 28 31 32 28 29 32 28 29 32 28 29 32 28 29 32 28 29 32 28 29 32 28 29 34 30 31 34 30 31 34 30 31 34 30 31 34 30 31 34 30 31 34 30 31 34 30 29 37 31 31 37 32 29 37 32 29 37 32 29 37 32 29 37 32 29 37 32 29 37 32 29 38 33 30 38 33 30 38 33 30 38 33 30 38 33 30 38 33 30 38 33 30 38 33 30
5 3 17 5 3 17 5 3 17 5 3 17 5 3 17 5 3 17 5 3 17 5 3 17 5 3 17 5 3 17 5 3 17 5 3 17 5 2 19 5 2 19 5 2 19 5 2 19 5 2 19 5 2 19 5 2 19 5 2 19 9 6 23 9 6 23 9 6 23 9 6 23 9 6 23 9 6 23 9 6 23 8 7 21 7 9 21 6 10 19 6 10 19 6 10 19 6 10 19 6 10 19 6 10 19 6 10 19 6 10 19 6 10 19 6 10 19 6 10 19 6 10 19 6 10 19 6 10 19 6 10 19 8 12 21 8 12 21 8 12 21 8 12 21 8 12 21 8 12 21 8 12 21 8 12 21 2 6 15 2 6 15 2 6 15 2 6 15 2 6 15 2 6 15 2 6 15 0 7 15 0 1 9 0 2 9 0 7 14 4 13 20 11 20 27 18 27 34 23 32 39 25 34 41 35 44 51 38 47 54 43 52 59 50 59 66 57 66 73 64 73 80 70 79 86 73 82 89 71 78 84 71 78 84 71 78 84 71 78 84 71 78 84 71 78 84 71 78 84 71 78 84 75 82 88 73 80 86 71 78 84 68 75 81 64 71 77 61 68 74 59 66 72 57 64 70 50 58 61 48 56 59 46 54 57 43 51 54 39 47 50 36 44 47 34 42 45 32 40 43 10 18 21 10 18 21 10 18 21 10 18 21 10 18 21 10 18 21 10 18 21 10 18 21 10 18 20 10 18 20 10 18 20 10 18 20 10 18 20 10 18 20 10 18 20 10 18 20 11 19 21 13 21 23 15 23 25 18 26 28 22 30 32 25 33 35 27 35 37 29 37 39 28 33 36 28 33 36 28 33 36 28 33 36 28 33 36 28 33 36 28 33 36 28 33 36 28 33 36 28 33 36 28 33 36 28 33 36 28 33 36 28 33 36 28 33 36 29 33 34 30 28 31 32 28 29 32 28 29 32 28 29 32 28 29 32 28 29 32 28 29 32 28 29 34 30 31 34 30 31 34 30 31 34 30 31 34 30 31 34 30 31 34 30 31 34 30 29 37 31 31 37 32 29 37 32 29 37 32 29 37 32 29 37 32 29 37 32 29 37 32 29 38 33 30 38 33 30 38 33 30 38 33 30 38 33 30 38 33 30 38 33 30 38 33 30
5 3 17 5 3 17 5 3 17 5 3 17 5 3 17 5 3 17 5 3 17 5 3 17 5 3 17 5 3 17 5 3 17 5 3 17 5 2 19 5 2 19 5 2 19 5 2 19 5 2 19 5 2 19 5 2 19 5 2 19 9 6 23 9 6 23 9 6 23 9 6 23 9 6 23 9 6 23 9 6 23 8 7 21 7 9 21 6 10 19 6 10 19 6 10 19 6 10 19 6 10 19 6 10 19 6 10 19 6 10 19 6 10 19 6 10 19 6 10 19 6 10 19 6 10 19 6 10 19 6 10 19 8 12 21 8 12 21 8 12 21 8 12 21 8 12 21 8 12 21 8 12 21 8 12 21 4 8 17 4 8 17 4 8 17 4 8 17 4 8 17 4 8 17 4 8 17 2 9 17 0 6 14 1 10 17 5 14 21 12 21 28 19 28 35 25 34 41 30 39 46 33 42 49 41 50 57 43 52 59 47 56 63 53 62 69 59 68 75 65 74 81 69 78 85 72 81 88 71 78 84 71 78 84 71 78 84 71 78 84 71 78 84 71 78 84 71 78 84 71 78 84 75 82 88 73 80 86 71 78 84 68 75 81 64 71 77 61 68 74 59 66 72 57 64 70 50 58 61 48 56 59 46 54 57 43 51 54 39 47 50 36 44 47 34 42 45 32 40 43 10 18 21 10 18 21 10 18 21 10 18 21 10 18 21 10 18 21 10 18 21 10 18 21 10 18 20 10 18 20 10 18 20 10 18 20 10 18 20 10 18 20 10 18 20 10 18 20 11 19 21 13 21 23 15 23 25 18 26 28 22 30 32 25 33 35 27 35 37 29 37 39 28 33 36 28 33 36 28 33 36 28 33 36 28 33 36 28 33 36 28 33 36 28 33 36 28 33 36 28 33 36 28 33 36 28 33 36 28 33 36 28 33 36 28 33 36 29 33 34 30 28 31 32 28 29 32 28 29 32 28 29 32 28 29 32 28 29 32 28 29 32 28 29 34 30 31 34 30 31 34 30 31 34 30 31 34 30 31 34 30 31 34 30 31 34 30 29 37 31 31 37 32 29 37 32 29 37 32 29 37 32 29 37 32 29 37 32 29 37 32 29 38 33 30 38 33 30 38 33 30 38 33 30 38 33 30 38 33 30 38 33 30 38 33 30
5 3 17 5 3 17 5 3 17 5 3 17 5 3 17 5 3 17 5 3 17 5 3 17 5 3 17 5 3 17 5 3 17 5 3 17 5 2 19 5 2 19 5 2 19 5 2 19 5 2 19 5 2 19 5 2 19 5 2 19 9 6 23 9 6 23 9 6 23 9 6 23 9 6 23 9 6 23 9 6 23 8 7 21 7 9 21 6 10 19 6 10 19 6 10 19 6 10 19 6 10 19 6 10 19 6 10 19 6 10 19 6 10 19 6 10 19 6 10 19 6 10 19 6 10 19 6 10 19 6 10 19 8 12 21 8 12 21 8 12 21 8 12 21 8 12 21 8 12 21 8 12 21 8 12 21 7 11 20 7 11 20 7 11 20 7 11 20 7 11 20 7 11 20 7 11 20 5 12 20 8 15 23 10 19 26 15 24 31 21 30 37 28 37 44 35 44 51 40 49 56 42 51 58 48 57 64 50 59 66 53 62 69 57 66 73 61 70 77 66 75 82 69 78 85 70 79 86 71 78 84 71 78 84 71 78 84 71 78 84 71 78 84 71 78 84 71 78 84 71 78 84 75 82 88 73 80 86 71 78 84 68 75 81 64 71 77 61 68 74 59 66 72 57 64 70 50 58 61 48 56 59 46 54 57 43 51 54 39 47 50 36 44 47 34 42 45 32 40 43 10 18 21 10 18 21 10 18 21 10 18 21 10 18 21 10 18 21 10 18 21 10 18 21 10 18 20 10 18 20 10 18 20 10 18 20 10 18 20 10 18 20 10 18 20 10 18 20 11 19 21 13 21 23 15 23 25 18 26 28 22 30 32 25 33 35 27 35 37 29 37 39 28 33 36 28 33 36 28 33 36 28 33 36 28 33 36 28 33 36 28 33 36 28 33 36 28 33 36 28 33 36 28 33 36 28 33 36 28 33 36 28 33 36 28 33 36 29 33 34 30 28 31 32 28 29 32 28 29 32 28 29 32 28 29 32 28 29 32 28 29 32 28 29 34 30 31 34 30 31 34 30 31 34 30 31 34 30 31 34 30 31 34 30 31 34 30 29 37 31 31 37 32 29 37 32 29 37 32 29 37 32 29 37 32 29 37 32 29 37 32 29 38 33 30 38 33 30 38 33 30 38 33 30 38 33 30 38 33 30 38 33 30 38 33 30
5 3 17 5 3 17 5 3 17 5 3 17 5 3 17 5 3 17 5 3 17 5 3 17 5 3 17 5 3 17 5 3 17 5 3 17 5 2 19 5 2 19 5 2 19 5 2 19 5 2 19 5 2 19 5 2 19 5 2 19 9 6 23 9 6 23 9 6 23 9 6 23 9 6 23 9 6 23 9 6 23 8 7 21 7 9 21 6 10 19 6 10 19 6 10 19 6 10 19 6 10 19 6 10 19 6 10 19 6 10 19 6 10 19 6 10 19 6 10 19 6 10 19 6 10 19 6 10 19 6 10 19 8 12 21 8 12 21 8 12 21 8 12 21 8 12 21 8 12 21 8 12 21 8 12 21 11 15 24 11 15 24 11 15 24 11 15 24 11 15 24 11 15 24 11 15 24 9 16 24 19 26 34 20 29 36 25 34 41 32 41 48 39 48 55 45 54 61 50 59 66 53 62 69 56 65 72 57 66 73 59 68 75 61 70 77 64 73 80 66 75 82 68 77 84 69 78 85 71 78 84 71 78 84 71 78 84 71 78 84 71 78 84 71 78 84 71 78 84 71 78 84 75 82 88 73 80 86 71 78 84 68 75 81 64 71 77 61 68 74 59 66 72 57 64 70 50 58 61 48 56 59 46 54 57 43 51 54 39 47 50 36 44 47 34 42 45 32 40 43 10 18 21 10 18 21 10 18 21 10 18 21 10 18 21 10 18 21 10 18 21 10 18 21 10 18 20 10 18 20 10 18 20 10 18 20 10 18 20 10 18 20 10 18 20 10 18 20 11 19 21 13 21 23 15 23 25 18 26 28 22 30 32 25 33 35 27 35 37 29 37 39 28 33 36 28 33 36 28 33 36 28 33 36 28 33 36 28 33 36 28 33 36 28 33 36 28 33 36 28 33 36 28 33 36 28 33 36 28 33 36 28 33 36 28 33 36 29 33 34 30 28 31 32 28 29 32 28 29 32 28 29 32 28 29 32 28 29 32 28 29 32 28 29 34 30 31 34 30 31 34 30 31 34 30 31 34 30 31 34 30 31 34 30 31 34 30 29 37 31 31 37 32 29 37 32 29 37 32 29 37 32 29 37 32 29 37 32 29 37 32 29 38 33 30 38 33 30 38 33 30 38 33 30 38 33 30 38 33 30 38 33 30 38 33 30
5 3 17 5 3 17 5 3 17 5 3 17 5 3 17 5 3 17 5 3 17 5 3 17 5 3 17 5 3 17 5 3 17 5 3 17 5 2 19 5 2 19 5 2 19 5 2 19 5 2 19 5 2 19 5 2 19 5 2 19 9 6 23 9 6 23 9 6 23 9 6 23 9 6 23 9 6 23 9 6 23 8 7 21 7 9 21 6 10 19 6 10 19 6 10 19 6 10 19 6 10 19 6 10 19 6 10 19 6 10 19 6 10 19 6 10 19 6 10 19 6 10 19 6 10 19 6 10 19 6 10 19 8 12 21 8 12 21 8 12 21 8 12 21 8 12 21 8 12 21 8 12 21 8 12 21 14 18 27 14 18 27 14 18 27 14 18 27 14 18 27 14 18 27 14 18 27 12 19 27 28 35 43 30 39 46 35 44 51 41 50 57 48 57 64 55 64 71 59 68 75 62 71 78 64 73 80 64 73 80 65 74 81 66 75 82 66 75 82 67 76 83 67 76 83 68 77 84 71 78 84 71 78 84 71 78 84 71 78 84 71 78 84 71 78 84 71 78 84 71 78 84 75 82 88 73 80 86 71 78 84 68 75 81 64 71 77 61 68 74 59 66 72 57 64 70 50 58 61 48 56 59 46 54 57 43 51 54 39 47 50 36 44 47 34 42 45 32 40 43 10 18 21 10 18 21 10 18 21 10 18 21 10 18 21 10 18 21 10 18 21 10 18 21 10 18 20 10 18 20 10 18 20 10 18 20 10 18 20 10 18 20 10 18 20 10 18 20 11 19 21 13 21 23 15 23 25 18 26 28 22 30 32 25 33 35 27 35 37 29 37 39 28 33 36 28 33 36 28 33 36 28 33 36 28 33 36 28 33 36 28 33 36 28 33 36 28 33 36 28 33 36 28 33 36 28 33 36 28 33 36 28 33 36 28 33 36 29 33 34 30 28 31 32 28 29 32 28 29 32 28 29 32 28 29 32 28 29 32 28 29 32 28 29 34 30 31 34 30 31 34 30 31 34 30 31 34 30 31 34 30 31 34 30 31 34 30 29 37 31 31 37 32 29 37 32 29 37 32 29 37 32 29 37 32 29 37 32 29 37 32 29 38 33 30 38 33 30 38 33 30 38 33 30 38 33 30 38 33 30 38 33 30 38 33 30
5 3 17 5 3 17 5 3 17 5 3 17 5 3 17 5 3 17 5 3 17 5 3 17 5 3 17 5 3 17 5 3 17 5 3 17 5 2 19 5 2 19 5 2 19 5 2 19 5 2 19 5 2 19 5 2 19 5 2 19 9 6 23 9 6 23 9 6 23 9 6 23 9 6 23 9 6 23 9 6 23 8 7 21 7 9 21 6 10 19 6 10 19 6 10 19 6 10 19 6 10 19 6 10 19 6 10 19 6 10 19 6 10 19 6 10 19 6 10 19 6 10 19 6 10 19 6 10 19 6 10 19 8 12 21 8 12 21 8 12 21 8 12 21 8 12 21 8 12 21 8 12 21 8 12 21 16 20 29 16 20 29 16 20 29 16 20 29 16 20 29 16 20 29 16 20 29 14 21 29 36 43 51 37 46 53 42 51 58 49 58 65 56 65 72 62 71 78 67 76 83 69 78 85 70 79 86 70 79 86 69 78 85 69 78 85 68 77 84 67 76 83 67 76 83 67 76 83 71 78 84 71 78 84 71 78 84 71 78 84 71 78 84 71 78 84 71 78 84 71 78 84 75 82 88 73 80 86 71 78 84 68 75 81 64 71 77 61 68 74 59 66 72 57 64 70 50 58 61 48 56 59 46 54 57 43 51 54 39 47 50 36 44 47 34 42 45 32 40 43 10 18 21 10 18 21 10 18 21 10 18 21 10 18 21 10 18 21 10 18 21 10 18 21 10 18 20 10 18 20 10 18 20 10 18 20 10 18 20 10 18 20 10 18 20 10 18 20 11 19 21 13 21 23 15 23 25 18 26 28 22 30 32 25 33 35 27 35 37 29 37 39 28 33 36 28 33 36 28 33 36 28 33 36 28 33 36 28 33 36 28 33 36 28 33 36 28 33 36 28 33 36 28 33 36 28 33 36 28 33 36 28 33 36 28 33 36 29 33 34 30 28 31 32 28 29 32 28 29 32 28 29 32 28 29 32 28 29 32 28 29 32 28 29 34 30 31 34 30 31 34 30 31 34 30 31 34 30 31 34 30 31 34 30 31 34 30 29 37 31 31 37 32 29 37 32 29 37 32 29 37 32 29 37 32 29 37 32 29 37 32 29 38 33 30 38 33 30 38 33 30 38 33 30 38 33 30 38 33 30 38 33 30 38 33 30
5 3 17 5 3 17 5 3 17 5 3 17 5 3 17 5 3 17 5 3 17 5 3 17 5 3 17 5 3 17 5 3 17 5 3 17 5 3 17 5 3 17 5 2 19 5 3 17 5 2 19 5 3 17 5 2 19 5 3 17 9 6 23 9 7 21 9 6 23 9 7 21 9 6 23 9 7 21 9 6 23 8 7 21 7 9 21 6 10 19 6 10 19 6 10 19 6 10 19 6 10 19 6 10 19 6 10 19 6 10 19 6 10 19 6 10 19 6 10 19 6 10 19 6 10 19 6 10 19 6 10 19 8 12 21 6 13 21 8 12 21 6 13 21 8 12 21 6 13 21 8 12 21 6 13 21 18 22 31 16 23 31 18 22 31 16 23 31 18 22 31 16 23 31 18 22 31 16 23 31 40 47 55 41 50 57 47 54 62 53 62 69 60 67 75 66 75 82 72 79 87 73 82 89 74 81 89 72 81 88 73 80 88 70 79 86 70 77 85 68 77 84 68 75 83 67 74 80 71 78 84 71 78 84 71 78 84 71 78 84 71 78 84 71 78 84 71 78 84 71 78 84 75 82 88 73 80 86 71 78 84 68 75 81 64 71 77 61 68 74 59 66 72 57 64 70 50 58 61 48 56 59 46 54 57 43 51 54 39 47 50 36 44 47 34 42 45 32 40 43 10 18 21 10 18 21 10 18 21 10 18 21 10 18 21 10 18 21 10 18 21 10 18 21 10 18 21 10 18 20 10 18 21 10 18 20 10 18 21 10 18 20 10 18 21 10 18 20 11 19 22 13 21 23 15 23 26 18 26 28 22 30 33 25 33 35 27 35 38 29 37 39 28 33 36 28 33 36 28 33 36 28 33 36 28 33 36 28 33 36 28 33 36 28 33 36 28 33 36 28 33 36 28 33 36 28 33 36 28 33 36 28 33 36 28 33 36 29 33 36 30 28 29 32 28 29 32 28 29 32 28 29 32 28 29 32 28 29 32 28 29 32 28 29 34 30 31 34 30 31 34 30 31 34 30 31 34 30 31 34 30 31 34 30 31 35 29 29 37 32 29 37 32 29 39 31 29 37 32 29 39 31 29 37 32 29 39 31 29 37 32 29 40 32 30 38 33 30 40 32 30 38 33 30 40 32 30 38 33 30 40 32 30 38 33 30
4 2 15 4 2 15 4 2 15 4 2 15 5 3 16 5 3 16 5 3 16 5 3 16 5 3 16 5 3 16 5 3 16 5 3 16 5 3 16 5 3 16 5 3 17 5 3 16 5 3 17 5 3 16 5 3 17 5 3 16 5 3 17 5 3 16 5 3 17 5 3 16 5 3 17 5 3 16 5 3 17 4 4 16 4 7 16 3 7 16 3 7 16 3 7 16 3 7 16 3 7 16 3 7 16 3 7 16 6 10 19 6 10 19 6 10 19 6 10 19 6 10 19 6 10 19 6 10 19 6 10 19 21 28 38 19 28 37 19 26 36 17 26 35 17 24 34 14 23 32 14 21 31 13 22 31 12 19 29 14 23 32 21 28 38 28 37 46 37 44 54 43 52 61 50 57 67 53 60 68 64 71 79 64 71 77 66 71 77 64 71 77 66 71 77 64 71 77 66 71 77 64 71 77 72 77 83 70 77 83 72 77 83 70 77 83 72 77 83 70 77 83 72 77 83 72 77 83 79 84 90 79 84 88 79 84 88 79 84 88 79 84 88 79 84 88 79 84 88 79 84 88 77 82 86 77 82 86 77 82 86 77 82 86 77 82 86 77 82 86 77 82 86 77 82 86 73 78 82 70 75 79 65 70 74 59 64 68 52 57 61 46 51 55 41 46 50 38 43 47 3 8 12 12 17 21 25 30 34 34 39 43 34 39 43 25 30 34 12 17 21 1 9 12 16 24 27 15 25 27 15 24 29 15 25 27 15 24 29 15 25 27 15 24 29 15 25 27 12 21 26 12 22 24 12 21 26 12 22 24 12 21 26 12 22 24 12 21 26 12 22 24 24 32 35 24 32 35 24 32 35 24 32 35 24 32 35 24 32 35 24 32 35 24 32 35 16 24 27 16 24 27 16 24 27 16 24 27 16 24 27 16 24 27 16 24 27 19 23 26 29 27 28 32 26 26 32 26 26 32 26 26 32 26 26 32 26 26 32 26 26 32 26 26 35 29 29 35 29 29 35 29 29 35 29 29 35 29 29 35 29 29 35 29 29 35 29 29 38 30 28 38 30 28 39 29 28 38 30 28 39 29 28 38 30 28 39 29 28 38 30 28 39 29 28 38 30 28 39 29 28 38 30 28 39 29 28 38 30 28 39 29 28 38 30 28
4 2 15 4 2 15 4 2 15 4 2 15 5 3 16 5 3 16 5 3 16 5 3 16 5 3 16 5 3 16 5 3 16 5 3 16 5 3 16 5 3 16 5 3 16 5 3 16 5 3 16 5 3 16 5 3 16 5 3 16 5 3 16 5 3 16 5 3 16 5 3 16 5 3 16 5 3 16 5 3 16 4 4 16 4 7 16 3 7 16 3 7 16 3 7 16 3 7 16 3 7 16 3 7 16 3 7 16 6 10 19 6 10 19 6 10 19 6 10 19 6 10 19 6 10 19 6 10 19 4 11 19 16 23 33 15 24 33 14 23 32 14 23 32 13 22 31 12 21 30 12 21 30 12 21 30 20 29 38 23 32 41 28 37 46 35 44 53 42 51 60 49 58 67 55 64 73 58 67 74 66 70 79 66 71 77 66 71 77 66 71 77 66 71 77 66 71 77 66 71 77 66 71 77 72 77 83 72 77 83 72 77 83 72 77 83 72 77 83 72 77 83 72 77 83 72 77 83 79 84 88 79 84 88 79 84 88 79 84 88 79 84 88 79 84 88 79 84 88 79 84 88 79 84 88 79 84 88 79 84 88 79 84 88 79 84 88 79 84 88 79 84 88 79 84 88 76 81 85 73 78 82 68 73 77 62 67 71 55 60 64 48 53 57 44 49 53 41 46 50 7 12 16 14 19 23 25 30 34 33 38 42 33 38 42 25 30 34 14 19 23 5 13 16 16 23 29 15 24 29 15 24 29 15 24 29 15 24 29 15 24 29 15 24 29 15 24 29 12 21 26 12 21 26 12 21 26 12 21 26 12 21 26 12 21 26 12 21 26 12 21 26 22 30 33 22 30 33 22 30 33 22 30 33 22 30 33 22 30 33 22 30 33 22 30 33 16 24 27 16 24 27 16 24 27 16 24 27 16 24 27 16 24 27 16 24 27 19 23 26 29 27 28 32 26 26 32 26 26 32 26 26 32 26 26 32 26 26 32 26 26 32 26 26 35 29 29 35 29 29 35 29 29 35 29 29 35 29 29 35 29 29 35 29 29 35 29 29 39 29 28 39 29 28 39 29 28 39 29 28 39 29 28 39 29 28 39 29 28 39 29 28 39 29 28 39 29 28 39 29 28 39 29 28 39 29 28 39 29 28 39 29 28 38 30 28
4 2 15 4 2 15 4 2 15 4 2 15 5 3 16 5 3 16 5 3 16 5 3 16 5 3 16 5 3 16 5 3 16 5 3 16 5 3 16 5 3 16 5 3 16 5 3 16 5 3 16 5 3 16 5 3 16 5 3 16 5 3 16 5 3 16 5 3 16 5 3 16 5 3 16 5 3 16 5 3 16 4 4 16 4 7 16 3 7 16 3 7 16 3 7 16 3 7 16 3 7 16 3 7 16 3 7 16 6 10 19 6 10 19 6 10 19 6 10 19 6 10 19 6 10 19 6 10 19 4 11 19 9 16 26 9 18 27 9 18 27 10 19 28 11 20 29 11 20 29 12 21 30 12 21 30 34 43 52 36 45 54 40 49 58 46 55 64 52 61 70 58 67 76 62 71 80 65 74 81 66 70 79 66 71 77 66 71 77 66 71 77 66 71 77 66 71 77 66 71 77 66 71 77 72 77 83 72 77 83 72 77 83 72 77 83 72 77 83 72 77 83 72 77 83 72 77 83 79 84 88 79 84 88 79 84 88 79 84 88 79 84 88 79 84 88 79 84 88 79 84 88 81 86 90 81 86 90 81 86 90 81 86 90 81 86 90 81 86 90 81 86 90 81 86 90 81 86 90 78 83 87 73 78 82 67 72 76 60 65 69 53 58 62 48 53 57 46 51 55 13 18 22 18 23 27 26 31 35 31 36 40 31 36 40 26 31 35 18 23 27 11 19 22 16 23 29 15 24 29 15 24 29 15 24 29 15 24 29 15 24 29 15 24 29 15 24 29 12 21 26 12 21 26 12 21 26 12 21 26 12 21 26 12 21 26 12 21 26 12 21 26 20 28 31 20 28 31 20 28 31 20 28 31 20 28 31 20 28 31 20 28 31 20 28 31 16 24 27 16 24 27 16 24 27 16 24 27 16 24 27 16 24 27 16 24 27 19 23 26 29 27 28 32 26 26 32 26 26 32 26 26 32 26 26 32 26 26 32 26 26 32 26 26 35 29 29 35 29 29 35 29 29 35 29 29 35 29 29 35 29 29 35 29 29 35 29 29 39 29 28 39 29 28 39 29 28 39 29 28 39 29 28 39 29 28 39 29 28 39 29 28 39 29 28 39 29 28 39 29 28 39 29 28 39 29 28 39 29 28 39 29 28 38 30 28
