P3
172 37
255
5 3 14 5 3 14 5 3 14 5 3 14 5 3 14 5 3 14 5 3 14 5 3 14 5 3 14 5 3 14 5 3 14 5 3 14 3 2 10 3 2 10 3 2 10 3 2 10 3 2 10 3 2 10 3 2 10 3 2 10 4 3 11 4 3 11 4 3 11 4 3 11 4 3 11 4 3 11 4 3 11 4 3 11 5 4 12 5 4 12 5 4 12 5 4 12 5 4 12 5 4 12 5 4 12 5 4 12 3 2 10 3 2 10 3 2 10 3 2 10 3 2 10 3 2 10 3 2 10 3 2 10 6 5 13 6 5 13 6 5 13 6 5 13 6 5 13 6 5 13 6 5 13 6 5 13 7 6 14 7 6 14 7 6 14 7 6 14 7 6 14 7 6 14 7 6 14 7 6 14 8 9 14 8 9 14 8 9 14 8 9 14 8 9 14 8 9 14 8 9 14 8 9 14 7 8 13 7 8 13 7 8 13 7 8 13 7 8 13 7 8 13 7 8 13 7 8 13 7 10 17 7 10 17 7 10 17 7 10 17 7 10 17 7 10 17 7 10 17 7 10 17 7 10 17 7 10 17 7 10 17 7 10 17 7 10 17 7 10 17 7 10 17 7 10 15 5 6 11 7 8 12 9 10 14 12 13 17 16 17 21 19 20 24 21 22 26 23 24 28 6 7 11 6 7 11 6 7 11 6 7 11 6 7 11 6 7 11 6 7 11 4 8 11 0 2 5 0 4 7 1 6 9 4 9 12 8 13 16 11 16 19 13 18 21 15 20 23 17 22 25 19 24 27 24 29 32 31 36 39 37 42 45 44 49 52 49 54 57 51 57 57 58 62 61 60 65 61 65 70 66 72 77 73 78 83 79 85 90 86 90 95 91 92 97 93 90 95 91 91 96 92 94 99 95 97 102 98 100 105 101 104 109 105 106 111 107 109 111 108 80 80 82 73 71 74 60 58 61 48 46 49 41 39 42 40 38 41 43 41 44 46 44 47 41 39 42 41 39 42 41 39 42 41 39 42 41 39 42 41 39 42 41 39 42 41 39 42 38 36 39 38 36 39 38 36 39 38 36 39 38 36 39 38 36 39 38 36 39 38 36 39 42 40 43 42 40 43 42 40 43 42 40 43 42 40 43 42 40 43 42 40 43 42 40 43
5 3 14 5 3 14 5 3 14 5 3 14 5 3 14 5 3 14 5 3 14 5 3 14 5 3 14 5 3 14 5 3 14 5 3 14 3 2 10 3 2 10 3 2 10 3 2 10 3 2 10 3 2 10 3 2 10 3 2 10 4 3 11 4 3 11 4 3 11 4 3 11 4 3 11 4 3 11 4 3 11 4 3 11 5 4 12 4 4 12 5 4 12 4 4 12 5 4 12 4 4 12 5 4 12 4 4 12 3 2 10 2 2 10 3 2 10 2 2 10 3 2 10 2 2 10 3 2 10 2 2 10 5 5 13 5 5 13 5 5 13 5 5 13 5 5 13 5 5 13 5 5 13 5 5 13 6 6 14 6 6 14 6 6 14 6 6 14 6 6 14 6 6 14 6 6 14 6 6 14 8 9 14 6 9 14 6 9 14 6 9 14 6 9 14 6 9 14 6 9 14 6 9 14 5 8 13 5 8 13 5 8 13 5 8 13 5 8 13 5 8 13 5 8 13 5 8 13 7 10 17 6 11 17 7 10 17 6 11 17 7 10 17 6 11 17 7 10 17 6 11 17 7 10 17 6 11 17 7 10 17 6 11 17 7 10 17 6 11 17 7 10 17 7 10 17 3 6 11 5 9 12 7 11 14 10 14 17 14 18 21 17 21 24 19 23 26 21 25 28 4 8 11 4 8 11 4 8 11 4 8 11 4 8 11 4 8 11 4 8 11 4 8 11 0 2 5 0 4 7 1 6 9 4 9 12 8 13 16 11 16 19 13 18 21 15 20 23 17 22 25 19 24 27 24 29 32 31 36 39 37 42 45 44 49 52 49 54 57 51 57 57 58 62 61 60 65 61 65 70 66 72 77 73 78 83 79 85 90 86 90 95 91 92 97 93 89 94 90 90 95 91 92 97 93 96 101 97 99 104 100 102 107 103 105 110 106 108 110 107 80 80 80 73 71 72 60 58 61 48 46 47 41 39 42 40 38 39 43 41 44 46 44 45 41 39 42 41 39 40 41 39 42 41 39 40 41 39 42 41 39 40 41 39 42 41 39 42 38 36 39 38 36 39 38 36 39 38 36 39 38 36 39 38 36 39 38 36 39 38 36 39 42 40 43 42 40 43 42 40 43 42 40 43 42 40 43 42 40 43 42 40 43 42 40 43
3 1 12 3 1 12 3 1 12 3 1 12 3 1 12 3 1 12 3 1 12 3 1 12 3 1 12 3 1 12 3 1 12 3 1 12 3 1 12 3 1 12 3 1 12 3 1 12 3 1 12 3 1 12 3 1 12 3 1 12 4 2 13 4 2 13 4 2 13 4 2 13 4 2 13 4 2 13 4 2 13 4 2 13 4 4 14 2 5 14 4 4 14 2 5 14 4 4 14 2 5 14 4 4 14 2 5 14 5 5 15 3 6 15 5 5 15 3 6 15 5 5 15 3 6 15 5 5 15 3 6 15 5 8 15 5 8 15 5 8 15 5 8 15 5 8 15 5 8 15 5 8 15 5 8 15 6 9 16 6 9 16 6 9 16 6 9 16 6 9 16 6 9 16 6 9 16 5 10 16 7 12 16 7 12 16 7 12 16 7 12 16 7 12 16 7 12 16 7 12 16 7 12 16 7 12 16 7 12 16 7 12 16 7 12 16 7 12 16 7 12 16 7 12 16 7 12 16 9 14 20 7 14 20 9 14 20 7 14 20 9 14 20 7 14 20 9 14 20 7 14 20 10 15 21 8 15 21 10 15 21 8 15 21 10 15 21 8 15 21 10 15 21 10 15 21 17 22 26 17 22 26 17 22 26 17 22 26 17 22 26 17 22 26 17 22 26 17 22 26 36 41 45 28 33 37 15 20 24 3 8 12 0 1 5 0 1 5 0 3 7 1 6 10 4 8 11 4 8 11 4 8 11 4 8 11 4 8 11 4 8 11 4 8 11 4 8 11 16 20 23 18 22 25 23 27 30 30 34 37 36 40 43 43 47 50 48 52 55 50 54 55 55 59 58 57 62 58 59 64 60 62 67 63 66 71 67 69 74 70 71 76 72 73 78 74 82 87 83 83 88 84 86 91 87 89 94 90 92 97 93 96 101 97 98 103 99 101 103 100 79 79 77 72 71 69 59 57 58 47 46 44 40 38 39 39 38 36 42 40 41 45 44 42 40 38 39 40 39 37 40 38 39 40 39 37 40 38 39 40 39 37 40 38 39 40 38 39 38 36 37 38 36 37 38 36 37 38 36 37 38 36 37 38 36 37 38 36 37 38 36 37 38 36 37 38 36 37 38 36 37 38 36 37 38 36 37 38 36 37 38 36 37 38 36 37
3 1 12 3 1 12 3 1 12 3 1 12 3 1 12 3 1 12 3 1 12 3 1 12 3 1 12 3 1 12 3 1 12 3 1 12 3 1 12 3 1 12 3 1 12 3 1 12 3 1 12 3 1 12 3 1 12 3 1 12 4 2 13 4 2 13 4 2 13 4 2 13 4 2 13 4 2 13 4 2 13 3 3 13 4 4 14 2 5 14 2 5 14 2 5 14 2 5 14 2 5 14 2 5 14 2 5 14 3 6 15 3 6 15 3 6 15 3 6 15 3 6 15 3 6 15 3 6 15 3 6 15 4 9 15 4 9 15 4 9 15 4 9 15 4 9 15 4 9 15 4 9 15 4 9 15 5 10 16 5 10 16 5 10 16 5 10 16 5 10 16 5 10 16 5 10 16 5 10 16 5 13 16 5 13 16 5 13 16 5 13 16 5 13 16 5 13 16 5 13 16 5 13 16 5 13 16 5 13 16 5 13 16 5 13 16 5 13 16 5 13 16 5 13 16 5 13 16 7 14 20 7 14 20 7 14 20 7 14 20 7 14 20 7 14 20 7 14 20 7 14 20 8 15 21 8 15 21 8 15 21 8 15 21 8 15 21 8 15 21 8 15 21 8 15 21 15 23 26 15 23 26 15 23 26 15 23 26 15 23 26 15 23 26 15 23 26 15 23 26 34 42 45 26 34 37 13 21 24 1 9 12 0 2 5 0 2 5 0 4 7 0 7 10 4 8 11 4 8 11 4 8 11 4 8 11 4 8 11 4 8 11 4 8 11 4 8 11 16 20 23 18 22 25 23 27 30 30 34 37 36 40 43 43 47 50 48 52 55 50 54 55 55 59 58 57 62 58 59 64 60 62 67 63 66 71 67 69 74 70 71 76 72 73 78 74 81 86 82 82 87 83 84 89 85 88 93 89 91 96 92 94 99 95 97 102 98 100 102 99 79 79 77 72 71 69 59 58 56 47 46 44 40 39 37 39 38 36 42 41 39 45 44 42 40 39 37 40 39 37 40 39 37 40 39 37 40 39 37 40 39 37 40 39 37 40 39 37 38 36 37 38 36 37 38 36 37 38 36 37 38 36 37 38 36 37 38 36 37 38 36 37 38 36 37 38 36 37 38 36 37 38 36 37 38 36 37 38 36 37 38 36 37 38 36 37
3 1 12 3 1 12 3 1 12 3 1 12 3 1 12 3 1 12 3 1 12 3 1 12 3 1 12 3 1 12 3 1 12 3 1 12 3 1 12 3 1 12 3 1 12 3 1 12 3 1 12 3 1 12 3 1 12 3 1 12 4 2 13 4 2 13 4 2 13 4 2 13 4 2 13 4 2 13 4 2 13 3 3 13 4 4 14 2 5 14 2 5 14 2 5 14 2 5 14 2 5 14 2 5 14 2 5 14 3 6 15 3 6 15 3 6 15 3 6 15 3 6 15 3 6 15 3 6 15 3 6 15 4 9 15 4 9 15 4 9 15 4 9 15 4 9 15 4 9 15 4 9 15 4 9 15 5 10 16 5 10 16 5 10 16 5 10 16 5 10 16 5 10 16 5 10 16 5 10 16 5 13 16 5 13 16 5 13 16 5 13 16 5 13 16 5 13 16 5 13 16 5 13 16 5 13 16 5 13 16 5 13 16 5 13 16 5 13 16 5 13 16 5 13 16 5 13 16 7 14 20 7 14 20 7 14 20 7 14 20 7 14 20 7 14 20 7 14 20 7 14 20 8 15 21 8 15 21 8 15 21 8 15 21 8 15 21 8 15 21 8 15 21 8 15 21 15 23 26 15 23 26 15 23 26 15 23 26 15 23 26 15 23 26 15 23 26 15 23 26 34 42 45 26 34 37 13 21 24 1 9 12 0 2 5 0 2 5 0 4 7 0 7 10 4 8 11 4 8 11 4 8 11 4 8 11 4 8 11 4 8 11 4 8 11 4 8 11 16 20 23 18 22 25 23 27 30 30 34 37 36 40 43 43 47 50 48 52 55 50 54 55 55 59 58 57 62 58 59 64 60 62 67 63 66 71 67 69 74 70 71 76 72 73 78 74 78 83 79 80 85 81 82 87 83 85 90 86 89 94 90 92 97 93 94 99 95 98 100 97 79 79 77 72 71 69 59 58 56 47 46 44 40 39 37 39 38 36 42 41 39 45 44 42 40 39 37 40 39 37 40 39 37 40 39 37 40 39 37 40 39 37 40 39 37 40 39 37 38 36 37 38 36 37 38 36 37 38 36 37 38 36 37 38 36 37 38 36 37 38 36 37 38 36 37 38 36 37 38 36 37 38 36 37 38 36 37 38 36 37 38 36 37 38 36 37
3 1 12 3 1 12 3 1 12 3 1 12 3 1 12 3 1 12 3 1 12 3 1 12 3 1 12 3 1 12 3 1 12 3 1 12 3 1 12 3 1 12 3 1 12 3 1 12 3 1 12 3 1 12 3 1 12 3 1 12 4 2 13 4 2 13 4 2 13 4 2 13 4 2 13 4 2 13 4 2 13 3 3 13 4 4 14 2 5 14 2 5 14 2 5 14 2 5 14 2 5 14 2 5 14 2 5 14 3 6 15 3 6 15 3 6 15 3 6 15 3 6 15 3 6 15 3 6 15 3 6 15 4 9 15 4 9 15 4 9 15 4 9 15 4 9 15 4 9 15 4 9 15 4 9 15 5 10 16 5 10 16 5 10 16 5 10 16 5 10 16 5 10 16 5 10 16 5 10 16 5 13 16 5 13 16 5 13 16 5 13 16 5 13 16 5 13 16 5 13 16 5 13 16 5 13 16 5 13 16 5 13 16 5 13 16 5 13 16 5 13 16 5 13 16 5 13 16 7 14 20 7 14 20 7 14 20 7 14 20 7 14 20 7 14 20 7 14 20 7 14 20 8 15 21 8 15 21 8 15 21 8 15 21 8 15 21 8 15 21 8 15 21 8 15 21 15 23 26 15 23 26 15 23 26 15 23 26 15 23 26 15 23 26 15 23 26 15 23 26 34 42 45 26 34 37 13 21 24 1 9 12 0 2 5 0 2 5 0 4 7 0 7 10 4 8 11 4 8 11 4 8 11 4 8 11 4 8 11 4 8 11 4 8 11 4 8 11 16 20 23 18 22 25 23 27 30 30 34 37 36 40 43 43 47 50 48 52 55 50 54 55 55 59 58 57 62 58 59 64 60 62 67 63 66 71 67 69 74 70 71 76 72 73 78 74 75 80 76 76 81 77 79 84 80 82 87 83 85 90 86 89 94 90 91 96 92 94 96 93 79 79 77 72 71 69 59 58 56 47 46 44 40 39 37 39 38 36 42 41 39 45 44 42 40 39 37 40 39 37 40 39 37 40 39 37 40 39 37 40 39 37 40 39 37 40 39 37 38 36 37 38 36 37 38 36 37 38 36 37 38 36 37 38 36 37 38 36 37 38 36 37 38 36 37 38 36 37 38 36 37 38 36 37 38 36 37 38 36 37 38 36 37 38 36 37
3 1 12 3 1 12 3 1 12 3 1 12 3 1 12 3 1 12 3 1 12 3 1 12 3 1 12 3 1 12 3 1 12 3 1 12 3 1 12 3 1 12 3 1 12 3 1 12 3 1 12 3 1 12 3 1 12 3 1 12 4 2 13 4 2 13 4 2 13 4 2 13 4 2 13 4 2 13 4 2 13 3 3 13 4 4 14 2 5 14 2 5 14 2 5 14 2 5 14 2 5 14 2 5 14 2 5 14 3 6 15 3 6 15 3 6 15 3 6 15 3 6 15 3 6 15 3 6 15 3 6 15 4 9 15 4 9 15 4 9 15 4 9 15 4 9 15 4 9 15 4 9 15 4 9 15 5 10 16 5 10 16 5 10 16 5 10 16 5 10 16 5 10 16 5 10 16 5 10 16 5 13 16 5 13 16 5 13 16 5 13 16 5 13 16 5 13 16 5 13 16 5 13 16 5 13 16 5 13 16 5 13 16 5 13 16 5 13 16 5 13 16 5 13 16 5 13 16 7 14 20 7 14 20 7 14 20 7 14 20 7 14 20 7 14 20 7 14 20 7 14 20 8 15 21 8 15 21 8 15 21 8 15 21 8 15 21 8 15 21 8 15 21 8 15 21 15 23 26 15 23 26 15 23 26 15 23 26 15 23 26 15 23 26 15 23 26 15 23 26 34 42 45 26 34 37 13 21 24 1 9 12 0 2 5 0 2 5 0 4 7 0 7 10 4 8 11 4 8 11 4 8 11 4 8 11 4 8 11 4 8 11 4 8 11 4 8 11 16 20 23 18 22 25 23 27 30 30 34 37 36 40 43 43 47 50 48 52 55 50 54 55 55 59 58 57 62 58 59 64 60 62 67 63 66 71 67 69 74 70 71 76 72 73 78 74 72 77 73 73 78 74 75 80 76 79 84 80 82 87 83 85 90 86 88 93 89 91 93 90 79 79 77 72 71 69 59 58 56 47 46 44 40 39 37 39 38 36 42 41 39 45 44 42 40 39 37 40 39 37 40 39 37 40 39 37 40 39 37 40 39 37 40 39 37 40 39 37 38 36 37 38 36 37 38 36 37 38 36 37 38 36 37 38 36 37 38 36 37 38 36 37 38 36 37 38 36 37 38 36 37 38 36 37 38 36 37 38 36 37 38 36 37 38 36 37
3 1 12 3 1 12 3 1 12 3 1 12 3 1 12 3 1 12 3 1 12 3 1 12 3 1 12 3 1 12 3 1 12 3 1 12 3 1 12 3 1 12 3 1 12 3 1 12 3 1 12 3 1 12 3 1 12 3 1 12 4 2 13 4 2 13 4 2 13 4 2 13 4 2 13 4 2 13 4 2 13 3 3 13 4 4 14 2 5 14 2 5 14 2 5 14 2 5 14 2 5 14 2 5 14 2 5 14 3 6 15 3 6 15 3 6 15 3 6 15 3 6 15 3 6 15 3 6 15 3 6 15 4 9 15 4 9 15 4 9 15 4 9 15 4 9 15 4 9 15 4 9 15 4 9 15 5 10 16 5 10 16 5 10 16 5 10 16 5 10 16 5 10 16 5 10 16 5 10 16 5 13 16 5 13 16 5 13 16 5 13 16 5 13 16 5 13 16 5 13 16 5 13 16 5 13 16 5 13 16 5 13 16 5 13 16 5 13 16 5 13 16 5 13 16 5 13 16 7 14 20 7 14 20 7 14 20 7 14 20 7 14 20 7 14 20 7 14 20 7 14 20 8 15 21 8 15 21 8 15 21 8 15 21 8 15 21 8 15 21 8 15 21 8 15 21 15 23 26 15 23 26 15 23 26 15 23 26 15 23 26 15 23 26 15 23 26 15 23 26 34 42 45 26 34 37 13 21 24 1 9 12 0 2 5 0 2 5 0 4 7 0 7 10 4 8 11 4 8 11 4 8 11 4 8 11 4 8 11 4 8 11 4 8 11 4 8 11 16 20 23 18 22 25 23 27 30 30 34 37 36 40 43 43 47 50 48 52 55 50 54 55 55 59 58 57 62 58 59 64 60 62 67 63 66 71 67 69 74 70 71 76 72 73 78 74 68 73 69 70 75 71 72 77 73 75 80 76 79 84 80 82 87 83 84 89 85 88 90 87 79 79 77 72 71 69 59 58 56 47 46 44 40 39 37 39 38 36 42 41 39 45 44 42 40 39 37 40 39 37 40 39 37 40 39 37 40 39 37 40 39 37 40 39 37 40 39 37 38 36 37 38 36 37 38 36 37 38 36 37 38 36 37 38 36 37 38 36 37 38 36 37 38 36 37 38 36 37 38 36 37 38 36 37 38 36 37 38 36 37 38 36 37 38 36 37
3 1 12 3 1 12 3 1 12 3 1 12 3 1 12 3 1 12 3 1 12 3 1 12 3 1 12 3 1 12 3 1 12 3 1 12 3 1 12 3 1 12 3 1 12 3 1 12 3 1 12 3 1 12 3 1 12 3 1 12 4 2 13 4 2 13 4 2 13 4 2 13 4 2 13 4 2 13 4 2 13 3 3 13 4 4 14 2 5 14 2 5 14 2 5 14 2 5 14 2 5 14 2 5 14 2 5 14 3 6 15 3 6 15 3 6 15 3 6 15 3 6 15 3 6 15 3 6 15 3 6 15 4 9 15 4 9 15 4 9 15 4 9 15 4 9 15 4 9 15 4 9 15 4 9 15 5 10 16 5 10 16 5 10 16 5 10 16 5 10 16 5 10 16 5 10 16 5 10 16 5 13 16 5 13 16 5 13 16 5 13 16 5 13 16 5 13 16 5 13 16 5 13 16 5 13 16 5 13 16 5 13 16 5 13 16 5 13 16 5 13 16 5 13 16 5 13 16 7 14 20 7 14 20 7 14 20 7 14 20 7 14 20 7 14 20 7 14 20 7 14 20 8 15 21 8 15 21 8 15 21 8 15 21 8 15 21 8 15 21 8 15 21 8 15 21 15 23 26 15 23 26 15 23 26 15 23 26 15 23 26 15 23 26 15 23 26 15 23 26 34 42 45 26 34 37 13 21 24 1 9 12 0 2 5 0 2 5 0 4 7 0 7 10 4 8 11 4 8 11 4 8 11 4 8 11 4 8 11 4 8 11 4 8 11 4 8 11 16 20 23 18 22 25 23 27 30 30 34 37 36 40 43 43 47 50 48 52 55 50 54 55 55 59 58 57 62 58 59 64 60 62 67 63 66 71 67 69 74 70 71 76 72 73 78 74 66 71 67 67 72 68 70 75 71 73 78 74 76 81 77 80 85 81 82 87 83 85 87 84 79 79 77 72 71 69 59 58 56 47 46 44 40 39 37 39 38 36 42 41 39 45 44 42 40 39 37 40 39 37 40 39 37 40 39 37 40 39 37 40 39 37 40 39 37 40 39 37 38 36 37 38 36 37 38 36 37 38 36 37 38 36 37 38 36 37 38 36 37 38 36 37 38 36 37 38 36 37 38 36 37 38 36 37 38 36 37 38 36 37 38 36 37 38 36 37
3 1 12 3 1 12 3 1 12 3 1 12 3 1 12 3 1 12 3 1 12 3 1 12 3 1 12 3 1 12 3 1 12 3 1 12 3 1 12 3 1 12 3 1 12 3 1 12 3 1 12 3 1 12 3 1 12 3 1 12 4 2 13 4 2 13 4 2 13 4 2 13 4 2 13 4 2 13 4 2 13 3 3 13 4 4 14 2 5 14 2 5 14 2 5 14 2 5 14 2 5 14 2 5 14 2 5 14 3 6 15 3 6 15 3 6 15 3 6 15 3 6 15 3 6 15 3 6 15 3 6 15 4 9 15 4 9 15 4 9 15 4 9 15 4 9 15 4 9 15 4 9 15 4 9 15 5 10 16 5 10 16 5 10 16 5 10 16 5 10 16 5 10 16 5 10 16 5 10 16 5 13 16 5 13 16 5 13 16 5 13 16 5 13 16 5 13 16 5 13 16 5 13 16 5 13 16 5 13 16 5 13 16 5 13 16 5 13 16 5 13 16 5 13 16 5 13 16 7 14 20 7 14 20 7 14 20 7 14 20 7 14 20 7 14 20 7 14 20 7 14 20 8 15 21 8 15 21 8 15 21 8 15 21 8 15 21 8 15 21 8 15 21 8 15 21 15 23 26 15 23 26 15 23 26 15 23 26 15 23 26 15 23 26 15 23 26 15 23 26 34 42 45 26 34 37 13 21 24 1 9 12 0 2 5 0 2 5 0 4 7 0 7 10 4 8 11 4 8 11 4 8 11 4 8 11 4 8 11 4 8 11 4 8 11 4 8 11 16 20 23 18 22 25 23 27 30 30 34 37 36 40 43 43 47 50 48 52 55 50 54 55 55 59 58 57 62 58 59 64 60 62 67 63 66 71 67 69 74 70 71 76 72 73 78 74 65 70 66 66 71 67 68 73 69 72 77 73 75 80 76 78 83 79 81 86 82 84 86 83 79 79 77 72 71 69 59 58 56 47 46 44 40 39 37 39 38 36 42 41 39 45 44 42 40 39 37 40 39 37 40 39 37 40 39 37 40 39 37 40 39 37 40 39 37 40 39 37 38 36 37 38 36 37 38 36 37 38 36 37 38 36 37 38 36 37 38 36 37 38 36 37 38 36 37 38 36 37 38 36 37 38 36 37 38 36 37 38 36 37 38 36 37 38 36 37
3 1 12 3 1 12 3 1 12 3 1 12 3 1 12 3 1 12 3 1 12 3 1 12 3 1 12 3 1 12 3 1 12 3 1 12 3 1 12 3 1 12 3 1 12 3 1 12 3 1 12 3 1 12 3 1 12 3 1 12 6 4 15 6 4 15 6 4 15 6 4 15 6 4 15 6 4 15 6 4 15 5 5 15 6 6 16 4 7 16 4 7 16 4 7 16 4 7 16 4 7 16 4 7 16 4 7 16 3 6 15 3 6 15 3 6 15 3 6 15 3 6 15 3 6 15 3 6 15 3 6 15 4 9 15 4 9 15 4 9 15 4 9 15 4 9 15 4 9 15 4 9 15 4 9 15 5 10 16 5 10 16 5 10 16 5 10 16 5 10 16 5 10 16 5 10 16 5 10 16 4 12 15 4 12 15 4 12 15 4 12 15 4 12 15 4 12 15 4 12 15 4 12 15 7 15 18 7 15 18 7 15 18 7 15 18 7 15 18 7 15 18 7 15 18 7 15 18 11 18 24 10 17 23 9 16 22 8 15 21 7 14 20 5 12 18 5 12 18 4 11 17 27 34 40 27 34 40 27 34 40 27 34 40 27 34 40 27 34 40 27 34 40 27 34 40 40 48 51 38 46 49 36 44 47 33 41 44 29 37 40 26 34 37 24 32 35 22 30 33 15 23 26 13 21 24 11 19 22 8 16 19 4 12 15 1 9 12 0 7 10 0 5 8 4 8 11 4 8 11 4 8 11 4 8 11 4 8 11 4 8 11 4 8 11 4 8 11 18 22 25 20 24 27 22 26 29 25 29 32 29 33 36 32 36 39 34 38 41 36 40 41 50 54 53 51 56 52 54 59 55 57 62 58 60 65 61 64 69 65 66 71 67 67 72 68 70 75 71 70 75 71 70 75 71 70 75 71 70 75 71 70 75 71 70 75 71 72 74 71 62 62 60 61 60 58 56 55 53 49 48 46 43 42 40 36 35 33 31 30 28 29 28 26 34 33 31 34 33 31 34 33 31 34 33 31 34 33 31 34 33 31 34 33 31 34 33 31 34 32 33 34 32 33 34 32 33 34 32 33 34 32 33 34 32 33 34 32 33 34 32 33 38 36 37 38 36 37 38 36 37 38 36 37 38 36 37 38 36 37 38 36 37 38 36 37
3 1 12 3 1 12 3 1 12 3 1 12 3 1 12 3 1 12 3 1 12 3 1 12 3 1 12 3 1 12 3 1 12 3 1 12 3 1 12 3 1 12 3 1 12 3 1 12 3 1 12 3 1 12 3 1 12 3 1 12 6 4 15 6 4 15 6 4 15 6 4 15 6 4 15 6 4 15 6 4 15 5 5 15 6 6 16 4 7 16 4 7 16 4 7 16 4 7 16 4 7 16 4 7 16 4 7 16 3 6 15 3 6 15 3 6 15 3 6 15 3 6 15 3 6 15 3 6 15 3 6 15 4 9 15 4 9 15 4 9 15 4 9 15 4 9 15 4 9 15 4 9 15 4 9 15 5 10 16 5 10 16 5 10 16 5 10 16 5 10 16 5 10 16 5 10 16 5 10 16 4 12 15 4 12 15 4 12 15 4 12 15 4 12 15 4 12 15 4 12 15 4 12 15 7 15 18 7 15 18 7 15 18 7 15 18 7 15 18 7 15 18 7 15 18 7 15 18 10 17 23 10 17 23 10 17 23 9 16 22 8 15 21 8 15 21 7 14 20 7 14 20 29 36 42 29 36 42 29 36 42 29 36 42 29 36 42 29 36 42 29 36 42 29 36 42 40 48 51 38 46 49 36 44 47 33 41 44 29 37 40 26 34 37 24 32 35 22 30 33 15 23 26 13 21 24 11 19 22 8 16 19 4 12 15 1 9 12 0 7 10 0 5 8 4 8 11 4 8 11 4 8 11 4 8 11 4 8 11 4 8 11 4 8 11 4 8 11 18 22 25 20 24 27 22 26 29 25 29 32 29 33 36 32 36 39 34 38 41 36 40 41 49 53 52 50 55 51 52 57 53 56 61 57 59 64 60 62 67 63 65 70 66 66 71 67 68 73 69 68 73 69 68 73 69 68 73 69 68 73 69 68 73 69 68 73 69 70 72 69 62 62 60 61 60 58 56 55 53 49 48 46 43 42 40 36 35 33 31 30 28 29 28 26 34 33 31 34 33 31 34 33 31 34 33 31 34 33 31 34 33 31 34 33 31 34 33 31 34 32 33 34 32 33 34 32 33 34 32 33 34 32 33 34 32 33 34 32 33 34 32 33 38 36 37 38 36 37 38 36 37 38 36 37 38 36 37 38 36 37 38 36 37 38 36 37
3 1 12 3 1 12 3 1 12 3 1 12 3 1 12 3 1 12 3 1 12 3 1 12 3 1 12 3 1 12 3 1 12 3 1 12 3 1 12 3 1 12 3 1 12 3 1 12 3 1 12 3 1 12 3 1 12 3 1 12 6 4 15 6 4 15 6 4 15 6 4 15 6 4 15 6 4 15 6 4 15 5 5 15 6 6 16 4 7 16 4 7 16 4 7 16 4 7 16 4 7 16 4 7 16 4 7 16 3 6 15 3 6 15 3 6 15 3 6 15 3 6 15 3 6 15 3 6 15 3 6 15 4 9 15 4 9 15 4 9 15 4 9 15 4 9 15 4 9 15 4 9 15 4 9 15 5 10 16 5 10 16 5 10 16 5 10 16 5 10 16 5 10 16 5 10 16 5 10 16 4 12 15 4 12 15 4 12 15 4 12 15 4 12 15 4 12 15 4 12 15 4 12 15 7 15 18 7 15 18 7 15 18 7 15 18 7 15 18 7 15 18 7 15 18 7 15 18 9 16 22 10 17 23 10 17 23 11 18 24 11 18 24 12 19 25 13 20 26 13 20 26 31 38 44 31 38 44 31 38 44 31 38 44 31 38 44 31 38 44 31 38 44 31 38 44 40 48 51 38 46 49 36 44 47 33 41 44 29 37 40 26 34 37 24 32 35 22 30 33 15 23 26 13 21 24 11 19 22 8 16 19 4 12 15 1 9 12 0 7 10 0 5 8 4 8 11 4 8 11 4 8 11 4 8 11 4 8 11 4 8 11 4 8 11 4 8 11 18 22 25 20 24 27 22 26 29 25 29 32 29 33 36 32 36 39 34 38 41 36 40 41 46 50 49 48 53 49 50 55 51 53 58 54 57 62 58 60 65 61 62 67 63 64 69 65 66 71 67 66 71 67 66 71 67 66 71 67 66 71 67 66 71 67 66 71 67 68 70 67 62 62 60 61 60 58 56 55 53 49 48 46 43 42 40 36 35 33 31 30 28 29 28 26 34 33 31 34 33 31 34 33 31 34 33 31 34 33 31 34 33 31 34 33 31 34 33 31 34 32 33 34 32 33 34 32 33 34 32 33 34 32 33 34 32 33 34 32 33 34 32 33 38 36 37 38 36 37 38 36 37 38 36 37 38 36 37 38 36 37 38 36 37 38 36 37
3 1 12 3 1 12 3 1 12 3 1 12 3 1 12 3 1 12 3 1 12 3 1 12 3 1 12 3 1 12 3 1 12 3 1 12 3 1 12 3 1 12 3 1 12 3 1 12 3 1 12 3 1 12 3 1 12 3 1 12 6 4 15 6 4 15 6 4 15 6 4 15 6 4 15 6 4 15 6 4 15 5 5 15 6 6 16 4 7 16 4 7 16 4 7 16 4 7 16 4 7 16 4 7 16 4 7 16 3 6 15 3 6 15 3 6 15 3 6 15 3 6 15 3 6 15 3 6 15 3 6 15 4 9 15 4 9 15 4 9 15 4 9 15 4 9 15 4 9 15 4 9 15 4 9 15 5 10 16 5 10 16 5 10 16 5 10 16 5 10 16 5 10 16 5 10 16 5 10 16 4 12 15 4 12 15 4 12 15 4 12 15 4 12 15 4 12 15 4 12 15 4 12 15 7 15 18 7 15 18 7 15 18 7 15 18 7 15 18 7 15 18 7 15 18 7 15 18 8 15 21 9 16 22 11 18 24 13 20 26 16 23 29 18 25 31 20 27 33 21 28 34 34 41 47 34 41 47 34 41 47 34 41 47 34 41 47 34 41 47 34 41 47 34 41 47 40 48 51 38 46 49 36 44 47 33 41 44 29 37 40 26 34 37 24 32 35 22 30 33 15 23 26 13 21 24 11 19 22 8 16 19 4 12 15 1 9 12 0 7 10 0 5 8 4 8 11 4 8 11 4 8 11 4 8 11 4 8 11 4 8 11 4 8 11 4 8 11 18 22 25 20 24 27 22 26 29 25 29 32 29 33 36 32 36 39 34 38 41 36 40 41 43 47 46 44 49 45 47 52 48 50 55 51 53 58 54 57 62 58 59 64 60 60 65 61 63 68 64 63 68 64 63 68 64 63 68 64 63 68 64 63 68 64 63 68 64 65 67 64 62 62 60 61 60 58 56 55 53 49 48 46 43 42 40 36 35 33 31 30 28 29 28 26 34 33 31 34 33 31 34 33 31 34 33 31 34 33 31 34 33 31 34 33 31 34 33 31 34 32 33 34 32 33 34 32 33 34 32 33 34 32 33 34 32 33 34 32 33 34 32 33 38 36 37 38 36 37 38 36 37 38 36 37 38 36 37 38 36 37 38 36 37 38 36 37
3 1 12 3 1 12 3 1 12 3 1 12 3 1 12 3 1 12 3 1 12 3 1 12 3 1 12 3 1 12 3 1 12 3 1 12 3 1 12 3 1 12 3 1 12 3 1 12 3 1 12 3 1 12 3 1 12 3 1 12 6 4 15 6 4 15 6 4 15 6 4 15 6 4 15 6 4 15 6 4 15 5 5 15 6 6 16 4 7 16 4 7 16 4 7 16 4 7 16 4 7 16 4 7 16 4 7 16 3 6 15 3 6 15 3 6 15 3 6 15 3 6 15 3 6 15 3 6 15 3 6 15 4 9 15 4 9 15 4 9 15 4 9 15 4 9 15 4 9 15 4 9 15 4 9 15 5 10 16 5 10 16 5 10 16 5 10 16 5 10 16 5 10 16 5 10 16 5 10 16 4 12 15 4 12 15 4 12 15 4 12 15 4 12 15 4 12 15 4 12 15 4 12 15 7 15 18 7 15 18 7 15 18 7 15 18 7 15 18 7 15 18 7 15 18 7 15 18 7 14 20 8 15 21 11 18 24 16 23 29 20 27 33 24 31 37 27 34 40 29 36 42 38 45 51 38 45 51 38 45 51 38 45 51 38 45 51 38 45 51 38 45 51 38 45 51 40 48 51 38 46 49 36 44 47 33 41 44 29 37 40 26 34 37 24 32 35 22 30 33 15 23 26 13 21 24 11 19 22 8 16 19 4 12 15 1 9 12 0 7 10 0 5 8 4 8 11 4 8 11 4 8 11 4 8 11 4 8 11 4 8 11 4 8 11 4 8 11 18 22 25 20 24 27 22 26 29 25 29 32 29 33 36 32 36 39 34 38 41 36 40 41 40 44 43 41 46 42 43 48 44 47 52 48 50 55 51 53 58 54 56 61 57 57 62 58 59 64 60 59 64 60 59 64 60 59 64 60 59 64 60 59 64 60 59 64 60 61 63 60 62 62 60 61 60 58 56 55 53 49 48 46 43 42 40 36 35 33 31 30 28 29 28 26 34 33 31 34 33 31 34 33 31 34 33 31 34 33 31 34 33 31 34 33 31 34 33 31 34 32 33 34 32 33 34 32 33 34 32 33 34 32 33 34 32 33 34 32 33 34 32 33 38 36 37 38 36 37 38 36 37 38 36 37 38 36 37 38 36 37 38 36 37 38 36 37
3 1 12 3 1 12 3 1 12 3 1 12 3 1 12 3 1 12 3 1 12 3 1 12 3 1 12 3 1 12 3 1 12 3 1 12 3 1 12 3 1 12 3 1 12 3 1 12 3 1 12 3 1 12 3 1 12 3 1 12 6 4 15 6 4 15 6 4 15 6 4 15 6 4 15 6 4 15 6 4 15 5 5 15 6 6 16 4 7 16 4 7 16 4 7 16 4 7 16 4 7 16 4 7 16 4 7 16 3 6 15 3 6 15 3 6 15 3 6 15 3 6 15 3 6 15 3 6 15 3 6 15 4 9 15 4 9 15 4 9 15 4 9 15 4 9 15 4 9 15 4 9 15 4 9 15 5 10 16 5 10 16 5 10 16 5 10 16 5 10 16 5 10 16 5 10 16 5 10 16 4 12 15 4 12 15 4 12 15 4 12 15 4 12 15 4 12 15 4 12 15 4 12 15 7 15 18 7 15 18 7 15 18 7 15 18 7 15 18 7 15 18 7 15 18 7 15 18 5 12 18 8 15 21 12 19 25 18 25 31 24 31 37 30 37 43 34 41 47 36 43 49 41 48 54 41 48 54 41 48 54 41 48 54 41 48 54 41 48 54 41 48 54 41 48 54 40 48 51 38 46 49 36 44 47 33 41 44 29 37 40 26 34 37 24 32 35 22 30 33 15 23 26 13 21 24 11 19 22 8 16 19 4 12 15 1 9 12 0 7 10 0 5 8 4 8 11 4 8 11 4 8 11 4 8 11 4 8 11 4 8 11 4 8 11 4 8 11 18 22 25 20 24 27 22 26 29 25 29 32 29 33 36 32 36 39 34 38 41 36 40 41 36 40 39 38 43 39 40 45 41 43 48 44 47 52 48 50 55 51 52 57 53 54 59 55 56 61 57 56 61 57 56 61 57 56 61 57 56 61 57 56 61 57 56 61 57 58 60 57 62 62 60 61 60 58 56 55 53 49 48 46 43 42 40 36 35 33 31 30 28 29 28 26 34 33 31 34 33 31 34 33 31 34 33 31 34 33 31 34 33 31 34 33 31 34 33 31 34 32 33 34 32 33 34 32 33 34 32 33 34 32 33 34 32 33 34 32 33 34 32 33 38 36 37 38 36 37 38 36 37 38 36 37 38 36 37 38 36 37 38 36 37 38 36 37
3 1 12 3 1 12 3 1 12 3 1 12 3 1 12 3 1 12 3 1 12 3 1 12 3 1 12 3 1 12 3 1 12 3 1 12 3 1 12 3 1 12 3 1 12 3 1 12 3 1 12 3 1 12 3 1 12 3 1 12 6 4 15 6 4 15 6 4 15 6 4 15 6 4 15 6 4 15 6 4 15 5 5 15 6 6 16 4 7 16 4 7 16 4 7 16 4 7 16 4 7 16 4 7 16 4 7 16 3 6 15 3 6 15 3 6 15 3 6 15 3 6 15 3 6 15 3 6 15 3 6 15 4 9 15 4 9 15 4 9 15 4 9 15 4 9 15 4 9 15 4 9 15 4 9 15 5 10 16 5 10 16 5 10 16 5 10 16 5 10 16 5 10 16 5 10 16 5 10 16 4 12 15 4 12 15 4 12 15 4 12 15 4 12 15 4 12 15 4 12 15 4 12 15 7 15 18 7 15 18 7 15 18 7 15 18 7 15 18 7 15 18 7 15 18 7 15 18 4 11 17 7 14 20 13 20 26 20 27 33 27 34 40 34 41 47 39 46 52 42 49 55 43 50 56 43 50 56 43 50 56 43 50 56 43 50 56 43 50 56 43 50 56 43 50 56 40 48 51 38 46 49 36 44 47 33 41 44 29 37 40 26 34 37 24 32 35 22 30 33 15 23 26 13 21 24 11 19 22 8 16 19 4 12 15 1 9 12 0 7 10 0 5 8 4 8 11 4 8 11 4 8 11 4 8 11 4 8 11 4 8 11 4 8 11 4 8 11 18 22 25 20 24 27 22 26 29 25 29 32 29 33 36 32 36 39 34 38 41 36 40 41 34 38 37 35 40 36 38 43 39 41 46 42 44 49 45 48 53 49 50 55 51 51 56 52 54 59 55 54 59 55 54 59 55 54 59 55 54 59 55 54 59 55 54 59 55 56 58 55 62 62 60 61 60 58 56 55 53 49 48 46 43 42 40 36 35 33 31 30 28 29 28 26 34 33 31 34 33 31 34 33 31 34 33 31 34 33 31 34 33 31 34 33 31 34 33 31 34 32 33 34 32 33 34 32 33 34 32 33 34 32 33 34 32 33 34 32 33 34 32 33 38 36 37 38 36 37 38 36 37 38 36 37 38 36 37 38 36 37 38 36 37 38 36 37
3 1 12 3 1 12 3 1 12 3 1 12 3 1 12 3 1 12 3 1 12 3 1 12 3 1 12 3 1 12 3 1 12 3 1 12 3 1 12 3 2 10 3 1 12 3 2 10 3 1 12 3 2 10 3 1 12 3 2 10 6 4 15 6 5 13 6 4 15 6 5 13 6 4 15 6 5 13 6 4 15 6 4 15 6 6 16 4 7 16 6 6 16 4 7 16 6 6 16 4 7 16 6 6 16 4 7 16 5 5 15 3 6 15 5 5 15 3 6 15 5 5 15 3 6 15 5 5 15 3 6 15 5 8 15 4 9 15 5 8 15 4 9 15 5 8 15 4 9 15 5 8 15 4 9 15 6 9 16 5 10 16 6 9 16 5 10 16 6 9 16 5 10 16 6 9 16 5 10 16 6 11 17 4 12 15 4 12 15 4 12 15 4 12 15 4 12 15 4 12 15 4 12 15 7 15 18 7 15 18 7 15 18 7 15 18 7 15 18 7 15 18 7 15 18 7 15 18 4 11 17 7 14 20 13 20 26 21 28 34 29 36 42 36 43 49 42 49 55 45 52 58 45 52 58 45 52 58 45 52 58 45 52 58 45 52 58 45 52 58 45 52 58 45 52 58 40 48 51 38 46 49 36 44 47 33 41 44 29 37 40 26 34 37 24 32 35 22 30 33 15 23 26 13 21 24 11 19 22 8 16 19 4 12 15 1 9 12 0 7 10 0 5 8 3 8 11 4 8 11 4 8 11 4 8 11 4 8 11 4 8 11 4 8 11 4 8 11 18 22 25 20 24 27 22 26 29 25 29 32 29 33 36 32 36 39 34 38 41 36 40 43 33 37 36 34 38 37 36 40 39 40 44 43 43 47 46 46 50 49 49 53 52 50 54 53 52 56 55 52 56 55 52 56 55 52 56 55 52 56 55 52 56 55 52 56 55 54 56 55 62 62 60 61 60 58 56 55 53 49 48 46 43 42 40 36 35 33 31 30 28 29 28 26 34 33 31 34 33 31 34 33 31 34 33 31 34 33 31 34 33 31 34 33 31 34 33 31 34 33 31 34 33 31 36 32 33 34 33 31 36 32 33 34 33 31 36 32 33 34 33 31 40 36 37 38 37 35 40 36 37 38 37 35 40 36 37 38 37 35 40 36 37 38 37 35
3 2 10 3 2 10 3 2 10 3 2 10 3 2 10 3 2 10 3 2 10 3 2 10 3 2 10 3 2 10 3 2 10 3 2 10 3 2 10 3 2 8 3 2 10 3 2 8 3 2 10 3 2 8 3 2 10 3 2 8 3 2 10 3 2 8 3 2 10 3 2 8 3 2 10 3 2 8 3 2 10 3 2 10 3 1 12 2 2 12 3 1 12 2 2 12 3 1 12 2 2 12 3 1 12 2 2 12 4 2 13 3 3 13 4 2 13 3 3 13 4 2 13 3 3 13 4 2 13 3 3 13 4 4 14 2 5 14 4 4 14 2 5 14 4 4 14 2 5 14 4 4 14 2 5 14 5 5 15 3 6 15 5 5 15 3 6 15 5 5 15 3 6 15 5 5 15 3 6 13 9 14 20 9 14 20 9 14 20 9 14 20 9 14 20 9 14 20 9 14 20 9 14 20 0 5 11 1 6 12 4 9 15 7 12 18 10 15 21 14 19 25 16 21 27 17 22 28 28 33 37 29 34 38 32 37 41 35 40 44 38 43 47 42 47 51 44 49 53 45 50 54 49 54 58 49 54 58 49 54 58 49 54 58 49 54 58 49 54 58 49 54 58 49 54 58 48 56 59 46 54 57 44 52 55 41 49 52 37 45 48 34 42 45 32 40 43 30 38 41 16 24 27 14 22 25 12 20 23 9 17 20 5 13 16 2 10 13 0 8 11 0 6 9 5 10 14 5 10 14 5 10 14 5 10 14 5 10 14 5 10 14 5 10 14 5 10 14 14 19 23 16 21 25 18 23 27 21 26 30 25 30 34 28 33 37 30 35 39 32 37 40 36 40 43 36 40 41 36 40 41 36 40 41 36 40 41 36 40 41 36 40 41 36 40 41 40 44 45 40 44 45 40 44 45 40 44 45 40 44 45 40 44 45 40 44 45 42 43 45 46 44 45 46 42 41 44 40 39 41 37 36 37 33 32 34 30 29 32 28 27 30 26 25 34 30 29 34 30 29 34 30 29 34 30 29 34 30 29 34 30 29 34 30 29 34 30 29 36 32 31 36 32 29 37 31 31 36 32 29 37 31 31 36 32 29 37 31 31 36 32 29 38 32 32 37 33 30 38 32 32 37 33 30 38 32 32 37 33 30 38 32 32 37 33 30
3 2 10 3 2 10 3 2 10 3 2 10 3 2 10 3 2 10 3 2 10 3 2 10 3 2 10 3 2 10 3 2 10 3 2 10 3 2 8 3 2 8 3 2 8 3 2 8 3 2 8 3 2 8 3 2 8 3 2 8 3 2 8 3 2 8 3 2 8 3 2 8 3 2 8 3 2 8 3 2 8 3 2 8 3 1 12 3 1 12 3 1 12 3 1 12 3 1 12 3 1 12 3 1 12 3 1 12 4 2 13 4 2 13 4 2 13 4 2 13 4 2 13 4 2 13 4 2 13 4 2 13 4 4 14 4 4 14 4 4 14 4 4 14 4 4 14 4 4 14 4 4 14 4 4 14 5 5 15 5 5 15 5 5 15 5 5 15 5 5 15 5 5 15 5 5 15 3 6 15 10 13 20 9 14 20 9 14 20 9 14 20 9 14 20 9 14 20 9 14 20 9 14 20 3 8 14 4 9 15 6 11 17 10 15 21 13 18 24 16 21 27 19 24 30 20 25 31 31 36 40 32 37 41 34 39 43 38 43 47 41 46 50 44 49 53 47 52 56 48 53 57 51 56 60 51 56 60 51 56 60 51 56 60 51 56 60 51 56 60 51 56 60 51 56 60 48 56 59 46 54 57 44 52 55 41 49 52 37 45 48 34 42 45 32 40 43 30 38 41 16 24 27 14 22 25 12 20 23 9 17 20 5 13 16 2 10 13 0 8 11 0 6 9 5 10 14 5 10 14 5 10 14 5 10 14 5 10 14 5 10 14 5 10 14 5 10 14 14 19 23 16 21 25 18 23 27 21 26 30 25 30 34 28 33 37 30 35 39 32 37 41 36 40 43 36 40 43 36 40 43 36 40 43 36 40 43 36 40 43 36 40 43 36 40 43 40 44 47 40 44 47 40 44 47 40 44 47 40 44 47 40 44 47 40 44 47 42 43 45 46 44 45 46 42 41 44 40 39 41 37 36 37 33 32 34 30 29 32 28 27 30 26 25 34 30 29 34 30 29 34 30 29 34 30 29 34 30 29 34 30 29 34 30 29 34 30 29 37 32 29 37 32 29 37 32 29 37 32 29 37 32 29 37 32 29 37 32 29 37 32 29 38 33 30 38 33 30 38 33 30 38 33 30 38 33 30 38 33 30 38 33 30 38 33 30
3 2 10 3 2 10 3 2 10 3 2 10 3 2 10 3 2 10 3 2 10 3 2 10 3 2 10 3 2 10 3 2 10 3 2 10 3 2 8 3 2 8 3 2 8 3 2 8 3 2 8 3 2 8 3 2 8 3 2 8 3 2 8 3 2 8 3 2 8 3 2 8 3 2 8 3 2 8 3 2 8 3 2 8 3 1 12 3 1 12 3 1 12 3 1 12 3 1 12 3 1 12 3 1 12 3 1 12 4 2 13 4 2 13 4 2 13 4 2 13 4 2 13 4 2 13 4 2 13 4 2 13 4 4 14 4 4 14 4 4 14 4 4 14 4 4 14 4 4 14 4 4 14 4 4 14 5 5 15 5 5 15 5 5 15 5 5 15 5 5 15 5 5 15 5 5 15 3 6 15 10 13 20 9 14 20 9 14 20 9 14 20 9 14 20 9 14 20 9 14 20 9 14 20 8 13 19 9 14 20 11 16 22 14 19 25 18 23 29 21 26 32 24 29 35 25 30 36 36 41 45 37 42 46 39 44 48 42 47 51 46 51 55 49 54 58 52 57 61 53 58 62 53 58 62 53 58 62 53 58 62 53 58 62 53 58 62 53 58 62 53 58 62 53 58 62 48 56 59 46 54 57 44 52 55 41 49 52 37 45 48 34 42 45 32 40 43 30 38 41 16 24 27 14 22 25 12 20 23 9 17 20 5 13 16 2 10 13 0 8 11 0 6 9 5 10 14 5 10 14 5 10 14 5 10 14 5 10 14 5 10 14 5 10 14 5 10 14 14 19 23 16 21 25 18 23 27 21 26 30 25 30 34 28 33 37 30 35 39 32 37 41 36 40 43 36 40 43 36 40 43 36 40 43 36 40 43 36 40 43 36 40 43 36 40 43 40 44 47 40 44 47 40 44 47 40 44 47 40 44 47 40 44 47 40 44 47 42 43 45 46 44 45 46 42 41 44 40 39 41 37 36 37 33 32 34 30 29 32 28 27 30 26 25 34 30 29 34 30 29 34 30 29 34 30 29 34 30 29 34 30 29 34 30 29 34 30 29 37 32 29 37 32 29 37 32 29 37 32 29 37 32 29 37 32 29 37 32 29 37 32 29 38 33 30 38 33 30 38 33 30 38 33 30 38 33 30 38 33 30 38 33 30 38 33 30
3 2 10 3 2 10 3 2 10 3 2 10 3 2 10 3 2 10 3 2 10 3 2 10 3 2 10 3 2 10 3 2 10 3 2 10 3 2 8 3 2 8 3 2 8 3 2 8 3 2 8 3 2 8 3 2 8 3 2 8 3 2 8 3 2 8 3 2 8 3 2 8 3 2 8 3 2 8 3 2 8 3 2 8 3 1 12 3 1 12 3 1 12 3 1 12 3 1 12 3 1 12 3 1 12 3 1 12 4 2 13 4 2 13 4 2 13 4 2 13 4 2 13 4 2 13 4 2 13 4 2 13 4 4 14 4 4 14 4 4 14 4 4 14 4 4 14 4 4 14 4 4 14 4 4 14 5 5 15 5 5 15 5 5 15 5 5 15 5 5 15 5 5 15 5 5 15 3 6 15 10 13 20 9 14 20 9 14 20 9 14 20 9 14 20 9 14 20 9 14 20 9 14 20 14 19 25 15 20 26 18 23 29 21 26 32 24 29 35 27 32 38 30 35 41 31 36 42 42 47 51 43 48 52 46 51 55 49 54 58 52 57 61 55 60 64 58 63 67 59 64 68 56 61 65 56 61 65 56 61 65 56 61 65 56 61 65 56 61 65 56 61 65 56 61 65 48 56 59 46 54 57 44 52 55 41 49 52 37 45 48 34 42 45 32 40 43 30 38 41 16 24 27 14 22 25 12 20 23 9 17 20 5 13 16 2 10 13 0 8 11 0 6 9 5 10 14 5 10 14 5 10 14 5 10 14 5 10 14 5 10 14 5 10 14 5 10 14 14 19 23 16 21 25 18 23 27 21 26 30 25 30 34 28 33 37 30 35 39 32 37 41 36 40 43 36 40 43 36 40 43 36 40 43 36 40 43 36 40 43 36 40 43 36 40 43 40 44 47 40 44 47 40 44 47 40 44 47 40 44 47 40 44 47 40 44 47 42 43 45 46 44 45 46 42 41 44 40 39 41 37 36 37 33 32 34 30 29 32 28 27 30 26 25 34 30 29 34 30 29 34 30 29 34 30 29 34 30 29 34 30 29 34 30 29 34 30 29 37 32 29 37 32 29 37 32 29 37 32 29 37 32 29 37 32 29 37 32 29 37 32 29 38 33 30 38 33 30 38 33 30 38 33 30 38 33 30 38 33 30 38 33 30 38 33 30
3 2 10 3 2 10 3 2 10 3 2 10 3 2 10 3 2 10 3 2 10 3 2 10 3 2 10 3 2 10 3 2 10 3 2 10 3 2 8 3 2 8 3 2 8 3 2 8 3 2 8 3 2 8 3 2 8 3 2 8 3 2 8 3 2 8 3 2 8 3 2 8 3 2 8 3 2 8 3 2 8 3 2 8 3 1 12 3 1 12 3 1 12 3 1 12 3 1 12 3 1 12 3 1 12 3 1 12 4 2 13 4 2 13 4 2 13 4 2 13 4 2 13 4 2 13 4 2 13 4 2 13 4 4 14 4 4 14 4 4 14 4 4 14 4 4 14 4 4 14 4 4 14 4 4 14 5 5 15 5 5 15 5 5 15 5 5 15 5 5 15 5 5 15 5 5 15 3 6 15 10 13 20 9 14 20 9 14 20 9 14 20 9 14 20 9 14 20 9 14 20 9 14 20 21 26 32 22 27 33 25 30 36 28 33 39 31 36 42 34 39 45 37 42 48 38 43 49 49 54 58 50 55 59 53 58 62 56 61 65 59 64 68 62 67 71 65 70 74 66 71 75 60 65 69 60 65 69 60 65 69 60 65 69 60 65 69 60 65 69 60 65 69 60 65 69 48 56 59 46 54 57 44 52 55 41 49 52 37 45 48 34 42 45 32 40 43 30 38 41 16 24 27 14 22 25 12 20 23 9 17 20 5 13 16 2 10 13 0 8 11 0 6 9 5 10 14 5 10 14 5 10 14 5 10 14 5 10 14 5 10 14 5 10 14 5 10 14 14 19 23 16 21 25 18 23 27 21 26 30 25 30 34 28 33 37 30 35 39 32 37 41 36 40 43 36 40 43 36 40 43 36 40 43 36 40 43 36 40 43 36 40 43 36 40 43 40 44 47 40 44 47 40 44 47 40 44 47 40 44 47 40 44 47 40 44 47 42 43 45 46 44 45 46 42 41 44 40 39 41 37 36 37 33 32 34 30 29 32 28 27 30 26 25 34 30 29 34 30 29 34 30 29 34 30 29 34 30 29 34 30 29 34 30 29 34 30 29 37 32 29 37 32 29 37 32 29 37 32 29 37 32 29 37 32 29 37 32 29 37 32 29 38 33 30 38 33 30 38 33 30 38 33 30 38 33 30 38 33 30 38 33 30 38 33 30
3 2 10 3 2 10 3 2 10 3 2 10 3 2 10 3 2 10 3 2 10 3 2 10 3 2 10 3 2 10 3 2 10 3 2 10 3 2 8 3 2 8 3 2 8 3 2 8 3 2 8 3 2 8 3 2 8 3 2 8 3 2 8 3 2 8 3 2 8 3 2 8 3 2 8 3 2 8 3 2 8 3 2 8 3 1 12 3 1 12 3 1 12 3 1 12 3 1 12 3 1 12 3 1 12 3 1 12 4 2 13 4 2 13 4 2 13 4 2 13 4 2 13 4 2 13 4 2 13 4 2 13 4 4 14 4 4 14 4 4 14 4 4 14 4 4 14 4 4 14 4 4 14 4 4 14 5 5 15 5 5 15 5 5 15 5 5 15 5 5 15 5 5 15 5 5 15 3 6 15 10 13 20 9 14 20 9 14 20 9 14 20 9 14 20 9 14 20 9 14 20 9 14 20 27 32 38 28 33 39 31 36 42 34 39 45 38 43 49 41 46 52 43 48 54 44 49 55 55 60 64 56 61 65 59 64 68 62 67 71 66 71 75 69 74 78 71 76 80 72 77 81 63 68 72 63 68 72 63 68 72 63 68 72 63 68 72 63 68 72 63 68 72 63 68 72 48 56 59 46 54 57 44 52 55 41 49 52 37 45 48 34 42 45 32 40 43 30 38 41 16 24 27 14 22 25 12 20 23 9 17 20 5 13 16 2 10 13 0 8 11 0 6 9 5 10 14 5 10 14 5 10 14 5 10 14 5 10 14 5 10 14 5 10 14 5 10 14 14 19 23 16 21 25 18 23 27 21 26 30 25 30 34 28 33 37 30 35 39 32 37 41 36 40 43 36 40 43 36 40 43 36 40 43 36 40 43 36 40 43 36 40 43 36 40 43 40 44 47 40 44 47 40 44 47 40 44 47 40 44 47 40 44 47 40 44 47 42 43 45 46 44 45 46 42 41 44 40 39 41 37 36 37 33 32 34 30 29 32 28 27 30 26 25 34 30 29 34 30 29 34 30 29 34 30 29 34 30 29 34 30 29 34 30 29 34 30 29 37 32 29 37 32 29 37 32 29 37 32 29 37 32 29 37 32 29 37 32 29 37 32 29 38 33 30 38 33 30 38 33 30 38 33 30 38 33 30 38 33 30 38 33 30 38 33 30
3 2 10 3 2 10 3 2 10 3 2 10 3 2 10 3 2 10 3 2 10 3 2 10 3 2 10 3 2 10 3 2 10 3 2 10 3 2 8 3 2 8 3 2 8 3 2 8 3 2 8 3 2 8 3 2 8 3 2 8 3 2 8 3 2 8 3 2 8 3 2 8 3 2 8 3 2 8 3 2 8 3 2 8 3 1 12 3 1 12 3 1 12 3 1 12 3 1 12 3 1 12 3 1 12 3 1 12 4 2 13 4 2 13 4 2 13 4 2 13 4 2 13 4 2 13 4 2 13 4 2 13 4 4 14 4 4 14 4 4 14 4 4 14 4 4 14 4 4 14 4 4 14 4 4 14 5 5 15 5 5 15 5 5 15 5 5 15 5 5 15 5 5 15 5 5 15 3 6 15 10 13 20 9 14 20 9 14 20 9 14 20 9 14 20 9 14 20 9 14 20 9 14 20 32 37 43 33 38 44 36 41 47 39 44 50 42 47 53 46 51 57 48 53 59 49 54 60 60 65 69 61 66 70 64 69 73 67 72 76 70 75 79 74 79 83 76 81 85 77 82 86 65 70 74 65 70 74 65 70 74 65 70 74 65 70 74 65 70 74 65 70 74 65 70 74 48 56 59 46 54 57 44 52 55 41 49 52 37 45 48 34 42 45 32 40 43 30 38 41 16 24 27 14 22 25 12 20 23 9 17 20 5 13 16 2 10 13 0 8 11 0 6 9 5 10 14 5 10 14 5 10 14 5 10 14 5 10 14 5 10 14 5 10 14 5 10 14 14 19 23 16 21 25 18 23 27 21 26 30 25 30 34 28 33 37 30 35 39 32 37 41 36 40 43 36 40 43 36 40 43 36 40 43 36 40 43 36 40 43 36 40 43 36 40 43 40 44 47 40 44 47 40 44 47 40 44 47 40 44 47 40 44 47 40 44 47 42 43 45 46 44 45 46 42 41 44 40 39 41 37 36 37 33 32 34 30 29 32 28 27 30 26 25 34 30 29 34 30 29 34 30 29 34 30 29 34 30 29 34 30 29 34 30 29 34 30 29 37 32 29 37 32 29 37 32 29 37 32 29 37 32 29 37 32 29 37 32 29 37 32 29 38 33 30 38 33 30 38 33 30 38 33 30 38 33 30 38 33 30 38 33 30 38 33 30
3 2 10 3 2 10 3 2 10 3 2 10 3 2 10 3 2 10 3 2 10 3 2 10 3 2 10 3 2 10 3 2 10 3 2 10 3 2 8 3 2 8 3 2 8 3 2 8 3 2 8 3 2 8 3 2 8 3 2 8 3 2 8 3 2 8 3 2 8 3 2 8 3 2 8 3 2 8 3 2 8 3 2 8 3 1 12 3 1 12 3 1 12 3 1 12 3 1 12 3 1 12 3 1 12 3 1 12 4 2 13 4 2 13 4 2 13 4 2 13 4 2 13 4 2 13 4 2 13 4 2 13 4 4 14 4 4 14 4 4 14 4 4 14 4 4 14 4 4 14 4 4 14 4 4 14 5 5 15 5 5 15 5 5 15 5 5 15 5 5 15 5 5 15 5 5 15 3 6 15 10 13 20 9 14 20 9 14 20 9 14 20 9 14 20 9 14 20 9 14 20 9 14 20 35 40 46 36 41 47 38 43 49 42 47 53 45 50 56 48 53 59 51 56 62 52 57 63 63 68 72 64 69 73 66 71 75 70 75 79 73 78 82 76 81 85 79 84 88 80 85 89 67 72 76 67 72 76 67 72 76 67 72 76 67 72 76 67 72 76 67 72 76 67 72 76 48 56 59 46 54 57 44 52 55 41 49 52 37 45 48 34 42 45 32 40 43 30 38 41 16 24 27 14 22 25 12 20 23 9 17 20 5 13 16 2 10 13 0 8 11 0 6 9 5 10 14 5 10 14 5 10 14 5 10 14 5 10 14 5 10 14 5 10 14 5 10 14 14 19 23 16 21 25 18 23 27 21 26 30 25 30 34 28 33 37 30 35 39 32 37 41 36 40 43 36 40 43 36 40 43 36 40 43 36 40 43 36 40 43 36 40 43 36 40 43 40 44 47 40 44 47 40 44 47 40 44 47 40 44 47 40 44 47 40 44 47 42 43 45 46 44 45 46 42 41 44 40 39 41 37 36 37 33 32 34 30 29 32 28 27 30 26 25 34 30 29 34 30 29 34 30 29 34 30 29 34 30 29 34 30 29 34 30 29 34 30 29 37 32 29 37 32 29 37 32 29 37 32 29 37 32 29 37 32 29 37 32 29 37 32 29 38 33 30 38 33 30 38 33 30 38 33 30 38 33 30 38 33 30 38 33 30 38 33 30
2 1 9 2 1 9 2 1 9 2 1 9 1 0 8 1 0 8 1 0 8 1 0 8 1 0 8 1 0 8 1 0 8 1 0 8 1 0 6 1 0 6 1 0 6 1 0 6 1 0 6 1 0 6 1 0 6 1 0 6 2 1 7 2 1 7 2 1 7 2 1 7 2 1 7 2 1 7 2 1 7 2 1 7 4 2 13 4 2 13 4 2 13 4 2 13 4 2 13 4 2 13 4 2 13 4 2 13 6 4 15 6 4 15 6 4 15 6 4 15 6 4 15 6 4 15 6 4 15 6 4 15 5 5 15 5 5 15 5 5 15 5 5 15 5 5 15 5 5 15 5 5 15 5 5 15 0 0 9 0 0 9 0 0 10 4 4 14 7 7 17 10 10 20 13 13 23 12 15 24 4 7 14 6 11 17 11 16 22 17 22 28 24 29 35 30 35 41 35 40 46 38 43 49 55 60 66 55 60 66 55 60 66 55 60 66 55 60 66 55 60 66 55 60 66 55 60 66 73 78 82 73 78 82 73 78 82 73 78 82 73 78 82 73 78 82 73 78 82 73 78 82 77 82 86 75 80 84 73 78 82 70 75 79 66 71 75 63 68 72 61 66 70 59 64 68 48 56 59 46 54 57 44 52 55 41 49 52 37 45 48 34 42 45 32 40 43 30 38 41 7 15 18 7 15 18 7 15 18 7 15 18 7 15 18 7 15 18 7 15 18 7 15 18 9 14 18 9 14 18 9 14 18 9 14 18 9 14 18 9 14 18 9 14 18 9 14 18 22 27 31 22 27 31 22 27 31 22 27 31 22 27 31 22 27 31 22 27 31 22 27 31 28 32 35 28 32 35 28 32 35 28 32 35 28 32 35 28 32 35 28 32 35 28 32 35 29 33 36 29 33 36 29 33 36 29 33 36 29 33 36 29 33 36 29 33 36 31 32 34 29 27 28 31 27 26 31 27 26 31 27 26 31 27 26 31 27 26 31 27 26 31 27 26 34 30 29 34 30 29 34 30 29 34 30 29 34 30 29 34 30 29 34 30 29 34 30 29 37 32 29 37 32 29 37 32 29 37 32 29 37 32 29 37 32 29 37 32 29 37 32 29 37 32 29 37 32 29 37 32 29 37 32 29 37 32 29 37 32 29 37 32 29 37 32 29
2 1 9 2 1 9 2 1 9 2 1 9 1 0 8 1 0 8 1 0 8 1 0 8 1 0 8 1 0 8 1 0 8 1 0 8 1 0 6 1 0 6 1 0 6 1 0 6 1 0 6 1 0 6 1 0 6 1 0 6 2 1 7 2 1 7 2 1 7 2 1 7 2 1 7 2 1 7 2 1 7 2 1 7 4 2 13 4 2 13 4 2 13 4 2 13 4 2 13 4 2 13 4 2 13 4 2 13 6 4 15 6 4 15 6 4 15 6 4 15 6 4 15 6 4 15 6 4 15 6 4 15 5 5 15 5 5 15 5 5 15 5 5 15 5 5 15 5 5 15 5 5 15 5 5 15 0 0 9 0 0 9 2 2 12 5 5 15 8 8 18 12 12 22 14 14 24 13 16 25 7 10 17 9 14 20 13 18 24 20 25 31 27 32 38 33 38 44 38 43 49 41 46 52 57 62 68 57 62 68 57 62 68 57 62 68 57 62 68 57 62 68 57 62 68 57 62 68 73 78 82 73 78 82 73 78 82 73 78 82 73 78 82 73 78 82 73 78 82 73 78 82 77 82 86 75 80 84 73 78 82 70 75 79 66 71 75 63 68 72 61 66 70 59 64 68 48 56 59 46 54 57 44 52 55 41 49 52 37 45 48 34 42 45 32 40 43 30 38 41 7 15 18 7 15 18 7 15 18 7 15 18 7 15 18 7 15 18 7 15 18 7 15 18 9 14 18 9 14 18 9 14 18 9 14 18 9 14 18 9 14 18 9 14 18 9 14 18 22 27 31 22 27 31 22 27 31 22 27 31 22 27 31 22 27 31 22 27 31 22 27 31 28 32 35 28 32 35 28 32 35 28 32 35 28 32 35 28 32 35 28 32 35 28 32 35 29 33 36 29 33 36 29 33 36 29 33 36 29 33 36 29 33 36 29 33 36 31 32 34 29 27 28 31 27 26 31 27 26 31 27 26 31 27 26 31 27 26 31 27 26 31 27 26 34 30 29 34 30 29 34 30 29 34 30 29 34 30 29 34 30 29 34 30 29 34 30 29 37 32 29 37 32 29 37 32 29 37 32 29 37 32 29 37 32 29 37 32 29 37 32 29 37 32 29 37 32 29 37 32 29 37 32 29 37 32 29 37 32 29 37 32 29 37 32 29
2 1 9 2 1 9 2 1 9 2 1 9 1 0 8 1 0 8 1 0 8 1 0 8 1 0 8 1 0 8 1 0 8 1 0 8 1 0 6 1 0 6 1 0 6 1 0 6 1 0 6 1 0 6 1 0 6 1 0 6 2 1 7 2 1 7 2 1 7 2 1 7 2 1 7 2 1 7 2 1 7 2 1 7 4 2 13 4 2 13 4 2 13 4 2 13 4 2 13 4 2 13 4 2 13 4 2 13 6 4 15 6 4 15 6 4 15 6 4 15 6 4 15 6 4 15 6 4 15 6 4 15 5 5 15 5 5 15 5 5 15 5 5 15 5 5 15 5 5 15 5 5 15 5 5 15 0 0 10 2 2 12 4 4 14 7 7 17 11 11 21 14 14 24 16 16 26 16 19 28 12 15 22 13 18 24 18 23 29 25 30 36 32 37 43 38 43 49 43 48 54 46 51 57 59 64 70 59 64 70 59 64 70 59 64 70 59 64 70 59 64 70 59 64 70 59 64 70 73 78 82 73 78 82 73 78 82 73 78 82 73 78 82 73 78 82 73 78 82 73 78 82 77 82 86 75 80 84 73 78 82 70 75 79 66 71 75 63 68 72 61 66 70 59 64 68 48 56 59 46 54 57 44 52 55 41 49 52 37 45 48 34 42 45 32 40 43 30 38 41 7 15 18 7 15 18 7 15 18 7 15 18 7 15 18 7 15 18 7 15 18 7 15 18 9 14 18 9 14 18 9 14 18 9 14 18 9 14 18 9 14 18 9 14 18 9 14 18 22 27 31 22 27 31 22 27 31 22 27 31 22 27 31 22 27 31 22 27 31 22 27 31 28 32 35 28 32 35 28 32 35 28 32 35 28 32 35 28 32 35 28 32 35 28 32 35 29 33 36 29 33 36 29 33 36 29 33 36 29 33 36 29 33 36 29 33 36 31 32 34 29 27 28 31 27 26 31 27 26 31 27 26 31 27 26 31 27 26 31 27 26 31 27 26 34 30 29 34 30 29 34 30 29 34 30 29 34 30 29 34 30 29 34 30 29 34 30 29 37 32 29 37 32 29 37 32 29 37 32 29 37 32 29 37 32 29 37 32 29 37 32 29 37 32 29 37 32 29 37 32 29 37 32 29 37 32 29 37 32 29 37 32 29 37 32 29
2 1 9 2 1 9 2 1 9 2 1 9 1 0 8 1 0 8 1 0 8 1 0 8 1 0 8 1 0 8 1 0 8 1 0 8 1 0 6 1 0 6 1 0 6 1 0 6 1 0 6 1 0 6 1 0 6 1 0 6 2 1 7 2 1 7 2 1 7 2 1 7 2 1 7 2 1 7 2 1 7 2 1 7 4 2 13 4 2 13 4 2 13 4 2 13 4 2 13 4 2 13 4 2 13 4 2 13 6 4 15 6 4 15 6 4 15 6 4 15 6 4 15 6 4 15 6 4 15 6 4 15 5 5 15 5 5 15 5 5 15 5 5 15 5 5 15 5 5 15 5 5 15 5 5 15 4 4 14 5 5 15 7 7 17 11 11 21 14 14 24 17 17 27 20 20 30 19 22 31 18 21 28 20 25 31 25 30 36 31 36 42 38 43 49 44 49 55 49 54 60 52 57 63 62 67 73 62 67 73 62 67 73 62 67 73 62 67 73 62 67 73 62 67 73 62 67 73 73 78 82 73 78 82 73 78 82 73 78 82 73 78 82 73 78 82 73 78 82 73 78 82 77 82 86 75 80 84 73 78 82 70 75 79 66 71 75 63 68 72 61 66 70 59 64 68 48 56 59 46 54 57 44 52 55 41 49 52 37 45 48 34 42 45 32 40 43 30 38 41 7 15 18 7 15 18 7 15 18 7 15 18 7 15 18 7 15 18 7 15 18 7 15 18 9 14 18 9 14 18 9 14 18 9 14 18 9 14 18 9 14 18 9 14 18 9 14 18 22 27 31 22 27 31 22 27 31 22 27 31 22 27 31 22 27 31 22 27 31 22 27 31 28 32 35 28 32 35 28 32 35 28 32 35 28 32 35 28 32 35 28 32 35 28 32 35 29 33 36 29 33 36 29 33 36 29 33 36 29 33 36 29 33 36 29 33 36 31 32 34 29 27 28 31 27 26 31 27 26 31 27 26 31 27 26 31 27 26 31 27 26 31 27 26 34 30 29 34 30 29 34 30 29 34 30 29 34 30 29 34 30 29 34 30 29 34 30 29 37 32 29 37 32 29 37 32 29 37 32 29 37 32 29 37 32 29 37 32 29 37 32 29 37 32 29 37 32 29 37 32 29 37 32 29 37 32 29 37 32 29 37 32 29 37 32 29
2 1 9 2 1 9 2 1 9 2 1 9 1 0 8 1 0 8 1 0 8 1 0 8 1 0 8 1 0 8 1 0 8 1 0 8 1 0 6 1 0 6 1 0 6 1 0 6 1 0 6 1 0 6 1 0 6 1 0 6 2 1 7 2 1 7 2 1 7 2 1 7 2 1 7 2 1 7 2 1 7 2 1 7 4 2 13 4 2 13 4 2 13 4 2 13 4 2 13 4 2 13 4 2 13 4 2 13 6 4 15 6 4 15 6 4 15 6 4 15 6 4 15 6 4 15 6 4 15 6 4 15 5 5 15 5 5 15 5 5 15 5 5 15 5 5 15 5 5 15 5 5 15 5 5 15 7 7 17 8 8 18 11 11 21 14 14 24 17 17 27 21 21 31 23 23 33 22 25 34 25 28 35 27 32 38 32 37 43 38 43 49 45 50 56 51 56 62 56 61 67 59 64 70 66 71 77 66 71 77 66 71 77 66 71 77 66 71 77 66 71 77 66 71 77 66 71 77 73 78 82 73 78 82 73 78 82 73 78 82 73 78 82 73 78 82 73 78 82 73 78 82 77 82 86 75 80 84 73 78 82 70 75 79 66 71 75 63 68 72 61 66 70 59 64 68 48 56 59 46 54 57 44 52 55 41 49 52 37 45 48 34 42 45 32 40 43 30 38 41 7 15 18 7 15 18 7 15 18 7 15 18 7 15 18 7 15 18 7 15 18 7 15 18 9 14 18 9 14 18 9 14 18 9 14 18 9 14 18 9 14 18 9 14 18 9 14 18 22 27 31 22 27 31 22 27 31 22 27 31 22 27 31 22 27 31 22 27 31 22 27 31 28 32 35 28 32 35 28 32 35 28 32 35 28 32 35 28 32 35 28 32 35 28 32 35 29 33 36 29 33 36 29 33 36 29 33 36 29 33 36 29 33 36 29 33 36 31 32 34 29 27 28 31 27 26 31 27 26 31 27 26 31 27 26 31 27 26 31 27 26 31 27 26 34 30 29 34 30 29 34 30 29 34 30 29 34 30 29 34 30 29 34 30 29 34 30 29 37 32 29 37 32 29 37 32 29 37 32 29 37 32 29 37 32 29 37 32 29 37 32 29 37 32 29 37 32 29 37 32 29 37 32 29 37 32 29 37 32 29 37 32 29 37 32 29
2 1 9 2 1 9 2 1 9 2 1 9 1 0 8 1 0 8 1 0 8 1 0 8 1 0 8 1 0 8 1 0 8 1 0 8 1 0 6 1 0 6 1 0 6 1 0 6 1 0 6 1 0 6 1 0 6 1 0 6 2 1 7 2 1 7 2 1 7 2 1 7 2 1 7 2 1 7 2 1 7 2 1 7 4 2 13 4 2 13 4 2 13 4 2 13 4 2 13 4 2 13 4 2 13 4 2 13 6 4 15 6 4 15 6 4 15 6 4 15 6 4 15 6 4 15 6 4 15 6 4 15 5 5 15 5 5 15 5 5 15 5 5 15 5 5 15 5 5 15 5 5 15 5 5 15 10 10 20 12 12 22 14 14 24 17 17 27 21 21 31 24 24 34 26 26 36 26 29 38 31 34 41 33 38 44 38 43 49 44 49 55 51 56 62 58 63 69 63 68 74 65 70 76 69 74 80 69 74 80 69 74 80 69 74 80 69 74 80 69 74 80 69 74 80 69 74 80 73 78 82 73 78 82 73 78 82 73 78 82 73 78 82 73 78 82 73 78 82 73 78 82 77 82 86 75 80 84 73 78 82 70 75 79 66 71 75 63 68 72 61 66 70 59 64 68 48 56 59 46 54 57 44 52 55 41 49 52 37 45 48 34 42 45 32 40 43 30 38 41 7 15 18 7 15 18 7 15 18 7 15 18 7 15 18 7 15 18 7 15 18 7 15 18 9 14 18 9 14 18 9 14 18 9 14 18 9 14 18 9 14 18 9 14 18 9 14 18 22 27 31 22 27 31 22 27 31 22 27 31 22 27 31 22 27 31 22 27 31 22 27 31 28 32 35 28 32 35 28 32 35 28 32 35 28 32 35 28 32 35 28 32 35 28 32 35 29 33 36 29 33 36 29 33 36 29 33 36 29 33 36 29 33 36 29 33 36 31 32 34 29 27 28 31 27 26 31 27 26 31 27 26 31 27 26 31 27 26 31 27 26 31 27 26 34 30 29 34 30 29 34 30 29 34 30 29 34 30 29 34 30 29 34 30 29 34 30 29 37 32 29 37 32 29 37 32 29 37 32 29 37 32 29 37 32 29 37 32 29 37 32 29 37 32 29 37 32 29 37 32 29 37 32 29 37 32 29 37 32 29 37 32 29 37 32 29
2 1 9 2 1 9 2 1 9 2 1 9 1 0 8 1 0 8 1 0 8 1 0 8 1 0 8 1 0 8 1 0 8 1 0 8 1 0 6 1 0 6 1 0 6 1 0 6 1 0 6 1 0 6 1 0 6 1 0 6 2 1 7 2 1 7 2 1 7 2 1 7 2 1 7 2 1 7 2 1 7 2 1 7 4 2 13 4 2 13 4 2 13 4 2 13 4 2 13 4 2 13 4 2 13 4 2 13 6 4 15 6 4 15 6 4 15 6 4 15 6 4 15 6 4 15 6 4 15 6 4 15 5 5 15 5 5 15 5 5 15 5 5 15 5 5 15 5 5 15 5 5 15 5 5 15 13 13 23 14 14 24 16 16 26 20 20 30 23 23 33 26 26 36 29 29 39 28 31 40 36 39 46 38 43 49 43 48 54 49 54 60 56 61 67 63 68 74 67 72 78 70 75 81 71 76 82 71 76 82 71 76 82 71 76 82 71 76 82 71 76 82 71 76 82 71 76 82 73 78 82 73 78 82 73 78 82 73 78 82 73 78 82 73 78 82 73 78 82 73 78 82 77 82 86 75 80 84 73 78 82 70 75 79 66 71 75 63 68 72 61 66 70 59 64 68 48 56 59 46 54 57 44 52 55 41 49 52 37 45 48 34 42 45 32 40 43 30 38 41 7 15 18 7 15 18 7 15 18 7 15 18 7 15 18 7 15 18 7 15 18 7 15 18 9 14 18 9 14 18 9 14 18 9 14 18 9 14 18 9 14 18 9 14 18 9 14 18 22 27 31 22 27 31 22 27 31 22 27 31 22 27 31 22 27 31 22 27 31 22 27 31 28 32 35 28 32 35 28 32 35 28 32 35 28 32 35 28 32 35 28 32 35 28 32 35 29 33 36 29 33 36 29 33 36 29 33 36 29 33 36 29 33 36 29 33 36 31 32 34 29 27 28 31 27 26 31 27 26 31 27 26 31 27 26 31 27 26 31 27 26 31 27 26 34 30 29 34 30 29 34 30 29 34 30 29 34 30 29 34 30 29 34 30 29 34 30 29 37 32 29 37 32 29 37 32 29 37 32 29 37 32 29 37 32 29 37 32 29 37 32 29 37 32 29 37 32 29 37 32 29 37 32 29 37 32 29 37 32 29 37 32 29 37 32 29
2 1 7 2 1 7 2 1 7 2 1 7 1 0 6 1 0 6 1 0 6 1 0 6 1 0 6 1 0 6 1 0 6 1 0 6 1 0 6 1 0 6 1 0 6 1 0 6 1 0 6 1 0 6 1 0 6 1 0 6 2 1 7 2 1 7 2 1 7 2 1 7 2 1 7 2 1 7 2 1 7 2 1 7 3 3 11 3 3 11 3 3 11 3 3 11 3 3 11 3 3 11 3 3 11 3 3 11 5 5 13 5 5 13 5 5 13 5 5 13 5 5 13 5 5 13 5 5 13 5 5 13 3 6 15 3 6 15 3 6 15 3 6 15 3 6 15 3 6 15 3 6 15 3 6 15 12 15 24 13 16 25 16 19 28 19 22 31 22 25 34 26 29 38 28 31 40 29 32 39 38 43 49 41 46 52 46 51 57 52 57 63 59 64 70 65 70 76 70 75 81 73 78 84 73 78 84 73 78 84 73 78 84 73 78 84 73 78 84 73 78 84 73 78 84 73 78 82 73 78 82 73 78 81 73 78 82 73 78 81 73 78 82 73 78 81 73 78 82 73 78 81 77 82 86 75 80 83 73 78 82 70 75 78 66 71 75 63 68 71 61 66 70 59 64 68 48 56 59 46 54 57 44 52 55 41 49 52 37 45 48 34 42 45 32 40 43 30 38 41 7 15 18 7 15 18 7 15 18 7 15 18 7 15 18 7 15 18 7 15 18 7 15 18 7 15 18 7 15 18 9 14 18 7 15 18 9 14 18 7 15 18 9 14 18 7 15 18 22 27 31 20 28 31 22 27 31 20 28 31 22 27 31 20 28 31 22 27 31 22 27 31 27 32 35 27 32 35 28 32 35 27 32 35 28 32 35 27 32 35 28 32 35 27 32 35 29 33 36 28 33 36 29 33 36 28 33 36 29 33 36 28 33 36 29 33 36 31 32 34 29 27 28 31 27 26 32 26 26 31 27 26 32 26 26 31 27 26 32 26 26 31 27 26 35 29 29 34 30 29 35 29 29 34 30 29 35 29 29 34 30 29 35 29 29 35 29 29 37 32 29 37 32 29 37 32 29 37 32 29 37 32 29 37 32 29 37 32 29 37 32 29 37 32 29 37 32 29 37 32 29 37 32 29 37 32 29 37 32 29 37 32 29 37 32 29
1 0 5 1 0 5 1 0 5 1 0 5 1 0 5 1 0 5 1 0 5 1 0 5 1 0 5 1 0 5 1 0 5 1 0 5 2 1 6 2 1 6 2 1 6 2 1 6 2 1 6 2 1 6 2 1 6 2 1 6 2 1 6 2 1 6 2 1 6 2 1 6 2 1 6 2 1 6 2 1 6 1 2 6 1 4 9 1 4 9 1 4 9 1 4 9 1 4 9 1 4 9 1 4 9 1 4 9 8 11 16 8 11 16 8 11 16 8 11 16 8 11 16 8 11 16 8 11 16 7 12 16 0 1 7 0 1 7 0 1 7 0 4 10 1 8 14 4 11 17 6 13 19 8 15 21 6 13 19 10 17 23 15 22 28 23 30 36 31 38 44 39 46 52 45 52 58 48 55 61 67 72 78 67 72 76 67 72 76 67 72 76 67 72 76 67 72 76 67 72 76 67 72 76 72 77 81 72 77 81 72 77 81 72 77 81 72 77 81 72 77 81 72 77 81 72 77 81 80 84 87 80 84 85 80 84 87 80 84 85 80 84 87 80 84 85 80 84 87 80 84 85 79 83 86 79 83 84 79 83 86 79 83 84 79 83 86 79 83 84 79 83 86 78 83 86 67 75 77 64 72 74 59 67 69 53 61 63 46 54 56 40 48 50 35 43 45 32 40 42 14 22 24 14 22 24 14 22 24 14 22 24 14 22 24 14 22 24 14 22 24 14 22 24 15 23 26 14 24 26 15 23 26 14 24 26 15 23 26 14 24 26 15 23 26 14 24 26 13 21 24 12 22 24 13 21 24 12 22 24 13 21 24 12 22 24 13 21 24 13 21 24 24 32 35 24 32 35 26 31 35 24 32 35 26 31 35 24 32 35 26 31 35 24 32 35 18 23 27 16 24 27 18 23 27 16 24 27 18 23 27 16 24 27 18 23 27 19 23 26 31 27 26 32 27 24 34 26 24 32 27 24 34 26 24 32 27 24 34 26 24 32 27 24 37 29 27 35 30 27 37 29 27 35 30 27 37 29 27 35 30 27 37 29 27 37 29 27 37 29 27 37 29 27 37 29 27 37 29 27 37 29 27 37 29 27 37 29 27 37 29 27 38 30 28 38 30 28 38 30 28 38 30 28 38 30 28 38 30 28 38 30 28 38 30 28
1 1 3 1 1 3 1 1 3 1 1 3 1 1 3 1 1 3 1 1 3 1 1 3 1 1 3 1 1 3 1 1 3 1 1 3 2 1 6 2 1 6 2 1 6 2 1 6 2 1 6 2 1 6 2 1 6 2 1 6 2 1 6 2 1 6 2 1 6 2 1 6 2 1 6 2 1 6 2 1 6 1 2 6 1 5 8 0 5 8 0 5 8 0 5 8 0 5 8 0 5 8 0 5 8 0 5 8 7 12 15 7 12 15 7 12 15 7 12 15 7 12 15 7 12 15 7 12 15 5 13 15 0 1 7 0 4 9 0 6 11 0 9 14 4 13 18 7 16 21 9 18 23 11 20 25 15 24 29 18 27 32 24 33 38 31 40 45 38 47 52 45 54 59 50 59 64 53 62 67 67 72 76 67 72 76 67 72 76 67 72 76 67 72 76 67 72 76 67 72 76 67 72 76 72 77 81 72 77 81 72 77 81 72 77 81 72 77 81 72 77 81 72 77 81 72 77 80 80 84 87 80 84 85 80 84 85 80 84 85 80 84 85 80 84 85 80 84 85 80 84 85 81 85 86 81 85 86 81 85 86 81 85 86 81 85 86 81 85 86 81 85 86 80 86 86 72 77 80 67 75 77 62 70 72 56 64 66 49 57 59 42 50 52 38 46 48 35 43 45 16 24 26 16 24 26 16 24 26 16 24 26 16 24 26 16 24 26 16 24 26 16 24 26 14 24 26 14 24 26 14 24 26 14 24 26 14 24 26 14 24 26 14 24 26 14 24 26 12 22 24 12 22 24 12 22 24 12 22 24 12 22 24 12 22 24 12 22 24 12 22 24 22 30 33 22 30 33 22 30 33 22 30 33 22 30 33 22 30 33 22 30 33 22 30 33 16 24 27 16 24 27 16 24 27 16 24 27 16 24 27 16 24 27 16 24 27 19 23 26 31 27 26 34 26 24 34 26 24 34 26 24 34 26 24 34 26 24 34 26 24 34 26 24 37 29 27 37 29 27 37 29 27 37 29 27 37 29 27 37 29 27 37 29 27 37 29 27 37 29 27 37 29 27 37 29 27 37 29 27 37 29 27 37 29 27 37 29 27 37 29 27 38 30 28 38 30 28 38 30 28 38 30 28 38 30 28 38 30 28 38 30 28 38 30 28
1 1 3 1 1 3 1 1 3 1 1 3 1 1 3 1 1 3 1 1 3 1 1 3 1 1 3 1 1 3 1 1 3 1 1 3 2 1 6 2 1 6 2 1 6 2 1 6 2 1 6 2 1 6 2 1 6 2 1 6 2 1 6 2 1 6 2 1 6 2 1 6 2 1 6 2 1 6 2 1 6 1 2 6 1 5 8 0 5 8 0 5 8 0 5 8 0 5 8 0 5 8 0 5 8 0 5 8 7 12 15 7 12 15 7 12 15 7 12 15 7 12 15 7 12 15 7 12 15 5 13 15 2 9 15 2 11 16 4 13 18 8 17 22 11 20 25 14 23 28 17 26 31 18 27 32 32 41 46 34 43 48 38 47 52 44 53 58 50 59 64 56 65 70 60 69 74 63 72 77 67 72 76 67 72 76 67 72 76 67 72 76 67 72 76 67 72 76 67 72 76 67 72 76 72 77 81 72 77 81 72 77 81 72 77 81 72 77 81 72 77 81 72 77 81 72 77 80 80 84 87 80 84 85 80 84 85 80 84 85 80 84 85 80 84 85 80 84 85 80 84 85 83 87 88 83 87 88 83 87 88 83 87 88 83 87 88 83 87 88 83 87 88 82 88 88 77 82 85 72 80 82 67 75 77 61 69 71 54 62 64 47 55 57 42 50 52 40 48 50 18 26 28 18 26 28 18 26 28 18 26 28 18 26 28 18 26 28 18 26 28 18 26 28 14 24 26 14 24 26 14 24 26 14 24 26 14 24 26 14 24 26 14 24 26 14 24 26 12 22 24 12 22 24 12 22 24 12 22 24 12 22 24 12 22 24 12 22 24 12 22 24 20 28 31 20 28 31 20 28 31 20 28 31 20 28 31 20 28 31 20 28 31 20 28 31 16 24 27 16 24 27 16 24 27 16 24 27 16 24 27 16 24 27 16 24 27 19 23 26 31 27 26 34 26 24 34 26 24 34 26 24 34 26 24 34 26 24 34 26 24 34 26 24 37 29 27 37 29 27 37 29 27 37 29 27 37 29 27 37 29 27 37 29 27 37 29 27 37 29 27 37 29 27 37 29 27 37 29 27 37 29 27 37 29 27 37 29 27 37 29 27 38 30 28 38 30 28 38 30 28 38 30 28 38 30 28 38 30 28 38 30 28 38 30 28
