P3
172 37
255
126 113 122 126 113 122 126 113 122 126 113 122 129 116 125 129 116 125 129 116 125 129 116 125 129 116 125 129 116 125 129 116 125 129 116 125 130 117 126 129 118 126 130 117 126 129 118 126 130 117 126 129 118 126 130 117 126 129 118 126 122 109 118 121 110 118 122 109 118 121 110 118 122 109 118 121 110 118 122 109 118 121 110 118 118 105 114 115 104 112 114 101 110 110 99 107 107 94 103 103 92 100 102 89 98 99 88 96 91 78 87 89 78 86 88 75 84 83 72 80 81 68 77 77 66 74 75 62 71 73 62 70 65 54 62 64 54 62 65 54 62 64 54 62 65 54 62 64 54 62 65 54 62 64 54 62 56 45 53 54 44 52 52 41 49 48 38 46 46 35 43 41 31 39 40 29 37 35 30 36 22 28 28 17 27 26 15 25 24 12 22 21 8 18 17 5 15 14 3 13 12 1 11 10 0 3 2 0 4 3 0 7 6 0 10 9 4 14 13 8 18 17 11 21 20 12 22 21 6 18 16 6 18 16 6 18 16 6 18 16 6 18 16 6 18 16 6 18 16 6 18 16 3 15 13 3 15 13 3 15 13 3 15 13 3 15 13 3 15 13 3 15 13 0 16 13 0 13 5 0 16 7 0 18 9 0 21 12 0 25 16 1 28 19 3 30 21 5 32 23 8 35 26 5 32 23 0 27 18 0 20 11 0 12 3 0 9 0 0 9 0 0 9 0 0 18 6 0 18 6 0 18 6 0 18 6 0 18 6 0 18 6 0 18 6 0 18 6 0 28 16 2 30 18 4 32 20 7 35 23 11 39 27 14 42 30 16 44 32 21 44 34 41 58 50 46 59 52 51 64 57 58 71 64 64 77 70 71 84 77 76 89 82 78 91 84 84 97 90 85 98 91 88 101 94 91 104 97 94 107 100 98 111 104 100 113 106 99 114 107 81 101 92 70 91 82 55 76 67 40 61 52 29 50 41 25 46 37 26 47 38 28 49 40 27 48 39 27 48 39 27 48 39 27 48 39 27 48 39 27 48 39 27 48 39 27 48 39 24 45 36 24 45 36 24 45 36 24 45 36 24 45 36 24 45 36 24 45 36 24 45 36 26 47 38 26 47 38 26 47 38 26 47 38 26 47 38 26 47 38 26 47 38 29 46 38
126 116 125 126 116 125 126 116 125 126 116 125 127 117 126 127 117 126 127 117 126 127 117 126 127 117 126 127 117 126 127 117 126 128 116 126 132 116 127 132 116 127 132 116 127 132 116 127 132 116 127 132 116 127 132 116 127 132 116 127 124 108 119 124 108 119 124 108 119 124 108 119 124 108 119 124 108 119 124 108 119 124 108 119 120 104 115 116 103 113 114 101 111 111 98 108 107 94 104 104 91 101 102 89 99 100 87 97 90 77 87 89 76 86 86 73 83 83 70 80 80 67 77 76 63 73 74 61 71 73 60 70 63 51 61 63 51 61 63 51 61 63 51 61 63 51 61 63 51 61 63 51 61 63 51 61 53 41 51 52 40 50 50 38 48 46 34 44 43 31 41 40 28 38 37 25 35 33 26 34 21 22 26 14 22 24 14 19 22 9 17 19 7 12 15 2 10 12 2 7 10 0 6 8 0 1 4 0 2 4 0 1 4 0 6 8 5 10 13 7 15 17 13 18 21 13 21 23 7 17 18 7 17 18 7 17 18 7 17 18 7 17 18 7 17 18 7 17 18 7 17 18 4 14 15 4 14 15 4 14 15 4 14 15 4 14 15 4 14 15 4 14 15 1 16 13 0 13 7 0 16 9 0 18 11 0 21 14 0 25 18 1 28 21 3 30 23 5 32 25 10 37 30 7 34 27 1 28 21 0 20 13 0 12 5 0 9 2 0 9 2 0 9 2 0 17 8 0 17 8 0 17 8 0 17 8 0 17 8 0 17 8 0 17 8 0 17 8 0 27 18 2 29 20 4 31 22 7 34 25 11 38 29 14 41 32 16 43 34 21 44 36 42 57 52 47 58 52 52 63 59 59 70 64 65 76 72 72 83 77 77 88 84 79 90 84 84 95 91 85 96 90 87 98 94 91 102 96 94 105 101 97 108 102 100 111 107 100 113 106 81 101 92 70 91 82 55 76 67 40 61 52 29 50 41 25 46 37 26 47 38 28 49 40 27 48 39 27 48 39 27 48 39 27 48 39 27 48 39 27 48 39 27 48 39 27 48 39 24 45 36 24 45 36 25 45 36 24 45 36 25 45 36 24 45 36 25 45 36 24 45 36 27 47 38 26 47 38 27 47 38 26 47 38 27 47 38 26 47 38 27 47 38 29 46 38
128 111 127 128 111 127 128 111 127 128 111 127 129 112 128 129 112 128 129 112 128 129 112 128 129 112 128 129 112 128 129 112 128 129 112 128 127 109 123 127 109 123 127 109 123 127 109 123 127 109 123 127 109 123 127 109 123 127 109 123 133 115 129 132 114 128 130 112 126 126 108 122 123 105 119 120 102 116 117 99 113 115 99 112 108 94 107 106 94 106 104 92 104 100 88 100 97 85 97 94 82 94 91 79 91 90 78 90 98 86 98 96 84 96 91 79 91 84 72 84 78 66 78 71 59 71 66 54 66 63 52 66 49 41 54 47 41 55 44 38 52 41 35 49 38 32 46 34 28 42 32 26 40 31 25 39 22 16 30 22 16 30 22 16 30 22 16 30 22 16 30 22 16 30 22 16 30 20 17 28 7 7 15 4 9 15 5 8 15 4 9 15 5 8 15 4 9 15 5 8 15 4 9 15 6 9 16 5 10 16 6 9 16 5 10 16 6 9 16 5 10 16 6 9 16 5 10 16 7 12 16 5 13 16 5 13 16 5 13 16 5 13 16 5 13 16 5 13 16 5 13 16 1 9 12 1 9 12 1 9 12 1 9 12 1 9 12 1 9 12 1 9 12 0 10 12 0 5 7 0 8 8 0 12 12 2 16 16 7 21 21 11 25 25 15 29 29 16 30 30 31 45 45 23 37 37 10 24 24 0 12 12 0 5 5 0 4 4 0 7 7 0 10 10 0 9 9 0 9 9 0 9 9 0 9 9 0 9 9 0 9 9 0 9 9 0 9 9 10 22 22 12 24 24 14 26 26 17 29 29 21 33 33 24 36 36 26 38 38 28 40 40 46 55 54 48 57 54 50 59 58 53 62 59 57 66 65 60 69 66 62 71 70 64 73 70 78 87 86 79 88 85 82 91 90 85 94 91 88 97 96 92 101 98 94 103 102 95 104 101 89 95 91 79 85 81 64 70 66 49 55 51 38 44 40 34 40 36 35 41 37 37 43 39 36 42 38 36 42 38 36 42 38 36 42 38 36 42 38 36 42 38 36 42 38 36 42 38 34 40 38 34 40 38 35 39 38 34 40 38 35 39 38 34 40 38 35 39 38 34 40 38 33 37 36 32 38 36 33 37 36 32 38 36 33 37 36 32 38 36 33 37 36 33 37 36
129 110 129 129 110 129 129 110 129 129 110 129 130 111 130 130 111 130 130 111 130 130 111 130 130 111 130 130 111 130 130 111 130 130 111 130 127 109 125 127 109 125 127 109 125 127 109 125 127 109 125 127 109 125 127 109 125 127 109 125 132 114 130 131 113 129 128 110 126 125 107 123 122 104 120 118 100 116 116 98 114 114 97 113 106 94 108 104 93 107 101 90 104 98 87 101 95 84 98 91 80 94 89 78 92 88 77 91 93 82 96 91 80 94 86 75 89 80 69 83 73 62 76 66 55 69 61 50 64 57 49 62 45 38 54 42 38 53 40 36 51 36 32 47 33 29 44 30 26 41 27 23 38 26 22 37 18 14 29 18 14 29 18 14 29 18 14 29 18 14 29 18 14 29 18 14 29 17 15 28 7 7 19 5 8 17 5 8 17 5 8 17 5 8 17 5 8 17 5 8 17 5 8 17 6 9 18 6 9 18 6 9 18 6 9 18 6 9 18 6 9 18 6 9 18 6 9 18 7 12 18 7 12 18 7 12 18 7 12 18 7 12 18 7 12 18 7 12 18 7 12 18 5 10 16 5 10 16 5 10 16 5 10 16 5 10 16 5 10 16 5 10 16 5 10 16 0 7 10 1 9 12 4 12 15 8 16 19 12 20 23 15 23 26 18 26 29 20 28 31 35 43 46 27 35 38 14 22 25 2 10 13 0 3 6 0 2 5 0 5 8 0 8 11 1 6 10 1 6 10 1 6 10 1 6 10 1 6 10 1 6 10 1 6 10 1 6 10 14 19 23 16 21 25 18 23 27 21 26 30 25 30 34 28 33 37 30 35 39 32 37 40 48 53 56 50 56 56 52 58 58 55 61 61 59 65 65 62 68 68 64 70 70 66 72 72 79 85 85 80 86 86 82 88 88 86 92 92 89 95 95 92 98 98 95 101 101 97 101 100 92 94 93 83 83 81 68 68 66 53 53 51 42 42 40 38 38 36 39 39 37 41 41 39 40 40 38 40 40 38 40 40 38 40 40 38 40 40 38 40 40 38 40 40 38 40 40 38 39 37 38 39 37 38 39 37 38 39 37 38 39 37 38 39 37 38 39 37 38 39 37 38 37 35 36 37 35 36 37 35 36 37 35 36 37 35 36 37 35 36 37 35 36 37 35 36
129 110 129 129 110 129 129 110 129 129 110 129 130 111 130 130 111 130 130 111 130 130 111 130 130 111 130 130 111 130 130 111 130 130 111 130 127 109 125 127 109 125 127 109 125 127 109 125 127 109 125 127 109 125 127 109 125 127 109 125 130 112 128 128 110 126 126 108 124 123 105 121 119 101 117 116 98 114 114 96 112 111 94 110 104 92 106 101 90 104 99 88 102 96 85 99 92 81 95 89 78 92 87 76 90 85 74 88 86 75 89 83 72 86 79 68 82 72 61 75 65 54 68 59 48 62 54 43 57 49 41 54 40 33 49 37 33 48 35 31 46 32 28 43 28 24 39 25 21 36 22 18 33 21 17 32 16 12 27 16 12 27 16 12 27 16 12 27 16 12 27 16 12 27 16 12 27 15 13 26 7 7 19 5 8 17 5 8 17 5 8 17 5 8 17 5 8 17 5 8 17 5 8 17 6 9 18 6 9 18 6 9 18 6 9 18 6 9 18 6 9 18 6 9 18 6 9 18 7 12 18 7 12 18 7 12 18 7 12 18 7 12 18 7 12 18 7 12 18 7 12 18 7 12 18 7 12 18 7 12 18 7 12 18 7 12 18 7 12 18 7 12 18 7 12 18 5 13 16 6 14 17 8 16 19 11 19 22 13 21 24 16 24 27 18 26 29 19 27 30 35 43 46 27 35 38 14 22 25 2 10 13 0 3 6 0 2 5 0 5 8 0 8 11 1 6 10 1 6 10 1 6 10 1 6 10 1 6 10 1 6 10 1 6 10 1 6 10 14 19 23 16 21 25 18 23 27 21 26 30 25 30 34 28 33 37 30 35 39 32 37 40 48 53 56 50 56 56 52 58 58 55 61 61 59 65 65 62 68 68 64 70 70 66 72 72 76 82 82 78 84 84 80 86 86 83 89 89 87 93 93 90 96 96 92 98 98 95 99 98 92 94 93 83 83 81 68 68 66 53 53 51 42 42 40 38 38 36 39 39 37 41 41 39 40 40 38 40 40 38 40 40 38 40 40 38 40 40 38 40 40 38 40 40 38 40 40 38 39 37 38 39 37 38 39 37 38 39 37 38 39 37 38 39 37 38 39 37 38 39 37 38 37 35 36 37 35 36 37 35 36 37 35 36 37 35 36 37 35 36 37 35 36 37 35 36
129 110 129 129 110 129 129 110 129 129 110 129 130 111 130 130 111 130 130 111 130 130 111 130 130 111 130 130 111 130 130 111 130 130 111 130 127 109 125 127 109 125 127 109 125 127 109 125 127 109 125 127 109 125 127 109 125 127 109 125 126 108 124 125 107 123 123 105 121 119 101 117 116 98 114 113 95 111 110 92 108 108 91 107 100 88 102 98 87 101 96 85 99 92 81 95 89 78 92 86 75 89 83 72 86 82 71 85 77 66 80 74 63 77 69 58 72 63 52 66 56 45 59 49 38 52 44 33 47 40 32 45 34 27 43 31 27 42 28 24 39 25 21 36 22 18 33 19 15 30 16 12 27 15 11 26 13 9 24 13 9 24 13 9 24 13 9 24 13 9 24 13 9 24 13 9 24 12 10 23 7 7 19 5 8 17 5 8 17 5 8 17 5 8 17 5 8 17 5 8 17 5 8 17 6 9 18 6 9 18 6 9 18 6 9 18 6 9 18 6 9 18 6 9 18 6 9 18 7 12 18 7 12 18 7 12 18 7 12 18 7 12 18 7 12 18 7 12 18 7 12 18 10 15 21 10 15 21 10 15 21 10 15 21 10 15 21 10 15 21 10 15 21 10 15 21 13 21 24 13 21 24 14 22 25 15 23 26 16 24 27 17 25 28 17 25 28 18 26 29 35 43 46 27 35 38 14 22 25 2 10 13 0 3 6 0 2 5 0 5 8 0 8 11 1 6 10 1 6 10 1 6 10 1 6 10 1 6 10 1 6 10 1 6 10 1 6 10 14 19 23 16 21 25 18 23 27 21 26 30 25 30 34 28 33 37 30 35 39 32 37 40 48 53 56 50 56 56 52 58 58 55 61 61 59 65 65 62 68 68 64 70 70 66 72 72 73 79 79 74 80 80 77 83 83 80 86 86 83 89 89 87 93 93 89 95 95 91 95 94 92 94 93 83 83 81 68 68 66 53 53 51 42 42 40 38 38 36 39 39 37 41 41 39 40 40 38 40 40 38 40 40 38 40 40 38 40 40 38 40 40 38 40 40 38 40 40 38 39 37 38 39 37 38 39 37 38 39 37 38 39 37 38 39 37 38 39 37 38 39 37 38 37 35 36 37 35 36 37 35 36 37 35 36 37 35 36 37 35 36 37 35 36 37 35 36
129 110 129 129 110 129 129 110 129 129 110 129 130 111 130 130 111 130 130 111 130 130 111 130 130 111 130 130 111 130 130 111 130 130 111 130 127 109 125 127 109 125 127 109 125 127 109 125 127 109 125 127 109 125 127 109 125 127 109 125 123 105 121 122 104 120 119 101 117 116 98 114 113 95 111 109 91 107 107 89 105 105 88 104 97 85 99 95 84 98 92 81 95 89 78 92 86 75 89 82 71 85 80 69 83 79 68 82 66 55 69 64 53 67 59 48 62 52 41 55 45 34 48 39 28 42 34 23 37 29 21 34 27 20 36 24 20 35 21 17 32 18 14 29 15 11 26 12 8 23 9 5 20 8 4 19 9 5 20 9 5 20 9 5 20 9 5 20 9 5 20 9 5 20 9 5 20 8 6 19 7 7 19 5 8 17 5 8 17 5 8 17 5 8 17 5 8 17 5 8 17 5 8 17 6 9 18 6 9 18 6 9 18 6 9 18 6 9 18 6 9 18 6 9 18 6 9 18 7 12 18 7 12 18 7 12 18 7 12 18 7 12 18 7 12 18 7 12 18 7 12 18 14 19 25 14 19 25 14 19 25 14 19 25 14 19 25 14 19 25 14 19 25 14 19 25 21 29 32 21 29 32 20 28 31 19 27 30 18 26 29 17 25 28 17 25 28 16 24 27 35 43 46 27 35 38 14 22 25 2 10 13 0 3 6 0 2 5 0 5 8 0 8 11 1 6 10 1 6 10 1 6 10 1 6 10 1 6 10 1 6 10 1 6 10 1 6 10 14 19 23 16 21 25 18 23 27 21 26 30 25 30 34 28 33 37 30 35 39 32 37 40 48 53 56 50 56 56 52 58 58 55 61 61 59 65 65 62 68 68 64 70 70 66 72 72 70 76 76 71 77 77 73 79 79 77 83 83 80 86 86 83 89 89 86 92 92 88 92 91 92 94 93 83 83 81 68 68 66 53 53 51 42 42 40 38 38 36 39 39 37 41 41 39 40 40 38 40 40 38 40 40 38 40 40 38 40 40 38 40 40 38 40 40 38 40 40 38 39 37 38 39 37 38 39 37 38 39 37 38 39 37 38 39 37 38 39 37 38 39 37 38 37 35 36 37 35 36 37 35 36 37 35 36 37 35 36 37 35 36 37 35 36 37 35 36
129 110 129 129 110 129 129 110 129 129 110 129 130 111 130 130 111 130 130 111 130 130 111 130 130 111 130 130 111 130 130 111 130 130 111 130 127 109 125 127 109 125 127 109 125 127 109 125 127 109 125 127 109 125 127 109 125 127 109 125 120 102 118 118 100 116 116 98 114 113 95 111 109 91 107 106 88 104 104 86 102 101 84 100 94 82 96 91 80 94 89 78 92 86 75 89 82 71 85 79 68 82 77 66 80 75 64 78 57 46 60 54 43 57 49 38 52 43 32 46 36 25 39 29 18 32 25 14 28 20 12 25 21 14 30 18 14 29 15 11 26 12 8 23 8 4 19 5 1 16 3 0 14 2 0 13 6 2 17 6 2 17 6 2 17 6 2 17 6 2 17 6 2 17 6 2 17 5 3 16 7 7 19 5 8 17 5 8 17 5 8 17 5 8 17 5 8 17 5 8 17 5 8 17 6 9 18 6 9 18 6 9 18 6 9 18 6 9 18 6 9 18 6 9 18 6 9 18 7 12 18 7 12 18 7 12 18 7 12 18 7 12 18 7 12 18 7 12 18 7 12 18 17 22 28 17 22 28 17 22 28 17 22 28 17 22 28 17 22 28 17 22 28 17 22 28 29 37 40 28 36 39 26 34 37 23 31 34 21 29 32 18 26 29 16 24 27 15 23 26 35 43 46 27 35 38 14 22 25 2 10 13 0 3 6 0 2 5 0 5 8 0 8 11 1 6 10 1 6 10 1 6 10 1 6 10 1 6 10 1 6 10 1 6 10 1 6 10 14 19 23 16 21 25 18 23 27 21 26 30 25 30 34 28 33 37 30 35 39 32 37 40 48 53 56 50 56 56 52 58 58 55 61 61 59 65 65 62 68 68 64 70 70 66 72 72 66 72 72 68 74 74 70 76 76 73 79 79 77 83 83 80 86 86 82 88 88 85 89 88 92 94 93 83 83 81 68 68 66 53 53 51 42 42 40 38 38 36 39 39 37 41 41 39 40 40 38 40 40 38 40 40 38 40 40 38 40 40 38 40 40 38 40 40 38 40 40 38 39 37 38 39 37 38 39 37 38 39 37 38 39 37 38 39 37 38 39 37 38 39 37 38 37 35 36 37 35 36 37 35 36 37 35 36 37 35 36 37 35 36 37 35 36 37 35 36
129 110 129 129 110 129 129 110 129 129 110 129 130 111 130 130 111 130 130 111 130 130 111 130 130 111 130 130 111 130 130 111 130 130 111 130 127 109 125 127 109 125 127 109 125 127 109 125 127 109 125 127 109 125 127 109 125 127 109 125 117 99 115 116 98 114 114 96 112 110 92 108 107 89 105 104 86 102 101 83 99 99 82 98 91 79 93 89 78 92 87 76 90 83 72 86 80 69 83 77 66 80 74 63 77 73 62 76 49 38 52 47 36 50 42 31 45 35 24 38 28 17 31 22 11 25 17 6 20 13 5 18 16 9 25 13 9 24 10 6 21 7 3 18 4 0 15 1 0 12 1 0 12 1 0 12 4 0 15 4 0 15 4 0 15 4 0 15 4 0 15 4 0 15 4 0 15 3 1 14 7 7 19 5 8 17 5 8 17 5 8 17 5 8 17 5 8 17 5 8 17 5 8 17 6 9 18 6 9 18 6 9 18 6 9 18 6 9 18 6 9 18 6 9 18 6 9 18 7 12 18 7 12 18 7 12 18 7 12 18 7 12 18 7 12 18 7 12 18 7 12 18 19 24 30 19 24 30 19 24 30 19 24 30 19 24 30 19 24 30 19 24 30 19 24 30 35 43 46 33 41 44 30 38 41 26 34 37 22 30 33 19 27 30 16 24 27 14 22 25 35 43 46 27 35 38 14 22 25 2 10 13 0 3 6 0 2 5 0 5 8 0 8 11 1 6 10 1 6 10 1 6 10 1 6 10 1 6 10 1 6 10 1 6 10 1 6 10 14 19 23 16 21 25 18 23 27 21 26 30 25 30 34 28 33 37 30 35 39 32 37 40 48 53 56 50 56 56 52 58 58 55 61 61 59 65 65 62 68 68 64 70 70 66 72 72 64 70 70 65 71 71 68 74 74 71 77 77 74 80 80 78 84 84 80 86 86 82 86 85 92 94 93 83 83 81 68 68 66 53 53 51 42 42 40 38 38 36 39 39 37 41 41 39 40 40 38 40 40 38 40 40 38 40 40 38 40 40 38 40 40 38 40 40 38 40 40 38 39 37 38 39 37 38 39 37 38 39 37 38 39 37 38 39 37 38 39 37 38 39 37 38 37 35 36 37 35 36 37 35 36 37 35 36 37 35 36 37 35 36 37 35 36 37 35 36
129 110 129 129 110 129 129 110 129 129 110 129 130 111 130 130 111 130 130 111 130 130 111 130 130 111 130 130 111 130 130 111 130 130 111 130 127 109 125 127 109 125 127 109 125 127 109 125 127 109 125 127 109 125 127 109 125 127 109 125 116 98 114 115 97 113 112 94 110 109 91 107 106 88 104 102 84 100 100 82 98 98 81 97 90 78 92 88 77 91 85 74 88 82 71 85 79 68 82 75 64 78 73 62 76 72 61 75 45 34 48 43 32 46 38 27 41 31 20 34 25 14 28 18 7 21 13 2 16 9 1 14 13 6 22 10 6 21 8 4 19 4 0 15 1 0 12 1 0 12 1 0 12 1 0 12 2 0 13 2 0 13 2 0 13 2 0 13 2 0 13 2 0 13 2 0 13 1 0 12 7 7 19 5 8 17 5 8 17 5 8 17 5 8 17 5 8 17 5 8 17 5 8 17 6 9 18 6 9 18 6 9 18 6 9 18 6 9 18 6 9 18 6 9 18 6 9 18 7 12 18 7 12 18 7 12 18 7 12 18 7 12 18 7 12 18 7 12 18 7 12 18 21 26 32 21 26 32 21 26 32 21 26 32 21 26 32 21 26 32 21 26 32 21 26 32 38 46 49 36 44 47 32 40 43 28 36 39 23 31 34 19 27 30 15 23 26 14 22 25 35 43 46 27 35 38 14 22 25 2 10 13 0 3 6 0 2 5 0 5 8 0 8 11 1 6 10 1 6 10 1 6 10 1 6 10 1 6 10 1 6 10 1 6 10 1 6 10 14 19 23 16 21 25 18 23 27 21 26 30 25 30 34 28 33 37 30 35 39 32 37 40 48 53 56 50 56 56 52 58 58 55 61 61 59 65 65 62 68 68 64 70 70 66 72 72 63 69 69 64 70 70 66 72 72 70 76 76 73 79 79 76 82 82 79 85 85 81 85 84 92 94 93 83 83 81 68 68 66 53 53 51 42 42 40 38 38 36 39 39 37 41 41 39 40 40 38 40 40 38 40 40 38 40 40 38 40 40 38 40 40 38 40 40 38 40 40 38 39 37 38 39 37 38 39 37 38 39 37 38 39 37 38 39 37 38 39 37 38 39 37 38 37 35 36 37 35 36 37 35 36 37 35 36 37 35 36 37 35 36 37 35 36 37 35 36
126 107 126 126 107 126 126 107 126 126 107 126 123 104 123 123 104 123 123 104 123 123 104 123 123 104 123 123 104 123 123 104 123 123 104 123 126 108 124 125 107 123 123 105 121 119 101 117 116 98 114 113 95 111 110 92 108 109 91 107 109 91 107 108 90 106 105 87 103 102 84 100 99 81 97 95 77 93 93 75 91 91 74 90 79 67 81 75 64 78 70 59 73 64 53 67 57 46 60 51 40 54 46 35 49 43 32 46 16 5 19 16 5 19 16 5 19 16 5 19 16 5 19 16 5 19 16 5 19 14 6 19 9 2 18 7 3 18 7 3 18 7 3 18 7 3 18 7 3 18 7 3 18 7 3 18 8 4 19 8 4 19 8 4 19 8 4 19 8 4 19 8 4 19 8 4 19 7 5 18 8 8 20 6 9 18 6 9 18 6 9 18 6 9 18 6 9 18 6 9 18 6 9 18 6 9 18 6 9 18 6 9 18 6 9 18 6 9 18 6 9 18 6 9 18 6 9 18 9 14 20 9 14 20 9 14 20 9 14 20 9 14 20 9 14 20 9 14 20 9 14 20 16 21 27 17 22 28 19 24 30 23 28 34 26 31 37 29 34 40 32 37 43 33 38 44 37 45 48 35 43 46 33 41 44 30 38 41 26 34 37 23 31 34 21 29 32 19 27 30 5 13 16 5 13 16 5 13 16 5 13 16 5 13 16 5 13 16 5 13 16 5 13 16 3 8 12 3 8 12 3 8 12 3 8 12 3 8 12 3 8 12 3 8 12 3 8 12 11 16 20 13 18 22 15 20 24 18 23 27 22 27 31 25 30 34 27 32 36 29 34 37 38 43 46 40 46 46 42 48 48 45 51 51 49 55 55 52 58 58 54 60 60 56 62 62 69 75 75 69 75 75 69 75 75 69 75 75 69 75 75 69 75 75 69 75 75 70 74 73 67 69 68 66 66 64 61 61 59 54 54 52 48 48 46 41 41 39 36 36 34 34 34 32 34 34 32 34 34 32 34 34 32 34 34 32 34 34 32 34 34 32 34 34 32 34 34 32 35 33 34 35 33 34 35 33 34 35 33 34 35 33 34 35 33 34 35 33 34 35 33 34 37 35 36 37 35 36 37 35 36 37 35 36 37 35 36 37 35 36 37 35 36 37 35 36
126 107 126 126 107 126 126 107 126 126 107 126 123 104 123 123 104 123 123 104 123 123 104 123 123 104 123 123 104 123 123 104 123 123 104 123 125 107 123 124 106 122 121 103 119 118 100 116 115 97 113 111 93 109 109 91 107 108 90 106 106 88 104 105 87 103 103 85 101 99 81 97 96 78 94 93 75 91 90 72 88 88 71 87 76 64 78 72 61 75 68 57 71 61 50 64 54 43 57 48 37 51 43 32 46 40 29 43 16 5 19 16 5 19 16 5 19 16 5 19 16 5 19 16 5 19 16 5 19 14 6 19 9 2 18 7 3 18 7 3 18 7 3 18 7 3 18 7 3 18 7 3 18 7 3 18 8 4 19 8 4 19 8 4 19 8 4 19 8 4 19 8 4 19 8 4 19 7 5 18 8 8 20 6 9 18 6 9 18 6 9 18 6 9 18 6 9 18 6 9 18 6 9 18 6 9 18 6 9 18 6 9 18 6 9 18 6 9 18 6 9 18 6 9 18 6 9 18 9 14 20 9 14 20 9 14 20 9 14 20 9 14 20 9 14 20 9 14 20 9 14 20 17 22 28 18 23 29 21 26 32 24 29 35 27 32 38 31 36 42 33 38 44 34 39 45 37 45 48 35 43 46 33 41 44 30 38 41 26 34 37 23 31 34 21 29 32 19 27 30 5 13 16 5 13 16 5 13 16 5 13 16 5 13 16 5 13 16 5 13 16 5 13 16 3 8 12 3 8 12 3 8 12 3 8 12 3 8 12 3 8 12 3 8 12 3 8 12 11 16 20 13 18 22 15 20 24 18 23 27 22 27 31 25 30 34 27 32 36 29 34 37 38 43 46 40 46 46 42 48 48 45 51 51 49 55 55 52 58 58 54 60 60 56 62 62 67 73 73 67 73 73 67 73 73 67 73 73 67 73 73 67 73 73 67 73 73 68 72 71 67 69 68 66 66 64 61 61 59 54 54 52 48 48 46 41 41 39 36 36 34 34 34 32 34 34 32 34 34 32 34 34 32 34 34 32 34 34 32 34 34 32 34 34 32 34 34 32 35 33 34 35 33 34 35 33 34 35 33 34 35 33 34 35 33 34 35 33 34 35 33 34 37 35 36 37 35 36 37 35 36 37 35 36 37 35 36 37 35 36 37 35 36 37 35 36
126 107 126 126 107 126 126 107 126 126 107 126 123 104 123 123 104 123 123 104 123 123 104 123 123 104 123 123 104 123 123 104 123 123 104 123 123 105 121 121 103 119 119 101 117 116 98 114 112 94 110 109 91 107 107 89 105 105 87 103 101 83 99 100 82 98 98 80 96 95 77 93 91 73 89 88 70 86 85 67 83 83 66 82 71 59 73 68 57 71 63 52 66 56 45 59 49 38 52 43 32 46 38 27 41 35 24 38 16 5 19 16 5 19 16 5 19 16 5 19 16 5 19 16 5 19 16 5 19 14 6 19 9 2 18 7 3 18 7 3 18 7 3 18 7 3 18 7 3 18 7 3 18 7 3 18 8 4 19 8 4 19 8 4 19 8 4 19 8 4 19 8 4 19 8 4 19 7 5 18 8 8 20 6 9 18 6 9 18 6 9 18 6 9 18 6 9 18 6 9 18 6 9 18 6 9 18 6 9 18 6 9 18 6 9 18 6 9 18 6 9 18 6 9 18 6 9 18 9 14 20 9 14 20 9 14 20 9 14 20 9 14 20 9 14 20 9 14 20 9 14 20 19 24 30 21 26 32 23 28 34 26 31 37 30 35 41 33 38 44 35 40 46 37 42 48 37 45 48 35 43 46 33 41 44 30 38 41 26 34 37 23 31 34 21 29 32 19 27 30 5 13 16 5 13 16 5 13 16 5 13 16 5 13 16 5 13 16 5 13 16 5 13 16 3 8 12 3 8 12 3 8 12 3 8 12 3 8 12 3 8 12 3 8 12 3 8 12 11 16 20 13 18 22 15 20 24 18 23 27 22 27 31 25 30 34 27 32 36 29 34 37 38 43 46 40 46 46 42 48 48 45 51 51 49 55 55 52 58 58 54 60 60 56 62 62 65 71 71 65 71 71 65 71 71 65 71 71 65 71 71 65 71 71 65 71 71 66 70 69 67 69 68 66 66 64 61 61 59 54 54 52 48 48 46 41 41 39 36 36 34 34 34 32 34 34 32 34 34 32 34 34 32 34 34 32 34 34 32 34 34 32 34 34 32 34 34 32 35 33 34 35 33 34 35 33 34 35 33 34 35 33 34 35 33 34 35 33 34 35 33 34 37 35 36 37 35 36 37 35 36 37 35 36 37 35 36 37 35 36 37 35 36 37 35 36
126 107 126 126 107 126 126 107 126 126 107 126 123 104 123 123 104 123 123 104 123 123 104 123 123 104 123 123 104 123 123 104 123 123 104 123 119 101 117 118 100 116 116 98 114 112 94 110 109 91 107 106 88 104 103 85 101 102 84 100 95 77 93 94 76 92 91 73 89 88 70 86 85 67 83 82 64 80 79 61 77 77 60 76 65 53 67 61 50 64 56 45 59 50 39 53 43 32 46 37 26 40 32 21 35 29 18 32 16 5 19 16 5 19 16 5 19 16 5 19 16 5 19 16 5 19 16 5 19 14 6 19 9 2 18 7 3 18 7 3 18 7 3 18 7 3 18 7 3 18 7 3 18 7 3 18 8 4 19 8 4 19 8 4 19 8 4 19 8 4 19 8 4 19 8 4 19 7 5 18 8 8 20 6 9 18 6 9 18 6 9 18 6 9 18 6 9 18 6 9 18 6 9 18 6 9 18 6 9 18 6 9 18 6 9 18 6 9 18 6 9 18 6 9 18 6 9 18 9 14 20 9 14 20 9 14 20 9 14 20 9 14 20 9 14 20 9 14 20 9 14 20 23 28 34 24 29 35 26 31 37 30 35 41 33 38 44 36 41 47 39 44 50 40 45 51 37 45 48 35 43 46 33 41 44 30 38 41 26 34 37 23 31 34 21 29 32 19 27 30 5 13 16 5 13 16 5 13 16 5 13 16 5 13 16 5 13 16 5 13 16 5 13 16 3 8 12 3 8 12 3 8 12 3 8 12 3 8 12 3 8 12 3 8 12 3 8 12 11 16 20 13 18 22 15 20 24 18 23 27 22 27 31 25 30 34 27 32 36 29 34 37 38 43 46 40 46 46 42 48 48 45 51 51 49 55 55 52 58 58 54 60 60 56 62 62 62 68 68 62 68 68 62 68 68 62 68 68 62 68 68 62 68 68 62 68 68 63 67 66 67 69 68 66 66 64 61 61 59 54 54 52 48 48 46 41 41 39 36 36 34 34 34 32 34 34 32 34 34 32 34 34 32 34 34 32 34 34 32 34 34 32 34 34 32 34 34 32 35 33 34 35 33 34 35 33 34 35 33 34 35 33 34 35 33 34 35 33 34 35 33 34 37 35 36 37 35 36 37 35 36 37 35 36 37 35 36 37 35 36 37 35 36 37 35 36
126 107 126 126 107 126 126 107 126 126 107 126 123 104 123 123 104 123 123 104 123 123 104 123 123 104 123 123 104 123 123 104 123 123 104 123 116 98 114 115 97 113 112 94 110 109 91 107 106 88 104 102 84 100 100 82 98 99 81 97 88 70 86 87 69 85 84 66 82 81 63 79 78 60 76 75 57 73 72 54 70 70 53 69 58 46 60 54 43 57 49 38 52 43 32 46 36 25 39 30 19 33 25 14 28 22 11 25 16 5 19 16 5 19 16 5 19 16 5 19 16 5 19 16 5 19 16 5 19 14 6 19 9 2 18 7 3 18 7 3 18 7 3 18 7 3 18 7 3 18 7 3 18 7 3 18 8 4 19 8 4 19 8 4 19 8 4 19 8 4 19 8 4 19 8 4 19 7 5 18 8 8 20 6 9 18 6 9 18 6 9 18 6 9 18 6 9 18 6 9 18 6 9 18 6 9 18 6 9 18 6 9 18 6 9 18 6 9 18 6 9 18 6 9 18 6 9 18 9 14 20 9 14 20 9 14 20 9 14 20 9 14 20 9 14 20 9 14 20 9 14 20 26 31 37 27 32 38 30 35 41 33 38 44 36 41 47 40 45 51 42 47 53 43 48 54 37 45 48 35 43 46 33 41 44 30 38 41 26 34 37 23 31 34 21 29 32 19 27 30 5 13 16 5 13 16 5 13 16 5 13 16 5 13 16 5 13 16 5 13 16 5 13 16 3 8 12 3 8 12 3 8 12 3 8 12 3 8 12 3 8 12 3 8 12 3 8 12 11 16 20 13 18 22 15 20 24 18 23 27 22 27 31 25 30 34 27 32 36 29 34 37 38 43 46 40 46 46 42 48 48 45 51 51 49 55 55 52 58 58 54 60 60 56 62 62 58 64 64 58 64 64 58 64 64 58 64 64 58 64 64 58 64 64 58 64 64 59 63 62 67 69 68 66 66 64 61 61 59 54 54 52 48 48 46 41 41 39 36 36 34 34 34 32 34 34 32 34 34 32 34 34 32 34 34 32 34 34 32 34 34 32 34 34 32 34 34 32 35 33 34 35 33 34 35 33 34 35 33 34 35 33 34 35 33 34 35 33 34 35 33 34 37 35 36 37 35 36 37 35 36 37 35 36 37 35 36 37 35 36 37 35 36 37 35 36
126 107 126 126 107 126 126 107 126 126 107 126 123 104 123 123 104 123 123 104 123 123 104 123 123 104 123 123 104 123 123 104 123 123 104 123 113 95 111 111 93 109 109 91 107 106 88 104 102 84 100 99 81 97 97 79 95 95 77 93 82 64 80 81 63 79 78 60 76 75 57 73 71 53 69 68 50 66 66 48 64 64 47 63 52 40 54 48 37 51 43 32 46 37 26 40 30 19 33 23 12 26 18 7 21 16 5 19 16 5 19 16 5 19 16 5 19 16 5 19 16 5 19 16 5 19 16 5 19 14 6 19 9 2 18 7 3 18 7 3 18 7 3 18 7 3 18 7 3 18 7 3 18 7 3 18 8 4 19 8 4 19 8 4 19 8 4 19 8 4 19 8 4 19 8 4 19 7 5 18 8 8 20 6 9 18 6 9 18 6 9 18 6 9 18 6 9 18 6 9 18 6 9 18 6 9 18 6 9 18 6 9 18 6 9 18 6 9 18 6 9 18 6 9 18 6 9 18 9 14 20 9 14 20 9 14 20 9 14 20 9 14 20 9 14 20 9 14 20 9 14 20 29 34 40 31 36 42 33 38 44 36 41 47 40 45 51 43 48 54 45 50 56 47 52 58 37 45 48 35 43 46 33 41 44 30 38 41 26 34 37 23 31 34 21 29 32 19 27 30 5 13 16 5 13 16 5 13 16 5 13 16 5 13 16 5 13 16 5 13 16 5 13 16 3 8 12 3 8 12 3 8 12 3 8 12 3 8 12 3 8 12 3 8 12 3 8 12 11 16 20 13 18 22 15 20 24 18 23 27 22 27 31 25 30 34 27 32 36 29 34 37 38 43 46 40 46 46 42 48 48 45 51 51 49 55 55 52 58 58 54 60 60 56 62 62 55 61 61 55 61 61 55 61 61 55 61 61 55 61 61 55 61 61 55 61 61 56 60 59 67 69 68 66 66 64 61 61 59 54 54 52 48 48 46 41 41 39 36 36 34 34 34 32 34 34 32 34 34 32 34 34 32 34 34 32 34 34 32 34 34 32 34 34 32 34 34 32 35 33 34 35 33 34 35 33 34 35 33 34 35 33 34 35 33 34 35 33 34 35 33 34 37 35 36 37 35 36 37 35 36 37 35 36 37 35 36 37 35 36 37 35 36 37 35 36
126 107 126 126 107 126 126 107 126 126 107 126 123 104 123 123 104 123 123 104 123 123 104 123 123 104 123 123 104 123 123 104 123 123 104 123 110 92 108 109 91 107 107 89 105 103 85 101 100 82 98 97 79 95 94 76 92 93 75 91 77 59 75 76 58 74 73 55 71 70 52 68 67 49 65 63 45 61 61 43 59 59 42 58 47 35 49 43 32 46 38 27 41 32 21 35 25 14 28 18 7 21 14 3 17 11 0 14 16 5 19 16 5 19 16 5 19 16 5 19 16 5 19 16 5 19 16 5 19 14 6 19 9 2 18 7 3 18 7 3 18 7 3 18 7 3 18 7 3 18 7 3 18 7 3 18 8 4 19 8 4 19 8 4 19 8 4 19 8 4 19 8 4 19 8 4 19 7 5 18 8 8 20 6 9 18 6 9 18 6 9 18 6 9 18 6 9 18 6 9 18 6 9 18 6 9 18 6 9 18 6 9 18 6 9 18 6 9 18 6 9 18 6 9 18 6 9 18 9 14 20 9 14 20 9 14 20 9 14 20 9 14 20 9 14 20 9 14 20 9 14 20 32 37 43 33 38 44 35 40 46 39 44 50 42 47 53 45 50 56 48 53 59 49 54 60 37 45 48 35 43 46 33 41 44 30 38 41 26 34 37 23 31 34 21 29 32 19 27 30 5 13 16 5 13 16 5 13 16 5 13 16 5 13 16 5 13 16 5 13 16 5 13 16 3 8 12 3 8 12 3 8 12 3 8 12 3 8 12 3 8 12 3 8 12 3 8 12 11 16 20 13 18 22 15 20 24 18 23 27 22 27 31 25 30 34 27 32 36 29 34 37 38 43 46 40 46 46 42 48 48 45 51 51 49 55 55 52 58 58 54 60 60 56 62 62 53 59 59 53 59 59 53 59 59 53 59 59 53 59 59 53 59 59 53 59 59 54 58 57 67 69 68 66 66 64 61 61 59 54 54 52 48 48 46 41 41 39 36 36 34 34 34 32 34 34 32 34 34 32 34 34 32 34 34 32 34 34 32 34 34 32 34 34 32 34 34 32 35 33 34 35 33 34 35 33 34 35 33 34 35 33 34 35 33 34 35 33 34 35 33 34 37 35 36 37 35 36 37 35 36 37 35 36 37 35 36 37 35 36 37 35 36 37 35 36
125 108 126 125 108 126 125 108 126 125 108 126 122 105 123 122 105 123 122 105 123 122 105 123 122 105 123 122 105 123 122 105 123 122 105 123 108 91 107 107 90 106 104 87 103 101 84 100 98 81 97 94 77 93 92 75 91 91 74 90 73 56 72 72 55 71 70 53 69 66 49 65 63 46 62 60 43 59 57 40 56 54 40 55 43 32 46 38 30 43 33 25 38 27 19 32 20 12 25 14 6 19 9 1 14 6 0 11 14 6 19 14 6 19 14 6 19 14 6 19 14 6 19 14 6 19 14 6 19 13 7 21 7 3 17 6 4 17 6 4 18 6 4 17 6 4 18 6 4 17 6 4 18 6 4 17 7 5 19 7 5 18 7 5 19 7 5 18 7 5 19 7 5 18 7 5 19 7 5 18 6 9 18 5 9 18 6 9 18 5 9 18 6 9 18 5 9 18 6 9 18 5 9 18 6 9 18 5 9 18 6 9 18 5 9 18 6 9 18 5 9 18 6 9 18 5 9 18 9 14 20 9 14 20 9 14 20 9 14 20 9 14 20 9 14 20 9 14 20 9 14 20 33 38 44 34 39 45 37 42 48 40 45 51 43 48 54 47 52 58 49 54 60 50 55 61 37 45 48 35 43 46 33 41 44 30 38 41 26 34 37 23 31 34 21 29 32 19 27 30 5 13 16 5 13 16 5 13 16 5 13 16 5 13 16 5 13 16 5 13 16 5 13 16 3 8 12 3 8 12 3 8 12 3 8 12 3 8 12 3 8 12 3 8 12 3 8 12 11 16 20 13 18 22 15 20 24 18 23 27 22 27 31 25 30 34 27 32 36 29 34 38 38 43 46 40 46 46 42 48 48 45 51 51 49 55 55 52 58 58 54 60 60 56 62 62 51 57 57 51 57 57 51 57 57 51 57 57 51 57 57 51 57 57 51 57 57 52 56 57 67 69 68 66 66 64 61 61 59 54 54 52 48 48 46 41 41 39 36 36 34 34 34 32 34 34 32 34 34 32 34 34 32 34 34 32 34 34 32 34 34 32 34 34 32 35 34 32 35 34 32 35 34 32 37 33 34 35 34 32 37 33 34 35 34 32 37 33 34 35 34 32 39 35 36 37 36 34 39 35 36 37 36 34 39 35 36 37 36 34 39 35 36 37 35 36
129 115 132 129 115 132 129 115 132 129 115 132 129 115 132 127 113 130 125 111 128 122 108 125 118 104 121 115 101 118 113 99 116 110 97 114 97 85 99 95 84 98 92 81 95 89 78 92 86 75 89 82 71 85 80 69 83 79 68 82 74 63 77 71 60 74 66 55 69 60 49 63 53 42 56 47 36 50 42 31 45 37 29 42 9 3 17 7 3 17 7 3 17 7 3 17 7 3 17 7 3 17 7 3 17 7 3 17 5 1 15 5 1 15 5 1 15 5 1 15 5 1 15 5 1 15 5 1 15 4 2 15 5 5 17 5 5 15 5 5 17 5 5 15 5 5 17 5 5 15 5 5 17 5 5 15 5 5 17 5 5 15 5 5 17 5 5 15 5 5 17 5 5 15 5 5 17 3 6 15 4 8 17 2 9 17 4 8 17 2 9 17 4 8 17 2 9 17 4 8 17 2 9 17 3 7 16 1 8 16 3 7 16 1 8 16 3 7 16 1 8 16 3 7 16 1 8 16 3 10 18 6 13 21 12 19 27 20 27 35 28 35 43 35 42 50 41 48 56 44 51 59 49 56 64 49 56 64 49 56 64 49 56 64 49 56 64 49 56 64 49 56 64 49 56 62 44 52 55 42 50 53 40 48 51 37 45 48 33 41 44 30 38 41 28 36 39 26 34 37 16 24 27 14 22 25 12 20 23 9 17 20 5 13 16 2 10 13 0 8 11 0 6 9 4 12 15 4 12 15 4 12 15 4 12 15 4 12 15 4 12 15 4 12 15 4 12 15 9 17 20 11 19 22 13 21 24 16 24 27 20 28 31 23 31 34 25 33 36 27 35 38 37 42 45 37 42 45 37 42 45 37 42 45 37 42 45 37 42 45 37 42 45 37 42 45 53 58 61 53 58 61 53 58 61 53 58 61 53 58 61 53 58 61 53 58 61 54 58 59 48 48 48 47 45 46 45 43 44 42 40 41 38 36 37 35 33 34 33 31 32 31 29 30 33 31 32 33 31 32 33 31 32 33 31 32 33 31 32 33 31 32 33 31 32 33 32 30 36 32 31 36 32 29 37 31 31 36 32 29 37 31 31 36 32 29 37 31 31 36 32 29 38 32 32 37 33 30 38 32 32 37 33 30 38 32 32 37 33 30 38 32 32 37 33 32
124 111 128 124 111 128 124 111 128 124 111 128 124 111 128 122 109 126 120 107 124 117 104 121 113 100 117 110 97 114 108 95 112 105 94 110 93 82 96 90 82 95 88 80 93 84 76 89 81 73 86 78 70 83 75 67 80 74 66 79 69 61 74 66 58 71 62 54 67 55 47 60 48 40 53 42 34 47 37 29 42 33 27 39 7 3 17 6 4 17 6 4 17 6 4 17 6 4 17 6 4 17 6 4 17 6 4 17 4 2 15 4 2 15 4 2 15 4 2 15 4 2 15 4 2 15 4 2 15 3 3 15 5 5 15 3 6 15 3 6 15 3 6 15 3 6 15 3 6 15 3 6 15 3 6 15 3 6 15 3 6 15 3 6 15 3 6 15 3 6 15 3 6 15 3 6 15 2 6 15 4 8 17 2 9 17 2 9 17 2 9 17 2 9 17 2 9 17 2 9 17 2 9 17 3 10 18 3 10 18 3 10 18 3 10 18 3 10 18 3 10 18 3 10 18 3 10 18 7 14 22 10 17 25 16 23 31 23 30 38 30 37 45 37 44 52 42 49 57 45 52 60 49 56 64 49 56 64 49 56 64 49 56 64 49 56 64 49 56 64 49 56 64 49 56 62 44 51 57 42 50 53 40 48 51 37 45 48 33 41 44 30 38 41 28 36 39 26 34 37 16 24 27 14 22 25 12 20 23 9 17 20 5 13 16 2 10 13 0 8 11 0 6 9 4 12 15 4 12 15 4 12 15 4 12 15 4 12 15 4 12 15 4 12 15 4 12 15 9 17 20 11 19 22 13 21 24 16 24 27 20 28 31 23 31 34 25 33 36 27 35 38 37 42 45 37 42 45 37 42 45 37 42 45 37 42 45 37 42 45 37 42 45 37 42 45 51 56 59 51 56 59 51 56 59 51 56 59 51 56 59 51 56 59 51 56 59 52 56 57 48 48 50 47 45 46 45 43 44 42 40 41 38 36 37 35 33 34 33 31 32 31 29 30 33 31 32 33 31 32 33 31 32 33 31 32 33 31 32 33 31 32 33 31 32 33 32 30 37 31 31 37 32 29 37 32 29 37 32 29 37 32 29 37 32 29 37 32 29 37 32 29 38 33 30 38 33 30 38 33 30 38 33 30 38 33 30 38 33 30 38 33 30 38 33 30
117 104 121 117 104 121 117 104 121 117 104 121 116 103 120 115 102 119 113 100 117 109 96 113 106 93 110 103 90 107 100 87 104 98 87 103 88 77 91 85 77 90 83 75 88 80 72 85 76 68 81 73 65 78 70 62 75 69 61 74 64 56 69 62 54 67 57 49 62 50 42 55 43 35 48 37 29 42 32 24 37 28 22 34 7 3 17 6 4 17 6 4 17 6 4 17 6 4 17 6 4 17 6 4 17 6 4 17 4 2 15 4 2 15 4 2 15 4 2 15 4 2 15 4 2 15 4 2 15 3 3 15 5 5 15 3 6 15 3 6 15 3 6 15 3 6 15 3 6 15 3 6 15 3 6 15 3 6 15 3 6 15 3 6 15 3 6 15 3 6 15 3 6 15 3 6 15 2 6 15 4 8 17 2 9 17 2 9 17 2 9 17 2 9 17 2 9 17 2 9 17 2 9 17 5 12 20 5 12 20 5 12 20 5 12 20 5 12 20 5 12 20 5 12 20 5 12 20 16 23 31 18 25 33 22 29 37 28 35 43 34 41 49 40 47 55 44 51 59 47 54 62 49 56 64 49 56 64 49 56 64 49 56 64 49 56 64 49 56 64 49 56 64 49 56 62 44 51 57 42 50 53 40 48 51 37 45 48 33 41 44 30 38 41 28 36 39 26 34 37 16 24 27 14 22 25 12 20 23 9 17 20 5 13 16 2 10 13 0 8 11 0 6 9 4 12 15 4 12 15 4 12 15 4 12 15 4 12 15 4 12 15 4 12 15 4 12 15 9 17 20 11 19 22 13 21 24 16 24 27 20 28 31 23 31 34 25 33 36 27 35 38 37 42 45 37 42 45 37 42 45 37 42 45 37 42 45 37 42 45 37 42 45 37 42 45 49 54 57 49 54 57 49 54 57 49 54 57 49 54 57 49 54 57 49 54 57 50 54 55 48 48 50 47 45 46 45 43 44 42 40 41 38 36 37 35 33 34 33 31 32 31 29 30 33 31 32 33 31 32 33 31 32 33 31 32 33 31 32 33 31 32 33 31 32 33 32 30 37 31 31 37 32 29 37 32 29 37 32 29 37 32 29 37 32 29 37 32 29 37 32 29 38 33 30 38 33 30 38 33 30 38 33 30 38 33 30 38 33 30 38 33 30 38 33 30
107 94 111 107 94 111 107 94 111 107 94 111 107 94 111 106 93 110 103 90 107 100 87 104 96 83 100 93 80 97 91 78 95 89 78 94 82 71 85 79 71 84 76 68 81 73 65 78 70 62 75 67 59 72 64 56 69 63 55 68 58 50 63 55 47 60 50 42 55 44 36 49 37 29 42 31 23 36 26 18 31 22 16 28 7 3 17 6 4 17 6 4 17 6 4 17 6 4 17 6 4 17 6 4 17 6 4 17 4 2 15 4 2 15 4 2 15 4 2 15 4 2 15 4 2 15 4 2 15 3 3 15 5 5 15 3 6 15 3 6 15 3 6 15 3 6 15 3 6 15 3 6 15 3 6 15 3 6 15 3 6 15 3 6 15 3 6 15 3 6 15 3 6 15 3 6 15 2 6 15 4 8 17 2 9 17 2 9 17 2 9 17 2 9 17 2 9 17 2 9 17 2 9 17 8 15 23 8 15 23 8 15 23 8 15 23 8 15 23 8 15 23 8 15 23 8 15 23 27 34 42 28 35 43 31 38 46 35 42 50 40 47 55 44 51 59 47 54 62 49 56 64 49 56 64 49 56 64 49 56 64 49 56 64 49 56 64 49 56 64 49 56 64 49 56 62 44 51 57 42 50 53 40 48 51 37 45 48 33 41 44 30 38 41 28 36 39 26 34 37 16 24 27 14 22 25 12 20 23 9 17 20 5 13 16 2 10 13 0 8 11 0 6 9 4 12 15 4 12 15 4 12 15 4 12 15 4 12 15 4 12 15 4 12 15 4 12 15 9 17 20 11 19 22 13 21 24 16 24 27 20 28 31 23 31 34 25 33 36 27 35 38 37 42 45 37 42 45 37 42 45 37 42 45 37 42 45 37 42 45 37 42 45 37 42 45 46 51 54 46 51 54 46 51 54 46 51 54 46 51 54 46 51 54 46 51 54 47 51 52 48 48 50 47 45 46 45 43 44 42 40 41 38 36 37 35 33 34 33 31 32 31 29 30 33 31 32 33 31 32 33 31 32 33 31 32 33 31 32 33 31 32 33 31 32 33 32 30 37 31 31 37 32 29 37 32 29 37 32 29 37 32 29 37 32 29 37 32 29 37 32 29 38 33 30 38 33 30 38 33 30 38 33 30 38 33 30 38 33 30 38 33 30 38 33 30
97 84 101 97 84 101 97 84 101 97 84 101 96 83 100 95 82 99 93 80 97 90 77 94 86 73 90 83 70 87 80 67 84 78 67 83 75 64 78 72 64 77 69 61 74 66 58 71 63 55 68 60 52 65 57 49 62 56 48 61 51 43 56 48 40 53 43 35 48 37 29 42 30 22 35 24 16 29 19 11 24 15 9 21 7 3 17 6 4 17 6 4 17 6 4 17 6 4 17 6 4 17 6 4 17 6 4 17 4 2 15 4 2 15 4 2 15 4 2 15 4 2 15 4 2 15 4 2 15 3 3 15 5 5 15 3 6 15 3 6 15 3 6 15 3 6 15 3 6 15 3 6 15 3 6 15 3 6 15 3 6 15 3 6 15 3 6 15 3 6 15 3 6 15 3 6 15 2 6 15 4 8 17 2 9 17 2 9 17 2 9 17 2 9 17 2 9 17 2 9 17 2 9 17 12 19 27 12 19 27 12 19 27 12 19 27 12 19 27 12 19 27 12 19 27 12 19 27 38 45 53 39 46 54 41 48 56 43 50 58 46 53 61 48 55 63 50 57 65 51 58 66 49 56 64 49 56 64 49 56 64 49 56 64 49 56 64 49 56 64 49 56 64 49 56 62 44 51 57 42 50 53 40 48 51 37 45 48 33 41 44 30 38 41 28 36 39 26 34 37 16 24 27 14 22 25 12 20 23 9 17 20 5 13 16 2 10 13 0 8 11 0 6 9 4 12 15 4 12 15 4 12 15 4 12 15 4 12 15 4 12 15 4 12 15 4 12 15 9 17 20 11 19 22 13 21 24 16 24 27 20 28 31 23 31 34 25 33 36 27 35 38 37 42 45 37 42 45 37 42 45 37 42 45 37 42 45 37 42 45 37 42 45 37 42 45 42 47 50 42 47 50 42 47 50 42 47 50 42 47 50 42 47 50 42 47 50 43 47 48 48 48 50 47 45 46 45 43 44 42 40 41 38 36 37 35 33 34 33 31 32 31 29 30 33 31 32 33 31 32 33 31 32 33 31 32 33 31 32 33 31 32 33 31 32 33 32 30 37 31 31 37 32 29 37 32 29 37 32 29 37 32 29 37 32 29 37 32 29 37 32 29 38 33 30 38 33 30 38 33 30 38 33 30 38 33 30 38 33 30 38 33 30 38 33 30
87 74 91 87 74 91 87 74 91 87 74 91 87 74 91 86 73 90 83 70 87 80 67 84 77 64 81 73 60 77 71 58 75 69 58 74 69 58 72 66 58 71 63 55 68 60 52 65 56 48 61 53 45 58 51 43 56 50 42 55 45 37 50 42 34 47 37 29 42 31 23 36 24 16 29 17 9 22 12 4 17 9 3 15 7 3 17 6 4 17 6 4 17 6 4 17 6 4 17 6 4 17 6 4 17 6 4 17 4 2 15 4 2 15 4 2 15 4 2 15 4 2 15 4 2 15 4 2 15 3 3 15 5 5 15 3 6 15 3 6 15 3 6 15 3 6 15 3 6 15 3 6 15 3 6 15 3 6 15 3 6 15 3 6 15 3 6 15 3 6 15 3 6 15 3 6 15 2 6 15 4 8 17 2 9 17 2 9 17 2 9 17 2 9 17 2 9 17 2 9 17 2 9 17 15 22 30 15 22 30 15 22 30 15 22 30 15 22 30 15 22 30 15 22 30 15 22 30 49 56 64 49 56 64 50 57 65 50 57 65 51 58 66 52 59 67 52 59 67 53 60 68 49 56 64 49 56 64 49 56 64 49 56 64 49 56 64 49 56 64 49 56 64 49 56 62 44 51 57 42 50 53 40 48 51 37 45 48 33 41 44 30 38 41 28 36 39 26 34 37 16 24 27 14 22 25 12 20 23 9 17 20 5 13 16 2 10 13 0 8 11 0 6 9 4 12 15 4 12 15 4 12 15 4 12 15 4 12 15 4 12 15 4 12 15 4 12 15 9 17 20 11 19 22 13 21 24 16 24 27 20 28 31 23 31 34 25 33 36 27 35 38 37 42 45 37 42 45 37 42 45 37 42 45 37 42 45 37 42 45 37 42 45 37 42 45 39 44 47 39 44 47 39 44 47 39 44 47 39 44 47 39 44 47 39 44 47 40 44 45 48 48 50 47 45 46 45 43 44 42 40 41 38 36 37 35 33 34 33 31 32 31 29 30 33 31 32 33 31 32 33 31 32 33 31 32 33 31 32 33 31 32 33 31 32 33 32 30 37 31 31 37 32 29 37 32 29 37 32 29 37 32 29 37 32 29 37 32 29 37 32 29 38 33 30 38 33 30 38 33 30 38 33 30 38 33 30 38 33 30 38 33 30 38 33 30
80 67 84 80 67 84 80 67 84 80 67 84 80 67 84 78 65 82 76 63 80 73 60 77 69 56 73 66 53 70 64 51 68 61 50 66 64 53 67 61 53 66 58 50 63 55 47 60 52 44 57 48 40 53 46 38 51 45 37 50 40 32 45 37 29 42 32 24 37 26 18 31 19 11 24 12 4 17 8 0 13 4 0 10 7 3 17 6 4 17 6 4 17 6 4 17 6 4 17 6 4 17 6 4 17 6 4 17 4 2 15 4 2 15 4 2 15 4 2 15 4 2 15 4 2 15 4 2 15 3 3 15 5 5 15 3 6 15 3 6 15 3 6 15 3 6 15 3 6 15 3 6 15 3 6 15 3 6 15 3 6 15 3 6 15 3 6 15 3 6 15 3 6 15 3 6 15 2 6 15 4 8 17 2 9 17 2 9 17 2 9 17 2 9 17 2 9 17 2 9 17 2 9 17 17 24 32 17 24 32 17 24 32 17 24 32 17 24 32 17 24 32 17 24 32 17 24 32 57 64 72 57 64 72 57 64 72 56 63 71 55 62 70 55 62 70 54 61 69 54 61 69 49 56 64 49 56 64 49 56 64 49 56 64 49 56 64 49 56 64 49 56 64 49 56 62 44 51 57 42 50 53 40 48 51 37 45 48 33 41 44 30 38 41 28 36 39 26 34 37 16 24 27 14 22 25 12 20 23 9 17 20 5 13 16 2 10 13 0 8 11 0 6 9 4 12 15 4 12 15 4 12 15 4 12 15 4 12 15 4 12 15 4 12 15 4 12 15 9 17 20 11 19 22 13 21 24 16 24 27 20 28 31 23 31 34 25 33 36 27 35 38 37 42 45 37 42 45 37 42 45 37 42 45 37 42 45 37 42 45 37 42 45 37 42 45 37 42 45 37 42 45 37 42 45 37 42 45 37 42 45 37 42 45 37 42 45 38 42 43 48 48 50 47 45 46 45 43 44 42 40 41 38 36 37 35 33 34 33 31 32 31 29 30 33 31 32 33 31 32 33 31 32 33 31 32 33 31 32 33 31 32 33 31 32 33 32 30 37 31 31 37 32 29 37 32 29 37 32 29 37 32 29 37 32 29 37 32 29 37 32 29 38 33 30 38 33 30 38 33 30 38 33 30 38 33 30 38 33 30 38 33 30 38 33 30
76 63 80 76 63 80 76 63 80 76 63 80 76 63 80 74 61 78 72 59 76 69 56 73 65 52 69 62 49 66 60 47 64 57 46 62 61 50 64 58 50 63 56 48 61 52 44 57 49 41 54 46 38 51 43 35 48 42 34 47 37 29 42 34 26 39 29 21 34 23 15 28 16 8 21 10 2 15 5 0 10 3 0 9 7 3 17 6 4 17 6 4 17 6 4 17 6 4 17 6 4 17 6 4 17 6 4 17 4 2 15 4 2 15 4 2 15 4 2 15 4 2 15 4 2 15 4 2 15 3 3 15 5 5 15 3 6 15 3 6 15 3 6 15 3 6 15 3 6 15 3 6 15 3 6 15 3 6 15 3 6 15 3 6 15 3 6 15 3 6 15 3 6 15 3 6 15 2 6 15 4 8 17 2 9 17 2 9 17 2 9 17 2 9 17 2 9 17 2 9 17 2 9 17 19 26 34 19 26 34 19 26 34 19 26 34 19 26 34 19 26 34 19 26 34 19 26 34 62 69 77 61 68 76 60 67 75 59 66 74 58 65 73 56 63 71 56 63 71 55 62 70 49 56 64 49 56 64 49 56 64 49 56 64 49 56 64 49 56 64 49 56 64 49 56 62 44 51 57 42 50 53 40 48 51 37 45 48 33 41 44 30 38 41 28 36 39 26 34 37 16 24 27 14 22 25 12 20 23 9 17 20 5 13 16 2 10 13 0 8 11 0 6 9 4 12 15 4 12 15 4 12 15 4 12 15 4 12 15 4 12 15 4 12 15 4 12 15 9 17 20 11 19 22 13 21 24 16 24 27 20 28 31 23 31 34 25 33 36 27 35 38 37 42 45 37 42 45 37 42 45 37 42 45 37 42 45 37 42 45 37 42 45 37 42 45 35 40 43 35 40 43 35 40 43 35 40 43 35 40 43 35 40 43 35 40 43 36 40 41 48 48 50 47 45 46 45 43 44 42 40 41 38 36 37 35 33 34 33 31 32 31 29 30 33 31 32 33 31 32 33 31 32 33 31 32 33 31 32 33 31 32 33 31 32 33 32 30 37 31 31 37 32 29 37 32 29 37 32 29 37 32 29 37 32 29 37 32 29 37 32 29 38 33 30 38 33 30 38 33 30 38 33 30 38 33 30 38 33 30 38 33 30 38 33 30
60 47 64 60 47 64 60 47 64 60 47 64 52 39 56 52 39 56 52 39 56 52 39 56 52 39 56 52 39 56 52 39 56 51 40 56 37 26 40 35 27 40 35 27 40 35 27 40 35 27 40 35 27 40 35 27 40 35 27 40 9 1 14 9 1 14 9 1 14 9 1 14 9 1 14 9 1 14 9 1 14 8 2 14 4 0 14 3 1 14 3 1 14 3 1 14 3 1 14 3 1 14 3 1 14 3 1 14 4 2 15 4 2 15 4 2 15 4 2 15 4 2 15 4 2 15 4 2 15 3 3 15 5 5 15 3 6 15 3 6 15 3 6 15 3 6 15 3 6 15 3 6 15 3 6 15 4 7 16 4 7 16 4 7 16 4 7 16 4 7 16 4 7 16 4 7 16 3 7 16 13 17 26 10 17 25 9 16 24 8 15 23 7 14 22 5 12 20 5 12 20 4 11 19 18 25 33 21 28 36 27 34 42 34 41 49 42 49 57 50 57 65 56 63 71 59 66 74 58 65 73 58 65 73 58 65 73 58 65 73 58 65 73 58 65 73 58 65 73 58 65 73 63 70 78 61 68 76 59 66 74 56 63 71 52 59 67 49 56 64 47 54 62 45 52 58 45 52 58 43 51 54 41 49 52 38 46 49 34 42 45 31 39 42 29 37 40 27 35 38 19 27 30 17 25 28 15 23 26 12 20 23 8 16 19 5 13 16 3 11 14 1 9 12 6 14 17 6 14 17 6 14 17 6 14 17 6 14 17 6 14 17 6 14 17 6 14 17 9 17 20 11 19 22 13 21 24 16 24 27 20 28 31 23 31 34 25 33 36 27 35 38 27 32 35 27 32 35 27 32 35 27 32 35 27 32 35 27 32 35 27 32 35 27 32 35 30 35 38 30 35 38 30 35 38 30 35 38 30 35 38 30 35 38 30 35 38 31 35 36 31 31 33 32 30 31 32 30 31 32 30 31 32 30 31 32 30 31 32 30 31 32 30 31 32 30 31 32 30 31 32 30 31 32 30 31 32 30 31 32 30 31 32 30 31 32 31 29 37 31 31 37 32 29 37 32 29 37 32 29 37 32 29 37 32 29 37 32 29 37 32 29 38 33 30 38 33 30 38 33 30 38 33 30 38 33 30 38 33 30 38 33 30 38 33 30
56 43 60 56 43 60 56 43 60 56 43 60 44 31 48 44 31 48 44 31 48 44 31 48 44 31 48 44 31 48 44 31 48 43 32 48 35 24 38 33 25 38 33 25 38 33 25 38 33 25 38 33 25 38 33 25 38 33 25 38 9 1 14 9 1 14 9 1 14 9 1 14 9 1 14 9 1 14 9 1 14 8 2 14 4 0 14 3 1 14 3 1 14 3 1 14 3 1 14 3 1 14 3 1 14 3 1 14 4 2 15 4 2 15 4 2 15 4 2 15 4 2 15 4 2 15 4 2 15 3 3 15 5 5 15 3 6 15 3 6 15 3 6 15 3 6 15 3 6 15 3 6 15 3 6 15 4 7 16 4 7 16 4 7 16 4 7 16 4 7 16 4 7 16 4 7 16 3 7 16 12 16 25 10 17 25 10 17 25 9 16 24 8 15 23 8 15 23 7 14 22 7 14 22 21 28 36 24 31 39 29 36 44 36 43 51 43 50 58 50 57 65 56 63 71 59 66 74 58 65 73 58 65 73 58 65 73 58 65 73 58 65 73 58 65 73 58 65 73 58 65 73 63 70 78 61 68 76 59 66 74 56 63 71 52 59 67 49 56 64 47 54 62 45 52 58 45 52 58 43 51 54 41 49 52 38 46 49 34 42 45 31 39 42 29 37 40 27 35 38 19 27 30 17 25 28 15 23 26 12 20 23 8 16 19 5 13 16 3 11 14 1 9 12 6 14 17 6 14 17 6 14 17 6 14 17 6 14 17 6 14 17 6 14 17 6 14 17 9 17 20 11 19 22 13 21 24 16 24 27 20 28 31 23 31 34 25 33 36 27 35 38 27 32 35 27 32 35 27 32 35 27 32 35 27 32 35 27 32 35 27 32 35 27 32 35 30 35 38 30 35 38 30 35 38 30 35 38 30 35 38 30 35 38 30 35 38 31 35 36 31 31 33 32 30 31 32 30 31 32 30 31 32 30 31 32 30 31 32 30 31 32 30 31 32 30 31 32 30 31 32 30 31 32 30 31 32 30 31 32 30 31 32 30 31 32 31 29 37 31 31 37 32 29 37 32 29 37 32 29 37 32 29 37 32 29 37 32 29 37 32 29 38 33 30 38 33 30 38 33 30 38 33 30 38 33 30 38 33 30 38 33 30 38 33 30
49 36 53 49 36 53 49 36 53 49 36 53 31 18 35 31 18 35 31 18 35 31 18 35 31 18 35 31 18 35 31 18 35 30 19 35 30 19 33 28 20 33 28 20 33 28 20 33 28 20 33 28 20 33 28 20 33 28 20 33 9 1 14 9 1 14 9 1 14 9 1 14 9 1 14 9 1 14 9 1 14 8 2 14 4 0 14 3 1 14 3 1 14 3 1 14 3 1 14 3 1 14 3 1 14 3 1 14 4 2 15 4 2 15 4 2 15 4 2 15 4 2 15 4 2 15 4 2 15 3 3 15 5 5 15 3 6 15 3 6 15 3 6 15 3 6 15 3 6 15 3 6 15 3 6 15 4 7 16 4 7 16 4 7 16 4 7 16 4 7 16 4 7 16 4 7 16 3 7 16 11 15 24 10 17 25 10 17 25 11 18 26 11 18 26 12 19 27 13 20 28 13 20 28 27 34 42 29 36 44 33 40 48 39 46 54 45 52 60 51 58 66 55 62 70 58 65 73 58 65 73 58 65 73 58 65 73 58 65 73 58 65 73 58 65 73 58 65 73 58 65 73 63 70 78 61 68 76 59 66 74 56 63 71 52 59 67 49 56 64 47 54 62 45 52 58 45 52 58 43 51 54 41 49 52 38 46 49 34 42 45 31 39 42 29 37 40 27 35 38 19 27 30 17 25 28 15 23 26 12 20 23 8 16 19 5 13 16 3 11 14 1 9 12 6 14 17 6 14 17 6 14 17 6 14 17 6 14 17 6 14 17 6 14 17 6 14 17 9 17 20 11 19 22 13 21 24 16 24 27 20 28 31 23 31 34 25 33 36 27 35 38 27 32 35 27 32 35 27 32 35 27 32 35 27 32 35 27 32 35 27 32 35 27 32 35 30 35 38 30 35 38 30 35 38 30 35 38 30 35 38 30 35 38 30 35 38 31 35 36 31 31 33 32 30 31 32 30 31 32 30 31 32 30 31 32 30 31 32 30 31 32 30 31 32 30 31 32 30 31 32 30 31 32 30 31 32 30 31 32 30 31 32 30 31 32 31 29 37 31 31 37 32 29 37 32 29 37 32 29 37 32 29 37 32 29 37 32 29 37 32 29 38 33 30 38 33 30 38 33 30 38 33 30 38 33 30 38 33 30 38 33 30 38 33 30
39 26 43 39 26 43 39 26 43 39 26 43 19 6 23 19 6 23 19 6 23 19 6 23 19 6 23 19 6 23 19 6 23 18 7 23 23 12 26 21 13 26 21 13 26 21 13 26 21 13 26 21 13 26 21 13 26 21 13 26 9 1 14 9 1 14 9 1 14 9 1 14 9 1 14 9 1 14 9 1 14 8 2 14 4 0 14 3 1 14 3 1 14 3 1 14 3 1 14 3 1 14 3 1 14 3 1 14 4 2 15 4 2 15 4 2 15 4 2 15 4 2 15 4 2 15 4 2 15 3 3 15 5 5 15 3 6 15 3 6 15 3 6 15 3 6 15 3 6 15 3 6 15 3 6 15 4 7 16 4 7 16 4 7 16 4 7 16 4 7 16 4 7 16 4 7 16 3 7 16 10 14 23 9 16 24 11 18 26 13 20 28 16 23 31 18 25 33 20 27 35 21 28 36 34 41 49 36 43 51 39 46 54 43 50 58 47 54 62 52 59 67 55 62 70 56 63 71 58 65 73 58 65 73 58 65 73 58 65 73 58 65 73 58 65 73 58 65 73 58 65 73 63 70 78 61 68 76 59 66 74 56 63 71 52 59 67 49 56 64 47 54 62 45 52 58 45 52 58 43 51 54 41 49 52 38 46 49 34 42 45 31 39 42 29 37 40 27 35 38 19 27 30 17 25 28 15 23 26 12 20 23 8 16 19 5 13 16 3 11 14 1 9 12 6 14 17 6 14 17 6 14 17 6 14 17 6 14 17 6 14 17 6 14 17 6 14 17 9 17 20 11 19 22 13 21 24 16 24 27 20 28 31 23 31 34 25 33 36 27 35 38 27 32 35 27 32 35 27 32 35 27 32 35 27 32 35 27 32 35 27 32 35 27 32 35 30 35 38 30 35 38 30 35 38 30 35 38 30 35 38 30 35 38 30 35 38 31 35 36 31 31 33 32 30 31 32 30 31 32 30 31 32 30 31 32 30 31 32 30 31 32 30 31 32 30 31 32 30 31 32 30 31 32 30 31 32 30 31 32 30 31 32 30 31 32 31 29 37 31 31 37 32 29 37 32 29 37 32 29 37 32 29 37 32 29 37 32 29 37 32 29 38 33 30 38 33 30 38 33 30 38 33 30 38 33 30 38 33 30 38 33 30 38 33 30
29 16 33 29 16 33 29 16 33 29 16 33 12 0 16 12 0 16 12 0 16 12 0 16 12 0 16 12 0 16 12 0 16 11 0 16 17 6 20 15 7 20 15 7 20 15 7 20 15 7 20 15 7 20 15 7 20 15 7 20 9 1 14 9 1 14 9 1 14 9 1 14 9 1 14 9 1 14 9 1 14 8 2 14 4 0 14 3 1 14 3 1 14 3 1 14 3 1 14 3 1 14 3 1 14 3 1 14 4 2 15 4 2 15 4 2 15 4 2 15 4 2 15 4 2 15 4 2 15 3 3 15 5 5 15 3 6 15 3 6 15 3 6 15 3 6 15 3 6 15 3 6 15 3 6 15 4 7 16 4 7 16 4 7 16 4 7 16 4 7 16 4 7 16 4 7 16 3 7 16 9 13 22 8 15 23 11 18 26 16 23 31 20 27 35 24 31 39 27 34 42 29 36 44 42 49 57 43 50 58 45 52 60 47 54 62 50 57 65 52 59 67 54 61 69 55 62 70 58 65 73 58 65 73 58 65 73 58 65 73 58 65 73 58 65 73 58 65 73 58 65 73 63 70 78 61 68 76 59 66 74 56 63 71 52 59 67 49 56 64 47 54 62 45 52 58 45 52 58 43 51 54 41 49 52 38 46 49 34 42 45 31 39 42 29 37 40 27 35 38 19 27 30 17 25 28 15 23 26 12 20 23 8 16 19 5 13 16 3 11 14 1 9 12 6 14 17 6 14 17 6 14 17 6 14 17 6 14 17 6 14 17 6 14 17 6 14 17 9 17 20 11 19 22 13 21 24 16 24 27 20 28 31 23 31 34 25 33 36 27 35 38 27 32 35 27 32 35 27 32 35 27 32 35 27 32 35 27 32 35 27 32 35 27 32 35 30 35 38 30 35 38 30 35 38 30 35 38 30 35 38 30 35 38 30 35 38 31 35 36 31 31 33 32 30 31 32 30 31 32 30 31 32 30 31 32 30 31 32 30 31 32 30 31 32 30 31 32 30 31 32 30 31 32 30 31 32 30 31 32 30 31 32 30 31 32 31 29 37 31 31 37 32 29 37 32 29 37 32 29 37 32 29 37 32 29 37 32 29 37 32 29 38 33 30 38 33 30 38 33 30 38 33 30 38 33 30 38 33 30 38 33 30 38 33 30
19 6 23 19 6 23 19 6 23 19 6 23 11 0 15 11 0 15 11 0 15 11 0 15 11 0 15 11 0 15 11 0 15 10 0 15 10 0 13 8 0 13 8 0 13 8 0 13 8 0 13 8 0 13 8 0 13 8 0 13 9 1 14 9 1 14 9 1 14 9 1 14 9 1 14 9 1 14 9 1 14 8 2 14 4 0 14 3 1 14 3 1 14 3 1 14 3 1 14 3 1 14 3 1 14 3 1 14 4 2 15 4 2 15 4 2 15 4 2 15 4 2 15 4 2 15 4 2 15 3 3 15 5 5 15 3 6 15 3 6 15 3 6 15 3 6 15 3 6 15 3 6 15 3 6 15 4 7 16 4 7 16 4 7 16 4 7 16 4 7 16 4 7 16 4 7 16 3 7 16 7 11 20 8 15 23 12 19 27 18 25 33 24 31 39 30 37 45 34 41 49 36 43 51 50 57 65 50 57 65 51 58 66 52 59 67 52 59 67 53 60 68 53 60 68 54 61 69 58 65 73 58 65 73 58 65 73 58 65 73 58 65 73 58 65 73 58 65 73 58 65 73 63 70 78 61 68 76 59 66 74 56 63 71 52 59 67 49 56 64 47 54 62 45 52 58 45 52 58 43 51 54 41 49 52 38 46 49 34 42 45 31 39 42 29 37 40 27 35 38 19 27 30 17 25 28 15 23 26 12 20 23 8 16 19 5 13 16 3 11 14 1 9 12 6 14 17 6 14 17 6 14 17 6 14 17 6 14 17 6 14 17 6 14 17 6 14 17 9 17 20 11 19 22 13 21 24 16 24 27 20 28 31 23 31 34 25 33 36 27 35 38 27 32 35 27 32 35 27 32 35 27 32 35 27 32 35 27 32 35 27 32 35 27 32 35 30 35 38 30 35 38 30 35 38 30 35 38 30 35 38 30 35 38 30 35 38 31 35 36 31 31 33 32 30 31 32 30 31 32 30 31 32 30 31 32 30 31 32 30 31 32 30 31 32 30 31 32 30 31 32 30 31 32 30 31 32 30 31 32 30 31 32 30 31 32 31 29 37 31 31 37 32 29 37 32 29 37 32 29 37 32 29 37 32 29 37 32 29 37 32 29 38 33 30 38 33 30 38 33 30 38 33 30 38 33 30 38 33 30 38 33 30 38 33 30
12 0 16 12 0 16 12 0 16 12 0 16 14 1 18 14 1 18 14 1 18 14 1 18 14 1 18 14 1 18 14 1 18 13 2 18 6 0 9 4 0 9 4 0 9 4 0 9 4 0 9 4 0 9 4 0 9 4 0 9 9 1 14 9 1 14 9 1 14 9 1 14 9 1 14 9 1 14 9 1 14 8 2 14 4 0 14 3 1 14 3 1 14 3 1 14 3 1 14 3 1 14 3 1 14 3 1 14 4 2 15 4 2 15 4 2 15 4 2 15 4 2 15 4 2 15 4 2 15 3 3 15 5 5 15 3 6 15 3 6 15 3 6 15 3 6 15 3 6 15 3 6 15 3 6 15 4 7 16 4 7 16 4 7 16 4 7 16 4 7 16 4 7 16 4 7 16 3 7 16 6 10 19 7 14 22 13 20 28 20 27 35 27 34 42 34 41 49 39 46 54 42 49 57 56 63 71 56 63 71 55 62 70 55 62 70 54 61 69 53 60 68 53 60 68 53 60 68 58 65 73 58 65 73 58 65 73 58 65 73 58 65 73 58 65 73 58 65 73 58 65 73 63 70 78 61 68 76 59 66 74 56 63 71 52 59 67 49 56 64 47 54 62 45 52 58 45 52 58 43 51 54 41 49 52 38 46 49 34 42 45 31 39 42 29 37 40 27 35 38 19 27 30 17 25 28 15 23 26 12 20 23 8 16 19 5 13 16 3 11 14 1 9 12 6 14 17 6 14 17 6 14 17 6 14 17 6 14 17 6 14 17 6 14 17 6 14 17 9 17 20 11 19 22 13 21 24 16 24 27 20 28 31 23 31 34 25 33 36 27 35 38 27 32 35 27 32 35 27 32 35 27 32 35 27 32 35 27 32 35 27 32 35 27 32 35 30 35 38 30 35 38 30 35 38 30 35 38 30 35 38 30 35 38 30 35 38 31 35 36 31 31 33 32 30 31 32 30 31 32 30 31 32 30 31 32 30 31 32 30 31 32 30 31 32 30 31 32 30 31 32 30 31 32 30 31 32 30 31 32 30 31 32 30 31 32 31 29 37 31 31 37 32 29 37 32 29 37 32 29 37 32 29 37 32 29 37 32 29 37 32 29 38 33 30 38 33 30 38 33 30 38 33 30 38 33 30 38 33 30 38 33 30 38 33 30
7 0 10 7 0 10 7 0 10 7 0 10 16 5 19 16 5 19 16 5 19 16 5 19 16 5 19 16 5 19 16 5 19 14 6 19 4 0 9 3 0 7 3 0 9 3 0 7 3 0 9 3 0 7 3 0 9 3 0 7 8 2 14 8 2 12 8 2 14 8 2 12 8 2 14 8 2 12 8 2 14 8 2 14 4 1 12 3 1 12 3 1 14 3 1 12 3 1 14 3 1 12 3 1 14 3 1 12 4 2 15 4 2 13 4 2 15 4 2 13 4 2 15 4 2 13 4 2 15 3 3 13 3 6 15 2 6 15 3 6 15 2 6 15 3 6 15 2 6 15 3 6 15 2 6 15 4 7 16 3 7 16 4 7 16 3 7 16 4 7 16 3 7 16 4 7 16 3 7 16 4 11 19 7 14 22 13 20 28 21 28 36 29 36 44 36 43 51 42 49 57 45 52 60 59 66 74 58 65 73 58 65 73 56 63 71 55 62 70 54 61 69 53 60 68 52 59 67 58 65 73 58 65 73 58 65 73 58 65 73 58 65 73 58 65 73 58 65 73 58 65 73 63 70 78 61 68 76 59 66 74 56 63 71 52 59 67 49 56 64 47 54 62 45 52 58 45 52 58 43 51 54 41 49 52 38 46 49 34 42 45 31 39 42 29 37 40 27 35 38 19 27 30 17 25 28 15 23 26 12 20 23 8 16 19 5 13 16 3 11 14 1 9 12 6 14 17 6 14 17 6 14 17 6 14 17 6 14 17 6 14 17 6 14 17 6 14 17 9 17 20 11 19 22 13 21 24 16 24 27 20 28 31 23 31 34 25 33 36 27 35 38 25 33 35 25 33 35 27 32 35 25 33 35 27 32 35 25 33 35 27 32 35 25 33 35 30 35 38 28 36 38 30 35 38 28 36 38 30 35 38 28 36 38 30 35 38 31 35 36 31 31 31 32 30 31 32 30 31 32 30 31 32 30 31 32 30 31 32 30 31 32 30 31 32 30 31 32 30 31 32 30 31 32 30 31 32 30 31 32 30 31 32 30 31 34 30 29 37 32 29 37 32 29 37 32 29 37 32 29 37 32 29 37 32 29 37 32 29 37 32 29 38 33 30 38 33 30 38 33 30 38 33 30 38 33 30 38 33 30 38 33 30 38 33 30
3 0 7 3 0 7 3 0 7 3 0 7 4 1 8 4 1 8 4 1 8 4 1 8 4 1 8 4 1 8 4 1 8 4 1 8 4 1 8 4 1 8 4 1 10 4 1 8 4 1 10 4 1 8 4 1 10 4 1 8 2 0 8 2 0 6 2 0 8 2 0 6 2 0 8 2 0 6 2 0 8 2 0 8 2 1 9 2 1 9 2 0 11 2 1 9 2 0 11 2 1 9 2 0 11 2 1 9 4 2 13 4 3 11 4 2 13 4 3 11 4 2 13 4 3 11 4 2 13 3 3 11 5 10 16 3 10 16 5 10 16 3 10 16 5 10 16 3 10 16 5 10 16 3 10 16 0 4 10 0 5 11 3 8 14 4 11 17 9 14 20 11 18 24 15 20 26 14 21 27 47 54 62 47 54 62 47 54 62 47 54 62 47 54 62 47 54 62 47 54 62 47 54 62 57 64 72 57 64 72 57 64 72 57 64 72 57 64 72 57 64 72 57 64 72 57 64 72 63 70 76 63 70 76 63 70 76 63 70 76 63 70 76 63 70 76 63 70 76 63 70 76 60 67 73 60 67 73 60 67 73 60 67 73 60 67 73 60 67 73 60 67 73 60 67 73 61 70 75 60 69 74 57 66 71 54 63 68 51 60 65 47 56 61 45 54 59 44 53 58 12 21 26 14 23 28 17 26 31 22 31 36 26 35 40 31 40 45 34 43 48 36 45 50 16 26 28 15 25 27 12 22 24 9 19 21 6 16 18 2 12 14 0 10 12 0 9 11 14 24 26 14 24 26 14 24 26 14 24 26 14 24 26 14 24 26 14 24 26 14 24 26 28 38 39 28 38 39 29 37 39 28 38 39 29 37 39 28 38 39 29 37 39 28 38 39 28 36 38 27 37 38 28 36 38 27 37 38 28 36 38 27 37 38 28 36 38 30 36 36 28 28 28 31 27 26 31 27 26 31 27 26 31 27 26 31 27 26 31 27 26 31 27 26 33 29 28 33 29 28 33 29 28 33 29 28 33 29 28 33 29 28 33 29 28 33 29 28 36 31 28 38 30 28 38 30 28 38 30 28 38 30 28 38 30 28 38 30 28 38 30 28 38 30 28 38 30 28 38 30 28 38 30 28 38 30 28 38 30 28 38 30 28 36 31 28
2 1 6 2 1 6 2 1 6 2 1 6 3 2 7 3 2 7 3 2 7 3 2 7 3 2 7 3 2 7 3 2 7 3 2 7 3 2 8 3 2 8 3 2 8 3 2 8 3 2 8 3 2 8 3 2 8 3 2 8 1 0 6 1 0 6 1 0 6 1 0 6 1 0 6 1 0 6 1 0 6 1 0 6 2 1 9 2 1 9 2 1 9 2 1 9 2 1 9 2 1 9 2 1 9 2 1 9 4 3 11 4 3 11 4 3 11 4 3 11 4 3 11 4 3 11 4 3 11 3 3 11 5 10 16 3 10 16 3 10 16 3 10 16 3 10 16 3 10 16 3 10 16 3 10 16 0 7 13 1 8 14 3 10 16 7 14 20 10 17 23 13 20 26 16 23 29 17 24 30 47 54 62 47 54 62 47 54 62 47 54 62 47 54 62 47 54 62 47 54 62 47 54 62 57 64 72 57 64 72 57 64 72 57 64 72 57 64 72 57 64 72 57 64 72 57 64 72 63 70 76 63 70 76 63 70 76 63 70 76 63 70 76 63 70 76 63 70 76 63 70 76 62 69 75 62 69 75 62 69 75 62 69 75 62 69 75 62 69 75 62 69 75 62 69 75 62 71 76 61 70 75 59 68 73 55 64 69 52 61 66 49 58 63 46 55 60 45 54 59 14 23 28 15 24 29 18 27 32 22 31 36 26 35 40 30 39 44 33 42 47 34 43 48 17 27 29 16 26 28 14 24 26 10 20 22 7 17 19 4 14 16 1 11 13 0 10 12 14 24 26 14 24 26 14 24 26 14 24 26 14 24 26 14 24 26 14 24 26 14 24 26 26 36 37 26 36 37 26 36 37 26 36 37 26 36 37 26 36 37 26 36 37 26 36 37 25 35 36 25 35 36 25 35 36 25 35 36 25 35 36 25 35 36 25 35 36 28 34 34 28 28 28 31 27 26 31 27 26 31 27 26 31 27 26 31 27 26 31 27 26 31 27 26 33 29 28 33 29 28 33 29 28 33 29 28 33 29 28 33 29 28 33 29 28 33 29 28 38 30 28 38 30 28 38 30 28 38 30 28 38 30 28 38 30 28 38 30 28 38 30 28 38 30 28 38 30 28 38 30 28 38 30 28 38 30 28 38 30 28 38 30 28 38 30 28
2 1 6 2 1 6 2 1 6 2 1 6 3 2 7 3 2 7 3 2 7 3 2 7 3 2 7 3 2 7 3 2 7 3 2 7 3 2 8 3 2 8 3 2 8 3 2 8 3 2 8 3 2 8 3 2 8 3 2 8 1 0 6 1 0 6 1 0 6 1 0 6 1 0 6 1 0 6 1 0 6 1 0 6 2 1 9 2 1 9 2 1 9 2 1 9 2 1 9 2 1 9 2 1 9 2 1 9 4 3 11 4 3 11 4 3 11 4 3 11 4 3 11 4 3 11 4 3 11 3 3 11 5 10 16 3 10 16 3 10 16 3 10 16 3 10 16 3 10 16 3 10 16 3 10 16 5 12 18 6 13 19 8 15 21 11 18 24 15 22 28 18 25 31 21 28 34 22 29 35 47 54 62 47 54 62 47 54 62 47 54 62 47 54 62 47 54 62 47 54 62 47 54 62 57 64 72 57 64 72 57 64 72 57 64 72 57 64 72 57 64 72 57 64 72 57 64 72 63 70 76 63 70 76 63 70 76 63 70 76 63 70 76 63 70 76 63 70 76 63 70 76 64 71 77 64 71 77 64 71 77 64 71 77 64 71 77 64 71 77 64 71 77 64 71 77 65 74 79 63 72 77 61 70 75 58 67 72 54 63 68 51 60 65 49 58 63 47 56 61 17 26 31 18 27 32 20 29 34 23 32 37 25 34 39 28 37 42 30 39 44 31 40 45 20 30 32 18 28 30 16 26 28 13 23 25 9 19 21 6 16 18 4 14 16 2 12 14 14 24 26 14 24 26 14 24 26 14 24 26 14 24 26 14 24 26 14 24 26 14 24 26 24 34 35 24 34 35 24 34 35 24 34 35 24 34 35 24 34 35 24 34 35 24 34 35 23 33 34 23 33 34 23 33 34 23 33 34 23 33 34 23 33 34 23 33 34 26 32 32 28 28 28 31 27 26 31 27 26 31 27 26 31 27 26 31 27 26 31 27 26 31 27 26 33 29 28 33 29 28 33 29 28 33 29 28 33 29 28 33 29 28 33 29 28 33 29 28 38 30 28 38 30 28 38 30 28 38 30 28 38 30 28 38 30 28 38 30 28 38 30 28 38 30 28 38 30 28 38 30 28 38 30 28 38 30 28 38 30 28 38 30 28 38 30 28
