P3
172 37
255
49 41 56 49 41 56 49 41 56 49 41 56 36 28 43 35 27 42 33 25 40 29 21 36 26 18 33 23 15 30 20 12 27 19 11 24 17 11 23 15 9 19 13 7 17 10 4 14 6 0 10 3 0 7 3 0 7 3 0 7 3 0 7 3 0 7 3 0 7 3 0 7 5 0 9 8 2 12 11 5 15 11 8 17 4 1 10 3 2 10 3 2 10 3 2 10 3 2 10 3 2 10 3 2 10 3 2 10 3 2 10 3 2 10 3 2 10 3 2 10 3 2 10 3 2 10 3 2 10 3 2 10 5 3 14 5 3 14 5 3 14 5 3 14 5 3 14 5 3 14 5 3 14 5 3 14 5 3 14 5 3 14 5 3 14 5 3 14 5 3 14 5 3 14 5 3 14 4 4 14 5 5 13 3 6 13 3 6 13 3 6 13 3 6 13 3 6 13 3 6 13 3 6 13 5 8 15 5 8 15 5 8 15 5 8 15 5 8 15 5 8 15 5 8 15 5 8 15 6 9 14 6 9 14 6 9 14 6 9 14 6 9 14 6 9 14 6 9 14 6 9 14 6 9 14 6 9 14 6 9 14 6 9 14 6 9 14 6 9 14 6 9 14 6 9 14 4 8 11 4 8 11 4 8 11 4 8 11 4 8 11 4 8 11 4 8 11 4 8 11 0 2 5 0 2 5 0 2 5 0 2 5 0 2 5 0 2 5 0 2 5 0 2 5 2 3 5 2 3 5 2 3 5 2 3 5 2 3 5 2 3 5 2 3 5 2 3 5 16 17 19 16 17 19 16 17 19 16 17 19 16 17 19 16 17 19 16 17 19 16 18 17 20 20 18 24 25 20 31 32 27 41 42 37 51 52 47 61 62 57 68 69 64 72 73 68 97 98 93 104 105 100 114 115 110 123 124 119 126 127 122 124 125 120 118 119 114 114 115 110 76 75 71 68 67 63 55 54 50 43 42 38 36 35 31 35 34 30 38 37 33 41 40 36 40 39 35 40 39 35 40 39 35 40 39 35 40 39 35 40 39 35 40 39 35 40 39 35 38 36 37 38 36 37 38 36 37 38 36 37 38 36 37 38 36 37 38 36 37 38 36 37 41 39 40 41 39 40 41 39 40 41 39 40 41 39 40 41 39 40 41 39 40 41 39 40
44 38 52 44 38 50 44 38 52 44 38 50 30 24 38 29 23 35 26 20 34 23 17 29 20 14 28 16 10 22 14 8 22 13 7 19 13 7 17 9 6 13 9 3 13 4 1 8 3 0 7 1 0 5 3 0 7 1 0 5 3 0 7 1 0 5 3 0 7 1 0 5 4 0 8 6 3 10 12 6 16 11 8 17 3 2 10 3 2 10 3 2 10 3 2 10 3 2 10 3 2 10 3 2 10 3 2 10 3 2 10 3 2 10 3 2 10 3 2 10 3 2 10 3 2 10 3 2 10 3 2 10 5 4 12 5 4 12 5 4 12 5 4 12 5 4 12 5 4 12 5 4 12 5 4 12 5 4 12 5 4 12 5 4 12 5 4 12 5 4 12 5 4 12 5 4 12 4 4 12 3 6 13 3 6 13 3 6 13 3 6 13 3 6 13 3 6 13 3 6 13 3 6 13 5 8 15 5 8 15 5 8 15 5 8 15 5 8 15 5 8 15 5 8 15 5 8 15 6 9 14 6 9 14 6 9 14 6 9 14 6 9 14 6 9 14 6 9 14 6 9 14 6 9 14 6 9 14 6 9 14 6 9 14 6 9 14 6 9 14 6 9 14 6 9 14 4 8 11 4 8 11 4 8 11 4 8 11 4 8 11 4 8 11 4 8 11 4 8 11 0 2 5 0 2 5 0 2 5 0 2 5 0 2 5 0 2 5 0 2 5 0 2 5 2 3 5 2 3 5 2 3 5 2 3 5 2 3 5 2 3 5 2 3 5 2 3 5 16 17 19 16 17 19 16 17 19 16 17 19 16 17 19 16 17 19 16 17 19 16 18 17 19 21 18 23 25 20 31 32 27 40 42 37 51 52 47 60 62 57 68 69 64 71 73 68 97 98 93 103 105 100 114 115 110 122 124 119 126 127 122 123 125 120 118 119 114 114 115 110 76 75 71 68 67 63 55 54 50 43 42 38 36 35 31 35 34 30 38 37 33 41 40 36 40 39 35 40 39 35 40 39 35 40 39 35 40 39 35 40 39 35 40 39 35 40 39 35 38 37 35 38 36 37 38 36 37 38 36 37 38 36 37 38 36 37 38 36 37 38 36 37 41 39 40 41 39 40 41 39 40 41 39 40 41 39 40 41 39 40 41 39 40 41 39 40
19 16 27 19 16 25 19 16 27 19 16 25 4 1 12 4 1 10 4 1 12 4 1 10 4 1 12 4 1 10 4 1 12 4 1 10 2 0 6 1 0 5 2 0 6 1 0 5 2 0 6 1 0 5 2 0 6 1 0 5 3 0 7 2 1 6 3 0 7 2 1 6 3 0 7 2 1 6 3 0 7 2 1 7 2 1 7 2 1 7 2 1 7 2 1 7 2 1 7 2 1 7 2 1 7 2 1 7 5 4 10 5 4 10 5 4 10 5 4 10 5 4 10 5 4 10 5 4 10 5 4 10 7 8 13 7 8 13 7 8 13 7 8 13 7 8 13 7 8 13 7 8 13 7 8 13 4 5 10 4 5 10 4 5 10 4 5 10 4 5 10 4 5 10 4 5 10 4 5 10 3 6 11 3 6 11 3 6 11 3 6 11 3 6 11 3 6 11 3 6 11 3 6 11 6 9 14 6 9 14 6 9 14 6 9 14 6 9 14 6 9 14 6 9 14 6 9 14 5 10 14 5 10 14 5 10 14 5 10 14 5 10 14 5 10 14 5 10 14 5 10 14 6 11 15 6 11 15 6 11 15 6 11 15 6 11 15 6 11 15 6 11 15 6 11 15 3 7 10 3 7 8 3 7 8 3 7 8 3 7 8 3 7 8 3 7 8 3 7 8 0 2 3 0 2 3 0 2 3 0 2 3 0 2 3 0 2 3 0 2 3 0 2 3 0 4 5 0 4 5 0 4 5 0 4 5 0 4 5 0 4 5 0 4 5 0 4 5 8 12 13 10 14 15 12 16 17 15 19 20 19 23 24 22 26 27 24 28 29 26 30 29 34 39 33 36 41 34 43 46 39 48 53 46 56 59 52 61 66 59 68 71 64 68 73 66 97 100 93 96 101 94 101 104 97 102 107 100 107 110 103 109 114 107 113 116 109 114 117 110 76 77 71 69 68 63 56 55 50 44 43 38 37 36 31 36 35 30 39 38 33 42 41 36 39 38 33 39 38 33 39 38 33 39 38 33 39 38 33 39 38 33 39 38 33 39 38 34 37 36 34 37 35 36 37 35 36 37 35 36 37 35 36 37 35 36 37 35 36 37 35 36 37 35 36 37 35 36 37 35 36 37 35 36 37 35 36 37 35 36 37 35 36 37 35 36
16 15 23 16 15 23 16 15 23 16 15 23 3 2 10 3 2 10 3 2 10 3 2 10 3 2 10 3 2 10 3 2 10 3 2 8 1 0 6 1 0 5 1 0 5 1 0 5 1 0 5 1 0 5 1 0 5 1 0 5 2 1 6 2 1 6 2 1 6 2 1 6 2 1 6 2 1 6 2 1 6 2 1 6 2 1 7 2 1 7 2 1 7 2 1 7 2 1 7 2 1 7 2 1 7 2 1 7 5 4 10 5 4 10 5 4 10 5 4 10 5 4 10 5 4 10 5 4 10 5 4 10 7 8 12 7 8 12 7 8 12 7 8 12 7 8 12 7 8 12 7 8 12 7 8 12 4 5 9 4 5 9 4 5 9 4 5 9 4 5 9 4 5 9 4 5 9 4 5 9 3 6 11 3 6 11 3 6 11 3 6 11 3 6 11 3 6 11 3 6 11 3 6 11 6 9 14 6 9 14 6 9 14 6 9 14 6 9 14 6 9 14 6 9 14 6 9 14 5 10 14 5 10 14 5 10 14 5 10 14 5 10 14 5 10 14 5 10 14 5 10 14 6 11 15 6 11 15 6 11 15 6 11 15 6 11 15 6 11 15 6 11 15 6 11 14 3 7 10 3 7 8 3 7 8 3 7 8 3 7 8 3 7 8 3 7 8 3 7 8 0 2 3 0 2 3 0 2 3 0 2 3 0 2 3 0 2 3 0 2 3 0 2 3 0 4 5 0 4 5 0 4 5 0 4 5 0 4 5 0 4 5 0 4 5 0 4 5 8 12 13 10 14 15 12 16 17 15 19 20 19 23 24 22 26 27 24 28 29 26 30 29 34 39 33 36 41 34 41 46 39 48 53 46 54 59 52 61 66 59 66 71 64 68 73 66 94 99 92 95 100 93 97 102 95 101 106 99 104 109 102 107 112 105 110 115 108 113 116 109 76 77 71 69 68 63 56 55 50 44 43 38 37 36 31 36 35 30 39 38 33 42 41 36 39 38 33 39 38 33 39 38 33 39 38 33 39 38 33 39 38 33 39 38 33 39 38 34 37 36 34 37 35 36 37 35 36 37 35 36 37 35 36 37 35 36 37 35 36 37 35 36 37 35 36 37 35 36 37 35 36 37 35 36 37 35 36 37 35 36 37 35 36 37 35 36
14 13 21 14 13 21 14 13 21 14 13 21 3 2 10 3 2 10 3 2 10 3 2 10 3 2 10 3 2 10 3 2 10 3 2 8 1 0 6 1 0 5 1 0 5 1 0 5 1 0 5 1 0 5 1 0 5 1 0 5 2 1 6 2 1 6 2 1 6 2 1 6 2 1 6 2 1 6 2 1 6 2 1 6 2 1 7 2 1 7 2 1 7 2 1 7 2 1 7 2 1 7 2 1 7 2 1 7 5 4 10 5 4 10 5 4 10 5 4 10 5 4 10 5 4 10 5 4 10 5 4 10 7 8 12 7 8 12 7 8 12 7 8 12 7 8 12 7 8 12 7 8 12 7 8 12 4 5 9 4 5 9 4 5 9 4 5 9 4 5 9 4 5 9 4 5 9 4 5 9 3 6 11 3 6 11 3 6 11 3 6 11 3 6 11 3 6 11 3 6 11 3 6 11 6 9 14 6 9 14 6 9 14 6 9 14 6 9 14 6 9 14 6 9 14 6 9 14 5 10 14 5 10 14 5 10 14 5 10 14 5 10 14 5 10 14 5 10 14 5 10 14 6 11 15 6 11 15 6 11 15 6 11 15 6 11 15 6 11 15 6 11 15 6 11 14 3 7 10 3 7 8 3 7 8 3 7 8 3 7 8 3 7 8 3 7 8 3 7 8 0 2 3 0 2 3 0 2 3 0 2 3 0 2 3 0 2 3 0 2 3 0 2 3 0 4 5 0 4 5 0 4 5 0 4 5 0 4 5 0 4 5 0 4 5 0 4 5 8 12 13 10 14 15 12 16 17 15 19 20 19 23 24 22 26 27 24 28 29 26 30 29 34 39 33 36 41 34 41 46 39 48 53 46 54 59 52 61 66 59 66 71 64 68 73 66 91 96 89 93 98 91 95 100 93 98 103 96 102 107 100 105 110 103 107 112 105 111 114 107 76 77 71 69 68 63 56 55 50 44 43 38 37 36 31 36 35 30 39 38 33 42 41 36 39 38 33 39 38 33 39 38 33 39 38 33 39 38 33 39 38 33 39 38 33 39 38 34 37 36 34 37 35 36 37 35 36 37 35 36 37 35 36 37 35 36 37 35 36 37 35 36 37 35 36 37 35 36 37 35 36 37 35 36 37 35 36 37 35 36 37 35 36 37 35 36
11 10 18 11 10 18 11 10 18 11 10 18 3 2 10 3 2 10 3 2 10 3 2 10 3 2 10 3 2 10 3 2 10 3 2 8 1 0 6 1 0 5 1 0 5 1 0 5 1 0 5 1 0 5 1 0 5 1 0 5 2 1 6 2 1 6 2 1 6 2 1 6 2 1 6 2 1 6 2 1 6 2 1 6 2 1 7 2 1 7 2 1 7 2 1 7 2 1 7 2 1 7 2 1 7 2 1 7 5 4 10 5 4 10 5 4 10 5 4 10 5 4 10 5 4 10 5 4 10 5 4 10 7 8 12 7 8 12 7 8 12 7 8 12 7 8 12 7 8 12 7 8 12 7 8 12 4 5 9 4 5 9 4 5 9 4 5 9 4 5 9 4 5 9 4 5 9 4 5 9 3 6 11 3 6 11 3 6 11 3 6 11 3 6 11 3 6 11 3 6 11 3 6 11 6 9 14 6 9 14 6 9 14 6 9 14 6 9 14 6 9 14 6 9 14 6 9 14 5 10 14 5 10 14 5 10 14 5 10 14 5 10 14 5 10 14 5 10 14 5 10 14 6 11 15 6 11 15 6 11 15 6 11 15 6 11 15 6 11 15 6 11 15 6 11 14 3 7 10 3 7 8 3 7 8 3 7 8 3 7 8 3 7 8 3 7 8 3 7 8 0 2 3 0 2 3 0 2 3 0 2 3 0 2 3 0 2 3 0 2 3 0 2 3 0 4 5 0 4 5 0 4 5 0 4 5 0 4 5 0 4 5 0 4 5 0 4 5 8 12 13 10 14 15 12 16 17 15 19 20 19 23 24 22 26 27 24 28 29 26 30 29 34 39 33 36 41 34 41 46 39 48 53 46 54 59 52 61 66 59 66 71 64 68 73 66 88 93 86 89 94 87 92 97 90 95 100 93 98 103 96 102 107 100 104 109 102 107 110 103 76 77 71 69 68 63 56 55 50 44 43 38 37 36 31 36 35 30 39 38 33 42 41 36 39 38 33 39 38 33 39 38 33 39 38 33 39 38 33 39 38 33 39 38 33 39 38 34 37 36 34 37 35 36 37 35 36 37 35 36 37 35 36 37 35 36 37 35 36 37 35 36 37 35 36 37 35 36 37 35 36 37 35 36 37 35 36 37 35 36 37 35 36 37 35 36
7 6 14 7 6 14 7 6 14 7 6 14 3 2 10 3 2 10 3 2 10 3 2 10 3 2 10 3 2 10 3 2 10 3 2 8 1 0 6 1 0 5 1 0 5 1 0 5 1 0 5 1 0 5 1 0 5 1 0 5 2 1 6 2 1 6 2 1 6 2 1 6 2 1 6 2 1 6 2 1 6 2 1 6 2 1 7 2 1 7 2 1 7 2 1 7 2 1 7 2 1 7 2 1 7 2 1 7 5 4 10 5 4 10 5 4 10 5 4 10 5 4 10 5 4 10 5 4 10 5 4 10 7 8 12 7 8 12 7 8 12 7 8 12 7 8 12 7 8 12 7 8 12 7 8 12 4 5 9 4 5 9 4 5 9 4 5 9 4 5 9 4 5 9 4 5 9 4 5 9 3 6 11 3 6 11 3 6 11 3 6 11 3 6 11 3 6 11 3 6 11 3 6 11 6 9 14 6 9 14 6 9 14 6 9 14 6 9 14 6 9 14 6 9 14 6 9 14 5 10 14 5 10 14 5 10 14 5 10 14 5 10 14 5 10 14 5 10 14 5 10 14 6 11 15 6 11 15 6 11 15 6 11 15 6 11 15 6 11 15 6 11 15 6 11 14 3 7 10 3 7 8 3 7 8 3 7 8 3 7 8 3 7 8 3 7 8 3 7 8 0 2 3 0 2 3 0 2 3 0 2 3 0 2 3 0 2 3 0 2 3 0 2 3 0 4 5 0 4 5 0 4 5 0 4 5 0 4 5 0 4 5 0 4 5 0 4 5 8 12 13 10 14 15 12 16 17 15 19 20 19 23 24 22 26 27 24 28 29 26 30 29 34 39 33 36 41 34 41 46 39 48 53 46 54 59 52 61 66 59 66 71 64 68 73 66 85 90 83 86 91 84 88 93 86 92 97 90 95 100 93 98 103 96 101 106 99 104 107 100 76 77 71 69 68 63 56 55 50 44 43 38 37 36 31 36 35 30 39 38 33 42 41 36 39 38 33 39 38 33 39 38 33 39 38 33 39 38 33 39 38 33 39 38 33 39 38 34 37 36 34 37 35 36 37 35 36 37 35 36 37 35 36 37 35 36 37 35 36 37 35 36 37 35 36 37 35 36 37 35 36 37 35 36 37 35 36 37 35 36 37 35 36 37 35 36
4 3 11 4 3 11 4 3 11 4 3 11 3 2 10 3 2 10 3 2 10 3 2 10 3 2 10 3 2 10 3 2 10 3 2 8 1 0 6 1 0 5 1 0 5 1 0 5 1 0 5 1 0 5 1 0 5 1 0 5 2 1 6 2 1 6 2 1 6 2 1 6 2 1 6 2 1 6 2 1 6 2 1 6 2 1 7 2 1 7 2 1 7 2 1 7 2 1 7 2 1 7 2 1 7 2 1 7 5 4 10 5 4 10 5 4 10 5 4 10 5 4 10 5 4 10 5 4 10 5 4 10 7 8 12 7 8 12 7 8 12 7 8 12 7 8 12 7 8 12 7 8 12 7 8 12 4 5 9 4 5 9 4 5 9 4 5 9 4 5 9 4 5 9 4 5 9 4 5 9 3 6 11 3 6 11 3 6 11 3 6 11 3 6 11 3 6 11 3 6 11 3 6 11 6 9 14 6 9 14 6 9 14 6 9 14 6 9 14 6 9 14 6 9 14 6 9 14 5 10 14 5 10 14 5 10 14 5 10 14 5 10 14 5 10 14 5 10 14 5 10 14 6 11 15 6 11 15 6 11 15 6 11 15 6 11 15 6 11 15 6 11 15 6 11 14 3 7 10 3 7 8 3 7 8 3 7 8 3 7 8 3 7 8 3 7 8 3 7 8 0 2 3 0 2 3 0 2 3 0 2 3 0 2 3 0 2 3 0 2 3 0 2 3 0 4 5 0 4 5 0 4 5 0 4 5 0 4 5 0 4 5 0 4 5 0 4 5 8 12 13 10 14 15 12 16 17 15 19 20 19 23 24 22 26 27 24 28 29 26 30 29 34 39 33 36 41 34 41 46 39 48 53 46 54 59 52 61 66 59 66 71 64 68 73 66 81 86 79 83 88 81 85 90 83 88 93 86 92 97 90 95 100 93 97 102 95 101 104 97 76 77 71 69 68 63 56 55 50 44 43 38 37 36 31 36 35 30 39 38 33 42 41 36 39 38 33 39 38 33 39 38 33 39 38 33 39 38 33 39 38 33 39 38 33 39 38 34 37 36 34 37 35 36 37 35 36 37 35 36 37 35 36 37 35 36 37 35 36 37 35 36 37 35 36 37 35 36 37 35 36 37 35 36 37 35 36 37 35 36 37 35 36 37 35 36
2 1 9 2 1 9 2 1 9 2 1 9 3 2 10 3 2 10 3 2 10 3 2 10 3 2 10 3 2 10 3 2 10 3 2 8 1 0 6 1 0 5 1 0 5 1 0 5 1 0 5 1 0 5 1 0 5 1 0 5 2 1 6 2 1 6 2 1 6 2 1 6 2 1 6 2 1 6 2 1 6 2 1 6 2 1 7 2 1 7 2 1 7 2 1 7 2 1 7 2 1 7 2 1 7 2 1 7 5 4 10 5 4 10 5 4 10 5 4 10 5 4 10 5 4 10 5 4 10 5 4 10 7 8 12 7 8 12 7 8 12 7 8 12 7 8 12 7 8 12 7 8 12 7 8 12 4 5 9 4 5 9 4 5 9 4 5 9 4 5 9 4 5 9 4 5 9 4 5 9 3 6 11 3 6 11 3 6 11 3 6 11 3 6 11 3 6 11 3 6 11 3 6 11 6 9 14 6 9 14 6 9 14 6 9 14 6 9 14 6 9 14 6 9 14 6 9 14 5 10 14 5 10 14 5 10 14 5 10 14 5 10 14 5 10 14 5 10 14 5 10 14 6 11 15 6 11 15 6 11 15 6 11 15 6 11 15 6 11 15 6 11 15 6 11 14 3 7 10 3 7 8 3 7 8 3 7 8 3 7 8 3 7 8 3 7 8 3 7 8 0 2 3 0 2 3 0 2 3 0 2 3 0 2 3 0 2 3 0 2 3 0 2 3 0 4 5 0 4 5 0 4 5 0 4 5 0 4 5 0 4 5 0 4 5 0 4 5 8 12 13 10 14 15 12 16 17 15 19 20 19 23 24 22 26 27 24 28 29 26 30 29 34 39 33 36 41 34 41 46 39 48 53 46 54 59 52 61 66 59 66 71 64 68 73 66 79 84 77 80 85 78 83 88 81 86 91 84 89 94 87 93 98 91 95 100 93 98 101 94 76 77 71 69 68 63 56 55 50 44 43 38 37 36 31 36 35 30 39 38 33 42 41 36 39 38 33 39 38 33 39 38 33 39 38 33 39 38 33 39 38 33 39 38 33 39 38 34 37 36 34 37 35 36 37 35 36 37 35 36 37 35 36 37 35 36 37 35 36 37 35 36 37 35 36 37 35 36 37 35 36 37 35 36 37 35 36 37 35 36 37 35 36 37 35 36
0 0 7 0 0 7 0 0 7 0 0 7 3 2 10 3 2 10 3 2 10 3 2 10 3 2 10 3 2 10 3 2 10 3 2 8 1 0 6 1 0 5 1 0 5 1 0 5 1 0 5 1 0 5 1 0 5 1 0 5 2 1 6 2 1 6 2 1 6 2 1 6 2 1 6 2 1 6 2 1 6 2 1 6 2 1 7 2 1 7 2 1 7 2 1 7 2 1 7 2 1 7 2 1 7 2 1 7 5 4 10 5 4 10 5 4 10 5 4 10 5 4 10 5 4 10 5 4 10 5 4 10 7 8 12 7 8 12 7 8 12 7 8 12 7 8 12 7 8 12 7 8 12 7 8 12 4 5 9 4 5 9 4 5 9 4 5 9 4 5 9 4 5 9 4 5 9 4 5 9 3 6 11 3 6 11 3 6 11 3 6 11 3 6 11 3 6 11 3 6 11 3 6 11 6 9 14 6 9 14 6 9 14 6 9 14 6 9 14 6 9 14 6 9 14 6 9 14 5 10 14 5 10 14 5 10 14 5 10 14 5 10 14 5 10 14 5 10 14 5 10 14 6 11 15 6 11 15 6 11 15 6 11 15 6 11 15 6 11 15 6 11 15 6 11 14 3 7 10 3 7 8 3 7 8 3 7 8 3 7 8 3 7 8 3 7 8 3 7 8 0 2 3 0 2 3 0 2 3 0 2 3 0 2 3 0 2 3 0 2 3 0 2 3 0 4 5 0 4 5 0 4 5 0 4 5 0 4 5 0 4 5 0 4 5 0 4 5 8 12 13 10 14 15 12 16 17 15 19 20 19 23 24 22 26 27 24 28 29 26 30 29 34 39 33 36 41 34 41 46 39 48 53 46 54 59 52 61 66 59 66 71 64 68 73 66 78 83 76 79 84 77 81 86 79 85 90 83 88 93 86 91 96 89 94 99 92 97 100 93 76 77 71 69 68 63 56 55 50 44 43 38 37 36 31 36 35 30 39 38 33 42 41 36 39 38 33 39 38 33 39 38 33 39 38 33 39 38 33 39 38 33 39 38 33 39 38 34 37 36 34 37 35 36 37 35 36 37 35 36 37 35 36 37 35 36 37 35 36 37 35 36 37 35 36 37 35 36 37 35 36 37 35 36 37 35 36 37 35 36 37 35 36 37 35 36
1 0 8 1 0 8 1 0 8 1 0 8 1 0 8 1 0 8 1 0 8 1 0 8 1 0 8 1 0 8 1 0 8 1 0 6 1 0 6 1 0 5 1 0 5 1 0 5 1 0 5 1 0 5 1 0 5 1 0 5 1 0 5 1 0 5 1 0 5 1 0 5 1 0 5 1 0 5 1 0 5 1 0 5 2 1 7 2 1 7 2 1 7 2 1 7 2 1 7 2 1 7 2 1 7 2 1 7 3 2 8 3 2 8 3 2 8 3 2 8 3 2 8 3 2 8 3 2 8 3 2 8 1 2 6 1 2 6 1 2 6 1 2 6 1 2 6 1 2 6 1 2 6 1 2 6 5 6 10 5 6 10 5 6 10 5 6 10 5 6 10 5 6 10 5 6 10 5 6 10 4 7 12 4 7 12 4 7 12 4 7 12 4 7 12 4 7 12 4 7 12 4 7 12 2 5 10 2 5 10 2 5 10 2 5 10 2 5 10 2 5 10 2 5 10 2 5 10 5 10 14 5 10 14 5 10 14 5 10 14 5 10 14 5 10 14 5 10 14 5 10 14 6 11 15 6 11 15 6 11 15 6 11 15 6 11 15 6 11 15 6 11 15 6 11 14 0 1 4 0 1 2 0 1 2 0 1 2 0 1 2 0 1 2 0 1 2 0 1 2 0 4 5 0 4 5 0 4 5 0 4 5 0 4 5 0 4 5 0 4 5 0 4 5 0 4 5 0 4 5 0 4 5 0 4 5 0 4 5 0 4 5 0 4 5 0 4 5 13 17 18 15 19 20 17 21 22 20 24 25 24 28 29 27 31 32 29 33 34 31 35 34 43 48 42 45 50 43 47 52 45 50 55 48 54 59 52 57 62 55 59 64 57 61 66 59 82 87 80 82 87 80 82 87 80 82 87 80 82 87 80 82 87 80 82 87 80 84 87 80 71 72 66 64 63 58 51 50 45 39 38 33 32 31 26 31 30 25 34 33 28 37 36 31 34 33 28 34 33 28 34 33 28 34 33 28 34 33 28 34 33 28 34 33 28 34 33 29 33 32 30 33 31 32 33 31 32 33 31 32 33 31 32 33 31 32 33 31 32 33 31 32 36 34 35 36 34 35 36 34 35 36 34 35 36 34 35 36 34 35 36 34 35 36 34 35
1 0 8 1 0 8 1 0 8 1 0 8 1 0 8 1 0 8 1 0 8 1 0 8 1 0 8 1 0 8 1 0 8 1 0 6 1 0 6 1 0 5 1 0 5 1 0 5 1 0 5 1 0 5 1 0 5 1 0 5 1 0 5 1 0 5 1 0 5 1 0 5 1 0 5 1 0 5 1 0 5 1 0 5 2 1 7 2 1 7 2 1 7 2 1 7 2 1 7 2 1 7 2 1 7 2 1 7 3 2 8 3 2 8 3 2 8 3 2 8 3 2 8 3 2 8 3 2 8 3 2 8 1 2 6 1 2 6 1 2 6 1 2 6 1 2 6 1 2 6 1 2 6 1 2 6 5 6 10 5 6 10 5 6 10 5 6 10 5 6 10 5 6 10 5 6 10 5 6 10 4 7 12 4 7 12 4 7 12 4 7 12 4 7 12 4 7 12 4 7 12 4 7 12 2 5 10 2 5 10 2 5 10 2 5 10 2 5 10 2 5 10 2 5 10 2 5 10 5 10 14 5 10 14 5 10 14 5 10 14 5 10 14 5 10 14 5 10 14 5 10 14 6 11 15 6 11 15 6 11 15 6 11 15 6 11 15 6 11 15 6 11 15 6 11 14 0 3 6 0 3 4 0 3 4 0 3 4 0 3 4 0 3 4 0 3 4 0 3 4 0 4 5 0 4 5 0 4 5 0 4 5 0 4 5 0 4 5 0 4 5 0 4 5 0 4 5 0 4 5 0 4 5 0 4 5 0 4 5 0 4 5 0 4 5 0 4 5 13 17 18 15 19 20 17 21 22 20 24 25 24 28 29 27 31 32 29 33 34 31 35 34 43 48 42 45 50 43 47 52 45 50 55 48 54 59 52 57 62 55 59 64 57 61 66 59 80 85 78 80 85 78 80 85 78 80 85 78 80 85 78 80 85 78 80 85 78 82 85 78 71 72 66 64 63 58 51 50 45 39 38 33 32 31 26 31 30 25 34 33 28 37 36 31 34 33 28 34 33 28 34 33 28 34 33 28 34 33 28 34 33 28 34 33 28 34 33 29 33 32 30 33 31 32 33 31 32 33 31 32 33 31 32 33 31 32 33 31 32 33 31 32 36 34 35 36 34 35 36 34 35 36 34 35 36 34 35 36 34 35 36 34 35 36 34 35
1 0 8 1 0 8 1 0 8 1 0 8 1 0 8 1 0 8 1 0 8 1 0 8 1 0 8 1 0 8 1 0 8 1 0 6 1 0 6 1 0 5 1 0 5 1 0 5 1 0 5 1 0 5 1 0 5 1 0 5 1 0 5 1 0 5 1 0 5 1 0 5 1 0 5 1 0 5 1 0 5 1 0 5 2 1 7 2 1 7 2 1 7 2 1 7 2 1 7 2 1 7 2 1 7 2 1 7 3 2 8 3 2 8 3 2 8 3 2 8 3 2 8 3 2 8 3 2 8 3 2 8 1 2 6 1 2 6 1 2 6 1 2 6 1 2 6 1 2 6 1 2 6 1 2 6 5 6 10 5 6 10 5 6 10 5 6 10 5 6 10 5 6 10 5 6 10 5 6 10 4 7 12 4 7 12 4 7 12 4 7 12 4 7 12 4 7 12 4 7 12 4 7 12 2 5 10 2 5 10 2 5 10 2 5 10 2 5 10 2 5 10 2 5 10 2 5 10 5 10 14 5 10 14 5 10 14 5 10 14 5 10 14 5 10 14 5 10 14 5 10 14 6 11 15 6 11 15 6 11 15 6 11 15 6 11 15 6 11 15 6 11 15 6 11 14 1 5 8 1 5 6 1 5 6 1 5 6 1 5 6 1 5 6 1 5 6 1 5 6 0 4 5 0 4 5 0 4 5 0 4 5 0 4 5 0 4 5 0 4 5 0 4 5 0 4 5 0 4 5 0 4 5 0 4 5 0 4 5 0 4 5 0 4 5 0 4 5 13 17 18 15 19 20 17 21 22 20 24 25 24 28 29 27 31 32 29 33 34 31 35 34 43 48 42 45 50 43 47 52 45 50 55 48 54 59 52 57 62 55 59 64 57 61 66 59 78 83 76 78 83 76 78 83 76 78 83 76 78 83 76 78 83 76 78 83 76 80 83 76 71 72 66 64 63 58 51 50 45 39 38 33 32 31 26 31 30 25 34 33 28 37 36 31 34 33 28 34 33 28 34 33 28 34 33 28 34 33 28 34 33 28 34 33 28 34 33 29 33 32 30 33 31 32 33 31 32 33 31 32 33 31 32 33 31 32 33 31 32 33 31 32 36 34 35 36 34 35 36 34 35 36 34 35 36 34 35 36 34 35 36 34 35 36 34 35
1 0 8 1 0 8 1 0 8 1 0 8 1 0 8 1 0 8 1 0 8 1 0 8 1 0 8 1 0 8 1 0 8 1 0 6 1 0 6 1 0 5 1 0 5 1 0 5 1 0 5 1 0 5 1 0 5 1 0 5 1 0 5 1 0 5 1 0 5 1 0 5 1 0 5 1 0 5 1 0 5 1 0 5 2 1 7 2 1 7 2 1 7 2 1 7 2 1 7 2 1 7 2 1 7 2 1 7 3 2 8 3 2 8 3 2 8 3 2 8 3 2 8 3 2 8 3 2 8 3 2 8 1 2 6 1 2 6 1 2 6 1 2 6 1 2 6 1 2 6 1 2 6 1 2 6 5 6 10 5 6 10 5 6 10 5 6 10 5 6 10 5 6 10 5 6 10 5 6 10 4 7 12 4 7 12 4 7 12 4 7 12 4 7 12 4 7 12 4 7 12 4 7 12 2 5 10 2 5 10 2 5 10 2 5 10 2 5 10 2 5 10 2 5 10 2 5 10 5 10 14 5 10 14 5 10 14 5 10 14 5 10 14 5 10 14 5 10 14 5 10 14 6 11 15 6 11 15 6 11 15 6 11 15 6 11 15 6 11 15 6 11 15 6 11 14 4 8 11 4 8 9 4 8 9 4 8 9 4 8 9 4 8 9 4 8 9 4 8 9 0 4 5 0 4 5 0 4 5 0 4 5 0 4 5 0 4 5 0 4 5 0 4 5 0 4 5 0 4 5 0 4 5 0 4 5 0 4 5 0 4 5 0 4 5 0 4 5 13 17 18 15 19 20 17 21 22 20 24 25 24 28 29 27 31 32 29 33 34 31 35 34 43 48 42 45 50 43 47 52 45 50 55 48 54 59 52 57 62 55 59 64 57 61 66 59 75 80 73 75 80 73 75 80 73 75 80 73 75 80 73 75 80 73 75 80 73 77 80 73 71 72 66 64 63 58 51 50 45 39 38 33 32 31 26 31 30 25 34 33 28 37 36 31 34 33 28 34 33 28 34 33 28 34 33 28 34 33 28 34 33 28 34 33 28 34 33 29 33 32 30 33 31 32 33 31 32 33 31 32 33 31 32 33 31 32 33 31 32 33 31 32 36 34 35 36 34 35 36 34 35 36 34 35 36 34 35 36 34 35 36 34 35 36 34 35
1 0 8 1 0 8 1 0 8 1 0 8 1 0 8 1 0 8 1 0 8 1 0 8 1 0 8 1 0 8 1 0 8 1 0 6 1 0 6 1 0 5 1 0 5 1 0 5 1 0 5 1 0 5 1 0 5 1 0 5 1 0 5 1 0 5 1 0 5 1 0 5 1 0 5 1 0 5 1 0 5 1 0 5 2 1 7 2 1 7 2 1 7 2 1 7 2 1 7 2 1 7 2 1 7 2 1 7 3 2 8 3 2 8 3 2 8 3 2 8 3 2 8 3 2 8 3 2 8 3 2 8 1 2 6 1 2 6 1 2 6 1 2 6 1 2 6 1 2 6 1 2 6 1 2 6 5 6 10 5 6 10 5 6 10 5 6 10 5 6 10 5 6 10 5 6 10 5 6 10 4 7 12 4 7 12 4 7 12 4 7 12 4 7 12 4 7 12 4 7 12 4 7 12 2 5 10 2 5 10 2 5 10 2 5 10 2 5 10 2 5 10 2 5 10 2 5 10 5 10 14 5 10 14 5 10 14 5 10 14 5 10 14 5 10 14 5 10 14 5 10 14 6 11 15 6 11 15 6 11 15 6 11 15 6 11 15 6 11 15 6 11 15 6 11 14 8 12 15 8 12 13 8 12 13 8 12 13 8 12 13 8 12 13 8 12 13 8 12 13 0 4 5 0 4 5 0 4 5 0 4 5 0 4 5 0 4 5 0 4 5 0 4 5 0 4 5 0 4 5 0 4 5 0 4 5 0 4 5 0 4 5 0 4 5 0 4 5 13 17 18 15 19 20 17 21 22 20 24 25 24 28 29 27 31 32 29 33 34 31 35 34 43 48 42 45 50 43 47 52 45 50 55 48 54 59 52 57 62 55 59 64 57 61 66 59 71 76 69 71 76 69 71 76 69 71 76 69 71 76 69 71 76 69 71 76 69 73 76 69 71 72 66 64 63 58 51 50 45 39 38 33 32 31 26 31 30 25 34 33 28 37 36 31 34 33 28 34 33 28 34 33 28 34 33 28 34 33 28 34 33 28 34 33 28 34 33 29 33 32 30 33 31 32 33 31 32 33 31 32 33 31 32 33 31 32 33 31 32 33 31 32 36 34 35 36 34 35 36 34 35 36 34 35 36 34 35 36 34 35 36 34 35 36 34 35
1 0 8 1 0 8 1 0 8 1 0 8 1 0 8 1 0 8 1 0 8 1 0 8 1 0 8 1 0 8 1 0 8 1 0 6 1 0 6 1 0 5 1 0 5 1 0 5 1 0 5 1 0 5 1 0 5 1 0 5 1 0 5 1 0 5 1 0 5 1 0 5 1 0 5 1 0 5 1 0 5 1 0 5 2 1 7 2 1 7 2 1 7 2 1 7 2 1 7 2 1 7 2 1 7 2 1 7 3 2 8 3 2 8 3 2 8 3 2 8 3 2 8 3 2 8 3 2 8 3 2 8 1 2 6 1 2 6 1 2 6 1 2 6 1 2 6 1 2 6 1 2 6 1 2 6 5 6 10 5 6 10 5 6 10 5 6 10 5 6 10 5 6 10 5 6 10 5 6 10 4 7 12 4 7 12 4 7 12 4 7 12 4 7 12 4 7 12 4 7 12 4 7 12 2 5 10 2 5 10 2 5 10 2 5 10 2 5 10 2 5 10 2 5 10 2 5 10 5 10 14 5 10 14 5 10 14 5 10 14 5 10 14 5 10 14 5 10 14 5 10 14 6 11 15 6 11 15 6 11 15 6 11 15 6 11 15 6 11 15 6 11 15 6 11 14 11 15 18 11 15 16 11 15 16 11 15 16 11 15 16 11 15 16 11 15 16 11 15 16 0 4 5 0 4 5 0 4 5 0 4 5 0 4 5 0 4 5 0 4 5 0 4 5 0 4 5 0 4 5 0 4 5 0 4 5 0 4 5 0 4 5 0 4 5 0 4 5 13 17 18 15 19 20 17 21 22 20 24 25 24 28 29 27 31 32 29 33 34 31 35 34 43 48 42 45 50 43 47 52 45 50 55 48 54 59 52 57 62 55 59 64 57 61 66 59 68 73 66 68 73 66 68 73 66 68 73 66 68 73 66 68 73 66 68 73 66 70 73 66 71 72 66 64 63 58 51 50 45 39 38 33 32 31 26 31 30 25 34 33 28 37 36 31 34 33 28 34 33 28 34 33 28 34 33 28 34 33 28 34 33 28 34 33 28 34 33 29 33 32 30 33 31 32 33 31 32 33 31 32 33 31 32 33 31 32 33 31 32 33 31 32 36 34 35 36 34 35 36 34 35 36 34 35 36 34 35 36 34 35 36 34 35 36 34 35
1 0 8 1 0 8 1 0 8 1 0 8 1 0 8 1 0 8 1 0 8 1 0 8 1 0 8 1 0 8 1 0 8 1 0 6 1 0 6 1 0 5 1 0 5 1 0 5 1 0 5 1 0 5 1 0 5 1 0 5 1 0 5 1 0 5 1 0 5 1 0 5 1 0 5 1 0 5 1 0 5 1 0 5 2 1 7 2 1 7 2 1 7 2 1 7 2 1 7 2 1 7 2 1 7 2 1 7 3 2 8 3 2 8 3 2 8 3 2 8 3 2 8 3 2 8 3 2 8 3 2 8 1 2 6 1 2 6 1 2 6 1 2 6 1 2 6 1 2 6 1 2 6 1 2 6 5 6 10 5 6 10 5 6 10 5 6 10 5 6 10 5 6 10 5 6 10 5 6 10 4 7 12 4 7 12 4 7 12 4 7 12 4 7 12 4 7 12 4 7 12 4 7 12 2 5 10 2 5 10 2 5 10 2 5 10 2 5 10 2 5 10 2 5 10 2 5 10 5 10 14 5 10 14 5 10 14 5 10 14 5 10 14 5 10 14 5 10 14 5 10 14 6 11 15 6 11 15 6 11 15 6 11 15 6 11 15 6 11 15 6 11 15 6 11 14 13 17 20 13 17 18 13 17 18 13 17 18 13 17 18 13 17 18 13 17 18 13 17 18 0 4 5 0 4 5 0 4 5 0 4 5 0 4 5 0 4 5 0 4 5 0 4 5 0 4 5 0 4 5 0 4 5 0 4 5 0 4 5 0 4 5 0 4 5 0 4 5 13 17 18 15 19 20 17 21 22 20 24 25 24 28 29 27 31 32 29 33 34 31 35 34 43 48 42 45 50 43 47 52 45 50 55 48 54 59 52 57 62 55 59 64 57 61 66 59 66 71 64 66 71 64 66 71 64 66 71 64 66 71 64 66 71 64 66 71 64 68 71 64 71 72 66 64 63 58 51 50 45 39 38 33 32 31 26 31 30 25 34 33 28 37 36 31 34 33 28 34 33 28 34 33 28 34 33 28 34 33 28 34 33 28 34 33 28 34 33 29 33 32 30 33 31 32 33 31 32 33 31 32 33 31 32 33 31 32 33 31 32 33 31 32 36 34 35 36 34 35 36 34 35 36 34 35 36 34 35 36 34 35 36 34 35 36 34 35
1 0 6 1 0 6 1 0 6 1 0 6 1 0 6 1 0 6 1 0 6 1 0 6 1 0 6 1 0 6 1 0 6 1 0 6 1 0 5 1 0 5 1 0 5 1 0 5 1 0 5 1 0 5 1 0 5 1 0 5 1 0 5 1 0 5 1 0 5 1 0 5 1 0 5 1 0 5 1 0 5 1 0 5 2 1 7 2 1 7 2 1 7 2 1 7 2 1 7 2 1 7 2 1 7 2 1 7 3 2 8 3 2 8 3 2 8 3 2 8 3 2 8 3 2 8 3 2 8 3 2 8 1 2 6 1 2 6 1 2 6 1 2 6 1 2 6 1 2 6 1 2 6 1 2 6 5 6 10 5 6 10 5 6 10 5 6 10 5 6 10 5 6 10 5 6 10 5 6 10 4 7 12 4 7 12 4 7 12 4 7 12 4 7 12 4 7 12 4 7 12 4 7 12 2 5 10 2 5 10 2 5 10 2 5 10 2 5 10 2 5 10 2 5 10 1 6 10 5 10 14 5 10 14 5 10 14 5 10 14 5 10 14 5 10 14 5 10 14 5 10 14 6 11 15 6 11 15 6 11 15 6 11 15 6 11 15 6 11 15 6 11 15 6 11 14 15 19 20 15 19 20 15 19 20 15 19 20 15 19 20 15 19 20 15 19 20 15 19 20 0 4 5 0 4 5 0 4 5 0 4 5 0 4 5 0 4 5 0 4 5 0 4 5 0 4 5 0 4 5 0 4 5 0 4 5 0 4 5 0 4 5 0 4 5 0 4 5 13 17 18 15 19 20 17 21 22 20 24 25 24 28 29 27 31 32 29 33 34 31 35 34 43 48 42 45 50 43 47 52 45 50 55 48 54 59 52 57 62 55 59 64 57 61 66 59 64 69 62 64 69 62 64 69 62 64 69 62 64 69 62 64 69 62 64 69 62 66 69 62 71 72 66 64 63 58 51 50 45 39 38 33 32 31 26 31 30 25 34 33 28 37 36 31 34 33 28 34 33 28 34 33 28 34 33 28 34 33 28 34 33 28 34 33 28 34 33 29 35 31 30 35 31 30 35 31 32 35 31 30 35 31 32 35 31 30 35 31 32 35 31 30 38 34 35 38 34 33 38 34 35 38 34 33 38 34 35 38 34 33 38 34 35 38 34 33
0 0 2 0 0 2 0 0 2 0 0 2 0 0 2 0 0 2 0 0 2 0 0 2 0 0 2 0 0 2 0 0 2 0 0 2 1 0 5 1 0 5 1 0 5 1 0 5 1 0 5 1 0 5 1 0 5 1 0 5 1 0 5 1 0 5 1 0 5 1 0 5 1 0 5 1 0 5 1 0 5 1 0 5 2 1 7 2 1 7 2 1 7 2 1 7 2 1 7 2 1 7 2 1 7 2 1 7 2 1 7 2 1 7 2 1 7 2 1 7 2 1 7 2 1 7 2 1 7 2 1 7 1 2 6 1 2 4 1 2 4 1 2 4 1 2 4 1 2 4 1 2 4 1 2 4 3 4 6 3 4 6 3 4 6 3 4 6 3 4 6 3 4 6 3 4 6 3 4 6 4 8 11 3 8 11 3 8 11 3 8 11 3 8 11 3 8 11 3 8 11 3 8 11 6 11 14 6 11 14 6 11 14 6 11 14 6 11 14 6 11 14 6 11 14 6 11 14 8 13 16 6 14 16 6 14 16 6 14 16 6 14 16 6 14 16 6 14 16 6 14 16 0 8 10 1 9 11 4 12 14 7 15 17 10 18 20 14 22 24 16 24 26 17 25 27 31 37 37 31 37 37 31 37 37 31 37 37 31 37 37 31 37 37 31 37 37 31 37 37 13 19 19 11 17 17 9 15 15 6 12 12 2 8 8 0 5 5 0 3 3 0 2 2 0 2 0 0 2 0 0 2 0 0 4 2 2 8 6 5 11 9 7 13 11 9 15 13 14 20 18 16 22 20 18 24 22 21 27 25 25 31 29 28 34 32 30 36 34 32 38 36 34 41 34 36 43 36 38 45 38 41 48 41 45 52 45 48 55 48 50 57 50 52 59 52 61 68 61 61 68 61 61 68 61 61 68 61 61 68 61 61 68 61 61 68 61 62 67 61 47 46 41 47 44 39 45 42 37 42 39 34 38 35 30 35 32 27 33 30 25 31 28 23 33 30 25 33 30 25 33 30 25 33 30 25 33 30 25 33 30 25 33 30 25 33 30 25 35 30 27 35 30 27 35 29 29 35 30 27 35 29 29 35 30 27 35 29 29 35 30 27 36 30 30 36 31 28 36 30 30 36 31 28 36 30 30 36 31 28 36 30 30 36 31 28
0 0 0 0 0 0 0 0 0 0 0 0 0 0 0 0 0 0 0 0 0 0 0 0 0 0 0 0 0 0 0 0 0 0 0 0 1 0 5 1 0 5 1 0 5 1 0 5 1 0 5 1 0 5 1 0 5 1 0 5 1 0 5 1 0 5 1 0 5 1 0 5 1 0 5 1 0 5 1 0 5 1 0 5 2 1 7 2 1 7 2 1 7 2 1 7 2 1 7 2 1 7 2 1 7 2 1 7 2 1 7 2 1 7 2 1 7 2 1 7 2 1 7 2 1 7 2 1 7 2 1 6 1 2 6 1 2 4 1 2 4 1 2 4 1 2 4 1 2 4 1 2 4 1 2 4 3 4 6 3 4 6 3 4 6 3 4 6 3 4 6 3 4 6 3 4 6 1 5 6 4 8 11 3 8 11 3 8 11 3 8 11 3 8 11 3 8 11 3 8 11 3 8 11 6 11 14 6 11 14 6 11 14 6 11 14 6 11 14 6 11 14 6 11 14 6 11 14 6 14 16 6 14 16 6 14 16 6 14 16 6 14 16 6 14 16 6 14 16 6 14 16 3 11 13 4 12 14 6 14 16 10 18 20 13 21 23 16 24 26 19 27 29 20 28 30 31 37 37 31 37 37 31 37 37 31 37 37 31 37 37 31 37 37 31 37 37 31 37 37 13 19 19 11 17 17 9 15 15 6 12 12 2 8 8 0 5 5 0 3 3 0 2 2 0 2 0 0 2 0 0 2 0 0 4 2 2 8 6 5 11 9 7 13 11 9 15 13 14 20 18 16 22 20 18 24 22 21 27 25 25 31 29 28 34 32 30 36 34 32 38 34 34 40 36 36 43 36 38 45 38 41 48 41 45 52 45 48 55 48 50 57 50 52 59 52 59 66 59 59 66 59 59 66 59 59 66 59 59 66 59 59 66 59 59 66 59 60 65 59 47 46 41 47 44 39 45 42 37 42 39 34 38 35 30 35 32 27 33 30 25 31 28 23 33 30 25 33 30 25 33 30 25 33 30 25 33 30 25 33 30 25 33 30 25 33 30 25 37 29 27 37 29 27 37 29 27 37 29 27 37 29 27 37 29 27 37 29 27 37 29 27 38 30 28 38 30 28 38 30 28 38 30 28 38 30 28 38 30 28 38 30 28 38 30 28
0 0 0 0 0 0 0 0 0 0 0 0 0 0 0 0 0 0 0 0 0 0 0 0 0 0 0 0 0 0 0 0 0 0 0 0 1 0 5 1 0 5 1 0 5 1 0 5 1 0 5 1 0 5 1 0 5 1 0 5 1 0 5 1 0 5 1 0 5 1 0 5 1 0 5 1 0 5 1 0 5 1 0 5 2 1 7 2 1 7 2 1 7 2 1 7 2 1 7 2 1 7 2 1 7 2 1 7 2 1 7 2 1 7 2 1 7 2 1 7 2 1 7 2 1 7 2 1 7 2 1 6 1 2 6 1 2 4 1 2 4 1 2 4 1 2 4 1 2 4 1 2 4 1 2 4 3 4 6 3 4 6 3 4 6 3 4 6 3 4 6 3 4 6 3 4 6 1 5 6 4 8 11 3 8 11 3 8 11 3 8 11 3 8 11 3 8 11 3 8 11 3 8 11 6 11 14 6 11 14 6 11 14 6 11 14 6 11 14 6 11 14 6 11 14 6 11 14 6 14 16 6 14 16 6 14 16 6 14 16 6 14 16 6 14 16 6 14 16 6 14 16 8 16 18 9 17 19 11 19 21 14 22 24 18 26 28 21 29 31 24 32 34 25 33 35 31 37 37 31 37 37 31 37 37 31 37 37 31 37 37 31 37 37 31 37 37 31 37 37 13 19 19 11 17 17 9 15 15 6 12 12 2 8 8 0 5 5 0 3 3 0 2 2 0 2 0 0 2 0 0 2 0 0 4 2 2 8 6 5 11 9 7 13 11 9 15 13 14 20 18 16 22 20 18 24 22 21 27 25 25 31 29 28 34 32 30 36 34 32 38 34 34 40 36 36 43 36 38 45 38 41 48 41 45 52 45 48 55 48 50 57 50 52 59 52 57 64 57 57 64 57 57 64 57 57 64 57 57 64 57 57 64 57 57 64 57 58 63 57 47 46 41 47 44 39 45 42 37 42 39 34 38 35 30 35 32 27 33 30 25 31 28 23 33 30 25 33 30 25 33 30 25 33 30 25 33 30 25 33 30 25 33 30 25 33 30 25 37 29 27 37 29 27 37 29 27 37 29 27 37 29 27 37 29 27 37 29 27 37 29 27 38 30 28 38 30 28 38 30 28 38 30 28 38 30 28 38 30 28 38 30 28 38 30 28
0 0 0 0 0 0 0 0 0 0 0 0 0 0 0 0 0 0 0 0 0 0 0 0 0 0 0 0 0 0 0 0 0 0 0 0 1 0 5 1 0 5 1 0 5 1 0 5 1 0 5 1 0 5 1 0 5 1 0 5 1 0 5 1 0 5 1 0 5 1 0 5 1 0 5 1 0 5 1 0 5 1 0 5 2 1 7 2 1 7 2 1 7 2 1 7 2 1 7 2 1 7 2 1 7 2 1 7 2 1 7 2 1 7 2 1 7 2 1 7 2 1 7 2 1 7 2 1 7 2 1 6 1 2 6 1 2 4 1 2 4 1 2 4 1 2 4 1 2 4 1 2 4 1 2 4 3 4 6 3 4 6 3 4 6 3 4 6 3 4 6 3 4 6 3 4 6 1 5 6 4 8 11 3 8 11 3 8 11 3 8 11 3 8 11 3 8 11 3 8 11 3 8 11 6 11 14 6 11 14 6 11 14 6 11 14 6 11 14 6 11 14 6 11 14 6 11 14 6 14 16 6 14 16 6 14 16 6 14 16 6 14 16 6 14 16 6 14 16 6 14 16 14 22 24 15 23 25 18 26 28 21 29 31 24 32 34 27 35 37 30 38 40 31 39 41 31 37 37 31 37 37 31 37 37 31 37 37 31 37 37 31 37 37 31 37 37 31 37 37 13 19 19 11 17 17 9 15 15 6 12 12 2 8 8 0 5 5 0 3 3 0 2 2 0 2 0 0 2 0 0 2 0 0 4 2 2 8 6 5 11 9 7 13 11 9 15 13 14 20 18 16 22 20 18 24 22 21 27 25 25 31 29 28 34 32 30 36 34 32 38 34 34 40 36 36 43 36 38 45 38 41 48 41 45 52 45 48 55 48 50 57 50 52 59 52 54 61 54 54 61 54 54 61 54 54 61 54 54 61 54 54 61 54 54 61 54 55 60 54 47 46 41 47 44 39 45 42 37 42 39 34 38 35 30 35 32 27 33 30 25 31 28 23 33 30 25 33 30 25 33 30 25 33 30 25 33 30 25 33 30 25 33 30 25 33 30 25 37 29 27 37 29 27 37 29 27 37 29 27 37 29 27 37 29 27 37 29 27 37 29 27 38 30 28 38 30 28 38 30 28 38 30 28 38 30 28 38 30 28 38 30 28 38 30 28
0 0 0 0 0 0 0 0 0 0 0 0 0 0 0 0 0 0 0 0 0 0 0 0 0 0 0 0 0 0 0 0 0 0 0 0 1 0 5 1 0 5 1 0 5 1 0 5 1 0 5 1 0 5 1 0 5 1 0 5 1 0 5 1 0 5 1 0 5 1 0 5 1 0 5 1 0 5 1 0 5 1 0 5 2 1 7 2 1 7 2 1 7 2 1 7 2 1 7 2 1 7 2 1 7 2 1 7 2 1 7 2 1 7 2 1 7 2 1 7 2 1 7 2 1 7 2 1 7 2 1 6 1 2 6 1 2 4 1 2 4 1 2 4 1 2 4 1 2 4 1 2 4 1 2 4 3 4 6 3 4 6 3 4 6 3 4 6 3 4 6 3 4 6 3 4 6 1 5 6 4 8 11 3 8 11 3 8 11 3 8 11 3 8 11 3 8 11 3 8 11 3 8 11 6 11 14 6 11 14 6 11 14 6 11 14 6 11 14 6 11 14 6 11 14 6 11 14 6 14 16 6 14 16 6 14 16 6 14 16 6 14 16 6 14 16 6 14 16 6 14 16 21 29 31 22 30 32 25 33 35 28 36 38 31 39 41 34 42 44 37 45 47 38 46 48 31 37 37 31 37 37 31 37 37 31 37 37 31 37 37 31 37 37 31 37 37 31 37 37 13 19 19 11 17 17 9 15 15 6 12 12 2 8 8 0 5 5 0 3 3 0 2 2 0 2 0 0 2 0 0 2 0 0 4 2 2 8 6 5 11 9 7 13 11 9 15 13 14 20 18 16 22 20 18 24 22 21 27 25 25 31 29 28 34 32 30 36 34 32 38 34 34 40 36 36 43 36 38 45 38 41 48 41 45 52 45 48 55 48 50 57 50 52 59 52 50 57 50 50 57 50 50 57 50 50 57 50 50 57 50 50 57 50 50 57 50 51 56 50 47 46 41 47 44 39 45 42 37 42 39 34 38 35 30 35 32 27 33 30 25 31 28 23 33 30 25 33 30 25 33 30 25 33 30 25 33 30 25 33 30 25 33 30 25 33 30 25 37 29 27 37 29 27 37 29 27 37 29 27 37 29 27 37 29 27 37 29 27 37 29 27 38 30 28 38 30 28 38 30 28 38 30 28 38 30 28 38 30 28 38 30 28 38 30 28
0 0 0 0 0 0 0 0 0 0 0 0 0 0 0 0 0 0 0 0 0 0 0 0 0 0 0 0 0 0 0 0 0 0 0 0 1 0 5 1 0 5 1 0 5 1 0 5 1 0 5 1 0 5 1 0 5 1 0 5 1 0 5 1 0 5 1 0 5 1 0 5 1 0 5 1 0 5 1 0 5 1 0 5 2 1 7 2 1 7 2 1 7 2 1 7 2 1 7 2 1 7 2 1 7 2 1 7 2 1 7 2 1 7 2 1 7 2 1 7 2 1 7 2 1 7 2 1 7 2 1 6 1 2 6 1 2 4 1 2 4 1 2 4 1 2 4 1 2 4 1 2 4 1 2 4 3 4 6 3 4 6 3 4 6 3 4 6 3 4 6 3 4 6 3 4 6 1 5 6 4 8 11 3 8 11 3 8 11 3 8 11 3 8 11 3 8 11 3 8 11 3 8 11 6 11 14 6 11 14 6 11 14 6 11 14 6 11 14 6 11 14 6 11 14 6 11 14 6 14 16 6 14 16 6 14 16 6 14 16 6 14 16 6 14 16 6 14 16 6 14 16 27 35 37 28 36 38 31 39 41 34 42 44 38 46 48 41 49 51 43 51 53 44 52 54 31 37 37 31 37 37 31 37 37 31 37 37 31 37 37 31 37 37 31 37 37 31 37 37 13 19 19 11 17 17 9 15 15 6 12 12 2 8 8 0 5 5 0 3 3 0 2 2 0 2 0 0 2 0 0 2 0 0 4 2 2 8 6 5 11 9 7 13 11 9 15 13 14 20 18 16 22 20 18 24 22 21 27 25 25 31 29 28 34 32 30 36 34 32 38 34 34 40 36 36 43 36 38 45 38 41 48 41 45 52 45 48 55 48 50 57 50 52 59 52 47 54 47 47 54 47 47 54 47 47 54 47 47 54 47 47 54 47 47 54 47 48 53 47 47 46 41 47 44 39 45 42 37 42 39 34 38 35 30 35 32 27 33 30 25 31 28 23 33 30 25 33 30 25 33 30 25 33 30 25 33 30 25 33 30 25 33 30 25 33 30 25 37 29 27 37 29 27 37 29 27 37 29 27 37 29 27 37 29 27 37 29 27 37 29 27 38 30 28 38 30 28 38 30 28 38 30 28 38 30 28 38 30 28 38 30 28 38 30 28
0 0 0 0 0 0 0 0 0 0 0 0 0 0 0 0 0 0 0 0 0 0 0 0 0 0 0 0 0 0 0 0 0 0 0 0 1 0 5 1 0 5 1 0 5 1 0 5 1 0 5 1 0 5 1 0 5 1 0 5 1 0 5 1 0 5 1 0 5 1 0 5 1 0 5 1 0 5 1 0 5 1 0 5 2 1 7 2 1 7 2 1 7 2 1 7 2 1 7 2 1 7 2 1 7 2 1 7 2 1 7 2 1 7 2 1 7 2 1 7 2 1 7 2 1 7 2 1 7 2 1 6 1 2 6 1 2 4 1 2 4 1 2 4 1 2 4 1 2 4 1 2 4 1 2 4 3 4 6 3 4 6 3 4 6 3 4 6 3 4 6 3 4 6 3 4 6 1 5 6 4 8 11 3 8 11 3 8 11 3 8 11 3 8 11 3 8 11 3 8 11 3 8 11 6 11 14 6 11 14 6 11 14 6 11 14 6 11 14 6 11 14 6 11 14 6 11 14 6 14 16 6 14 16 6 14 16 6 14 16 6 14 16 6 14 16 6 14 16 6 14 16 32 40 42 33 41 43 36 44 46 39 47 49 42 50 52 46 54 56 48 56 58 49 57 59 31 37 37 31 37 37 31 37 37 31 37 37 31 37 37 31 37 37 31 37 37 31 37 37 13 19 19 11 17 17 9 15 15 6 12 12 2 8 8 0 5 5 0 3 3 0 2 2 0 2 0 0 2 0 0 2 0 0 4 2 2 8 6 5 11 9 7 13 11 9 15 13 14 20 18 16 22 20 18 24 22 21 27 25 25 31 29 28 34 32 30 36 34 32 38 34 34 40 36 36 43 36 38 45 38 41 48 41 45 52 45 48 55 48 50 57 50 52 59 52 45 52 45 45 52 45 45 52 45 45 52 45 45 52 45 45 52 45 45 52 45 46 51 45 47 46 41 47 44 39 45 42 37 42 39 34 38 35 30 35 32 27 33 30 25 31 28 23 33 30 25 33 30 25 33 30 25 33 30 25 33 30 25 33 30 25 33 30 25 33 30 25 37 29 27 37 29 27 37 29 27 37 29 27 37 29 27 37 29 27 37 29 27 37 29 27 38 30 28 38 30 28 38 30 28 38 30 28 38 30 28 38 30 28 38 30 28 38 30 28
0 0 0 0 0 0 0 0 0 0 0 0 0 0 0 0 0 0 0 0 0 0 0 0 0 0 0 0 0 0 0 0 0 0 0 0 1 0 5 1 0 5 1 0 5 1 0 5 1 0 5 1 0 5 1 0 5 1 0 5 1 0 5 1 0 5 1 0 5 1 0 5 1 0 5 1 0 5 1 0 5 1 0 5 2 1 7 2 1 7 2 1 7 2 1 7 2 1 7 2 1 7 2 1 7 2 1 7 2 1 7 2 1 7 2 1 7 2 1 7 2 1 7 2 1 7 2 1 7 2 1 6 1 2 6 1 2 4 1 2 4 1 2 4 1 2 4 1 2 4 1 2 4 1 2 4 3 4 6 3 4 6 3 4 6 3 4 6 3 4 6 3 4 6 3 4 6 1 5 6 4 8 11 3 8 11 3 8 11 3 8 11 3 8 11 3 8 11 3 8 11 3 8 11 6 11 14 6 11 14 6 11 14 6 11 14 6 11 14 6 11 14 6 11 14 6 11 14 6 14 16 6 14 16 6 14 16 6 14 16 6 14 16 6 14 16 6 14 16 6 14 16 35 43 45 36 44 46 38 46 48 42 50 52 45 53 55 48 56 58 51 59 61 52 60 62 31 37 37 31 37 37 31 37 37 31 37 37 31 37 37 31 37 37 31 37 37 31 37 37 13 19 19 11 17 17 9 15 15 6 12 12 2 8 8 0 5 5 0 3 3 0 2 2 0 2 0 0 2 0 0 2 0 0 4 2 2 8 6 5 11 9 7 13 11 9 15 13 14 20 18 16 22 20 18 24 22 21 27 25 25 31 29 28 34 32 30 36 34 32 38 34 34 40 36 36 43 36 38 45 38 41 48 41 45 52 45 48 55 48 50 57 50 52 59 52 43 50 43 43 50 43 43 50 43 43 50 43 43 50 43 43 50 43 43 50 43 44 49 43 47 46 41 47 44 39 45 42 37 42 39 34 38 35 30 35 32 27 33 30 25 31 28 23 33 30 25 33 30 25 33 30 25 33 30 25 33 30 25 33 30 25 33 30 25 33 30 25 37 29 27 37 29 27 37 29 27 37 29 27 37 29 27 37 29 27 37 29 27 37 29 27 38 30 28 38 30 28 38 30 28 38 30 28 38 30 28 38 30 28 38 30 28 38 30 28
0 0 0 0 0 0 0 0 0 0 0 0 0 0 0 0 0 0 0 0 0 0 0 0 0 0 0 0 0 0 0 0 0 0 0 0 1 0 5 1 0 5 1 0 5 1 0 5 1 0 5 1 0 5 1 0 5 1 0 5 1 0 5 1 0 5 1 0 5 1 0 5 1 0 5 1 0 5 1 0 5 1 0 5 3 2 8 3 2 8 3 2 8 3 2 8 3 2 8 3 2 8 3 2 8 3 2 8 2 1 7 2 1 7 2 1 7 2 1 7 2 1 7 2 1 7 2 1 7 2 1 6 4 5 9 4 5 7 4 5 7 4 5 7 4 5 7 4 5 7 4 5 7 4 5 7 6 7 9 6 7 9 6 7 9 6 7 9 6 7 9 6 7 9 6 7 9 4 8 9 6 10 13 5 10 13 5 10 13 5 10 13 5 10 13 5 10 13 5 10 13 5 10 13 17 22 25 16 21 24 15 20 23 14 19 22 13 18 21 11 16 19 10 15 18 10 15 18 18 26 28 19 27 29 22 30 32 25 33 35 28 36 38 32 40 42 34 42 44 35 43 45 46 54 56 46 54 56 46 54 56 46 54 56 46 54 56 46 54 56 46 54 56 46 54 56 52 58 58 50 56 56 48 54 54 45 51 51 41 47 47 38 44 44 36 42 42 34 40 40 15 21 21 13 19 19 11 17 17 8 14 14 4 10 10 1 7 7 0 5 5 0 3 3 0 2 0 0 3 1 0 5 3 2 8 6 6 12 10 9 15 13 11 17 15 13 19 17 23 29 27 23 29 27 23 29 27 23 29 27 23 29 27 23 29 27 23 29 27 23 29 25 33 39 35 33 40 33 33 40 33 33 40 33 33 40 33 33 40 33 33 40 33 33 40 33 44 51 44 44 51 44 44 51 44 44 51 44 44 51 44 44 51 44 44 51 44 45 50 44 32 31 26 34 31 26 34 31 26 34 31 26 34 31 26 34 31 26 34 31 26 34 31 26 32 29 24 32 29 24 32 29 24 32 29 24 32 29 24 32 29 24 32 29 24 32 29 24 36 28 26 36 28 26 36 28 26 36 28 26 36 28 26 36 28 26 36 28 26 36 28 26 37 29 27 37 29 27 37 29 27 37 29 27 37 29 27 37 29 27 37 29 27 37 29 27
0 0 0 0 0 0 0 0 0 0 0 0 0 0 0 0 0 0 0 0 0 0 0 0 0 0 0 0 0 0 0 0 0 0 0 0 1 0 5 1 0 5 1 0 5 1 0 5 1 0 5 1 0 5 1 0 5 1 0 5 1 0 5 1 0 5 1 0 5 1 0 5 1 0 5 1 0 5 1 0 5 1 0 5 3 2 8 3 2 8 3 2 8 3 2 8 3 2 8 3 2 8 3 2 8 3 2 8 2 1 7 2 1 7 2 1 7 2 1 7 2 1 7 2 1 7 2 1 7 2 1 6 4 5 9 4 5 7 4 5 7 4 5 7 4 5 7 4 5 7 4 5 7 4 5 7 6 7 9 6 7 9 6 7 9 6 7 9 6 7 9 6 7 9 6 7 9 4 8 9 6 10 13 5 10 13 5 10 13 5 10 13 5 10 13 5 10 13 5 10 13 5 10 13 12 17 20 12 17 20 11 16 19 11 16 19 10 15 18 9 14 17 9 14 17 9 14 17 21 29 31 22 30 32 24 32 34 28 36 38 31 39 41 34 42 44 37 45 47 38 46 48 48 56 58 48 56 58 48 56 58 48 56 58 48 56 58 48 56 58 48 56 58 48 56 58 52 58 58 50 56 56 48 54 54 45 51 51 41 47 47 38 44 44 36 42 42 34 40 40 15 21 21 13 19 19 11 17 17 8 14 14 4 10 10 1 7 7 0 5 5 0 3 3 0 2 0 0 3 1 0 5 3 2 8 6 6 12 10 9 15 13 11 17 15 13 19 17 23 29 27 23 29 27 23 29 27 23 29 27 23 29 27 23 29 27 23 29 27 23 29 25 33 39 35 33 40 33 33 40 33 33 40 33 33 40 33 33 40 33 33 40 33 33 40 33 42 49 42 42 49 42 42 49 42 42 49 42 42 49 42 42 49 42 42 49 42 43 48 42 32 31 26 34 31 26 34 31 26 34 31 26 34 31 26 34 31 26 34 31 26 34 31 26 32 29 24 32 29 24 32 29 24 32 29 24 32 29 24 32 29 24 32 29 24 32 29 24 36 28 26 36 28 26 36 28 26 36 28 26 36 28 26 36 28 26 36 28 26 36 28 26 37 29 27 37 29 27 37 29 27 37 29 27 37 29 27 37 29 27 37 29 27 37 29 27
0 0 0 0 0 0 0 0 0 0 0 0 0 0 0 0 0 0 0 0 0 0 0 0 0 0 0 0 0 0 0 0 0 0 0 0 1 0 5 1 0 5 1 0 5 1 0 5 1 0 5 1 0 5 1 0 5 1 0 5 1 0 5 1 0 5 1 0 5 1 0 5 1 0 5 1 0 5 1 0 5 1 0 5 3 2 8 3 2 8 3 2 8 3 2 8 3 2 8 3 2 8 3 2 8 3 2 8 2 1 7 2 1 7 2 1 7 2 1 7 2 1 7 2 1 7 2 1 7 2 1 6 4 5 9 4 5 7 4 5 7 4 5 7 4 5 7 4 5 7 4 5 7 4 5 7 6 7 9 6 7 9 6 7 9 6 7 9 6 7 9 6 7 9 6 7 9 4 8 9 6 10 13 5 10 13 5 10 13 5 10 13 5 10 13 5 10 13 5 10 13 5 10 13 5 10 13 6 11 14 6 11 14 7 12 15 8 13 16 8 13 16 9 14 17 9 14 17 26 34 36 27 35 37 29 37 39 32 40 42 36 44 46 39 47 49 42 50 52 43 51 53 50 58 60 50 58 60 50 58 60 50 58 60 50 58 60 50 58 60 50 58 60 50 58 60 52 58 58 50 56 56 48 54 54 45 51 51 41 47 47 38 44 44 36 42 42 34 40 40 15 21 21 13 19 19 11 17 17 8 14 14 4 10 10 1 7 7 0 5 5 0 3 3 0 2 0 0 3 1 0 5 3 2 8 6 6 12 10 9 15 13 11 17 15 13 19 17 23 29 27 23 29 27 23 29 27 23 29 27 23 29 27 23 29 27 23 29 27 23 29 25 33 39 35 33 40 33 33 40 33 33 40 33 33 40 33 33 40 33 33 40 33 33 40 33 40 47 40 40 47 40 40 47 40 40 47 40 40 47 40 40 47 40 40 47 40 41 46 40 32 31 26 34 31 26 34 31 26 34 31 26 34 31 26 34 31 26 34 31 26 34 31 26 32 29 24 32 29 24 32 29 24 32 29 24 32 29 24 32 29 24 32 29 24 32 29 24 36 28 26 36 28 26 36 28 26 36 28 26 36 28 26 36 28 26 36 28 26 36 28 26 37 29 27 37 29 27 37 29 27 37 29 27 37 29 27 37 29 27 37 29 27 37 29 27
0 0 0 0 0 0 0 0 0 0 0 0 0 0 0 0 0 0 0 0 0 0 0 0 0 0 0 0 0 0 0 0 0 0 0 0 1 0 5 1 0 5 1 0 5 1 0 5 1 0 5 1 0 5 1 0 5 1 0 5 1 0 5 1 0 5 1 0 5 1 0 5 1 0 5 1 0 5 1 0 5 1 0 5 3 2 8 3 2 8 3 2 8 3 2 8 3 2 8 3 2 8 3 2 8 3 2 8 2 1 7 2 1 7 2 1 7 2 1 7 2 1 7 2 1 7 2 1 7 2 1 6 4 5 9 4 5 7 4 5 7 4 5 7 4 5 7 4 5 7 4 5 7 4 5 7 6 7 9 6 7 9 6 7 9 6 7 9 6 7 9 6 7 9 6 7 9 4 8 9 6 10 13 5 10 13 5 10 13 5 10 13 5 10 13 5 10 13 5 10 13 5 10 13 2 7 10 3 8 11 4 9 12 7 12 15 9 14 17 11 16 19 13 18 21 14 19 22 32 40 42 33 41 43 36 44 46 39 47 49 42 50 52 45 53 55 48 56 58 49 57 59 53 61 63 53 61 63 53 61 63 53 61 63 53 61 63 53 61 63 53 61 63 53 61 63 52 58 58 50 56 56 48 54 54 45 51 51 41 47 47 38 44 44 36 42 42 34 40 40 15 21 21 13 19 19 11 17 17 8 14 14 4 10 10 1 7 7 0 5 5 0 3 3 0 2 0 0 3 1 0 5 3 2 8 6 6 12 10 9 15 13 11 17 15 13 19 17 23 29 27 23 29 27 23 29 27 23 29 27 23 29 27 23 29 27 23 29 27 23 29 25 33 39 35 33 40 33 33 40 33 33 40 33 33 40 33 33 40 33 33 40 33 33 40 33 37 44 37 37 44 37 37 44 37 37 44 37 37 44 37 37 44 37 37 44 37 38 43 37 32 31 26 34 31 26 34 31 26 34 31 26 34 31 26 34 31 26 34 31 26 34 31 26 32 29 24 32 29 24 32 29 24 32 29 24 32 29 24 32 29 24 32 29 24 32 29 24 36 28 26 36 28 26 36 28 26 36 28 26 36 28 26 36 28 26 36 28 26 36 28 26 37 29 27 37 29 27 37 29 27 37 29 27 37 29 27 37 29 27 37 29 27 37 29 27
0 0 0 0 0 0 0 0 0 0 0 0 0 0 0 0 0 0 0 0 0 0 0 0 0 0 0 0 0 0 0 0 0 0 0 0 1 0 5 1 0 5 1 0 5 1 0 5 1 0 5 1 0 5 1 0 5 1 0 5 1 0 5 1 0 5 1 0 5 1 0 5 1 0 5 1 0 5 1 0 5 1 0 5 3 2 8 3 2 8 3 2 8 3 2 8 3 2 8 3 2 8 3 2 8 3 2 8 2 1 7 2 1 7 2 1 7 2 1 7 2 1 7 2 1 7 2 1 7 2 1 6 4 5 9 4 5 7 4 5 7 4 5 7 4 5 7 4 5 7 4 5 7 4 5 7 6 7 9 6 7 9 6 7 9 6 7 9 6 7 9 6 7 9 6 7 9 4 8 9 6 10 13 5 10 13 5 10 13 5 10 13 5 10 13 5 10 13 5 10 13 5 10 13 4 9 12 5 10 13 9 14 17 13 18 21 17 22 25 21 26 29 24 29 32 26 31 34 39 47 49 40 48 50 43 51 53 46 54 56 49 57 59 52 60 62 55 63 65 56 64 66 57 65 67 57 65 67 57 65 67 57 65 67 57 65 67 57 65 67 57 65 67 57 65 67 52 58 58 50 56 56 48 54 54 45 51 51 41 47 47 38 44 44 36 42 42 34 40 40 15 21 21 13 19 19 11 17 17 8 14 14 4 10 10 1 7 7 0 5 5 0 3 3 0 2 0 0 3 1 0 5 3 2 8 6 6 12 10 9 15 13 11 17 15 13 19 17 23 29 27 23 29 27 23 29 27 23 29 27 23 29 27 23 29 27 23 29 27 23 29 25 33 39 35 33 40 33 33 40 33 33 40 33 33 40 33 33 40 33 33 40 33 33 40 33 33 40 33 33 40 33 33 40 33 33 40 33 33 40 33 33 40 33 33 40 33 34 39 33 32 31 26 34 31 26 34 31 26 34 31 26 34 31 26 34 31 26 34 31 26 34 31 26 32 29 24 32 29 24 32 29 24 32 29 24 32 29 24 32 29 24 32 29 24 32 29 24 36 28 26 36 28 26 36 28 26 36 28 26 36 28 26 36 28 26 36 28 26 36 28 26 37 29 27 37 29 27 37 29 27 37 29 27 37 29 27 37 29 27 37 29 27 37 29 27
0 0 0 0 0 0 0 0 0 0 0 0 0 0 0 0 0 0 0 0 0 0 0 0 0 0 0 0 0 0 0 0 0 0 0 0 1 0 5 1 0 5 1 0 5 1 0 5 1 0 5 1 0 5 1 0 5 1 0 5 1 0 5 1 0 5 1 0 5 1 0 5 1 0 5 1 0 5 1 0 5 1 0 5 3 2 8 3 2 8 3 2 8 3 2 8 3 2 8 3 2 8 3 2 8 3 2 8 2 1 7 2 1 7 2 1 7 2 1 7 2 1 7 2 1 7 2 1 7 2 1 6 4 5 9 4 5 7 4 5 7 4 5 7 4 5 7 4 5 7 4 5 7 4 5 7 6 7 9 6 7 9 6 7 9 6 7 9 6 7 9 6 7 9 6 7 9 4 8 9 6 10 13 5 10 13 5 10 13 5 10 13 5 10 13 5 10 13 5 10 13 5 10 13 11 16 19 14 19 22 18 23 26 24 29 32 30 35 38 36 41 44 40 45 48 42 47 50 45 53 55 46 54 56 49 57 59 52 60 62 56 64 66 59 67 69 61 69 71 62 70 72 60 68 70 60 68 70 60 68 70 60 68 70 60 68 70 60 68 70 60 68 70 60 68 70 52 58 58 50 56 56 48 54 54 45 51 51 41 47 47 38 44 44 36 42 42 34 40 40 15 21 21 13 19 19 11 17 17 8 14 14 4 10 10 1 7 7 0 5 5 0 3 3 0 2 0 0 3 1 0 5 3 2 8 6 6 12 10 9 15 13 11 17 15 13 19 17 23 29 27 23 29 27 23 29 27 23 29 27 23 29 27 23 29 27 23 29 27 23 29 25 33 39 35 33 40 33 33 40 33 33 40 33 33 40 33 33 40 33 33 40 33 33 40 33 30 37 30 30 37 30 30 37 30 30 37 30 30 37 30 30 37 30 30 37 30 31 36 30 32 31 26 34 31 26 34 31 26 34 31 26 34 31 26 34 31 26 34 31 26 34 31 26 32 29 24 32 29 24 32 29 24 32 29 24 32 29 24 32 29 24 32 29 24 32 29 24 36 28 26 36 28 26 36 28 26 36 28 26 36 28 26 36 28 26 36 28 26 36 28 26 37 29 27 37 29 27 37 29 27 37 29 27 37 29 27 37 29 27 37 29 27 37 29 27
0 0 0 0 0 0 0 0 0 0 0 0 0 0 0 0 0 0 0 0 0 0 0 0 0 0 0 0 0 0 0 0 0 0 0 0 1 0 5 1 0 5 1 0 5 1 0 5 1 0 5 1 0 5 1 0 5 1 0 5 1 0 5 1 0 5 1 0 5 1 0 5 1 0 5 1 0 5 1 0 5 1 0 5 3 2 8 3 2 8 3 2 8 3 2 8 3 2 8 3 2 8 3 2 8 3 2 8 2 1 7 2 1 7 2 1 7 2 1 7 2 1 7 2 1 7 2 1 7 2 1 6 4 5 9 4 5 7 4 5 7 4 5 7 4 5 7 4 5 7 4 5 7 4 5 7 6 7 9 6 7 9 6 7 9 6 7 9 6 7 9 6 7 9 6 7 9 4 8 9 6 10 13 5 10 13 5 10 13 5 10 13 5 10 13 5 10 13 5 10 13 5 10 13 21 26 29 24 29 32 29 34 37 36 41 44 43 48 51 50 55 58 56 61 64 59 64 67 50 58 60 51 59 61 54 62 64 57 65 67 60 68 70 64 72 74 66 74 76 67 75 77 62 70 72 62 70 72 62 70 72 62 70 72 62 70 72 62 70 72 62 70 72 62 70 72 52 58 58 50 56 56 48 54 54 45 51 51 41 47 47 38 44 44 36 42 42 34 40 40 15 21 21 13 19 19 11 17 17 8 14 14 4 10 10 1 7 7 0 5 5 0 3 3 0 2 0 0 3 1 0 5 3 2 8 6 6 12 10 9 15 13 11 17 15 13 19 17 23 29 27 23 29 27 23 29 27 23 29 27 23 29 27 23 29 27 23 29 27 23 29 25 33 39 35 33 40 33 33 40 33 33 40 33 33 40 33 33 40 33 33 40 33 33 40 33 28 35 28 28 35 28 28 35 28 28 35 28 28 35 28 28 35 28 28 35 28 29 34 28 32 31 26 34 31 26 34 31 26 34 31 26 34 31 26 34 31 26 34 31 26 34 31 26 32 29 24 32 29 24 32 29 24 32 29 24 32 29 24 32 29 24 32 29 24 32 29 24 36 28 26 36 28 26 36 28 26 36 28 26 36 28 26 36 28 26 36 28 26 36 28 26 37 29 27 37 29 27 37 29 27 37 29 27 37 29 27 37 29 27 37 29 27 37 29 27
0 0 0 0 0 0 0 0 0 0 0 0 0 0 0 0 0 0 0 0 0 0 0 0 0 0 0 0 0 0 0 0 0 0 0 0 1 1 3 1 1 3 1 0 5 1 1 3 1 0 5 1 1 3 1 0 5 1 1 3 1 0 5 1 1 3 1 0 5 1 1 3 1 0 5 1 1 3 1 0 5 1 0 5 3 2 7 3 2 7 3 2 8 3 2 7 3 2 8 3 2 7 3 2 8 3 2 7 2 1 7 2 1 6 2 1 7 2 1 6 2 1 7 2 1 6 2 1 7 1 2 6 4 5 9 2 6 7 2 6 9 2 6 7 2 6 9 2 6 7 2 6 9 2 6 7 4 8 11 4 8 9 4 8 11 4 8 9 4 8 11 4 8 9 4 8 11 4 8 11 5 10 13 5 10 13 5 10 13 5 10 13 5 10 13 5 10 13 5 10 13 5 10 13 27 32 35 30 35 38 36 41 44 44 49 52 52 57 60 60 65 68 65 70 73 69 74 77 53 61 63 54 62 64 56 64 66 60 68 70 63 71 73 66 74 76 69 77 79 70 78 80 64 72 74 64 72 74 64 72 74 64 72 74 64 72 74 64 72 74 64 72 74 64 72 74 52 58 58 50 56 56 48 54 54 45 51 51 41 47 47 38 44 44 36 42 42 34 40 40 15 21 21 13 19 19 11 17 17 8 14 14 4 10 10 1 7 7 0 5 5 0 3 3 0 2 2 0 3 1 0 5 5 2 8 6 6 12 12 9 15 13 11 17 17 13 19 17 23 29 29 23 29 27 23 29 29 23 29 27 23 29 29 23 29 27 23 29 29 23 29 27 33 39 35 33 39 35 33 39 35 33 39 35 33 39 35 33 39 35 33 39 35 33 39 35 26 32 28 26 32 28 26 32 28 26 32 28 26 32 28 26 32 28 26 32 28 27 32 26 32 31 26 34 31 26 34 31 26 34 31 26 34 31 26 34 31 26 34 31 26 34 31 26 32 29 24 32 29 24 32 29 24 32 29 24 32 29 24 32 29 24 32 29 24 33 28 24 36 28 26 36 28 26 36 28 26 36 28 26 36 28 26 36 28 26 36 28 26 36 28 26 37 29 27 37 29 27 37 29 27 37 29 27 37 29 27 37 29 27 37 29 27 37 29 27
0 0 0 0 0 0 0 0 0 0 0 0 0 0 0 0 0 0 0 0 0 0 0 0 0 0 0 0 0 0 0 0 0 0 0 0 1 1 1 1 1 1 1 1 3 1 1 1 1 1 3 1 1 1 1 1 3 1 1 1 0 0 2 0 0 0 0 0 2 0 0 0 0 0 2 0 0 0 0 0 2 0 0 2 0 1 3 0 1 3 0 1 5 0 1 3 0 1 5 0 1 3 0 1 5 0 1 3 3 4 8 3 4 6 3 4 8 3 4 6 3 4 8 3 4 6 3 4 8 3 4 8 3 8 11 3 8 11 3 8 12 3 8 11 3 8 12 3 8 11 3 8 12 3 8 11 0 1 5 0 1 4 0 1 5 0 3 6 1 6 10 5 10 13 7 12 16 8 13 17 12 20 23 13 21 24 16 24 27 19 27 30 22 30 33 26 34 37 28 36 39 29 37 40 41 49 52 42 50 53 44 52 55 48 56 59 51 59 62 54 62 65 57 65 68 58 66 69 69 77 79 69 77 79 69 77 79 69 77 79 69 77 79 69 77 79 69 77 79 69 77 79 65 73 75 65 73 75 65 73 75 65 73 75 65 73 75 65 73 75 65 73 75 65 73 75 64 69 72 62 67 70 57 62 65 50 55 58 44 49 52 37 42 45 32 37 40 30 35 38 6 11 14 6 11 14 6 11 14 6 11 14 6 11 14 6 11 14 6 11 14 6 11 14 6 14 16 6 15 14 6 14 16 6 15 14 6 14 16 6 15 14 6 14 16 6 15 14 21 29 31 21 30 29 21 29 31 21 30 29 21 29 31 21 30 29 21 29 31 21 30 29 24 30 30 24 30 28 24 30 28 24 30 28 24 30 28 24 30 28 24 30 28 24 30 28 23 29 27 23 29 27 23 29 27 23 29 27 23 29 27 23 29 27 23 29 27 24 29 25 28 27 23 31 26 22 31 26 22 31 26 22 31 26 22 31 26 22 31 26 22 31 26 22 33 28 24 33 28 24 33 28 24 33 28 24 33 28 24 33 28 24 33 28 24 33 28 24 36 28 25 37 27 25 37 27 25 37 27 25 37 27 25 37 27 25 37 27 25 37 27 25 39 29 27 39 29 27 39 29 27 39 29 27 39 29 27 39 29 27 39 29 27 38 30 27
0 0 0 0 0 0 0 0 0 0 0 0 0 0 0 0 0 0 0 0 0 0 0 0 0 0 0 0 0 0 0 0 0 0 0 0 1 1 1 1 1 1 1 1 1 1 1 1 1 1 1 1 1 1 1 1 1 1 1 1 0 0 0 0 0 0 0 0 0 0 0 0 0 0 0 0 0 0 0 0 0 0 0 0 0 1 3 0 1 3 0 1 3 0 1 3 0 1 3 0 1 3 0 1 3 0 1 3 3 4 6 3 4 6 3 4 6 3 4 6 3 4 6 3 4 6 3 4 6 1 5 6 3 8 12 1 9 12 1 9 12 1 9 12 1 9 12 1 9 12 1 9 12 1 9 12 0 2 5 0 2 5 0 3 6 0 7 10 2 10 13 5 13 16 8 16 19 9 17 20 15 23 26 16 24 27 18 26 29 22 30 33 25 33 36 28 36 39 31 39 42 32 40 43 42 50 53 43 51 54 46 54 57 49 57 60 52 60 63 56 64 67 58 66 69 59 67 70 69 77 79 69 77 79 69 77 79 69 77 79 69 77 79 69 77 79 69 77 79 69 77 79 65 73 75 65 73 75 65 73 75 65 73 75 65 73 75 65 73 75 65 73 75 65 73 75 64 69 72 62 67 70 57 62 65 50 55 58 44 49 52 37 42 45 32 37 40 30 35 38 6 11 14 6 11 14 6 11 14 6 11 14 6 11 14 6 11 14 6 11 14 6 11 14 6 14 16 6 14 16 6 14 16 6 14 16 6 14 16 6 14 16 6 14 16 6 14 16 21 29 31 21 29 31 21 29 31 21 29 31 21 29 31 21 29 31 21 29 31 21 29 31 24 30 30 24 30 30 24 30 30 24 30 30 24 30 30 24 30 30 24 30 30 24 30 30 23 29 29 23 29 29 23 29 29 23 29 29 23 29 29 23 29 29 23 29 29 24 28 27 30 26 23 31 26 22 31 26 22 31 26 22 31 26 22 31 26 22 31 26 22 31 26 22 33 28 24 33 28 24 33 28 24 33 28 24 33 28 24 33 28 24 33 28 24 33 28 24 37 27 25 37 27 25 37 27 25 37 27 25 37 27 25 37 27 25 37 27 25 37 27 25 39 29 27 39 29 27 39 29 27 39 29 27 39 29 27 39 29 27 39 29 27 38 30 27
0 0 0 0 0 0 0 0 0 0 0 0 0 0 0 0 0 0 0 0 0 0 0 0 0 0 0 0 0 0 0 0 0 0 0 0 1 1 1 1 1 1 1 1 1 1 1 1 1 1 1 1 1 1 1 1 1 1 1 1 0 0 0 0 0 0 0 0 0 0 0 0 0 0 0 0 0 0 0 0 0 0 0 0 0 1 3 0 1 3 0 1 3 0 1 3 0 1 3 0 1 3 0 1 3 0 1 3 3 4 6 3 4 6 3 4 6 3 4 6 3 4 6 3 4 6 3 4 6 1 5 6 3 8 12 1 9 12 1 9 12 1 9 12 1 9 12 1 9 12 1 9 12 1 9 12 0 5 8 0 6 9 0 8 11 3 11 14 7 15 18 10 18 21 13 21 24 14 22 25 20 28 31 21 29 32 23 31 34 26 34 37 30 38 41 33 41 44 36 44 47 37 45 48 44 52 55 46 54 57 48 56 59 51 59 62 55 63 66 58 66 69 60 68 71 62 70 73 69 77 79 69 77 79 69 77 79 69 77 79 69 77 79 69 77 79 69 77 79 69 77 79 65 73 75 65 73 75 65 73 75 65 73 75 65 73 75 65 73 75 65 73 75 65 73 75 64 69 72 62 67 70 57 62 65 50 55 58 44 49 52 37 42 45 32 37 40 30 35 38 6 11 14 6 11 14 6 11 14 6 11 14 6 11 14 6 11 14 6 11 14 6 11 14 6 14 16 6 14 16 6 14 16 6 14 16 6 14 16 6 14 16 6 14 16 6 14 16 21 29 31 21 29 31 21 29 31 21 29 31 21 29 31 21 29 31 21 29 31 21 29 31 24 30 30 24 30 30 24 30 30 24 30 30 24 30 30 24 30 30 24 30 30 24 30 30 23 29 29 23 29 29 23 29 29 23 29 29 23 29 29 23 29 29 23 29 29 24 28 27 30 26 23 31 26 22 31 26 22 31 26 22 31 26 22 31 26 22 31 26 22 31 26 22 33 28 24 33 28 24 33 28 24 33 28 24 33 28 24 33 28 24 33 28 24 33 28 24 37 27 25 37 27 25 37 27 25 37 27 25 37 27 25 37 27 25 37 27 25 37 27 25 39 29 27 39 29 27 39 29 27 39 29 27 39 29 27 39 29 27 39 29 27 38 30 27
