P3
172 37
255
0 11 3 0 11 3 0 11 3 0 11 3 0 8 0 0 8 0 0 8 0 0 8 0 0 8 0 0 8 0 0 8 0 0 7 0 0 4 0 0 2 0 0 2 0 0 2 0 0 2 0 0 2 0 0 2 0 0 2 0 32 34 29 36 38 33 45 47 42 55 57 52 67 69 64 78 80 75 87 89 84 92 93 88 114 108 108 115 106 107 115 106 107 114 105 106 114 105 106 113 104 105 113 104 105 113 104 105 115 106 107 115 106 107 115 106 107 115 106 107 115 106 107 115 106 107 115 106 107 116 106 105 120 108 108 122 108 107 122 108 107 122 108 107 122 108 107 122 108 107 122 108 107 122 108 107 117 103 102 117 103 102 117 103 102 117 103 102 117 103 102 117 103 102 117 103 102 117 103 103 113 98 101 111 96 101 109 94 99 106 91 96 102 87 92 99 84 89 97 82 87 95 80 85 95 80 85 95 80 85 95 80 85 95 80 85 95 80 85 95 80 85 95 80 85 95 80 85 90 75 80 90 75 80 90 75 80 90 75 80 90 75 80 90 75 80 90 75 80 90 75 80 94 79 84 94 79 84 94 79 84 94 79 84 94 79 84 94 79 84 94 79 84 94 79 84 91 74 80 91 74 80 91 74 80 91 74 80 91 74 80 91 74 80 91 74 80 91 74 80 84 67 73 83 66 72 81 64 70 77 60 66 74 57 63 71 54 60 68 51 57 66 51 56 58 47 51 56 47 50 53 44 47 50 41 44 47 38 41 43 34 37 41 32 35 40 31 34 34 25 28 33 24 27 30 21 24 27 18 21 24 15 18 20 11 14 18 9 12 11 11 11 21 34 27 15 36 27 15 36 27 15 36 27 15 36 27 15 36 27 15 36 27 15 36 27 39 60 51 43 64 55 50 71 62 60 81 72 70 91 82 80 101 92 87 108 99 91 112 103 99 121 109 93 115 103 84 106 94 71 93 81 57 79 67 44 66 54 35 57 45 29 51 39 26 48 36 26 48 36 26 48 36 26 48 36 26 48 36 26 48 36 26 48 36 27 47 36 29 42 33 30 41 33 30 41 33 30 41 33 30 41 33 30 41 33 30 41 33 30 41 33 33 44 36 33 44 36 33 44 36 33 44 36 33 44 36 33 44 36 33 44 36 32 45 36
0 10 3 0 11 3 0 10 3 0 11 3 0 7 0 0 8 0 0 7 0 0 8 0 0 7 0 0 8 0 0 7 0 0 6 0 0 4 0 0 3 0 0 2 0 0 3 0 0 2 0 0 3 0 0 2 0 0 3 0 44 46 43 46 51 47 54 56 53 60 65 61 71 73 70 78 83 79 86 88 85 90 90 88 118 114 115 119 113 115 118 112 114 117 111 113 115 109 111 114 108 110 113 107 109 113 107 109 115 109 111 115 109 111 115 109 111 115 109 111 115 109 111 115 109 111 115 109 111 117 108 109 121 111 110 121 111 110 122 110 110 121 111 110 122 110 110 121 111 110 122 110 110 121 111 110 115 103 103 114 104 103 115 103 103 114 104 103 115 103 103 114 104 103 115 103 103 114 104 103 110 99 103 108 97 101 106 95 99 103 92 96 99 88 92 96 85 89 94 83 87 92 81 85 92 81 85 92 81 85 92 81 85 92 81 85 92 81 85 92 81 85 92 81 85 92 81 85 85 74 78 85 74 78 85 74 80 85 74 78 85 74 80 85 74 78 85 74 80 85 74 78 91 80 86 91 80 84 91 80 86 91 80 84 91 80 86 91 80 84 91 80 86 91 80 84 87 76 82 86 77 80 87 76 82 86 77 80 87 76 82 86 77 80 87 76 82 86 77 80 79 68 74 77 68 71 75 64 70 71 62 65 69 58 64 64 55 58 63 52 58 61 52 57 51 46 50 48 46 49 46 44 47 42 40 43 39 37 40 36 34 37 33 31 34 32 30 33 26 24 27 25 23 26 23 21 24 19 17 20 16 14 17 13 11 14 10 8 11 5 9 8 19 34 29 15 36 27 15 36 29 15 36 27 15 36 29 15 36 27 15 36 29 15 36 27 39 60 53 43 64 55 50 71 64 60 81 72 70 91 84 80 101 92 87 108 101 91 112 103 99 120 111 93 115 103 85 105 94 71 93 81 58 78 67 44 66 54 36 56 45 29 51 39 27 47 36 26 48 36 27 47 36 26 48 36 27 47 36 26 48 36 27 47 36 29 46 36 31 41 33 33 40 33 33 39 35 33 40 33 33 39 35 33 40 33 33 39 35 33 40 33 36 42 38 36 43 36 36 42 38 36 43 36 36 42 38 36 43 36 36 42 38 34 43 38
0 3 1 0 4 1 0 3 1 0 4 1 0 2 0 0 3 0 0 2 0 0 3 0 0 2 0 0 3 0 0 2 0 0 1 0 3 0 0 4 0 0 6 0 0 4 0 0 6 0 0 11 5 7 25 16 19 30 24 26 73 64 67 74 68 70 81 72 75 85 79 81 94 85 88 98 92 94 105 96 99 109 98 102 120 105 112 121 104 112 121 104 112 121 104 112 121 104 112 121 104 112 121 104 112 121 104 112 134 117 125 134 117 125 134 117 125 134 117 125 134 117 125 134 117 125 134 117 125 134 117 125 125 108 114 125 109 112 127 108 112 125 109 112 127 108 112 125 109 112 127 108 112 125 109 112 128 109 113 126 110 113 128 109 113 126 110 113 128 109 113 126 110 113 128 109 113 126 109 115 112 95 101 110 93 101 108 91 99 105 88 96 101 84 92 98 81 89 96 79 87 94 77 85 95 78 86 95 78 86 95 78 86 95 78 86 95 78 86 95 78 86 95 78 86 94 79 86 85 70 77 83 70 77 83 70 79 83 70 77 83 70 79 83 70 77 83 70 79 83 70 77 91 78 87 91 78 85 91 78 87 91 78 85 91 78 87 91 78 85 91 78 87 91 78 85 82 72 80 79 73 77 79 69 77 73 67 71 72 62 70 67 61 65 66 56 64 63 57 61 69 59 67 66 60 64 65 55 63 60 54 58 59 49 57 53 47 51 53 43 51 50 43 50 30 28 33 28 27 32 26 25 30 22 21 26 19 18 23 16 15 20 13 12 17 12 11 16 0 0 4 2 1 6 4 3 8 7 6 11 11 10 15 14 13 18 16 15 20 17 18 22 17 23 23 16 27 23 18 28 27 21 32 28 25 35 34 28 39 35 30 40 39 32 43 39 51 61 60 53 64 60 55 65 64 58 69 65 62 72 71 65 76 72 67 77 76 70 79 76 81 87 83 79 85 81 75 80 76 67 73 69 62 67 63 54 60 56 50 55 51 47 53 49 35 40 36 34 40 36 35 40 36 34 40 36 35 40 36 34 40 36 35 40 36 35 40 36 35 37 34 36 36 34 36 36 36 36 36 34 36 36 36 36 36 34 36 36 36 36 36 34 36 36 36 36 36 34 36 36 36 36 36 34 36 36 36 36 36 34 36 36 36 35 37 34
1 1 1 1 1 1 1 1 1 1 1 1 0 0 0 0 0 0 0 0 0 0 0 0 0 0 0 0 0 0 0 0 0 1 0 0 7 0 2 8 0 2 8 0 2 8 0 2 8 0 2 18 5 12 31 18 25 39 26 33 78 65 72 81 68 75 85 72 79 92 79 86 99 86 93 105 92 99 110 97 104 115 100 107 125 105 116 126 104 116 126 104 116 126 104 116 126 104 116 126 104 116 126 104 116 126 104 116 137 115 127 137 115 127 137 115 127 137 115 127 137 115 127 137 115 127 137 115 127 137 116 125 130 109 118 130 109 116 130 109 116 130 109 116 130 109 116 130 109 116 130 109 116 130 109 116 129 108 115 129 108 115 129 108 115 129 108 115 129 108 115 129 108 115 129 108 115 129 108 115 114 94 103 112 92 101 110 90 99 107 87 96 103 83 92 100 80 89 98 78 87 96 76 85 95 75 84 95 75 84 95 75 84 95 75 84 95 75 84 95 75 84 95 75 84 93 76 84 86 69 79 85 69 79 85 69 79 85 69 79 85 69 79 85 69 79 85 69 79 85 69 79 91 75 85 91 75 85 91 75 85 91 75 85 91 75 85 91 75 85 91 75 85 89 76 85 81 71 79 78 71 78 75 68 75 72 65 72 69 62 69 65 58 65 63 56 63 62 55 62 64 57 64 63 56 63 61 54 61 57 50 57 54 47 54 51 44 51 48 41 48 46 41 47 29 26 33 27 26 32 24 23 29 21 20 26 18 17 23 14 13 19 12 11 17 11 10 16 0 0 5 2 1 7 4 3 9 7 6 12 11 10 16 14 13 19 16 15 21 17 18 22 20 21 25 20 24 25 22 26 27 25 29 30 29 33 34 32 36 37 34 38 39 36 40 41 55 59 60 57 61 62 59 63 64 62 66 67 66 70 71 69 73 74 71 75 76 75 77 76 85 85 85 84 83 81 79 78 76 72 71 69 66 65 63 59 58 56 54 53 51 52 51 49 39 38 36 39 38 36 39 38 36 39 38 36 39 38 36 39 38 36 39 38 36 39 38 36 37 35 36 37 35 36 37 35 36 37 35 36 37 35 36 37 35 36 37 35 36 37 35 36 37 35 36 37 35 36 37 35 36 37 35 36 37 35 36 37 35 36 37 35 36 37 35 36
1 1 1 1 1 1 1 1 1 1 1 1 0 0 0 0 0 0 0 0 0 0 0 0 0 0 0 0 0 0 0 0 0 1 0 0 8 0 3 8 0 2 8 0 2 8 0 2 12 0 6 25 12 19 38 25 32 47 34 41 83 70 77 85 72 79 90 77 84 97 84 91 104 91 98 110 97 104 115 102 109 120 105 112 127 107 118 128 106 118 128 106 118 128 106 118 128 106 118 128 106 118 128 106 118 128 106 118 137 115 127 137 115 127 137 115 127 137 115 127 137 115 127 137 115 127 137 115 127 137 116 125 132 111 120 132 111 118 132 111 118 132 111 118 132 111 118 132 111 118 132 111 118 132 111 118 129 108 115 129 108 115 129 108 115 129 108 115 129 108 115 129 108 115 129 108 115 129 108 115 114 94 103 112 92 101 110 90 99 107 87 96 103 83 92 100 80 89 98 78 87 96 76 85 93 73 82 93 73 82 93 73 82 93 73 82 93 73 82 93 73 82 93 73 82 91 74 82 86 69 79 85 69 79 85 69 79 85 69 79 85 69 79 85 69 79 85 69 79 85 69 79 89 73 83 89 73 83 89 73 83 89 73 83 89 73 83 89 73 83 89 73 83 87 74 83 79 69 77 75 68 75 73 66 73 70 63 70 66 59 66 63 56 63 61 54 61 59 52 59 59 52 59 58 51 58 56 49 56 53 46 53 49 42 49 46 39 46 43 36 43 41 36 42 27 24 31 24 23 29 22 21 27 19 18 24 15 14 20 12 11 17 10 9 15 8 7 13 0 0 5 2 1 7 4 3 9 7 6 12 11 10 16 14 13 19 16 15 21 17 18 22 20 21 25 20 24 25 22 26 27 25 29 30 29 33 34 32 36 37 34 38 39 36 40 41 55 59 60 57 61 62 59 63 64 62 66 67 66 70 71 69 73 74 71 75 76 75 77 76 85 85 85 84 83 81 79 78 76 72 71 69 66 65 63 59 58 56 54 53 51 52 51 49 39 38 36 39 38 36 39 38 36 39 38 36 39 38 36 39 38 36 39 38 36 39 38 36 37 35 36 37 35 36 37 35 36 37 35 36 37 35 36 37 35 36 37 35 36 37 35 36 37 35 36 37 35 36 37 35 36 37 35 36 37 35 36 37 35 36 37 35 36 37 35 36
1 1 1 1 1 1 1 1 1 1 1 1 0 0 0 0 0 0 0 0 0 0 0 0 0 0 0 0 0 0 0 0 0 1 0 0 10 0 5 9 0 3 8 0 2 10 0 4 20 7 14 34 21 28 49 36 43 58 45 52 89 76 83 92 79 86 97 84 91 103 90 97 110 97 104 116 103 110 121 108 115 126 111 118 130 110 121 131 109 121 131 109 121 131 109 121 131 109 121 131 109 121 131 109 121 131 109 121 137 115 127 137 115 127 137 115 127 137 115 127 137 115 127 137 115 127 137 115 127 137 116 125 135 114 123 135 114 121 135 114 121 135 114 121 135 114 121 135 114 121 135 114 121 135 114 121 129 108 115 129 108 115 129 108 115 129 108 115 129 108 115 129 108 115 129 108 115 129 108 115 114 94 103 112 92 101 110 90 99 107 87 96 103 83 92 100 80 89 98 78 87 96 76 85 90 70 79 90 70 79 90 70 79 90 70 79 90 70 79 90 70 79 90 70 79 88 71 79 86 69 79 85 69 79 85 69 79 85 69 79 85 69 79 85 69 79 85 69 79 85 69 79 86 70 80 86 70 80 86 70 80 86 70 80 86 70 80 86 70 80 86 70 80 84 71 80 75 65 73 72 65 72 70 63 70 66 59 66 63 56 63 60 53 60 57 50 57 56 49 56 53 46 53 52 45 52 49 42 49 46 39 46 43 36 43 40 33 40 37 30 37 35 30 36 23 20 27 21 20 26 19 18 24 15 14 20 12 11 17 9 8 14 6 5 11 5 4 10 0 0 5 2 1 7 4 3 9 7 6 12 11 10 16 14 13 19 16 15 21 17 18 22 20 21 25 20 24 25 22 26 27 25 29 30 29 33 34 32 36 37 34 38 39 36 40 41 55 59 60 57 61 62 59 63 64 62 66 67 66 70 71 69 73 74 71 75 76 75 77 76 85 85 85 84 83 81 79 78 76 72 71 69 66 65 63 59 58 56 54 53 51 52 51 49 39 38 36 39 38 36 39 38 36 39 38 36 39 38 36 39 38 36 39 38 36 39 38 36 37 35 36 37 35 36 37 35 36 37 35 36 37 35 36 37 35 36 37 35 36 37 35 36 37 35 36 37 35 36 37 35 36 37 35 36 37 35 36 37 35 36 37 35 36 37 35 36
1 1 1 1 1 1 1 1 1 1 1 1 0 0 0 0 0 0 0 0 0 0 0 0 0 0 0 0 0 0 0 0 0 1 0 0 12 1 7 11 0 5 11 0 5 16 3 10 27 14 21 44 31 38 59 46 53 69 56 63 96 83 90 99 86 93 104 91 98 110 97 104 117 104 111 123 110 117 128 115 122 133 118 125 134 114 125 135 113 125 135 113 125 135 113 125 135 113 125 135 113 125 135 113 125 135 113 125 137 115 127 137 115 127 137 115 127 137 115 127 137 115 127 137 115 127 137 115 127 137 116 125 139 118 127 139 118 125 139 118 125 139 118 125 139 118 125 139 118 125 139 118 125 139 118 125 129 108 115 129 108 115 129 108 115 129 108 115 129 108 115 129 108 115 129 108 115 129 108 115 114 94 103 112 92 101 110 90 99 107 87 96 103 83 92 100 80 89 98 78 87 96 76 85 86 66 75 86 66 75 86 66 75 86 66 75 86 66 75 86 66 75 86 66 75 84 67 75 86 69 79 85 69 79 85 69 79 85 69 79 85 69 79 85 69 79 85 69 79 85 69 79 82 66 76 82 66 76 82 66 76 82 66 76 82 66 76 82 66 76 82 66 76 80 67 76 72 62 70 69 62 69 66 59 66 63 56 63 60 53 60 56 49 56 54 47 54 53 46 53 46 39 46 45 38 45 42 35 42 39 32 39 36 29 36 33 26 33 30 23 30 28 23 29 20 17 24 18 17 23 15 14 20 12 11 17 9 8 14 5 4 10 3 2 8 2 1 7 0 0 5 2 1 7 4 3 9 7 6 12 11 10 16 14 13 19 16 15 21 17 18 22 20 21 25 20 24 25 22 26 27 25 29 30 29 33 34 32 36 37 34 38 39 36 40 41 55 59 60 57 61 62 59 63 64 62 66 67 66 70 71 69 73 74 71 75 76 75 77 76 85 85 85 84 83 81 79 78 76 72 71 69 66 65 63 59 58 56 54 53 51 52 51 49 39 38 36 39 38 36 39 38 36 39 38 36 39 38 36 39 38 36 39 38 36 39 38 36 37 35 36 37 35 36 37 35 36 37 35 36 37 35 36 37 35 36 37 35 36 37 35 36 37 35 36 37 35 36 37 35 36 37 35 36 37 35 36 37 35 36 37 35 36 37 35 36
1 1 1 1 1 1 1 1 1 1 1 1 0 0 0 0 0 0 0 0 0 0 0 0 0 0 0 0 0 0 0 0 0 1 0 0 14 3 9 14 1 8 15 2 9 22 9 16 35 22 29 52 39 46 70 57 64 80 67 74 102 89 96 105 92 99 110 97 104 116 103 110 123 110 117 130 117 124 135 122 129 139 124 131 137 117 128 138 116 128 138 116 128 138 116 128 138 116 128 138 116 128 138 116 128 138 116 128 137 115 127 137 115 127 137 115 127 137 115 127 137 115 127 137 115 127 137 115 127 137 116 125 142 121 130 142 121 128 142 121 128 142 121 128 142 121 128 142 121 128 142 121 128 142 121 128 129 108 115 129 108 115 129 108 115 129 108 115 129 108 115 129 108 115 129 108 115 129 108 115 114 94 103 112 92 101 110 90 99 107 87 96 103 83 92 100 80 89 98 78 87 96 76 85 83 63 72 83 63 72 83 63 72 83 63 72 83 63 72 83 63 72 83 63 72 81 64 72 86 69 79 85 69 79 85 69 79 85 69 79 85 69 79 85 69 79 85 69 79 85 69 79 79 63 73 79 63 73 79 63 73 79 63 73 79 63 73 79 63 73 79 63 73 77 64 73 69 59 67 65 58 65 63 56 63 60 53 60 56 49 56 53 46 53 51 44 51 49 42 49 40 33 40 39 32 39 36 29 36 33 26 33 29 22 29 26 19 26 24 17 24 22 17 23 17 14 21 14 13 19 12 11 17 9 8 14 5 4 10 2 1 7 0 0 5 0 0 5 0 0 5 2 1 7 4 3 9 7 6 12 11 10 16 14 13 19 16 15 21 17 18 22 20 21 25 20 24 25 22 26 27 25 29 30 29 33 34 32 36 37 34 38 39 36 40 41 55 59 60 57 61 62 59 63 64 62 66 67 66 70 71 69 73 74 71 75 76 75 77 76 85 85 85 84 83 81 79 78 76 72 71 69 66 65 63 59 58 56 54 53 51 52 51 49 39 38 36 39 38 36 39 38 36 39 38 36 39 38 36 39 38 36 39 38 36 39 38 36 37 35 36 37 35 36 37 35 36 37 35 36 37 35 36 37 35 36 37 35 36 37 35 36 37 35 36 37 35 36 37 35 36 37 35 36 37 35 36 37 35 36 37 35 36 37 35 36
1 1 1 1 1 1 1 1 1 1 1 1 0 0 0 0 0 0 0 0 0 0 0 0 0 0 0 0 0 0 0 0 0 1 0 0 15 4 10 16 3 10 18 5 12 26 13 20 40 27 34 59 46 53 77 64 71 89 76 83 107 94 101 110 97 104 115 102 109 121 108 115 128 115 122 135 122 129 139 126 133 144 129 136 139 119 130 140 118 130 140 118 130 140 118 130 140 118 130 140 118 130 140 118 130 140 118 130 137 115 127 137 115 127 137 115 127 137 115 127 137 115 127 137 115 127 137 115 127 137 116 125 144 123 132 144 123 130 144 123 130 144 123 130 144 123 130 144 123 130 144 123 130 144 123 130 129 108 115 129 108 115 129 108 115 129 108 115 129 108 115 129 108 115 129 108 115 129 108 115 114 94 103 112 92 101 110 90 99 107 87 96 103 83 92 100 80 89 98 78 87 96 76 85 81 61 70 81 61 70 81 61 70 81 61 70 81 61 70 81 61 70 81 61 70 79 62 70 86 69 79 85 69 79 85 69 79 85 69 79 85 69 79 85 69 79 85 69 79 85 69 79 77 61 71 77 61 71 77 61 71 77 61 71 77 61 71 77 61 71 77 61 71 75 62 71 66 56 64 63 56 63 61 54 61 57 50 57 54 47 54 51 44 51 48 41 48 47 40 47 35 28 35 34 27 34 31 24 31 28 21 28 25 18 25 21 14 21 19 12 19 17 12 18 14 11 18 12 11 17 10 9 15 6 5 11 3 2 8 0 0 5 0 0 5 0 0 5 0 0 5 2 1 7 4 3 9 7 6 12 11 10 16 14 13 19 16 15 21 17 18 22 20 21 25 20 24 25 22 26 27 25 29 30 29 33 34 32 36 37 34 38 39 36 40 41 55 59 60 57 61 62 59 63 64 62 66 67 66 70 71 69 73 74 71 75 76 75 77 76 85 85 85 84 83 81 79 78 76 72 71 69 66 65 63 59 58 56 54 53 51 52 51 49 39 38 36 39 38 36 39 38 36 39 38 36 39 38 36 39 38 36 39 38 36 39 38 36 37 35 36 37 35 36 37 35 36 37 35 36 37 35 36 37 35 36 37 35 36 37 35 36 37 35 36 37 35 36 37 35 36 37 35 36 37 35 36 37 35 36 37 35 36 37 35 36
1 1 1 1 1 1 1 1 1 1 1 1 0 0 0 0 0 0 0 0 0 0 0 0 0 0 0 0 0 0 0 0 0 1 0 0 16 5 11 17 4 11 20 7 14 28 15 22 43 30 37 63 50 57 82 69 76 93 80 87 110 97 104 113 100 107 118 105 112 124 111 118 131 118 125 137 124 131 142 129 136 147 132 139 141 121 132 142 120 132 142 120 132 142 120 132 142 120 132 142 120 132 142 120 132 142 120 132 137 115 127 137 115 127 137 115 127 137 115 127 137 115 127 137 115 127 137 115 127 137 116 125 146 125 134 146 125 132 146 125 132 146 125 132 146 125 132 146 125 132 146 125 132 146 125 132 129 108 115 129 108 115 129 108 115 129 108 115 129 108 115 129 108 115 129 108 115 129 108 115 114 94 103 112 92 101 110 90 99 107 87 96 103 83 92 100 80 89 98 78 87 96 76 85 79 59 68 79 59 68 79 59 68 79 59 68 79 59 68 79 59 68 79 59 68 77 60 68 86 69 79 85 69 79 85 69 79 85 69 79 85 69 79 85 69 79 85 69 79 85 69 79 75 59 69 75 59 69 75 59 69 75 59 69 75 59 69 75 59 69 75 59 69 73 60 69 65 55 63 62 55 62 59 52 59 56 49 56 53 46 53 49 42 49 47 40 47 46 39 46 32 25 32 31 24 31 29 22 29 25 18 25 22 15 22 19 12 19 16 9 16 14 9 15 13 10 17 11 10 16 8 7 13 5 4 10 2 1 7 0 0 5 0 0 5 0 0 5 0 0 5 2 1 7 4 3 9 7 6 12 11 10 16 14 13 19 16 15 21 17 18 22 20 21 25 20 24 25 22 26 27 25 29 30 29 33 34 32 36 37 34 38 39 36 40 41 55 59 60 57 61 62 59 63 64 62 66 67 66 70 71 69 73 74 71 75 76 75 77 76 85 85 85 84 83 81 79 78 76 72 71 69 66 65 63 59 58 56 54 53 51 52 51 49 39 38 36 39 38 36 39 38 36 39 38 36 39 38 36 39 38 36 39 38 36 39 38 36 37 35 36 37 35 36 37 35 36 37 35 36 37 35 36 37 35 36 37 35 36 37 35 36 37 35 36 37 35 36 37 35 36 37 35 36 37 35 36 37 35 36 37 35 36 37 35 36
0 0 0 0 0 0 0 0 0 0 0 0 0 0 0 0 0 0 0 0 0 0 0 0 0 0 0 0 0 0 0 0 0 1 0 0 13 2 8 21 8 15 35 22 29 52 39 46 70 57 64 87 74 81 101 88 95 108 95 102 124 111 118 126 113 120 128 115 122 131 118 125 135 122 129 138 125 132 140 127 134 144 129 136 143 123 134 144 122 134 144 122 134 144 122 134 144 122 134 144 122 134 144 122 134 144 122 134 141 119 131 141 119 131 141 119 131 141 119 131 141 119 131 141 119 131 141 119 131 141 120 129 144 123 132 144 123 130 144 123 130 144 123 130 144 123 130 144 123 130 144 123 130 144 123 130 149 128 135 147 126 133 145 124 131 142 121 128 138 117 124 135 114 121 133 112 119 131 110 117 116 96 105 114 94 103 109 89 98 102 82 91 96 76 85 89 69 78 84 64 73 82 62 71 77 57 66 77 57 66 77 57 66 77 57 66 77 57 66 77 57 66 77 57 66 75 58 66 84 67 77 83 67 77 83 67 77 83 67 77 83 67 77 83 67 77 83 67 77 83 67 77 76 60 70 75 59 69 72 56 66 69 53 63 66 50 60 62 46 56 60 44 54 57 44 53 39 29 37 37 30 37 37 30 37 37 30 37 37 30 37 37 30 37 37 30 37 37 30 37 28 21 28 26 19 26 24 17 24 21 14 21 17 10 17 14 7 14 12 5 12 9 4 10 3 0 7 2 1 7 2 1 7 2 1 7 2 1 7 2 1 7 2 1 7 2 1 7 0 0 5 1 0 6 3 2 8 6 5 11 10 9 15 13 12 18 15 14 20 16 17 21 23 24 28 23 27 28 25 29 30 28 32 33 32 36 37 35 39 40 37 41 42 39 43 44 43 47 48 45 49 50 47 51 52 50 54 55 54 58 59 57 61 62 59 63 64 63 65 64 65 65 65 64 63 61 62 61 59 59 58 56 55 54 52 52 51 49 50 49 47 48 47 45 34 33 31 34 33 31 34 33 31 34 33 31 34 33 31 34 33 31 34 33 31 34 33 31 33 31 32 33 31 32 33 31 32 33 31 32 33 31 32 33 31 32 33 31 32 33 31 32 35 33 34 35 33 34 35 33 34 35 33 34 35 33 34 35 33 34 35 33 34 35 33 34
0 0 0 0 0 0 0 0 0 0 0 0 0 0 0 0 0 0 0 0 0 0 0 0 0 0 0 0 0 0 0 0 0 1 0 0 19 8 14 27 14 21 40 27 34 56 43 50 74 61 68 90 77 84 103 90 97 110 97 104 124 111 118 126 113 120 128 115 122 131 118 125 135 122 129 138 125 132 140 127 134 144 129 136 143 123 134 144 122 134 144 122 134 144 122 134 144 122 134 144 122 134 144 122 134 144 122 134 141 119 131 141 119 131 141 119 131 141 119 131 141 119 131 141 119 131 141 119 131 141 120 129 144 123 132 144 123 130 144 123 130 144 123 130 144 123 130 144 123 130 144 123 130 144 123 130 149 128 135 147 126 133 145 124 131 142 121 128 138 117 124 135 114 121 133 112 119 131 110 117 116 96 105 114 94 103 109 89 98 102 82 91 96 76 85 89 69 78 84 64 73 82 62 71 75 55 64 75 55 64 75 55 64 75 55 64 75 55 64 75 55 64 75 55 64 73 56 64 82 65 75 81 65 75 81 65 75 81 65 75 81 65 75 81 65 75 81 65 75 81 65 75 73 57 67 72 56 66 70 54 64 66 50 60 63 47 57 60 44 54 57 41 51 54 41 50 39 29 37 37 30 37 37 30 37 37 30 37 37 30 37 37 30 37 37 30 37 37 30 37 28 21 28 26 19 26 24 17 24 21 14 21 17 10 17 14 7 14 12 5 12 9 4 10 3 0 7 2 1 7 2 1 7 2 1 7 2 1 7 2 1 7 2 1 7 2 1 7 0 0 5 1 0 6 3 2 8 6 5 11 10 9 15 13 12 18 15 14 20 16 17 21 23 24 28 23 27 28 25 29 30 28 32 33 32 36 37 35 39 40 37 41 42 39 43 44 43 47 48 45 49 50 47 51 52 50 54 55 54 58 59 57 61 62 59 63 64 63 65 64 65 65 65 64 63 61 62 61 59 59 58 56 55 54 52 52 51 49 50 49 47 48 47 45 34 33 31 34 33 31 34 33 31 34 33 31 34 33 31 34 33 31 34 33 31 34 33 31 33 31 32 33 31 32 33 31 32 33 31 32 33 31 32 33 31 32 33 31 32 33 31 32 35 33 34 35 33 34 35 33 34 35 33 34 35 33 34 35 33 34 35 33 34 35 33 34
0 0 0 0 0 0 0 0 0 0 0 0 0 0 0 0 0 0 0 0 0 0 0 0 0 0 0 1 1 1 2 2 2 3 1 2 30 19 25 37 24 31 49 36 43 64 51 58 81 68 75 96 83 90 107 94 101 114 101 108 124 111 118 126 113 120 128 115 122 131 118 125 135 122 129 138 125 132 140 127 134 144 129 136 143 123 134 144 122 134 144 122 134 144 122 134 144 122 134 144 122 134 144 122 134 144 122 134 141 119 131 141 119 131 141 119 131 141 119 131 141 119 131 141 119 131 141 119 131 141 120 129 144 123 132 144 123 130 144 123 130 144 123 130 144 123 130 144 123 130 144 123 130 144 123 130 149 128 135 147 126 133 145 124 131 142 121 128 138 117 124 135 114 121 133 112 119 131 110 117 116 96 105 114 94 103 109 89 98 102 82 91 96 76 85 89 69 78 84 64 73 82 62 71 73 53 62 73 53 62 73 53 62 73 53 62 73 53 62 73 53 62 73 53 62 71 54 62 77 60 70 76 60 70 76 60 70 76 60 70 76 60 70 76 60 70 76 60 70 76 60 70 68 52 62 67 51 61 65 49 59 62 46 56 58 42 52 55 39 49 52 36 46 49 36 45 39 29 37 37 30 37 37 30 37 37 30 37 37 30 37 37 30 37 37 30 37 37 30 37 28 21 28 26 19 26 24 17 24 21 14 21 17 10 17 14 7 14 12 5 12 9 4 10 3 0 7 2 1 7 2 1 7 2 1 7 2 1 7 2 1 7 2 1 7 2 1 7 0 0 5 1 0 6 3 2 8 6 5 11 10 9 15 13 12 18 15 14 20 16 17 21 23 24 28 23 27 28 25 29 30 28 32 33 32 36 37 35 39 40 37 41 42 39 43 44 43 47 48 45 49 50 47 51 52 50 54 55 54 58 59 57 61 62 59 63 64 63 65 64 65 65 65 64 63 61 62 61 59 59 58 56 55 54 52 52 51 49 50 49 47 48 47 45 34 33 31 34 33 31 34 33 31 34 33 31 34 33 31 34 33 31 34 33 31 34 33 31 33 31 32 33 31 32 33 31 32 33 31 32 33 31 32 33 31 32 33 31 32 33 31 32 35 33 34 35 33 34 35 33 34 35 33 34 35 33 34 35 33 34 35 33 34 35 33 34
0 0 0 0 0 0 0 0 0 0 0 0 0 0 0 0 0 0 0 0 0 2 2 2 5 5 5 7 7 7 9 9 9 11 9 10 44 33 39 50 37 44 61 48 55 74 61 68 89 76 83 103 90 97 113 100 107 119 106 113 124 111 118 126 113 120 128 115 122 131 118 125 135 122 129 138 125 132 140 127 134 144 129 136 143 123 134 144 122 134 144 122 134 144 122 134 144 122 134 144 122 134 144 122 134 144 122 134 141 119 131 141 119 131 141 119 131 141 119 131 141 119 131 141 119 131 141 119 131 141 120 129 144 123 132 144 123 130 144 123 130 144 123 130 144 123 130 144 123 130 144 123 130 144 123 130 149 128 135 147 126 133 145 124 131 142 121 128 138 117 124 135 114 121 133 112 119 131 110 117 116 96 105 114 94 103 109 89 98 102 82 91 96 76 85 89 69 78 84 64 73 82 62 71 70 50 59 70 50 59 70 50 59 70 50 59 70 50 59 70 50 59 70 50 59 68 51 59 70 53 63 69 53 63 69 53 63 69 53 63 69 53 63 69 53 63 69 53 63 69 53 63 62 46 56 61 45 55 58 42 52 55 39 49 52 36 46 49 33 43 46 30 40 43 30 39 39 29 37 37 30 37 37 30 37 37 30 37 37 30 37 37 30 37 37 30 37 37 30 37 28 21 28 26 19 26 24 17 24 21 14 21 17 10 17 14 7 14 12 5 12 9 4 10 3 0 7 2 1 7 2 1 7 2 1 7 2 1 7 2 1 7 2 1 7 2 1 7 0 0 5 1 0 6 3 2 8 6 5 11 10 9 15 13 12 18 15 14 20 16 17 21 23 24 28 23 27 28 25 29 30 28 32 33 32 36 37 35 39 40 37 41 42 39 43 44 43 47 48 45 49 50 47 51 52 50 54 55 54 58 59 57 61 62 59 63 64 63 65 64 65 65 65 64 63 61 62 61 59 59 58 56 55 54 52 52 51 49 50 49 47 48 47 45 34 33 31 34 33 31 34 33 31 34 33 31 34 33 31 34 33 31 34 33 31 34 33 31 33 31 32 33 31 32 33 31 32 33 31 32 33 31 32 33 31 32 33 31 32 33 31 32 35 33 34 35 33 34 35 33 34 35 33 34 35 33 34 35 33 34 35 33 34 35 33 34
0 0 0 0 0 0 0 0 0 0 0 0 0 0 0 0 0 0 0 0 0 5 5 5 9 9 9 13 13 13 16 16 16 19 17 18 59 48 54 65 52 59 74 61 68 86 73 80 99 86 93 110 97 104 120 107 114 124 111 118 124 111 118 126 113 120 128 115 122 131 118 125 135 122 129 138 125 132 140 127 134 144 129 136 143 123 134 144 122 134 144 122 134 144 122 134 144 122 134 144 122 134 144 122 134 144 122 134 141 119 131 141 119 131 141 119 131 141 119 131 141 119 131 141 119 131 141 119 131 141 120 129 144 123 132 144 123 130 144 123 130 144 123 130 144 123 130 144 123 130 144 123 130 144 123 130 149 128 135 147 126 133 145 124 131 142 121 128 138 117 124 135 114 121 133 112 119 131 110 117 116 96 105 114 94 103 109 89 98 102 82 91 96 76 85 89 69 78 84 64 73 82 62 71 66 46 55 66 46 55 66 46 55 66 46 55 66 46 55 66 46 55 66 46 55 64 47 55 64 47 57 63 47 57 63 47 57 63 47 57 63 47 57 63 47 57 63 47 57 63 47 57 55 39 49 54 38 48 51 35 45 48 32 42 45 29 39 42 26 36 39 23 33 36 23 32 39 29 37 37 30 37 37 30 37 37 30 37 37 30 37 37 30 37 37 30 37 37 30 37 28 21 28 26 19 26 24 17 24 21 14 21 17 10 17 14 7 14 12 5 12 9 4 10 3 0 7 2 1 7 2 1 7 2 1 7 2 1 7 2 1 7 2 1 7 2 1 7 0 0 5 1 0 6 3 2 8 6 5 11 10 9 15 13 12 18 15 14 20 16 17 21 23 24 28 23 27 28 25 29 30 28 32 33 32 36 37 35 39 40 37 41 42 39 43 44 43 47 48 45 49 50 47 51 52 50 54 55 54 58 59 57 61 62 59 63 64 63 65 64 65 65 65 64 63 61 62 61 59 59 58 56 55 54 52 52 51 49 50 49 47 48 47 45 34 33 31 34 33 31 34 33 31 34 33 31 34 33 31 34 33 31 34 33 31 34 33 31 33 31 32 33 31 32 33 31 32 33 31 32 33 31 32 33 31 32 33 31 32 33 31 32 35 33 34 35 33 34 35 33 34 35 33 34 35 33 34 35 33 34 35 33 34 35 33 34
0 0 0 0 0 0 0 0 0 0 0 0 0 0 0 0 0 0 1 1 1 7 7 7 13 13 13 19 19 19 23 23 23 26 24 25 73 62 68 78 65 72 86 73 80 96 83 90 107 94 101 118 105 112 125 112 119 130 117 124 124 111 118 126 113 120 128 115 122 131 118 125 135 122 129 138 125 132 140 127 134 144 129 136 143 123 134 144 122 134 144 122 134 144 122 134 144 122 134 144 122 134 144 122 134 144 122 134 141 119 131 141 119 131 141 119 131 141 119 131 141 119 131 141 119 131 141 119 131 141 120 129 144 123 132 144 123 130 144 123 130 144 123 130 144 123 130 144 123 130 144 123 130 144 123 130 149 128 135 147 126 133 145 124 131 142 121 128 138 117 124 135 114 121 133 112 119 131 110 117 116 96 105 114 94 103 109 89 98 102 82 91 96 76 85 89 69 78 84 64 73 82 62 71 63 43 52 63 43 52 63 43 52 63 43 52 63 43 52 63 43 52 63 43 52 61 44 52 57 40 50 56 40 50 56 40 50 56 40 50 56 40 50 56 40 50 56 40 50 56 40 50 49 33 43 48 32 42 45 29 39 42 26 36 38 22 32 35 19 29 33 17 27 30 17 26 39 29 37 37 30 37 37 30 37 37 30 37 37 30 37 37 30 37 37 30 37 37 30 37 28 21 28 26 19 26 24 17 24 21 14 21 17 10 17 14 7 14 12 5 12 9 4 10 3 0 7 2 1 7 2 1 7 2 1 7 2 1 7 2 1 7 2 1 7 2 1 7 0 0 5 1 0 6 3 2 8 6 5 11 10 9 15 13 12 18 15 14 20 16 17 21 23 24 28 23 27 28 25 29 30 28 32 33 32 36 37 35 39 40 37 41 42 39 43 44 43 47 48 45 49 50 47 51 52 50 54 55 54 58 59 57 61 62 59 63 64 63 65 64 65 65 65 64 63 61 62 61 59 59 58 56 55 54 52 52 51 49 50 49 47 48 47 45 34 33 31 34 33 31 34 33 31 34 33 31 34 33 31 34 33 31 34 33 31 34 33 31 33 31 32 33 31 32 33 31 32 33 31 32 33 31 32 33 31 32 33 31 32 33 31 32 35 33 34 35 33 34 35 33 34 35 33 34 35 33 34 35 33 34 35 33 34 35 33 34
0 0 0 0 0 0 0 0 0 0 0 0 0 0 0 0 0 0 2 2 2 9 9 9 16 16 16 23 23 23 28 28 28 32 30 31 84 73 79 88 75 82 95 82 89 104 91 98 114 101 108 123 110 117 130 117 124 134 121 128 124 111 118 126 113 120 128 115 122 131 118 125 135 122 129 138 125 132 140 127 134 144 129 136 143 123 134 144 122 134 144 122 134 144 122 134 144 122 134 144 122 134 144 122 134 144 122 134 141 119 131 141 119 131 141 119 131 141 119 131 141 119 131 141 119 131 141 119 131 141 120 129 144 123 132 144 123 130 144 123 130 144 123 130 144 123 130 144 123 130 144 123 130 144 123 130 149 128 135 147 126 133 145 124 131 142 121 128 138 117 124 135 114 121 133 112 119 131 110 117 116 96 105 114 94 103 109 89 98 102 82 91 96 76 85 89 69 78 84 64 73 82 62 71 61 41 50 61 41 50 61 41 50 61 41 50 61 41 50 61 41 50 61 41 50 59 42 50 52 35 45 51 35 45 51 35 45 51 35 45 51 35 45 51 35 45 51 35 45 51 35 45 44 28 38 43 27 37 40 24 34 37 21 31 34 18 28 30 14 24 28 12 22 25 12 21 39 29 37 37 30 37 37 30 37 37 30 37 37 30 37 37 30 37 37 30 37 37 30 37 28 21 28 26 19 26 24 17 24 21 14 21 17 10 17 14 7 14 12 5 12 9 4 10 3 0 7 2 1 7 2 1 7 2 1 7 2 1 7 2 1 7 2 1 7 2 1 7 0 0 5 1 0 6 3 2 8 6 5 11 10 9 15 13 12 18 15 14 20 16 17 21 23 24 28 23 27 28 25 29 30 28 32 33 32 36 37 35 39 40 37 41 42 39 43 44 43 47 48 45 49 50 47 51 52 50 54 55 54 58 59 57 61 62 59 63 64 63 65 64 65 65 65 64 63 61 62 61 59 59 58 56 55 54 52 52 51 49 50 49 47 48 47 45 34 33 31 34 33 31 34 33 31 34 33 31 34 33 31 34 33 31 34 33 31 34 33 31 33 31 32 33 31 32 33 31 32 33 31 32 33 31 32 33 31 32 33 31 32 33 31 32 35 33 34 35 33 34 35 33 34 35 33 34 35 33 34 35 33 34 35 33 34 35 33 34
1 0 0 1 0 0 1 0 0 1 0 0 1 0 0 1 0 0 3 1 2 11 9 10 19 17 18 26 24 25 32 30 31 38 32 34 90 77 84 96 81 88 102 87 94 110 95 102 120 105 112 128 113 120 134 119 126 138 123 130 126 111 118 128 113 120 130 115 122 133 118 125 137 122 129 140 125 132 142 127 134 145 128 136 144 122 134 144 122 134 145 121 134 144 122 134 145 121 134 144 122 134 145 121 134 144 122 134 142 118 131 141 119 131 142 118 131 141 119 131 142 118 131 141 119 131 142 118 131 141 119 131 144 123 132 144 123 130 144 123 130 144 123 130 144 123 130 144 123 130 144 123 130 144 123 130 149 128 135 147 126 133 145 124 131 142 121 128 138 117 124 135 114 121 133 112 119 130 111 117 114 97 105 111 96 103 106 91 98 99 84 91 93 78 85 86 71 78 81 66 73 79 64 71 56 41 48 56 41 48 56 41 48 56 41 48 56 41 48 56 41 48 56 41 48 56 41 48 46 35 43 46 35 43 46 35 43 46 35 43 46 35 43 46 35 43 46 35 43 46 35 43 38 27 35 37 26 34 35 24 32 31 20 28 28 17 25 25 14 22 22 11 19 20 10 18 36 31 37 34 32 37 36 31 37 34 32 37 36 31 37 34 32 37 36 31 37 34 32 37 27 22 28 23 21 26 23 18 24 18 16 21 16 11 17 11 9 14 11 6 12 7 5 10 2 1 7 1 2 7 2 1 7 1 2 7 2 1 7 1 2 7 2 1 7 1 2 7 0 0 5 0 1 6 3 2 8 5 6 11 10 9 15 12 13 18 15 14 20 16 17 21 21 25 26 23 27 28 25 29 30 28 32 33 32 36 37 35 39 40 37 41 42 39 43 44 43 47 48 45 49 50 47 51 52 50 54 55 54 58 59 57 61 62 59 63 64 63 65 64 65 65 65 64 63 61 62 61 59 59 58 56 55 54 52 52 51 49 50 49 47 48 47 45 34 33 31 34 33 31 34 33 31 34 33 31 34 33 31 34 33 31 34 33 31 34 33 31 33 32 30 33 32 30 35 31 30 33 32 30 35 31 30 33 32 30 35 31 30 33 32 30 37 33 32 35 34 32 37 33 32 35 34 32 37 33 32 35 34 32 37 33 32 35 34 32
6 0 2 6 0 2 6 0 2 6 0 2 10 1 6 16 7 12 25 16 21 38 29 34 52 43 48 65 56 61 74 65 70 81 70 76 122 105 115 126 106 117 128 108 119 131 111 122 135 115 126 138 118 129 140 120 131 142 122 133 140 120 131 140 120 131 140 120 131 140 120 131 140 120 131 140 120 131 140 120 131 141 119 131 154 130 144 153 129 143 152 125 140 147 123 137 146 119 134 140 116 130 140 113 128 137 113 127 152 125 140 148 124 138 146 119 134 140 116 130 137 110 125 131 107 121 129 102 117 126 102 115 137 116 125 138 118 127 140 120 129 143 123 132 147 127 136 150 130 139 152 132 141 154 134 143 152 132 141 150 130 139 148 128 137 145 125 134 141 121 130 138 118 127 136 116 125 132 115 123 116 105 109 110 101 104 100 91 94 88 79 82 74 65 68 61 52 55 51 42 45 46 37 40 58 49 52 57 48 51 54 45 48 51 42 45 48 39 42 44 35 38 42 33 36 39 33 37 30 28 33 27 26 32 24 23 29 19 18 24 15 14 20 10 9 15 7 6 12 5 4 10 7 6 12 10 9 15 16 15 21 23 22 28 31 30 36 39 38 44 45 44 50 48 47 53 38 39 44 36 39 44 38 39 44 36 39 44 38 39 44 36 39 44 38 39 44 36 39 44 34 35 40 30 33 38 27 28 33 18 21 26 14 15 20 5 8 13 2 3 8 0 1 6 3 4 9 1 4 9 3 4 9 1 4 9 3 4 9 1 4 9 3 4 9 1 4 9 1 2 7 1 4 9 5 6 11 6 9 14 12 13 18 13 16 21 17 18 23 17 21 24 19 23 24 20 26 24 22 28 26 25 31 29 29 35 33 32 38 36 34 40 38 36 42 40 40 46 44 40 46 44 40 46 44 40 46 44 40 46 44 40 46 44 40 46 44 41 45 44 42 42 42 43 41 42 43 41 42 43 41 42 43 41 42 43 41 42 43 41 42 43 41 42 32 30 31 32 30 31 32 30 31 32 30 31 32 30 31 32 30 31 32 30 31 32 31 29 34 30 27 34 30 27 35 30 27 34 30 27 35 30 27 34 30 27 35 30 27 34 30 27 37 32 29 36 32 29 37 32 29 36 32 29 37 32 29 36 32 29 37 32 29 36 32 29
7 0 2 7 0 2 7 0 2 7 0 2 15 4 10 21 10 16 30 19 25 43 32 38 57 46 52 70 59 65 79 68 74 86 73 80 124 104 115 127 105 117 129 107 119 132 110 122 136 114 126 139 117 129 141 119 131 143 121 133 141 119 131 141 119 131 141 119 131 141 119 131 141 119 131 141 119 131 141 119 131 141 119 131 153 126 141 152 125 140 150 123 138 146 119 134 143 116 131 140 113 128 137 110 125 136 109 124 149 122 137 147 120 135 144 117 132 140 113 128 136 109 124 133 106 121 130 103 118 126 102 115 137 115 127 138 118 127 140 120 129 143 123 132 147 127 136 150 130 139 152 132 141 154 134 143 152 132 141 150 130 139 148 128 137 145 125 134 141 121 130 138 118 127 136 116 125 131 116 123 114 105 108 106 102 103 96 92 93 83 79 80 69 65 66 57 53 54 47 43 44 42 38 39 52 48 49 51 47 48 49 45 46 45 41 42 42 38 39 39 35 36 36 32 33 33 31 34 26 27 31 23 26 31 20 23 28 16 19 24 12 15 20 8 11 16 5 8 13 4 7 12 7 10 15 10 13 18 15 18 23 22 25 30 29 32 37 36 39 44 42 45 50 45 48 53 35 40 44 35 40 44 35 40 44 35 40 44 35 40 44 35 40 44 35 40 44 35 40 44 31 36 40 29 34 38 24 29 33 17 22 26 11 16 20 4 9 13 0 4 8 0 2 6 1 4 9 1 4 9 1 4 9 1 4 9 1 4 9 1 4 9 1 4 9 1 4 9 0 2 7 1 4 9 3 6 11 6 9 14 10 13 18 13 16 21 15 18 23 17 21 24 18 24 24 20 26 24 22 28 26 25 31 29 29 35 33 32 38 36 34 40 38 36 42 40 40 46 44 40 46 44 40 46 44 40 46 44 40 46 44 40 46 44 40 46 44 41 45 44 42 42 42 43 41 42 43 41 42 43 41 42 43 41 42 43 41 42 43 41 42 43 41 42 32 30 31 32 30 31 32 30 31 32 30 31 32 30 31 32 30 31 32 30 31 32 31 29 35 30 27 35 30 26 35 30 26 35 30 26 35 30 26 35 30 26 35 30 26 35 30 26 37 32 28 37 32 28 37 32 28 37 32 28 37 32 28 37 32 28 37 32 28 37 32 28
7 0 2 7 0 2 8 0 3 8 0 3 23 12 18 28 17 23 38 27 33 50 39 45 64 53 59 77 66 72 87 76 82 93 80 87 124 104 115 127 105 117 129 107 119 132 110 122 136 114 126 139 117 129 141 119 131 143 121 133 141 119 131 141 119 131 141 119 131 141 119 131 141 119 131 141 119 131 141 119 131 141 119 131 148 121 136 147 120 135 145 118 133 142 115 130 138 111 126 135 108 123 132 105 120 131 104 119 143 116 131 142 115 130 140 113 128 137 110 125 135 108 123 132 105 120 130 103 118 127 103 116 137 115 127 138 118 127 140 120 129 143 123 132 147 127 136 150 130 139 152 132 141 154 134 143 152 132 141 150 130 139 148 128 137 145 125 134 141 121 130 138 118 127 136 116 125 131 116 123 112 103 106 103 99 100 94 90 91 81 77 78 67 63 64 54 50 51 45 41 42 39 35 36 47 43 44 46 42 43 44 40 41 41 37 38 37 33 34 34 30 31 31 27 28 28 26 29 23 24 28 20 23 28 18 21 26 15 18 23 13 16 21 10 13 18 8 11 16 7 10 15 13 16 21 15 18 23 19 22 27 25 28 33 31 34 39 37 40 45 41 44 49 44 47 52 35 40 44 35 40 44 35 40 44 35 40 44 35 40 44 35 40 44 35 40 44 35 40 44 31 36 40 29 34 38 24 29 33 17 22 26 11 16 20 4 9 13 0 4 8 0 2 6 1 4 9 1 4 9 1 4 9 1 4 9 1 4 9 1 4 9 1 4 9 1 4 9 0 2 7 1 4 9 3 6 11 6 9 14 10 13 18 13 16 21 15 18 23 17 21 24 18 24 24 20 26 24 22 28 26 25 31 29 29 35 33 32 38 36 34 40 38 36 42 40 40 46 44 40 46 44 40 46 44 40 46 44 40 46 44 40 46 44 40 46 44 41 45 44 42 42 42 43 41 42 43 41 42 43 41 42 43 41 42 43 41 42 43 41 42 43 41 42 32 30 31 32 30 31 32 30 31 32 30 31 32 30 31 32 30 31 32 30 31 32 31 29 35 30 27 35 30 26 35 30 26 35 30 26 35 30 26 35 30 26 35 30 26 35 30 26 37 32 28 37 32 28 37 32 28 37 32 28 37 32 28 37 32 28 37 32 28 37 32 28
11 0 6 13 2 8 15 4 10 16 5 11 32 21 27 37 26 32 47 36 42 60 49 55 74 63 69 86 75 81 96 85 91 102 89 96 124 104 115 127 105 117 129 107 119 132 110 122 136 114 126 139 117 129 141 119 131 143 121 133 141 119 131 141 119 131 141 119 131 141 119 131 141 119 131 141 119 131 141 119 131 141 119 131 142 115 130 141 114 129 138 111 126 135 108 123 132 105 120 129 102 117 126 99 114 125 98 113 135 108 123 135 108 123 134 107 122 133 106 121 132 105 120 131 104 119 131 104 119 128 104 117 137 115 127 138 118 127 140 120 129 143 123 132 147 127 136 150 130 139 152 132 141 154 134 143 152 132 141 150 130 139 148 128 137 145 125 134 141 121 130 138 118 127 136 116 125 131 116 123 108 99 102 100 96 97 90 86 87 78 74 75 64 60 61 51 47 48 41 37 38 36 32 33 41 37 38 40 36 37 37 33 34 34 30 31 31 27 28 28 24 25 25 21 22 22 20 23 18 19 23 16 19 24 15 18 23 14 17 22 14 17 22 13 16 21 12 15 20 12 15 20 20 23 28 22 25 30 25 28 33 29 32 37 33 36 41 38 41 46 41 44 49 42 45 50 35 40 44 35 40 44 35 40 44 35 40 44 35 40 44 35 40 44 35 40 44 35 40 44 31 36 40 29 34 38 24 29 33 17 22 26 11 16 20 4 9 13 0 4 8 0 2 6 1 4 9 1 4 9 1 4 9 1 4 9 1 4 9 1 4 9 1 4 9 1 4 9 0 2 7 1 4 9 3 6 11 6 9 14 10 13 18 13 16 21 15 18 23 17 21 24 18 24 24 20 26 24 22 28 26 25 31 29 29 35 33 32 38 36 34 40 38 36 42 40 40 46 44 40 46 44 40 46 44 40 46 44 40 46 44 40 46 44 40 46 44 41 45 44 42 42 42 43 41 42 43 41 42 43 41 42 43 41 42 43 41 42 43 41 42 43 41 42 32 30 31 32 30 31 32 30 31 32 30 31 32 30 31 32 30 31 32 30 31 32 31 29 35 30 27 35 30 26 35 30 26 35 30 26 35 30 26 35 30 26 35 30 26 35 30 26 37 32 28 37 32 28 37 32 28 37 32 28 37 32 28 37 32 28 37 32 28 37 32 28
15 4 10 19 8 14 22 11 17 24 13 19 43 32 38 48 37 43 58 47 53 70 59 65 84 73 79 97 86 92 107 96 102 113 100 107 124 104 115 127 105 117 129 107 119 132 110 122 136 114 126 139 117 129 141 119 131 143 121 133 141 119 131 141 119 131 141 119 131 141 119 131 141 119 131 141 119 131 141 119 131 141 119 131 135 108 123 134 107 122 131 104 119 128 101 116 125 98 113 122 95 110 119 92 107 118 91 106 127 100 115 127 100 115 128 101 116 129 102 117 130 103 118 131 104 119 131 104 119 130 106 119 137 115 127 138 118 127 140 120 129 143 123 132 147 127 136 150 130 139 152 132 141 154 134 143 152 132 141 150 130 139 148 128 137 145 125 134 141 121 130 138 118 127 136 116 125 131 116 123 105 96 99 97 93 94 87 83 84 74 70 71 60 56 57 48 44 45 38 34 35 33 29 30 34 30 31 33 29 30 30 26 27 27 23 24 24 20 21 21 17 18 18 14 15 15 13 16 14 15 19 12 15 20 13 16 21 14 17 22 14 17 22 15 18 23 16 19 24 16 19 24 28 31 36 29 32 37 31 34 39 33 36 41 36 39 44 38 41 46 40 43 48 41 44 49 35 40 44 35 40 44 35 40 44 35 40 44 35 40 44 35 40 44 35 40 44 35 40 44 31 36 40 29 34 38 24 29 33 17 22 26 11 16 20 4 9 13 0 4 8 0 2 6 1 4 9 1 4 9 1 4 9 1 4 9 1 4 9 1 4 9 1 4 9 1 4 9 0 2 7 1 4 9 3 6 11 6 9 14 10 13 18 13 16 21 15 18 23 17 21 24 18 24 24 20 26 24 22 28 26 25 31 29 29 35 33 32 38 36 34 40 38 36 42 40 40 46 44 40 46 44 40 46 44 40 46 44 40 46 44 40 46 44 40 46 44 41 45 44 42 42 42 43 41 42 43 41 42 43 41 42 43 41 42 43 41 42 43 41 42 43 41 42 32 30 31 32 30 31 32 30 31 32 30 31 32 30 31 32 30 31 32 30 31 32 31 29 35 30 27 35 30 26 35 30 26 35 30 26 35 30 26 35 30 26 35 30 26 35 30 26 37 32 28 37 32 28 37 32 28 37 32 28 37 32 28 37 32 28 37 32 28 37 32 28
19 8 14 25 14 20 29 18 24 31 20 26 52 41 47 57 46 52 67 56 62 80 69 75 94 83 89 106 95 101 116 105 111 122 109 116 124 104 115 127 105 117 129 107 119 132 110 122 136 114 126 139 117 129 141 119 131 143 121 133 141 119 131 141 119 131 141 119 131 141 119 131 141 119 131 141 119 131 141 119 131 141 119 131 129 102 117 128 101 116 125 98 113 122 95 110 118 91 106 115 88 103 113 86 101 112 85 100 119 92 107 120 93 108 122 95 110 125 98 113 127 100 115 130 103 118 132 105 120 131 107 120 137 115 127 138 118 127 140 120 129 143 123 132 147 127 136 150 130 139 152 132 141 154 134 143 152 132 141 150 130 139 148 128 137 145 125 134 141 121 130 138 118 127 136 116 125 131 116 123 102 93 96 93 89 90 84 80 81 71 67 68 57 53 54 44 40 41 35 31 32 29 25 26 28 24 25 27 23 24 24 20 21 21 17 18 17 13 14 14 10 11 12 8 9 9 7 10 9 10 14 8 11 16 10 13 18 13 16 21 15 18 23 18 21 26 20 23 28 21 24 29 36 39 44 36 39 44 37 40 45 38 41 46 38 41 46 39 42 47 39 42 47 40 43 48 35 40 44 35 40 44 35 40 44 35 40 44 35 40 44 35 40 44 35 40 44 35 40 44 31 36 40 29 34 38 24 29 33 17 22 26 11 16 20 4 9 13 0 4 8 0 2 6 1 4 9 1 4 9 1 4 9 1 4 9 1 4 9 1 4 9 1 4 9 1 4 9 0 2 7 1 4 9 3 6 11 6 9 14 10 13 18 13 16 21 15 18 23 17 21 24 18 24 24 20 26 24 22 28 26 25 31 29 29 35 33 32 38 36 34 40 38 36 42 40 40 46 44 40 46 44 40 46 44 40 46 44 40 46 44 40 46 44 40 46 44 41 45 44 42 42 42 43 41 42 43 41 42 43 41 42 43 41 42 43 41 42 43 41 42 43 41 42 32 30 31 32 30 31 32 30 31 32 30 31 32 30 31 32 30 31 32 30 31 32 31 29 35 30 27 35 30 26 35 30 26 35 30 26 35 30 26 35 30 26 35 30 26 35 30 26 37 32 28 37 32 28 37 32 28 37 32 28 37 32 28 37 32 28 37 32 28 37 32 28
22 11 17 29 18 24 34 23 29 37 26 32 59 48 54 65 54 60 74 63 69 87 76 82 101 90 96 114 103 109 123 112 118 130 117 124 124 104 115 127 105 117 129 107 119 132 110 122 136 114 126 139 117 129 141 119 131 143 121 133 141 119 131 141 119 131 141 119 131 141 119 131 141 119 131 141 119 131 141 119 131 141 119 131 124 97 112 123 96 111 120 93 108 117 90 105 114 87 102 110 83 98 108 81 96 107 80 95 113 86 101 115 88 103 118 91 106 122 95 110 126 99 114 129 102 117 132 105 120 132 108 121 137 115 127 138 118 127 140 120 129 143 123 132 147 127 136 150 130 139 152 132 141 154 134 143 152 132 141 150 130 139 148 128 137 145 125 134 141 121 130 138 118 127 136 116 125 131 116 123 99 90 93 91 87 88 81 77 78 69 65 66 55 51 52 42 38 39 32 28 29 27 23 24 23 19 20 22 18 19 19 15 16 16 12 13 13 9 10 9 5 6 7 3 4 4 2 5 6 7 11 5 8 13 8 11 16 12 15 20 16 19 24 20 23 28 23 26 31 24 27 32 42 45 50 42 45 50 41 44 49 41 44 49 40 43 48 39 42 47 39 42 47 39 42 47 35 40 44 35 40 44 35 40 44 35 40 44 35 40 44 35 40 44 35 40 44 35 40 44 31 36 40 29 34 38 24 29 33 17 22 26 11 16 20 4 9 13 0 4 8 0 2 6 1 4 9 1 4 9 1 4 9 1 4 9 1 4 9 1 4 9 1 4 9 1 4 9 0 2 7 1 4 9 3 6 11 6 9 14 10 13 18 13 16 21 15 18 23 17 21 24 18 24 24 20 26 24 22 28 26 25 31 29 29 35 33 32 38 36 34 40 38 36 42 40 40 46 44 40 46 44 40 46 44 40 46 44 40 46 44 40 46 44 40 46 44 41 45 44 42 42 42 43 41 42 43 41 42 43 41 42 43 41 42 43 41 42 43 41 42 43 41 42 32 30 31 32 30 31 32 30 31 32 30 31 32 30 31 32 30 31 32 30 31 32 31 29 35 30 27 35 30 26 35 30 26 35 30 26 35 30 26 35 30 26 35 30 26 35 30 26 37 32 28 37 32 28 37 32 28 37 32 28 37 32 28 37 32 28 37 32 28 37 32 28
24 13 19 31 20 26 37 26 32 40 29 35 63 52 58 69 58 64 78 67 73 91 80 86 105 94 100 118 107 113 127 116 122 134 121 128 124 104 115 127 105 117 129 107 119 132 110 122 136 114 126 139 117 129 141 119 131 143 121 133 141 119 131 141 119 131 141 119 131 141 119 131 141 119 131 141 119 131 141 119 131 141 119 131 121 94 109 120 93 108 118 91 106 114 87 102 111 84 99 108 81 96 105 78 93 104 77 92 110 83 98 112 85 100 116 89 104 120 93 108 125 98 113 129 102 117 133 106 121 132 108 121 137 115 127 138 118 127 140 120 129 143 123 132 147 127 136 150 130 139 152 132 141 154 134 143 152 132 141 150 130 139 148 128 137 145 125 134 141 121 130 138 118 127 136 116 125 131 116 123 98 89 92 90 86 87 80 76 77 67 63 64 53 49 50 41 37 38 31 27 28 26 22 23 20 16 17 19 15 16 17 13 14 13 9 10 10 6 7 7 3 4 4 0 1 1 0 2 4 5 9 4 7 12 7 10 15 12 15 20 16 19 24 21 24 29 24 27 32 26 29 34 45 48 53 44 47 52 44 47 52 42 45 50 41 44 49 40 43 48 39 42 47 38 41 46 35 40 44 35 40 44 35 40 44 35 40 44 35 40 44 35 40 44 35 40 44 35 40 44 31 36 40 29 34 38 24 29 33 17 22 26 11 16 20 4 9 13 0 4 8 0 2 6 1 4 9 1 4 9 1 4 9 1 4 9 1 4 9 1 4 9 1 4 9 1 4 9 0 2 7 1 4 9 3 6 11 6 9 14 10 13 18 13 16 21 15 18 23 17 21 24 18 24 24 20 26 24 22 28 26 25 31 29 29 35 33 32 38 36 34 40 38 36 42 40 40 46 44 40 46 44 40 46 44 40 46 44 40 46 44 40 46 44 40 46 44 41 45 44 42 42 42 43 41 42 43 41 42 43 41 42 43 41 42 43 41 42 43 41 42 43 41 42 32 30 31 32 30 31 32 30 31 32 30 31 32 30 31 32 30 31 32 30 31 32 31 29 35 30 27 35 30 26 35 30 26 35 30 26 35 30 26 35 30 26 35 30 26 35 30 26 37 32 28 37 32 28 37 32 28 37 32 28 37 32 28 37 32 28 37 32 28 37 32 28
34 23 29 47 36 42 56 45 51 62 51 57 100 89 95 101 90 96 103 92 98 107 96 102 110 99 105 113 102 108 116 105 111 118 105 112 122 102 113 125 103 115 128 106 118 133 111 123 137 115 127 142 120 132 145 123 135 147 125 137 154 132 144 151 129 141 147 125 137 140 118 130 133 111 123 127 105 117 122 100 112 119 97 109 113 86 101 113 86 101 112 85 100 111 84 99 109 82 97 108 81 96 107 80 95 107 80 95 124 97 112 126 99 114 128 101 116 131 104 119 135 108 123 138 111 126 140 113 128 140 116 129 148 126 138 147 127 136 147 127 136 147 127 136 147 127 136 147 127 136 147 127 136 147 127 136 149 129 138 147 127 136 145 125 134 142 122 131 138 118 127 135 115 124 133 113 122 128 113 120 104 95 98 88 84 85 67 63 64 44 40 41 26 22 23 14 10 11 9 5 6 8 4 5 14 10 11 14 10 11 14 10 11 14 10 11 14 10 11 14 10 11 14 10 11 12 10 13 20 21 25 19 22 27 21 24 29 25 28 33 28 31 36 31 34 39 34 37 42 35 38 43 45 48 53 45 48 53 45 48 53 45 48 53 45 48 53 45 48 53 45 48 53 45 48 53 36 41 45 36 41 45 36 41 45 36 41 45 36 41 45 36 41 45 36 41 45 36 41 45 23 28 32 21 26 30 19 24 28 16 21 25 12 17 21 9 14 18 7 12 16 5 10 14 2 5 10 2 5 10 2 5 10 2 5 10 2 5 10 2 5 10 2 5 10 2 5 10 2 5 10 4 7 12 6 9 14 9 12 17 13 16 21 16 19 24 18 21 26 20 24 27 24 30 30 24 30 28 24 30 28 24 30 28 24 30 28 24 30 28 24 30 28 24 30 28 29 35 33 29 35 33 29 35 33 29 35 33 29 35 33 29 35 33 29 35 33 30 34 33 31 31 31 32 30 31 32 30 31 32 30 31 32 30 31 32 30 31 32 30 31 32 30 31 32 30 31 32 30 31 32 30 31 32 30 31 32 30 31 32 30 31 32 30 31 32 31 29 36 31 28 36 31 27 36 31 27 36 31 27 36 31 27 36 31 27 36 31 27 36 31 27 36 31 27 36 31 27 36 31 27 36 31 27 36 31 27 36 31 27 36 31 27 36 31 27
38 27 33 51 40 46 60 49 55 66 55 61 101 90 96 102 91 97 105 94 100 108 97 103 111 100 106 115 104 110 117 106 112 119 106 113 124 104 115 126 104 116 129 107 119 133 111 123 137 115 127 141 119 131 144 122 134 145 123 135 149 127 139 146 124 136 141 119 131 135 113 125 128 106 118 122 100 112 117 95 107 114 92 104 116 89 104 116 89 104 115 88 103 115 88 103 114 87 102 113 86 101 113 86 101 113 86 101 124 97 112 126 99 114 128 101 116 131 104 119 135 108 123 138 111 126 140 113 128 140 116 129 148 126 138 147 127 136 147 127 136 147 127 136 147 127 136 147 127 136 147 127 136 147 127 136 149 129 138 147 127 136 145 125 134 142 122 131 138 118 127 135 115 124 133 113 122 128 113 120 101 92 95 85 81 82 65 61 62 43 39 40 25 21 22 14 10 11 9 5 6 8 4 5 14 10 11 14 10 11 14 10 11 14 10 11 14 10 11 14 10 11 14 10 11 12 10 13 21 22 26 20 23 28 23 26 31 26 29 34 29 32 37 33 36 41 35 38 43 36 39 44 45 48 53 45 48 53 45 48 53 45 48 53 45 48 53 45 48 53 45 48 53 45 48 53 36 41 45 36 41 45 36 41 45 36 41 45 36 41 45 36 41 45 36 41 45 36 41 45 23 28 32 21 26 30 19 24 28 16 21 25 12 17 21 9 14 18 7 12 16 5 10 14 2 5 10 2 5 10 2 5 10 2 5 10 2 5 10 2 5 10 2 5 10 2 5 10 2 5 10 4 7 12 6 9 14 9 12 17 13 16 21 16 19 24 18 21 26 20 24 27 24 30 30 24 30 28 24 30 28 24 30 28 24 30 28 24 30 28 24 30 28 24 30 28 29 35 33 29 35 33 29 35 33 29 35 33 29 35 33 29 35 33 29 35 33 30 34 33 31 31 31 32 30 31 32 30 31 32 30 31 32 30 31 32 30 31 32 30 31 32 30 31 32 30 31 32 30 31 32 30 31 32 30 31 32 30 31 32 30 31 32 30 31 32 31 29 36 31 28 36 31 27 36 31 27 36 31 27 36 31 27 36 31 27 36 31 27 36 31 27 36 31 27 36 31 27 36 31 27 36 31 27 36 31 27 36 31 27 36 31 27 36 31 27
45 34 40 58 47 53 68 57 63 73 62 68 103 92 98 105 94 100 107 96 102 110 99 105 114 103 109 117 106 112 119 108 114 122 109 116 127 107 118 129 107 119 131 109 121 134 112 124 136 114 126 139 117 129 141 119 131 142 120 132 139 117 129 136 114 126 131 109 121 125 103 115 118 96 108 112 90 102 107 85 97 104 82 94 118 91 106 118 91 106 119 92 107 120 93 108 120 93 108 121 94 109 121 94 109 122 95 110 124 97 112 126 99 114 128 101 116 131 104 119 135 108 123 138 111 126 140 113 128 140 116 129 148 126 138 147 127 136 147 127 136 147 127 136 147 127 136 147 127 136 147 127 136 147 127 136 149 129 138 147 127 136 145 125 134 142 122 131 138 118 127 135 115 124 133 113 122 128 113 120 95 86 89 80 76 77 60 56 57 40 36 37 23 19 20 13 9 10 10 6 7 9 5 6 14 10 11 14 10 11 14 10 11 14 10 11 14 10 11 14 10 11 14 10 11 12 10 13 23 24 28 23 26 31 25 28 33 28 31 36 32 35 40 35 38 43 37 40 45 39 42 47 45 48 53 45 48 53 45 48 53 45 48 53 45 48 53 45 48 53 45 48 53 45 48 53 36 41 45 36 41 45 36 41 45 36 41 45 36 41 45 36 41 45 36 41 45 36 41 45 23 28 32 21 26 30 19 24 28 16 21 25 12 17 21 9 14 18 7 12 16 5 10 14 2 5 10 2 5 10 2 5 10 2 5 10 2 5 10 2 5 10 2 5 10 2 5 10 2 5 10 4 7 12 6 9 14 9 12 17 13 16 21 16 19 24 18 21 26 20 24 27 24 30 30 24 30 28 24 30 28 24 30 28 24 30 28 24 30 28 24 30 28 24 30 28 29 35 33 29 35 33 29 35 33 29 35 33 29 35 33 29 35 33 29 35 33 30 34 33 31 31 31 32 30 31 32 30 31 32 30 31 32 30 31 32 30 31 32 30 31 32 30 31 32 30 31 32 30 31 32 30 31 32 30 31 32 30 31 32 30 31 32 30 31 32 31 29 36 31 28 36 31 27 36 31 27 36 31 27 36 31 27 36 31 27 36 31 27 36 31 27 36 31 27 36 31 27 36 31 27 36 31 27 36 31 27 36 31 27 36 31 27 36 31 27
55 44 50 67 56 62 77 66 72 82 71 77 107 96 102 108 97 103 110 99 105 114 103 109 117 106 112 120 109 115 123 112 118 125 112 119 132 112 123 133 111 123 134 112 124 135 113 125 135 113 125 136 114 126 137 115 127 137 115 127 126 104 116 124 102 114 119 97 109 112 90 102 105 83 95 99 77 89 94 72 84 92 70 82 116 89 104 117 90 105 119 92 107 121 94 109 124 97 112 126 99 114 128 101 116 129 102 117 124 97 112 126 99 114 128 101 116 131 104 119 135 108 123 138 111 126 140 113 128 140 116 129 148 126 138 147 127 136 147 127 136 147 127 136 147 127 136 147 127 136 147 127 136 147 127 136 149 129 138 147 127 136 145 125 134 142 122 131 138 118 127 135 115 124 133 113 122 128 113 120 87 78 81 73 69 70 55 51 52 35 31 32 21 17 18 13 9 10 10 6 7 10 6 7 14 10 11 14 10 11 14 10 11 14 10 11 14 10 11 14 10 11 14 10 11 12 10 13 27 28 32 26 29 34 28 31 36 32 35 40 35 38 43 38 41 46 41 44 49 42 45 50 45 48 53 45 48 53 45 48 53 45 48 53 45 48 53 45 48 53 45 48 53 45 48 53 36 41 45 36 41 45 36 41 45 36 41 45 36 41 45 36 41 45 36 41 45 36 41 45 23 28 32 21 26 30 19 24 28 16 21 25 12 17 21 9 14 18 7 12 16 5 10 14 2 5 10 2 5 10 2 5 10 2 5 10 2 5 10 2 5 10 2 5 10 2 5 10 2 5 10 4 7 12 6 9 14 9 12 17 13 16 21 16 19 24 18 21 26 20 24 27 24 30 30 24 30 28 24 30 28 24 30 28 24 30 28 24 30 28 24 30 28 24 30 28 29 35 33 29 35 33 29 35 33 29 35 33 29 35 33 29 35 33 29 35 33 30 34 33 31 31 31 32 30 31 32 30 31 32 30 31 32 30 31 32 30 31 32 30 31 32 30 31 32 30 31 32 30 31 32 30 31 32 30 31 32 30 31 32 30 31 32 30 31 32 31 29 36 31 28 36 31 27 36 31 27 36 31 27 36 31 27 36 31 27 36 31 27 36 31 27 36 31 27 36 31 27 36 31 27 36 31 27 36 31 27 36 31 27 36 31 27 36 31 27
65 54 60 78 67 73 88 77 83 93 82 88 110 99 105 111 100 106 114 103 109 117 106 112 120 109 115 124 113 119 126 115 121 128 115 122 136 116 127 137 115 127 136 114 126 135 113 125 135 113 125 134 112 124 133 111 123 133 111 123 112 90 102 110 88 100 105 83 95 99 77 89 92 70 82 85 63 75 80 58 70 78 56 68 108 81 96 110 83 98 113 86 101 117 90 105 121 94 109 125 98 113 128 101 116 130 103 118 124 97 112 126 99 114 128 101 116 131 104 119 135 108 123 138 111 126 140 113 128 140 116 129 148 126 138 147 127 136 147 127 136 147 127 136 147 127 136 147 127 136 147 127 136 147 127 136 149 129 138 147 127 136 145 125 134 142 122 131 138 118 127 135 115 124 133 113 122 128 113 120 79 70 73 66 62 63 49 45 46 31 27 28 18 14 15 12 8 9 11 7 8 12 8 9 14 10 11 14 10 11 14 10 11 14 10 11 14 10 11 14 10 11 14 10 11 12 10 13 30 31 35 29 32 37 32 35 40 35 38 43 38 41 46 42 45 50 44 47 52 45 48 53 45 48 53 45 48 53 45 48 53 45 48 53 45 48 53 45 48 53 45 48 53 45 48 53 36 41 45 36 41 45 36 41 45 36 41 45 36 41 45 36 41 45 36 41 45 36 41 45 23 28 32 21 26 30 19 24 28 16 21 25 12 17 21 9 14 18 7 12 16 5 10 14 2 5 10 2 5 10 2 5 10 2 5 10 2 5 10 2 5 10 2 5 10 2 5 10 2 5 10 4 7 12 6 9 14 9 12 17 13 16 21 16 19 24 18 21 26 20 24 27 24 30 30 24 30 28 24 30 28 24 30 28 24 30 28 24 30 28 24 30 28 24 30 28 29 35 33 29 35 33 29 35 33 29 35 33 29 35 33 29 35 33 29 35 33 30 34 33 31 31 31 32 30 31 32 30 31 32 30 31 32 30 31 32 30 31 32 30 31 32 30 31 32 30 31 32 30 31 32 30 31 32 30 31 32 30 31 32 30 31 32 30 31 32 31 29 36 31 28 36 31 27 36 31 27 36 31 27 36 31 27 36 31 27 36 31 27 36 31 27 36 31 27 36 31 27 36 31 27 36 31 27 36 31 27 36 31 27 36 31 27 36 31 27
75 64 70 87 76 82 97 86 92 102 91 97 113 102 108 115 104 110 117 106 112 120 109 115 124 113 119 127 116 122 129 118 124 132 119 126 141 121 132 141 119 131 139 117 129 136 114 126 134 112 124 131 109 121 129 107 119 128 106 118 100 78 90 97 75 87 92 70 82 86 64 76 79 57 69 73 51 63 68 46 58 65 43 55 95 68 83 97 70 85 101 74 89 107 80 95 113 86 101 119 92 107 123 96 111 126 99 114 124 97 112 126 99 114 128 101 116 131 104 119 135 108 123 138 111 126 140 113 128 140 116 129 148 126 138 147 127 136 147 127 136 147 127 136 147 127 136 147 127 136 147 127 136 147 127 136 149 129 138 147 127 136 145 125 134 142 122 131 138 118 127 135 115 124 133 113 122 128 113 120 72 63 66 59 55 56 43 39 40 27 23 24 16 12 13 11 7 8 11 7 8 13 9 10 14 10 11 14 10 11 14 10 11 14 10 11 14 10 11 14 10 11 14 10 11 12 10 13 33 34 38 33 36 41 35 38 43 38 41 46 42 45 50 45 48 53 47 50 55 49 52 57 45 48 53 45 48 53 45 48 53 45 48 53 45 48 53 45 48 53 45 48 53 45 48 53 36 41 45 36 41 45 36 41 45 36 41 45 36 41 45 36 41 45 36 41 45 36 41 45 23 28 32 21 26 30 19 24 28 16 21 25 12 17 21 9 14 18 7 12 16 5 10 14 2 5 10 2 5 10 2 5 10 2 5 10 2 5 10 2 5 10 2 5 10 2 5 10 2 5 10 4 7 12 6 9 14 9 12 17 13 16 21 16 19 24 18 21 26 20 24 27 24 30 30 24 30 28 24 30 28 24 30 28 24 30 28 24 30 28 24 30 28 24 30 28 29 35 33 29 35 33 29 35 33 29 35 33 29 35 33 29 35 33 29 35 33 30 34 33 31 31 31 32 30 31 32 30 31 32 30 31 32 30 31 32 30 31 32 30 31 32 30 31 32 30 31 32 30 31 32 30 31 32 30 31 32 30 31 32 30 31 32 30 31 32 31 29 36 31 28 36 31 27 36 31 27 36 31 27 36 31 27 36 31 27 36 31 27 36 31 27 36 31 27 36 31 27 36 31 27 36 31 27 36 31 27 36 31 27 36 31 27 36 31 27
82 71 77 95 84 90 104 93 99 110 99 105 116 105 111 117 106 112 119 108 114 123 112 118 126 115 121 129 118 124 132 121 127 134 121 128 144 124 135 144 122 134 141 119 131 137 115 127 133 111 123 129 107 119 126 104 116 125 103 115 90 68 80 87 65 77 82 60 72 76 54 66 69 47 59 63 41 53 58 36 48 55 33 45 81 54 69 84 57 72 89 62 77 96 69 84 103 76 91 110 83 98 116 89 104 119 92 107 124 97 112 126 99 114 128 101 116 131 104 119 135 108 123 138 111 126 140 113 128 140 116 129 148 126 138 147 127 136 147 127 136 147 127 136 147 127 136 147 127 136 147 127 136 147 127 136 149 129 138 147 127 136 145 125 134 142 122 131 138 118 127 135 115 124 133 113 122 128 113 120 66 57 60 53 49 50 39 35 36 24 20 21 14 10 11 11 7 8 12 8 9 14 10 11 14 10 11 14 10 11 14 10 11 14 10 11 14 10 11 14 10 11 14 10 11 12 10 13 36 37 41 35 38 43 37 40 45 41 44 49 44 47 52 47 50 55 50 53 58 51 54 59 45 48 53 45 48 53 45 48 53 45 48 53 45 48 53 45 48 53 45 48 53 45 48 53 36 41 45 36 41 45 36 41 45 36 41 45 36 41 45 36 41 45 36 41 45 36 41 45 23 28 32 21 26 30 19 24 28 16 21 25 12 17 21 9 14 18 7 12 16 5 10 14 2 5 10 2 5 10 2 5 10 2 5 10 2 5 10 2 5 10 2 5 10 2 5 10 2 5 10 4 7 12 6 9 14 9 12 17 13 16 21 16 19 24 18 21 26 20 24 27 24 30 30 24 30 28 24 30 28 24 30 28 24 30 28 24 30 28 24 30 28 24 30 28 29 35 33 29 35 33 29 35 33 29 35 33 29 35 33 29 35 33 29 35 33 30 34 33 31 31 31 32 30 31 32 30 31 32 30 31 32 30 31 32 30 31 32 30 31 32 30 31 32 30 31 32 30 31 32 30 31 32 30 31 32 30 31 32 30 31 32 30 31 32 31 29 36 31 28 36 31 27 36 31 27 36 31 27 36 31 27 36 31 27 36 31 27 36 31 27 36 31 27 36 31 27 36 31 27 36 31 27 36 31 27 36 31 27 36 31 27 36 31 27
89 74 81 102 87 94 111 96 103 117 102 109 120 105 112 121 106 113 124 109 116 127 112 119 130 115 122 134 119 126 136 121 128 137 122 129 146 126 137 145 123 135 142 120 132 137 115 127 133 111 123 128 106 118 125 103 115 123 101 113 85 63 75 82 60 72 77 55 67 71 49 61 64 42 54 57 35 47 53 31 43 50 28 40 70 46 59 73 49 62 79 55 69 87 63 76 95 71 85 102 78 91 108 84 98 111 87 100 122 98 112 124 100 113 126 102 116 129 105 118 133 109 123 136 112 125 138 114 128 139 117 129 147 127 136 145 128 136 145 128 136 145 128 136 145 128 136 145 128 136 145 128 136 145 128 136 147 130 138 145 128 136 143 126 134 140 123 131 136 119 127 133 116 124 131 114 122 126 113 120 61 55 59 49 47 50 34 32 35 20 18 21 11 9 12 9 7 10 10 8 11 12 10 13 12 10 13 12 10 13 12 10 13 12 10 13 12 10 13 12 10 13 12 10 13 11 10 15 37 38 43 36 39 44 39 42 49 42 45 50 45 48 55 49 52 57 51 54 61 52 55 60 45 48 55 45 48 53 45 48 55 45 48 53 45 48 55 45 48 53 45 48 55 44 49 53 36 41 45 36 41 45 36 41 45 36 41 45 36 41 45 36 41 45 36 41 45 36 41 45 23 28 32 21 26 30 19 24 28 16 21 25 12 17 21 9 14 18 7 12 16 5 10 14 1 6 10 1 6 10 2 5 12 1 6 10 2 5 12 1 6 10 2 5 12 1 6 10 2 5 12 3 8 12 6 9 16 8 13 17 13 16 23 15 20 24 18 21 28 19 24 28 24 30 30 24 30 28 24 30 30 24 30 28 24 30 30 24 30 28 24 30 30 24 30 28 29 35 35 29 35 33 29 35 35 29 35 33 29 35 35 29 35 33 29 35 35 30 34 33 31 31 31 32 30 31 32 30 31 32 30 31 32 30 31 32 30 31 32 30 31 32 30 31 32 30 31 32 30 31 32 30 31 32 30 31 32 30 31 32 30 31 32 30 31 34 30 29 36 31 28 36 31 27 38 30 27 36 31 27 38 30 27 36 31 27 38 30 27 36 31 27 38 30 27 36 31 27 38 30 27 36 31 27 38 30 27 36 31 27 38 30 27 36 31 27
106 85 94 109 88 97 112 91 100 113 92 101 116 95 104 118 97 106 121 100 109 126 105 114 130 109 118 135 114 123 138 117 126 140 119 128 152 130 142 147 127 138 140 120 131 130 110 121 120 100 111 110 90 101 103 83 94 99 79 90 54 34 45 56 36 47 58 38 49 61 41 52 65 45 56 68 48 59 70 50 61 72 52 63 73 53 64 73 53 62 73 53 64 73 53 62 73 53 64 73 53 62 73 53 64 73 53 62 93 73 84 95 75 84 100 80 91 107 87 96 113 93 104 120 100 109 125 105 116 125 108 116 147 132 139 147 132 139 147 132 139 147 132 139 147 132 139 147 132 139 147 132 139 147 132 139 143 128 135 145 130 137 146 131 138 144 129 136 135 120 127 121 106 113 106 91 98 94 83 89 30 29 35 25 28 33 22 25 30 17 20 25 13 16 21 8 11 16 5 8 13 3 6 11 6 9 14 9 12 17 15 18 23 22 25 30 30 33 38 38 41 46 44 47 52 47 50 55 47 50 57 46 51 57 46 50 59 46 51 57 46 50 59 46 51 57 46 50 59 46 51 57 42 46 55 42 47 53 42 46 55 42 47 53 42 46 55 42 47 53 42 46 55 42 47 53 44 49 55 42 49 55 42 49 55 42 49 55 42 49 55 42 49 55 42 49 55 42 49 55 33 40 46 27 34 40 17 24 30 10 17 23 8 15 21 11 18 24 18 25 31 23 30 36 16 23 29 15 22 28 14 18 27 9 16 22 8 12 21 2 9 15 2 6 15 0 6 12 12 16 25 10 17 23 12 16 25 10 17 23 12 16 25 10 17 23 12 16 25 10 17 23 29 37 39 29 38 37 29 37 39 29 38 37 29 37 39 29 38 37 29 37 39 29 38 37 20 28 30 20 29 28 20 28 30 20 29 28 20 28 30 20 29 28 20 28 30 23 27 28 26 26 26 29 25 24 29 25 24 29 25 24 29 25 24 29 25 24 29 25 24 29 25 24 33 29 28 33 29 28 33 29 28 33 29 28 33 29 28 33 29 28 33 29 28 33 29 28 37 29 27 37 29 27 38 28 27 37 29 27 38 28 27 37 29 27 38 28 27 37 29 27 38 28 27 37 29 27 38 28 27 37 29 27 38 28 27 37 29 27 38 28 27 37 29 27
110 84 95 114 88 99 116 90 101 117 91 102 121 95 106 122 96 107 125 99 110 129 103 114 133 107 118 137 111 122 140 114 125 139 116 126 148 126 138 143 123 134 136 116 127 126 106 117 116 96 107 106 86 97 99 79 90 95 75 86 54 34 45 56 36 47 58 38 49 61 41 52 65 45 56 68 48 59 70 50 61 72 52 63 73 56 64 73 56 64 73 56 64 73 56 64 73 56 64 73 56 64 73 56 64 73 56 64 91 74 82 93 76 84 98 81 89 105 88 96 111 94 102 118 101 109 123 106 114 124 109 116 147 132 139 145 132 139 145 132 139 145 132 139 145 132 139 145 132 139 145 132 139 145 132 139 141 128 135 143 130 137 144 131 138 141 128 135 131 118 125 116 103 110 102 89 96 90 80 88 27 28 33 23 28 34 20 25 31 16 21 27 12 17 23 8 13 19 5 10 16 4 9 15 8 13 19 11 16 22 16 21 27 23 28 34 30 35 41 37 42 48 43 48 54 46 51 57 46 50 59 46 50 59 46 50 59 46 50 59 46 50 59 46 50 59 46 50 59 46 50 59 44 48 57 44 48 57 44 48 57 44 48 57 44 48 57 44 48 57 44 48 57 44 48 57 44 51 57 44 51 57 44 51 57 44 51 57 44 51 57 44 51 57 44 51 57 44 51 57 36 43 49 30 37 43 20 27 33 11 18 24 9 16 22 12 19 25 18 25 31 22 29 35 17 24 32 16 23 31 14 21 29 10 17 25 7 14 22 4 11 19 1 8 16 0 7 15 10 17 25 10 17 25 10 17 25 10 17 25 10 17 25 10 17 25 10 17 25 10 17 23 27 35 38 27 35 37 27 35 37 27 35 37 27 35 37 27 35 37 27 35 37 27 35 37 20 28 30 20 28 30 20 28 30 20 28 30 20 28 30 20 28 30 20 28 30 22 28 28 27 25 26 29 25 24 29 25 24 29 25 24 29 25 24 29 25 24 29 25 24 29 25 24 33 29 28 33 29 28 33 29 28 33 29 28 33 29 28 33 29 28 33 29 28 34 28 28 37 29 27 38 28 27 38 28 27 38 28 27 38 28 27 38 28 27 38 28 27 38 28 27 38 28 27 38 28 27 38 28 27 38 28 27 38 28 27 38 28 27 38 28 27 38 28 27
113 87 98 116 90 101 118 92 103 120 94 105 124 98 109 125 99 110 127 101 112 130 104 115 132 106 117 135 109 120 137 111 122 136 113 123 141 119 131 136 116 127 128 108 119 119 99 110 109 89 100 99 79 90 92 72 83 88 68 79 54 34 45 56 36 47 58 38 49 61 41 52 65 45 56 68 48 59 70 50 61 72 52 63 78 61 69 78 61 69 78 61 69 78 61 69 78 61 69 78 61 69 78 61 69 78 61 69 91 74 82 93 76 84 98 81 89 105 88 96 111 94 102 118 101 109 123 106 114 124 109 116 147 132 139 145 132 139 145 132 139 145 132 139 145 132 139 145 132 139 145 132 139 145 132 139 142 129 136 144 131 138 144 131 138 139 126 133 128 115 122 112 99 106 96 83 90 84 74 82 24 25 30 20 25 31 18 23 29 15 20 26 13 18 24 10 15 21 8 13 19 7 12 18 14 19 25 16 21 27 20 25 31 26 31 37 32 37 43 38 43 49 42 47 53 45 50 56 46 50 59 46 50 59 46 50 59 46 50 59 46 50 59 46 50 59 46 50 59 46 50 59 46 50 59 46 50 59 46 50 59 46 50 59 46 50 59 46 50 59 46 50 59 46 50 59 46 53 59 46 53 59 46 53 59 46 53 59 46 53 59 46 53 59 46 53 59 46 53 59 42 49 55 35 42 48 24 31 37 15 22 28 10 17 23 12 19 25 17 24 30 21 28 34 20 27 35 18 25 33 16 23 31 13 20 28 9 16 24 6 13 21 4 11 19 2 9 17 10 17 25 10 17 25 10 17 25 10 17 25 10 17 25 10 17 25 10 17 25 10 17 23 25 33 36 25 33 35 25 33 35 25 33 35 25 33 35 25 33 35 25 33 35 25 33 35 20 28 30 20 28 30 20 28 30 20 28 30 20 28 30 20 28 30 20 28 30 22 28 28 27 25 26 29 25 24 29 25 24 29 25 24 29 25 24 29 25 24 29 25 24 29 25 24 33 29 28 33 29 28 33 29 28 33 29 28 33 29 28 33 29 28 33 29 28 34 28 28 37 29 27 38 28 27 38 28 27 38 28 27 38 28 27 38 28 27 38 28 27 38 28 27 38 28 27 38 28 27 38 28 27 38 28 27 38 28 27 38 28 27 38 28 27 38 28 27
