P3
172 37
255
75 61 76 71 57 72 69 55 70 68 54 69 52 38 53 50 36 51 44 30 45 37 23 38 30 16 31 23 9 24 18 4 19 14 2 16 19 11 24 17 11 23 15 9 21 12 6 18 10 4 16 7 1 13 5 0 11 4 0 10 9 3 15 9 3 15 9 3 15 9 3 15 9 3 15 9 3 15 9 3 15 7 4 15 4 1 12 3 1 12 3 1 12 3 1 12 3 1 12 3 1 12 3 1 12 3 1 12 3 1 12 3 1 12 3 1 12 3 1 12 3 1 12 3 1 12 3 1 12 3 1 12 6 4 15 6 4 15 6 4 15 6 4 15 6 4 15 6 4 15 6 4 15 6 4 15 6 4 15 6 4 15 6 4 15 6 4 15 6 4 15 6 4 15 6 4 15 6 4 15 5 3 16 5 3 16 5 3 16 5 3 16 5 3 16 5 3 16 5 3 16 5 3 16 6 4 17 6 4 17 6 4 17 6 4 17 6 4 17 6 4 17 6 4 17 5 5 15 8 11 18 7 12 16 7 12 16 7 12 16 7 12 16 7 12 16 7 12 16 7 12 16 8 13 17 8 13 17 8 13 17 8 13 17 8 13 17 8 13 17 8 13 17 8 13 17 5 6 10 7 8 12 9 10 14 12 13 17 16 17 21 19 20 24 21 22 26 23 24 28 33 34 38 26 27 31 15 16 20 6 7 11 3 4 8 5 6 10 11 12 16 15 16 20 0 0 4 1 2 6 3 4 8 6 7 11 10 11 15 13 14 18 15 16 20 17 18 22 18 19 23 20 21 25 25 26 30 32 33 37 38 39 43 45 46 50 50 51 55 52 53 57 49 53 54 52 56 57 57 61 62 63 67 68 70 74 75 76 80 81 81 85 86 84 88 89 91 95 96 92 96 97 95 99 100 98 102 103 101 105 106 105 109 110 107 111 112 110 111 113 94 94 96 85 83 86 70 68 71 55 53 56 44 42 45 40 38 41 41 39 42 43 41 44 41 39 42 41 39 42 41 39 42 41 39 42 41 39 42 41 39 42 41 39 42 41 39 42 37 37 37 37 37 37 37 37 37 37 37 37 37 37 37 37 37 37 37 37 37 37 37 37 40 40 40 40 40 40 40 40 40 40 40 40 40 40 40 40 40 40 40 40 40 40 40 40
71 59 73 67 56 70 65 53 67 63 52 66 42 30 44 38 27 41 33 21 35 25 14 28 18 6 20 9 0 12 7 0 9 6 0 9 18 12 24 17 11 23 16 10 22 14 8 20 12 6 18 10 4 16 8 2 14 7 1 13 9 3 15 9 3 15 9 3 15 9 3 15 9 3 15 9 3 15 9 3 15 7 4 15 4 1 12 3 1 12 3 1 12 3 1 12 3 1 12 3 1 12 3 1 12 3 1 12 3 1 12 3 1 12 3 1 12 3 1 12 3 1 12 3 1 12 3 1 12 3 1 12 6 4 15 6 4 15 6 4 15 6 4 15 6 4 15 6 4 15 6 4 15 6 4 15 6 4 15 6 4 15 6 4 15 6 4 15 6 4 15 6 4 15 6 4 15 6 4 15 4 4 16 4 4 16 4 4 16 4 4 16 4 4 16 4 4 16 4 4 16 4 4 16 5 5 17 5 5 17 5 5 17 5 5 17 5 5 17 5 5 17 5 5 17 5 5 15 7 12 18 7 12 16 7 12 16 7 12 16 7 12 16 7 12 16 7 12 16 7 12 16 8 13 17 8 13 17 8 13 17 8 13 17 8 13 17 8 13 17 8 13 17 8 13 17 3 6 11 5 9 12 7 11 14 10 14 17 14 18 21 17 21 24 19 23 26 21 25 28 32 36 39 25 29 32 15 19 22 6 10 13 2 6 9 5 9 12 10 14 17 15 19 22 0 1 4 0 3 6 3 4 8 4 8 11 10 11 15 11 15 18 15 16 20 15 19 22 18 19 23 18 22 25 25 26 30 30 34 37 38 39 43 43 47 50 50 51 55 50 54 57 48 52 55 51 55 56 56 60 61 62 66 67 69 73 74 75 79 80 80 84 85 83 87 88 90 94 95 91 95 96 93 97 98 97 101 102 100 104 105 103 107 108 106 110 111 109 110 112 94 94 96 85 83 86 70 68 71 55 53 56 44 42 45 40 38 41 41 39 42 43 41 44 41 39 42 41 39 42 41 39 42 41 39 42 41 39 42 41 39 42 41 39 42 41 39 42 37 37 37 37 37 37 37 37 37 37 37 37 37 37 37 37 37 37 37 37 37 37 37 37 40 40 40 40 40 40 40 40 40 40 40 40 40 40 40 40 40 40 40 40 40 40 40 40
20 14 26 18 15 26 20 14 26 18 15 26 7 1 13 5 2 13 7 1 13 5 2 13 7 1 13 5 2 13 7 1 13 5 2 13 4 0 14 4 0 14 4 0 14 4 0 14 4 0 14 4 0 14 4 0 14 4 0 14 5 1 15 5 1 15 5 1 15 5 1 15 5 1 15 5 1 15 5 1 15 5 1 15 4 0 14 4 0 14 4 0 14 4 0 14 4 0 14 4 0 14 4 0 14 4 0 14 4 0 14 4 0 14 4 0 14 4 0 14 4 0 14 4 0 14 4 0 14 3 1 14 7 5 18 6 6 18 6 6 18 6 6 18 6 6 18 6 6 18 6 6 18 6 6 18 4 4 16 4 4 16 4 4 16 4 4 16 4 4 16 4 4 16 4 4 16 4 4 16 5 8 17 5 8 17 5 8 17 5 8 17 5 8 17 5 8 17 5 8 17 5 8 17 6 9 18 6 9 18 6 9 18 6 9 18 6 9 18 6 9 18 6 9 18 5 9 18 9 14 20 7 14 20 7 14 20 7 14 20 7 14 20 7 14 20 7 14 20 7 14 20 11 18 24 11 18 24 11 18 24 11 18 24 11 18 24 11 18 24 11 18 24 11 19 22 0 2 6 0 4 8 3 8 12 7 12 16 12 17 21 16 21 25 20 25 29 21 26 30 37 42 46 29 34 38 16 21 25 4 9 13 0 2 6 0 1 5 0 4 8 2 7 11 2 7 11 2 7 11 3 6 11 2 7 11 3 6 11 2 7 11 3 6 11 2 7 11 12 15 20 13 18 22 19 22 27 25 30 34 32 35 40 38 43 47 44 47 52 46 50 53 53 57 60 55 59 62 57 61 64 60 64 67 64 68 71 67 71 74 69 73 76 71 75 78 82 86 89 83 87 90 86 90 93 89 93 96 92 96 99 96 100 103 98 102 105 101 102 106 91 91 93 81 81 83 66 66 68 51 51 53 40 40 42 36 36 38 37 37 39 39 39 41 39 39 41 39 39 41 39 39 41 39 39 41 39 39 41 39 39 41 39 39 41 39 39 41 38 36 37 38 36 37 38 36 37 38 36 37 38 36 37 38 36 37 38 36 37 38 36 37 37 35 36 37 35 36 37 35 36 37 35 36 37 35 36 37 35 36 37 35 36 37 35 36
15 13 24 15 13 24 15 13 24 15 13 24 4 2 13 4 2 13 4 2 13 4 2 13 4 2 13 4 2 13 4 2 13 4 2 13 4 0 14 4 0 14 4 0 14 4 0 14 4 0 14 4 0 14 4 0 14 4 0 14 5 1 15 5 1 15 5 1 15 5 1 15 5 1 15 5 1 15 5 1 15 5 1 15 4 0 14 4 0 14 4 0 14 4 0 14 4 0 14 4 0 14 4 0 14 4 0 14 4 0 14 4 0 14 4 0 14 4 0 14 4 0 14 4 0 14 4 0 14 3 1 14 7 5 18 6 6 18 6 6 18 6 6 18 6 6 18 6 6 18 6 6 18 6 6 18 4 4 16 4 4 16 4 4 16 4 4 16 4 4 16 4 4 16 4 4 16 2 4 16 5 8 17 4 8 17 4 8 17 4 8 17 4 8 17 4 8 17 4 8 17 4 8 17 5 9 18 5 9 18 5 9 18 5 9 18 5 9 18 5 9 18 5 9 18 5 9 18 7 14 20 7 14 20 7 14 20 7 14 20 7 14 20 7 14 20 7 14 20 7 14 20 11 18 24 11 18 24 11 18 24 11 18 24 11 18 24 11 18 24 11 18 24 11 18 24 0 6 9 0 8 11 3 11 14 7 15 18 11 19 22 14 22 25 17 25 28 19 27 30 35 43 46 27 35 38 14 22 25 2 10 13 0 3 6 0 2 5 0 5 8 0 8 11 2 7 11 2 7 11 2 7 11 2 7 11 2 7 11 2 7 11 2 7 11 2 7 11 11 16 20 13 18 22 18 23 27 25 30 34 31 36 40 38 43 47 43 48 52 45 50 54 53 57 60 55 59 62 57 61 64 60 64 67 64 68 71 67 71 74 69 73 76 71 75 78 81 85 88 82 86 89 84 88 91 88 92 95 91 95 98 94 98 101 97 101 104 98 102 105 91 91 93 81 81 83 66 66 68 51 51 53 40 40 42 36 36 38 37 37 39 39 39 41 39 39 41 39 39 41 39 39 41 39 39 41 39 39 41 39 39 41 39 39 41 39 39 41 38 36 37 38 36 37 38 36 37 38 36 37 38 36 37 38 36 37 38 36 37 38 36 37 37 35 36 37 35 36 37 35 36 37 35 36 37 35 36 37 35 36 37 35 36 37 35 36
13 11 22 13 11 22 13 11 22 13 11 22 4 2 13 4 2 13 4 2 13 4 2 13 4 2 13 4 2 13 4 2 13 4 2 13 4 0 14 4 0 14 4 0 14 4 0 14 4 0 14 4 0 14 4 0 14 4 0 14 5 1 15 5 1 15 5 1 15 5 1 15 5 1 15 5 1 15 5 1 15 5 1 15 4 0 14 4 0 14 4 0 14 4 0 14 4 0 14 4 0 14 4 0 14 4 0 14 4 0 14 4 0 14 4 0 14 4 0 14 4 0 14 4 0 14 4 0 14 3 1 14 7 5 18 6 6 18 6 6 18 6 6 18 6 6 18 6 6 18 6 6 18 6 6 18 4 4 16 4 4 16 4 4 16 4 4 16 4 4 16 4 4 16 4 4 16 2 4 16 5 8 17 4 8 17 4 8 17 4 8 17 4 8 17 4 8 17 4 8 17 4 8 17 5 9 18 5 9 18 5 9 18 5 9 18 5 9 18 5 9 18 5 9 18 5 9 18 7 14 20 7 14 20 7 14 20 7 14 20 7 14 20 7 14 20 7 14 20 7 14 20 11 18 24 11 18 24 11 18 24 11 18 24 11 18 24 11 18 24 11 18 24 11 18 24 4 12 15 5 13 16 7 15 18 10 18 21 12 20 23 15 23 26 17 25 28 18 26 29 35 43 46 27 35 38 14 22 25 2 10 13 0 3 6 0 2 5 0 5 8 0 8 11 2 7 11 2 7 11 2 7 11 2 7 11 2 7 11 2 7 11 2 7 11 2 7 11 11 16 20 13 18 22 18 23 27 25 30 34 31 36 40 38 43 47 43 48 52 45 50 54 53 57 60 55 59 62 57 61 64 60 64 67 64 68 71 67 71 74 69 73 76 71 75 78 78 82 85 80 84 87 82 86 89 85 89 92 89 93 96 92 96 99 94 98 101 96 100 103 91 91 93 81 81 83 66 66 68 51 51 53 40 40 42 36 36 38 37 37 39 39 39 41 39 39 41 39 39 41 39 39 41 39 39 41 39 39 41 39 39 41 39 39 41 39 39 41 38 36 37 38 36 37 38 36 37 38 36 37 38 36 37 38 36 37 38 36 37 38 36 37 37 35 36 37 35 36 37 35 36 37 35 36 37 35 36 37 35 36 37 35 36 37 35 36
10 8 19 10 8 19 10 8 19 10 8 19 4 2 13 4 2 13 4 2 13 4 2 13 4 2 13 4 2 13 4 2 13 4 2 13 4 0 14 4 0 14 4 0 14 4 0 14 4 0 14 4 0 14 4 0 14 4 0 14 5 1 15 5 1 15 5 1 15 5 1 15 5 1 15 5 1 15 5 1 15 5 1 15 4 0 14 4 0 14 4 0 14 4 0 14 4 0 14 4 0 14 4 0 14 4 0 14 4 0 14 4 0 14 4 0 14 4 0 14 4 0 14 4 0 14 4 0 14 3 1 14 7 5 18 6 6 18 6 6 18 6 6 18 6 6 18 6 6 18 6 6 18 6 6 18 4 4 16 4 4 16 4 4 16 4 4 16 4 4 16 4 4 16 4 4 16 2 4 16 5 8 17 4 8 17 4 8 17 4 8 17 4 8 17 4 8 17 4 8 17 4 8 17 5 9 18 5 9 18 5 9 18 5 9 18 5 9 18 5 9 18 5 9 18 5 9 18 7 14 20 7 14 20 7 14 20 7 14 20 7 14 20 7 14 20 7 14 20 7 14 20 11 18 24 11 18 24 11 18 24 11 18 24 11 18 24 11 18 24 11 18 24 11 18 24 12 20 23 12 20 23 13 21 24 14 22 25 15 23 26 16 24 27 16 24 27 17 25 28 35 43 46 27 35 38 14 22 25 2 10 13 0 3 6 0 2 5 0 5 8 0 8 11 2 7 11 2 7 11 2 7 11 2 7 11 2 7 11 2 7 11 2 7 11 2 7 11 11 16 20 13 18 22 18 23 27 25 30 34 31 36 40 38 43 47 43 48 52 45 50 54 53 57 60 55 59 62 57 61 64 60 64 67 64 68 71 67 71 74 69 73 76 71 75 78 75 79 82 76 80 83 79 83 86 82 86 89 85 89 92 89 93 96 91 95 98 92 96 99 91 91 93 81 81 83 66 66 68 51 51 53 40 40 42 36 36 38 37 37 39 39 39 41 39 39 41 39 39 41 39 39 41 39 39 41 39 39 41 39 39 41 39 39 41 39 39 41 38 36 37 38 36 37 38 36 37 38 36 37 38 36 37 38 36 37 38 36 37 38 36 37 37 35 36 37 35 36 37 35 36 37 35 36 37 35 36 37 35 36 37 35 36 37 35 36
6 4 15 6 4 15 6 4 15 6 4 15 4 2 13 4 2 13 4 2 13 4 2 13 4 2 13 4 2 13 4 2 13 4 2 13 4 0 14 4 0 14 4 0 14 4 0 14 4 0 14 4 0 14 4 0 14 4 0 14 5 1 15 5 1 15 5 1 15 5 1 15 5 1 15 5 1 15 5 1 15 5 1 15 4 0 14 4 0 14 4 0 14 4 0 14 4 0 14 4 0 14 4 0 14 4 0 14 4 0 14 4 0 14 4 0 14 4 0 14 4 0 14 4 0 14 4 0 14 3 1 14 7 5 18 6 6 18 6 6 18 6 6 18 6 6 18 6 6 18 6 6 18 6 6 18 4 4 16 4 4 16 4 4 16 4 4 16 4 4 16 4 4 16 4 4 16 2 4 16 5 8 17 4 8 17 4 8 17 4 8 17 4 8 17 4 8 17 4 8 17 4 8 17 5 9 18 5 9 18 5 9 18 5 9 18 5 9 18 5 9 18 5 9 18 5 9 18 7 14 20 7 14 20 7 14 20 7 14 20 7 14 20 7 14 20 7 14 20 7 14 20 11 18 24 11 18 24 11 18 24 11 18 24 11 18 24 11 18 24 11 18 24 11 18 24 20 28 31 20 28 31 19 27 30 18 26 29 17 25 28 16 24 27 16 24 27 15 23 26 35 43 46 27 35 38 14 22 25 2 10 13 0 3 6 0 2 5 0 5 8 0 8 11 2 7 11 2 7 11 2 7 11 2 7 11 2 7 11 2 7 11 2 7 11 2 7 11 11 16 20 13 18 22 18 23 27 25 30 34 31 36 40 38 43 47 43 48 52 45 50 54 53 57 60 55 59 62 57 61 64 60 64 67 64 68 71 67 71 74 69 73 76 71 75 78 72 76 79 73 77 80 75 79 82 79 83 86 82 86 89 85 89 92 88 92 95 89 93 96 91 91 93 81 81 83 66 66 68 51 51 53 40 40 42 36 36 38 37 37 39 39 39 41 39 39 41 39 39 41 39 39 41 39 39 41 39 39 41 39 39 41 39 39 41 39 39 41 38 36 37 38 36 37 38 36 37 38 36 37 38 36 37 38 36 37 38 36 37 38 36 37 37 35 36 37 35 36 37 35 36 37 35 36 37 35 36 37 35 36 37 35 36 37 35 36
3 1 12 3 1 12 3 1 12 3 1 12 4 2 13 4 2 13 4 2 13 4 2 13 4 2 13 4 2 13 4 2 13 4 2 13 4 0 14 4 0 14 4 0 14 4 0 14 4 0 14 4 0 14 4 0 14 4 0 14 5 1 15 5 1 15 5 1 15 5 1 15 5 1 15 5 1 15 5 1 15 5 1 15 4 0 14 4 0 14 4 0 14 4 0 14 4 0 14 4 0 14 4 0 14 4 0 14 4 0 14 4 0 14 4 0 14 4 0 14 4 0 14 4 0 14 4 0 14 3 1 14 7 5 18 6 6 18 6 6 18 6 6 18 6 6 18 6 6 18 6 6 18 6 6 18 4 4 16 4 4 16 4 4 16 4 4 16 4 4 16 4 4 16 4 4 16 2 4 16 5 8 17 4 8 17 4 8 17 4 8 17 4 8 17 4 8 17 4 8 17 4 8 17 5 9 18 5 9 18 5 9 18 5 9 18 5 9 18 5 9 18 5 9 18 5 9 18 7 14 20 7 14 20 7 14 20 7 14 20 7 14 20 7 14 20 7 14 20 7 14 20 11 18 24 11 18 24 11 18 24 11 18 24 11 18 24 11 18 24 11 18 24 11 18 24 28 36 39 27 35 38 25 33 36 22 30 33 20 28 31 17 25 28 15 23 26 14 22 25 35 43 46 27 35 38 14 22 25 2 10 13 0 3 6 0 2 5 0 5 8 0 8 11 2 7 11 2 7 11 2 7 11 2 7 11 2 7 11 2 7 11 2 7 11 2 7 11 11 16 20 13 18 22 18 23 27 25 30 34 31 36 40 38 43 47 43 48 52 45 50 54 53 57 60 55 59 62 57 61 64 60 64 67 64 68 71 67 71 74 69 73 76 71 75 78 68 72 75 70 74 77 72 76 79 75 79 82 79 83 86 82 86 89 84 88 91 86 90 93 91 91 93 81 81 83 66 66 68 51 51 53 40 40 42 36 36 38 37 37 39 39 39 41 39 39 41 39 39 41 39 39 41 39 39 41 39 39 41 39 39 41 39 39 41 39 39 41 38 36 37 38 36 37 38 36 37 38 36 37 38 36 37 38 36 37 38 36 37 38 36 37 37 35 36 37 35 36 37 35 36 37 35 36 37 35 36 37 35 36 37 35 36 37 35 36
1 0 10 1 0 10 1 0 10 1 0 10 4 2 13 4 2 13 4 2 13 4 2 13 4 2 13 4 2 13 4 2 13 4 2 13 4 0 14 4 0 14 4 0 14 4 0 14 4 0 14 4 0 14 4 0 14 4 0 14 5 1 15 5 1 15 5 1 15 5 1 15 5 1 15 5 1 15 5 1 15 5 1 15 4 0 14 4 0 14 4 0 14 4 0 14 4 0 14 4 0 14 4 0 14 4 0 14 4 0 14 4 0 14 4 0 14 4 0 14 4 0 14 4 0 14 4 0 14 3 1 14 7 5 18 6 6 18 6 6 18 6 6 18 6 6 18 6 6 18 6 6 18 6 6 18 4 4 16 4 4 16 4 4 16 4 4 16 4 4 16 4 4 16 4 4 16 2 4 16 5 8 17 4 8 17 4 8 17 4 8 17 4 8 17 4 8 17 4 8 17 4 8 17 5 9 18 5 9 18 5 9 18 5 9 18 5 9 18 5 9 18 5 9 18 5 9 18 7 14 20 7 14 20 7 14 20 7 14 20 7 14 20 7 14 20 7 14 20 7 14 20 11 18 24 11 18 24 11 18 24 11 18 24 11 18 24 11 18 24 11 18 24 11 18 24 34 42 45 32 40 43 29 37 40 25 33 36 21 29 32 18 26 29 15 23 26 13 21 24 35 43 46 27 35 38 14 22 25 2 10 13 0 3 6 0 2 5 0 5 8 0 8 11 2 7 11 2 7 11 2 7 11 2 7 11 2 7 11 2 7 11 2 7 11 2 7 11 11 16 20 13 18 22 18 23 27 25 30 34 31 36 40 38 43 47 43 48 52 45 50 54 53 57 60 55 59 62 57 61 64 60 64 67 64 68 71 67 71 74 69 73 76 71 75 78 66 70 73 67 71 74 70 74 77 73 77 80 76 80 83 80 84 87 82 86 89 83 87 90 91 91 93 81 81 83 66 66 68 51 51 53 40 40 42 36 36 38 37 37 39 39 39 41 39 39 41 39 39 41 39 39 41 39 39 41 39 39 41 39 39 41 39 39 41 39 39 41 38 36 37 38 36 37 38 36 37 38 36 37 38 36 37 38 36 37 38 36 37 38 36 37 37 35 36 37 35 36 37 35 36 37 35 36 37 35 36 37 35 36 37 35 36 37 35 36
0 0 9 0 0 9 0 0 9 0 0 9 4 2 13 4 2 13 4 2 13 4 2 13 4 2 13 4 2 13 4 2 13 4 2 13 4 0 14 4 0 14 4 0 14 4 0 14 4 0 14 4 0 14 4 0 14 4 0 14 5 1 15 5 1 15 5 1 15 5 1 15 5 1 15 5 1 15 5 1 15 5 1 15 4 0 14 4 0 14 4 0 14 4 0 14 4 0 14 4 0 14 4 0 14 4 0 14 4 0 14 4 0 14 4 0 14 4 0 14 4 0 14 4 0 14 4 0 14 3 1 14 7 5 18 6 6 18 6 6 18 6 6 18 6 6 18 6 6 18 6 6 18 6 6 18 4 4 16 4 4 16 4 4 16 4 4 16 4 4 16 4 4 16 4 4 16 2 4 16 5 8 17 4 8 17 4 8 17 4 8 17 4 8 17 4 8 17 4 8 17 4 8 17 5 9 18 5 9 18 5 9 18 5 9 18 5 9 18 5 9 18 5 9 18 5 9 18 7 14 20 7 14 20 7 14 20 7 14 20 7 14 20 7 14 20 7 14 20 7 14 20 11 18 24 11 18 24 11 18 24 11 18 24 11 18 24 11 18 24 11 18 24 11 18 24 37 45 48 35 43 46 31 39 42 27 35 38 22 30 33 18 26 29 14 22 25 13 21 24 35 43 46 27 35 38 14 22 25 2 10 13 0 3 6 0 2 5 0 5 8 0 8 11 2 7 11 2 7 11 2 7 11 2 7 11 2 7 11 2 7 11 2 7 11 2 7 11 11 16 20 13 18 22 18 23 27 25 30 34 31 36 40 38 43 47 43 48 52 45 50 54 53 57 60 55 59 62 57 61 64 60 64 67 64 68 71 67 71 74 69 73 76 71 75 78 65 69 72 66 70 73 68 72 75 72 76 79 75 79 82 78 82 85 81 85 88 82 86 89 91 91 93 81 81 83 66 66 68 51 51 53 40 40 42 36 36 38 37 37 39 39 39 41 39 39 41 39 39 41 39 39 41 39 39 41 39 39 41 39 39 41 39 39 41 39 39 41 38 36 37 38 36 37 38 36 37 38 36 37 38 36 37 38 36 37 38 36 37 38 36 37 37 35 36 37 35 36 37 35 36 37 35 36 37 35 36 37 35 36 37 35 36 37 35 36
3 1 12 3 1 12 3 1 12 3 1 12 3 1 12 3 1 12 3 1 12 3 1 12 3 1 12 3 1 12 3 1 12 3 1 12 4 0 14 4 0 14 4 0 14 4 0 14 4 0 14 4 0 14 4 0 14 4 0 14 4 0 14 4 0 14 4 0 14 4 0 14 4 0 14 4 0 14 4 0 14 4 0 14 5 1 15 5 1 15 5 1 15 5 1 15 5 1 15 5 1 15 5 1 15 5 1 15 5 1 15 5 1 15 5 1 15 5 1 15 5 1 15 5 1 15 5 1 15 4 2 15 5 3 16 4 4 16 4 4 16 4 4 16 4 4 16 4 4 16 4 4 16 4 4 16 5 5 17 5 5 17 5 5 17 5 5 17 5 5 17 5 5 17 5 5 17 3 5 17 6 9 18 5 9 18 5 9 18 5 9 18 5 9 18 5 9 18 5 9 18 5 9 18 5 9 18 5 9 18 5 9 18 5 9 18 5 9 18 5 9 18 5 9 18 5 9 18 10 17 23 9 16 22 8 15 21 7 14 20 6 13 19 4 11 17 4 11 17 3 10 16 15 22 28 17 24 30 21 28 34 25 32 38 30 37 43 34 41 47 38 45 51 39 46 52 39 47 50 37 45 48 35 43 46 32 40 43 28 36 39 25 33 36 23 31 34 21 29 32 5 13 16 5 13 16 5 13 16 5 13 16 5 13 16 5 13 16 5 13 16 5 13 16 0 5 9 0 5 9 0 5 9 0 5 9 0 5 9 0 5 9 0 5 9 0 5 9 13 18 22 15 20 24 17 22 26 20 25 29 24 29 33 27 32 36 29 34 38 31 36 40 40 44 47 42 46 49 44 48 51 47 51 54 51 55 58 54 58 61 56 60 63 58 62 65 70 74 77 70 74 77 70 74 77 70 74 77 70 74 77 70 74 77 70 74 77 70 74 77 65 65 67 63 63 65 58 58 60 51 51 53 45 45 47 38 38 40 33 33 35 31 31 33 32 32 34 32 32 34 32 32 34 32 32 34 32 32 34 32 32 34 32 32 34 32 32 34 34 32 33 34 32 33 34 32 33 34 32 33 34 32 33 34 32 33 34 32 33 34 32 33 36 34 35 36 34 35 36 34 35 36 34 35 36 34 35 36 34 35 36 34 35 36 34 35
3 1 12 3 1 12 3 1 12 3 1 12 3 1 12 3 1 12 3 1 12 3 1 12 3 1 12 3 1 12 3 1 12 3 1 12 4 0 14 4 0 14 4 0 14 4 0 14 4 0 14 4 0 14 4 0 14 4 0 14 4 0 14 4 0 14 4 0 14 4 0 14 4 0 14 4 0 14 4 0 14 4 0 14 5 1 15 5 1 15 5 1 15 5 1 15 5 1 15 5 1 15 5 1 15 5 1 15 5 1 15 5 1 15 5 1 15 5 1 15 5 1 15 5 1 15 5 1 15 4 2 15 5 3 16 4 4 16 4 4 16 4 4 16 4 4 16 4 4 16 4 4 16 4 4 16 5 5 17 5 5 17 5 5 17 5 5 17 5 5 17 5 5 17 5 5 17 3 5 17 6 9 18 5 9 18 5 9 18 5 9 18 5 9 18 5 9 18 5 9 18 5 9 18 5 9 18 5 9 18 5 9 18 5 9 18 5 9 18 5 9 18 5 9 18 5 9 18 9 16 22 9 16 22 9 16 22 8 15 21 7 14 20 7 14 20 6 13 19 6 13 19 18 25 31 20 27 33 23 30 36 27 34 40 31 38 44 34 41 47 37 44 50 39 46 52 39 47 50 37 45 48 35 43 46 32 40 43 28 36 39 25 33 36 23 31 34 21 29 32 5 13 16 5 13 16 5 13 16 5 13 16 5 13 16 5 13 16 5 13 16 5 13 16 0 5 9 0 5 9 0 5 9 0 5 9 0 5 9 0 5 9 0 5 9 0 5 9 13 18 22 15 20 24 17 22 26 20 25 29 24 29 33 27 32 36 29 34 38 31 36 40 40 44 47 42 46 49 44 48 51 47 51 54 51 55 58 54 58 61 56 60 63 58 62 65 68 72 75 68 72 75 68 72 75 68 72 75 68 72 75 68 72 75 68 72 75 68 72 75 65 65 67 63 63 65 58 58 60 51 51 53 45 45 47 38 38 40 33 33 35 31 31 33 32 32 34 32 32 34 32 32 34 32 32 34 32 32 34 32 32 34 32 32 34 32 32 34 34 32 33 34 32 33 34 32 33 34 32 33 34 32 33 34 32 33 34 32 33 34 32 33 36 34 35 36 34 35 36 34 35 36 34 35 36 34 35 36 34 35 36 34 35 36 34 35
3 1 12 3 1 12 3 1 12 3 1 12 3 1 12 3 1 12 3 1 12 3 1 12 3 1 12 3 1 12 3 1 12 3 1 12 4 0 14 4 0 14 4 0 14 4 0 14 4 0 14 4 0 14 4 0 14 4 0 14 4 0 14 4 0 14 4 0 14 4 0 14 4 0 14 4 0 14 4 0 14 4 0 14 5 1 15 5 1 15 5 1 15 5 1 15 5 1 15 5 1 15 5 1 15 5 1 15 5 1 15 5 1 15 5 1 15 5 1 15 5 1 15 5 1 15 5 1 15 4 2 15 5 3 16 4 4 16 4 4 16 4 4 16 4 4 16 4 4 16 4 4 16 4 4 16 5 5 17 5 5 17 5 5 17 5 5 17 5 5 17 5 5 17 5 5 17 3 5 17 6 9 18 5 9 18 5 9 18 5 9 18 5 9 18 5 9 18 5 9 18 5 9 18 5 9 18 5 9 18 5 9 18 5 9 18 5 9 18 5 9 18 5 9 18 5 9 18 8 15 21 9 16 22 9 16 22 10 17 23 10 17 23 11 18 24 12 19 25 12 19 25 24 31 37 25 32 38 27 34 40 30 37 43 32 39 45 35 42 48 37 44 50 38 45 51 39 47 50 37 45 48 35 43 46 32 40 43 28 36 39 25 33 36 23 31 34 21 29 32 5 13 16 5 13 16 5 13 16 5 13 16 5 13 16 5 13 16 5 13 16 5 13 16 0 5 9 0 5 9 0 5 9 0 5 9 0 5 9 0 5 9 0 5 9 0 5 9 13 18 22 15 20 24 17 22 26 20 25 29 24 29 33 27 32 36 29 34 38 31 36 40 40 44 47 42 46 49 44 48 51 47 51 54 51 55 58 54 58 61 56 60 63 58 62 65 66 70 73 66 70 73 66 70 73 66 70 73 66 70 73 66 70 73 66 70 73 66 70 73 65 65 67 63 63 65 58 58 60 51 51 53 45 45 47 38 38 40 33 33 35 31 31 33 32 32 34 32 32 34 32 32 34 32 32 34 32 32 34 32 32 34 32 32 34 32 32 34 34 32 33 34 32 33 34 32 33 34 32 33 34 32 33 34 32 33 34 32 33 34 32 33 36 34 35 36 34 35 36 34 35 36 34 35 36 34 35 36 34 35 36 34 35 36 34 35
3 1 12 3 1 12 3 1 12 3 1 12 3 1 12 3 1 12 3 1 12 3 1 12 3 1 12 3 1 12 3 1 12 3 1 12 4 0 14 4 0 14 4 0 14 4 0 14 4 0 14 4 0 14 4 0 14 4 0 14 4 0 14 4 0 14 4 0 14 4 0 14 4 0 14 4 0 14 4 0 14 4 0 14 5 1 15 5 1 15 5 1 15 5 1 15 5 1 15 5 1 15 5 1 15 5 1 15 5 1 15 5 1 15 5 1 15 5 1 15 5 1 15 5 1 15 5 1 15 4 2 15 5 3 16 4 4 16 4 4 16 4 4 16 4 4 16 4 4 16 4 4 16 4 4 16 5 5 17 5 5 17 5 5 17 5 5 17 5 5 17 5 5 17 5 5 17 3 5 17 6 9 18 5 9 18 5 9 18 5 9 18 5 9 18 5 9 18 5 9 18 5 9 18 5 9 18 5 9 18 5 9 18 5 9 18 5 9 18 5 9 18 5 9 18 5 9 18 7 14 20 8 15 21 10 17 23 12 19 25 15 22 28 17 24 30 19 26 32 20 27 33 32 39 45 32 39 45 33 40 46 34 41 47 35 42 48 36 43 49 36 43 49 37 44 50 39 47 50 37 45 48 35 43 46 32 40 43 28 36 39 25 33 36 23 31 34 21 29 32 5 13 16 5 13 16 5 13 16 5 13 16 5 13 16 5 13 16 5 13 16 5 13 16 0 5 9 0 5 9 0 5 9 0 5 9 0 5 9 0 5 9 0 5 9 0 5 9 13 18 22 15 20 24 17 22 26 20 25 29 24 29 33 27 32 36 29 34 38 31 36 40 40 44 47 42 46 49 44 48 51 47 51 54 51 55 58 54 58 61 56 60 63 58 62 65 63 67 70 63 67 70 63 67 70 63 67 70 63 67 70 63 67 70 63 67 70 63 67 70 65 65 67 63 63 65 58 58 60 51 51 53 45 45 47 38 38 40 33 33 35 31 31 33 32 32 34 32 32 34 32 32 34 32 32 34 32 32 34 32 32 34 32 32 34 32 32 34 34 32 33 34 32 33 34 32 33 34 32 33 34 32 33 34 32 33 34 32 33 34 32 33 36 34 35 36 34 35 36 34 35 36 34 35 36 34 35 36 34 35 36 34 35 36 34 35
3 1 12 3 1 12 3 1 12 3 1 12 3 1 12 3 1 12 3 1 12 3 1 12 3 1 12 3 1 12 3 1 12 3 1 12 4 0 14 4 0 14 4 0 14 4 0 14 4 0 14 4 0 14 4 0 14 4 0 14 4 0 14 4 0 14 4 0 14 4 0 14 4 0 14 4 0 14 4 0 14 4 0 14 5 1 15 5 1 15 5 1 15 5 1 15 5 1 15 5 1 15 5 1 15 5 1 15 5 1 15 5 1 15 5 1 15 5 1 15 5 1 15 5 1 15 5 1 15 4 2 15 5 3 16 4 4 16 4 4 16 4 4 16 4 4 16 4 4 16 4 4 16 4 4 16 5 5 17 5 5 17 5 5 17 5 5 17 5 5 17 5 5 17 5 5 17 3 5 17 6 9 18 5 9 18 5 9 18 5 9 18 5 9 18 5 9 18 5 9 18 5 9 18 5 9 18 5 9 18 5 9 18 5 9 18 5 9 18 5 9 18 5 9 18 5 9 18 6 13 19 7 14 20 10 17 23 15 22 28 19 26 32 23 30 36 26 33 39 28 35 41 40 47 53 40 47 53 39 46 52 38 45 51 37 44 50 36 43 49 36 43 49 35 42 48 39 47 50 37 45 48 35 43 46 32 40 43 28 36 39 25 33 36 23 31 34 21 29 32 5 13 16 5 13 16 5 13 16 5 13 16 5 13 16 5 13 16 5 13 16 5 13 16 0 5 9 0 5 9 0 5 9 0 5 9 0 5 9 0 5 9 0 5 9 0 5 9 13 18 22 15 20 24 17 22 26 20 25 29 24 29 33 27 32 36 29 34 38 31 36 40 40 44 47 42 46 49 44 48 51 47 51 54 51 55 58 54 58 61 56 60 63 58 62 65 59 63 66 59 63 66 59 63 66 59 63 66 59 63 66 59 63 66 59 63 66 59 63 66 65 65 67 63 63 65 58 58 60 51 51 53 45 45 47 38 38 40 33 33 35 31 31 33 32 32 34 32 32 34 32 32 34 32 32 34 32 32 34 32 32 34 32 32 34 32 32 34 34 32 33 34 32 33 34 32 33 34 32 33 34 32 33 34 32 33 34 32 33 34 32 33 36 34 35 36 34 35 36 34 35 36 34 35 36 34 35 36 34 35 36 34 35 36 34 35
3 1 12 3 1 12 3 1 12 3 1 12 3 1 12 3 1 12 3 1 12 3 1 12 3 1 12 3 1 12 3 1 12 3 1 12 4 0 14 4 0 14 4 0 14 4 0 14 4 0 14 4 0 14 4 0 14 4 0 14 4 0 14 4 0 14 4 0 14 4 0 14 4 0 14 4 0 14 4 0 14 4 0 14 5 1 15 5 1 15 5 1 15 5 1 15 5 1 15 5 1 15 5 1 15 5 1 15 5 1 15 5 1 15 5 1 15 5 1 15 5 1 15 5 1 15 5 1 15 4 2 15 5 3 16 4 4 16 4 4 16 4 4 16 4 4 16 4 4 16 4 4 16 4 4 16 5 5 17 5 5 17 5 5 17 5 5 17 5 5 17 5 5 17 5 5 17 3 5 17 6 9 18 5 9 18 5 9 18 5 9 18 5 9 18 5 9 18 5 9 18 5 9 18 5 9 18 5 9 18 5 9 18 5 9 18 5 9 18 5 9 18 5 9 18 5 9 18 4 11 17 7 14 20 11 18 24 17 24 30 23 30 36 29 36 42 33 40 46 35 42 48 48 55 61 47 54 60 45 52 58 42 49 55 40 47 53 37 44 50 35 42 48 34 41 47 39 47 50 37 45 48 35 43 46 32 40 43 28 36 39 25 33 36 23 31 34 21 29 32 5 13 16 5 13 16 5 13 16 5 13 16 5 13 16 5 13 16 5 13 16 5 13 16 0 5 9 0 5 9 0 5 9 0 5 9 0 5 9 0 5 9 0 5 9 0 5 9 13 18 22 15 20 24 17 22 26 20 25 29 24 29 33 27 32 36 29 34 38 31 36 40 40 44 47 42 46 49 44 48 51 47 51 54 51 55 58 54 58 61 56 60 63 58 62 65 56 60 63 56 60 63 56 60 63 56 60 63 56 60 63 56 60 63 56 60 63 56 60 63 65 65 67 63 63 65 58 58 60 51 51 53 45 45 47 38 38 40 33 33 35 31 31 33 32 32 34 32 32 34 32 32 34 32 32 34 32 32 34 32 32 34 32 32 34 32 32 34 34 32 33 34 32 33 34 32 33 34 32 33 34 32 33 34 32 33 34 32 33 34 32 33 36 34 35 36 34 35 36 34 35 36 34 35 36 34 35 36 34 35 36 34 35 36 34 35
3 1 12 3 1 12 3 1 12 3 1 12 3 1 12 3 1 12 3 1 12 3 1 12 3 1 12 3 1 12 3 1 12 3 1 12 4 0 14 4 0 14 4 0 14 4 0 14 4 0 14 4 0 14 4 0 14 4 0 14 4 0 14 4 0 14 4 0 14 4 0 14 4 0 14 4 0 14 4 0 14 4 0 14 5 1 15 5 1 15 5 1 15 5 1 15 5 1 15 5 1 15 5 1 15 5 1 15 5 1 15 5 1 15 5 1 15 5 1 15 5 1 15 5 1 15 5 1 15 4 2 15 5 3 16 4 4 16 4 4 16 4 4 16 4 4 16 4 4 16 4 4 16 4 4 16 5 5 17 5 5 17 5 5 17 5 5 17 5 5 17 5 5 17 5 5 17 3 5 17 6 9 18 5 9 18 5 9 18 5 9 18 5 9 18 5 9 18 5 9 18 5 9 18 5 9 18 5 9 18 5 9 18 5 9 18 5 9 18 5 9 18 5 9 18 5 9 18 3 10 16 6 13 19 12 19 25 19 26 32 26 33 39 33 40 46 38 45 51 41 48 54 54 61 67 52 59 65 49 56 62 45 52 58 41 48 54 38 45 51 35 42 48 33 40 46 39 47 50 37 45 48 35 43 46 32 40 43 28 36 39 25 33 36 23 31 34 21 29 32 5 13 16 5 13 16 5 13 16 5 13 16 5 13 16 5 13 16 5 13 16 5 13 16 0 5 9 0 5 9 0 5 9 0 5 9 0 5 9 0 5 9 0 5 9 0 5 9 13 18 22 15 20 24 17 22 26 20 25 29 24 29 33 27 32 36 29 34 38 31 36 40 40 44 47 42 46 49 44 48 51 47 51 54 51 55 58 54 58 61 56 60 63 58 62 65 54 58 61 54 58 61 54 58 61 54 58 61 54 58 61 54 58 61 54 58 61 54 58 61 65 65 67 63 63 65 58 58 60 51 51 53 45 45 47 38 38 40 33 33 35 31 31 33 32 32 34 32 32 34 32 32 34 32 32 34 32 32 34 32 32 34 32 32 34 32 32 34 34 32 33 34 32 33 34 32 33 34 32 33 34 32 33 34 32 33 34 32 33 34 32 33 36 34 35 36 34 35 36 34 35 36 34 35 36 34 35 36 34 35 36 34 35 36 34 35
3 2 10 3 2 10 3 2 10 3 2 10 3 2 10 3 2 10 3 2 10 3 2 10 3 2 10 3 2 10 3 2 10 3 2 10 4 1 12 4 1 12 4 1 12 4 1 12 4 1 12 4 1 12 4 1 12 4 1 12 4 1 12 4 1 12 4 1 12 4 1 12 4 1 12 4 1 12 4 1 12 4 1 12 5 1 15 5 1 15 5 1 15 5 1 15 5 1 15 5 1 15 5 1 15 5 1 15 5 1 15 5 1 15 5 1 15 5 1 15 5 1 15 5 1 15 5 1 15 4 2 15 5 3 16 4 4 16 4 4 16 4 4 16 4 4 16 4 4 16 4 4 16 4 4 16 5 5 17 5 5 17 5 5 17 5 5 17 5 5 17 5 5 17 5 5 17 5 5 17 6 9 18 5 9 18 5 9 18 5 9 18 5 9 18 5 9 18 5 9 18 5 9 18 5 9 18 5 9 18 5 9 18 5 9 18 5 9 18 5 9 18 5 9 18 5 9 18 3 10 16 6 13 19 12 19 25 20 27 33 28 35 41 35 42 48 41 48 54 44 51 57 57 64 70 55 62 68 51 58 64 47 54 60 42 49 55 38 45 51 34 41 47 33 40 46 39 47 50 37 45 48 35 43 46 32 40 43 28 36 39 25 33 36 23 31 34 21 29 32 5 13 16 5 13 16 5 13 16 5 13 16 5 13 16 5 13 16 5 13 16 5 13 16 0 5 9 0 5 9 0 5 9 0 5 9 0 5 9 0 5 9 0 5 9 0 5 9 13 18 22 15 20 24 17 22 26 20 25 29 24 29 33 27 32 36 29 34 38 31 36 40 40 44 47 42 46 49 44 48 51 47 51 54 51 55 58 54 58 61 56 60 63 58 62 65 52 56 59 52 56 59 52 56 59 52 56 59 52 56 59 52 56 59 52 56 59 52 56 59 65 65 67 63 63 63 58 58 60 51 51 51 45 45 47 38 38 38 33 33 35 31 31 31 32 32 34 32 32 32 32 32 34 32 32 32 32 32 34 32 32 32 32 32 34 33 31 32 34 32 33 34 33 31 36 32 31 34 33 31 36 32 31 34 33 31 36 32 31 34 33 31 38 34 33 36 35 33 38 34 33 36 35 33 38 34 33 36 35 33 38 34 33 36 35 33
1 0 6 1 0 6 1 0 6 1 0 6 1 0 6 1 0 6 1 0 6 1 0 6 1 0 6 1 0 6 1 0 6 1 0 6 4 1 8 4 1 8 4 1 8 4 1 8 4 1 8 4 1 8 4 1 8 4 1 8 4 1 8 4 1 8 4 1 8 4 1 8 4 1 8 4 1 8 4 1 8 4 1 10 3 1 12 3 1 12 3 1 12 3 1 12 3 1 12 3 1 12 3 1 12 3 1 12 4 2 13 4 2 13 4 2 13 4 2 13 4 2 13 4 2 13 4 2 13 4 2 13 4 2 15 4 2 15 4 2 15 4 2 15 4 2 15 4 2 15 4 2 15 4 2 15 6 4 17 6 4 17 6 4 17 6 4 17 6 4 17 6 4 17 6 4 17 5 5 17 6 9 18 5 9 18 5 9 18 5 9 18 5 9 18 5 9 18 5 9 18 5 9 18 8 12 21 7 11 20 6 10 19 5 9 18 4 8 17 2 6 15 2 6 15 1 5 14 6 11 17 11 16 20 19 24 28 30 35 39 41 46 50 52 57 61 61 66 70 65 70 74 67 72 76 65 70 74 63 68 72 60 65 69 56 61 65 53 58 62 51 56 60 49 54 58 47 52 58 45 50 56 43 48 54 40 45 51 36 41 47 33 38 44 31 36 42 29 34 40 18 23 29 16 21 27 14 19 25 11 16 22 7 12 18 4 9 15 2 7 13 0 5 11 2 10 13 2 10 13 2 10 13 2 10 13 2 10 13 2 10 13 2 10 13 2 10 13 10 18 21 12 20 23 14 22 25 17 25 28 21 29 32 24 32 35 26 34 37 28 36 39 36 41 44 36 41 44 36 41 44 36 41 44 36 41 44 36 41 44 36 41 44 36 41 44 52 57 60 52 57 60 52 57 60 52 57 60 52 57 60 52 57 60 52 57 60 53 57 58 47 47 47 46 45 43 44 42 43 41 40 38 37 35 36 34 33 31 32 30 31 30 29 27 32 30 31 32 31 29 32 30 31 32 31 29 32 30 31 32 31 29 32 30 31 32 31 29 36 32 29 36 32 29 37 32 29 36 32 29 37 32 29 36 32 29 37 32 29 36 32 29 37 32 29 36 32 29 37 32 29 36 32 29 37 32 29 36 32 29 37 32 29 36 32 29
1 0 5 1 0 5 1 0 5 1 0 5 1 0 5 1 0 5 1 0 5 1 0 5 1 0 5 1 0 5 1 0 5 1 0 5 4 2 7 4 2 7 4 2 7 4 2 7 4 2 7 4 2 7 4 2 7 4 2 7 4 2 7 4 2 7 4 2 7 4 2 7 4 2 7 4 2 7 4 2 7 4 1 8 3 2 10 3 1 12 3 1 12 3 1 12 3 1 12 3 1 12 3 1 12 3 1 12 4 2 13 4 2 13 4 2 13 4 2 13 4 2 13 4 2 13 4 2 13 4 2 13 4 2 15 4 2 15 4 2 15 4 2 15 4 2 15 4 2 15 4 2 15 4 2 15 6 4 17 6 4 17 6 4 17 6 4 17 6 4 17 6 4 17 6 4 17 5 5 17 6 9 18 5 9 18 5 9 18 5 9 18 5 9 18 5 9 18 5 9 18 5 9 18 7 11 20 7 11 20 7 11 20 6 10 19 5 9 18 5 9 18 4 8 17 4 9 15 11 16 22 15 20 24 23 28 32 33 38 42 44 49 53 54 59 63 62 67 71 66 71 75 67 72 76 65 70 74 63 68 72 60 65 69 56 61 65 53 58 62 51 56 60 49 54 58 47 52 58 45 50 56 43 48 54 40 45 51 36 41 47 33 38 44 31 36 42 29 34 40 18 23 29 16 21 27 14 19 25 11 16 22 7 12 18 4 9 15 2 7 13 0 5 11 2 10 13 2 10 13 2 10 13 2 10 13 2 10 13 2 10 13 2 10 13 2 10 13 10 18 21 12 20 23 14 22 25 17 25 28 21 29 32 24 32 35 26 34 37 28 36 39 36 41 44 36 41 44 36 41 44 36 41 44 36 41 44 36 41 44 36 41 44 36 41 44 50 55 58 50 55 58 50 55 58 50 55 58 50 55 58 50 55 58 50 55 58 51 55 56 47 47 47 46 45 43 44 43 41 41 40 38 37 36 34 34 33 31 32 31 29 30 29 27 32 31 29 32 31 29 32 31 29 32 31 29 32 31 29 32 31 29 32 31 29 32 31 27 37 32 29 37 32 28 37 32 28 37 32 28 37 32 28 37 32 28 37 32 28 37 32 28 37 32 28 37 32 28 37 32 28 37 32 28 37 32 28 37 32 28 37 32 28 37 32 28
1 0 5 1 0 5 1 0 5 1 0 5 1 0 5 1 0 5 1 0 5 1 0 5 1 0 5 1 0 5 1 0 5 1 0 5 4 2 7 4 2 7 4 2 7 4 2 7 4 2 7 4 2 7 4 2 7 4 2 7 4 2 7 4 2 7 4 2 7 4 2 7 4 2 7 4 2 7 4 2 7 4 1 8 3 2 10 3 1 12 3 1 12 3 1 12 3 1 12 3 1 12 3 1 12 3 1 12 4 2 13 4 2 13 4 2 13 4 2 13 4 2 13 4 2 13 4 2 13 4 2 13 4 2 15 4 2 15 4 2 15 4 2 15 4 2 15 4 2 15 4 2 15 4 2 15 6 4 17 6 4 17 6 4 17 6 4 17 6 4 17 6 4 17 6 4 17 5 5 17 6 9 18 5 9 18 5 9 18 5 9 18 5 9 18 5 9 18 5 9 18 5 9 18 6 10 19 7 11 20 7 11 20 8 12 21 8 12 21 9 13 22 10 14 23 10 15 21 19 24 30 23 28 32 30 35 39 38 43 47 48 53 57 57 62 66 64 69 73 67 72 76 67 72 76 65 70 74 63 68 72 60 65 69 56 61 65 53 58 62 51 56 60 49 54 58 47 52 58 45 50 56 43 48 54 40 45 51 36 41 47 33 38 44 31 36 42 29 34 40 18 23 29 16 21 27 14 19 25 11 16 22 7 12 18 4 9 15 2 7 13 0 5 11 2 10 13 2 10 13 2 10 13 2 10 13 2 10 13 2 10 13 2 10 13 2 10 13 10 18 21 12 20 23 14 22 25 17 25 28 21 29 32 24 32 35 26 34 37 28 36 39 36 41 44 36 41 44 36 41 44 36 41 44 36 41 44 36 41 44 36 41 44 36 41 44 48 53 56 48 53 56 48 53 56 48 53 56 48 53 56 48 53 56 48 53 56 49 53 54 47 47 47 46 45 43 44 43 41 41 40 38 37 36 34 34 33 31 32 31 29 30 29 27 32 31 29 32 31 29 32 31 29 32 31 29 32 31 29 32 31 29 32 31 29 32 31 27 37 32 29 37 32 28 37 32 28 37 32 28 37 32 28 37 32 28 37 32 28 37 32 28 37 32 28 37 32 28 37 32 28 37 32 28 37 32 28 37 32 28 37 32 28 37 32 28
1 0 5 1 0 5 1 0 5 1 0 5 1 0 5 1 0 5 1 0 5 1 0 5 1 0 5 1 0 5 1 0 5 1 0 5 4 2 7 4 2 7 4 2 7 4 2 7 4 2 7 4 2 7 4 2 7 4 2 7 4 2 7 4 2 7 4 2 7 4 2 7 4 2 7 4 2 7 4 2 7 4 1 8 3 2 10 3 1 12 3 1 12 3 1 12 3 1 12 3 1 12 3 1 12 3 1 12 4 2 13 4 2 13 4 2 13 4 2 13 4 2 13 4 2 13 4 2 13 4 2 13 4 2 15 4 2 15 4 2 15 4 2 15 4 2 15 4 2 15 4 2 15 4 2 15 6 4 17 6 4 17 6 4 17 6 4 17 6 4 17 6 4 17 6 4 17 5 5 17 6 9 18 5 9 18 5 9 18 5 9 18 5 9 18 5 9 18 5 9 18 5 9 18 5 9 18 6 10 19 8 12 21 10 14 23 13 17 26 15 19 28 17 21 30 18 23 29 30 35 41 33 38 42 38 43 47 46 51 55 53 58 62 61 66 70 66 71 75 69 74 78 67 72 76 65 70 74 63 68 72 60 65 69 56 61 65 53 58 62 51 56 60 49 54 58 47 52 58 45 50 56 43 48 54 40 45 51 36 41 47 33 38 44 31 36 42 29 34 40 18 23 29 16 21 27 14 19 25 11 16 22 7 12 18 4 9 15 2 7 13 0 5 11 2 10 13 2 10 13 2 10 13 2 10 13 2 10 13 2 10 13 2 10 13 2 10 13 10 18 21 12 20 23 14 22 25 17 25 28 21 29 32 24 32 35 26 34 37 28 36 39 36 41 44 36 41 44 36 41 44 36 41 44 36 41 44 36 41 44 36 41 44 36 41 44 45 50 53 45 50 53 45 50 53 45 50 53 45 50 53 45 50 53 45 50 53 46 50 51 47 47 47 46 45 43 44 43 41 41 40 38 37 36 34 34 33 31 32 31 29 30 29 27 32 31 29 32 31 29 32 31 29 32 31 29 32 31 29 32 31 29 32 31 29 32 31 27 37 32 29 37 32 28 37 32 28 37 32 28 37 32 28 37 32 28 37 32 28 37 32 28 37 32 28 37 32 28 37 32 28 37 32 28 37 32 28 37 32 28 37 32 28 37 32 28
1 0 5 1 0 5 1 0 5 1 0 5 1 0 5 1 0 5 1 0 5 1 0 5 1 0 5 1 0 5 1 0 5 1 0 5 4 2 7 4 2 7 4 2 7 4 2 7 4 2 7 4 2 7 4 2 7 4 2 7 4 2 7 4 2 7 4 2 7 4 2 7 4 2 7 4 2 7 4 2 7 4 1 8 3 2 10 3 1 12 3 1 12 3 1 12 3 1 12 3 1 12 3 1 12 3 1 12 4 2 13 4 2 13 4 2 13 4 2 13 4 2 13 4 2 13 4 2 13 4 2 13 4 2 15 4 2 15 4 2 15 4 2 15 4 2 15 4 2 15 4 2 15 4 2 15 6 4 17 6 4 17 6 4 17 6 4 17 6 4 17 6 4 17 6 4 17 5 5 17 6 9 18 5 9 18 5 9 18 5 9 18 5 9 18 5 9 18 5 9 18 5 9 18 4 8 17 5 9 18 8 12 21 13 17 26 17 21 30 21 25 34 24 28 37 26 31 37 41 46 52 44 49 53 48 53 57 53 58 62 59 64 68 65 70 74 69 74 78 71 76 80 67 72 76 65 70 74 63 68 72 60 65 69 56 61 65 53 58 62 51 56 60 49 54 58 47 52 58 45 50 56 43 48 54 40 45 51 36 41 47 33 38 44 31 36 42 29 34 40 18 23 29 16 21 27 14 19 25 11 16 22 7 12 18 4 9 15 2 7 13 0 5 11 2 10 13 2 10 13 2 10 13 2 10 13 2 10 13 2 10 13 2 10 13 2 10 13 10 18 21 12 20 23 14 22 25 17 25 28 21 29 32 24 32 35 26 34 37 28 36 39 36 41 44 36 41 44 36 41 44 36 41 44 36 41 44 36 41 44 36 41 44 36 41 44 41 46 49 41 46 49 41 46 49 41 46 49 41 46 49 41 46 49 41 46 49 42 46 47 47 47 47 46 45 43 44 43 41 41 40 38 37 36 34 34 33 31 32 31 29 30 29 27 32 31 29 32 31 29 32 31 29 32 31 29 32 31 29 32 31 29 32 31 29 32 31 27 37 32 29 37 32 28 37 32 28 37 32 28 37 32 28 37 32 28 37 32 28 37 32 28 37 32 28 37 32 28 37 32 28 37 32 28 37 32 28 37 32 28 37 32 28 37 32 28
1 0 5 1 0 5 1 0 5 1 0 5 1 0 5 1 0 5 1 0 5 1 0 5 1 0 5 1 0 5 1 0 5 1 0 5 4 2 7 4 2 7 4 2 7 4 2 7 4 2 7 4 2 7 4 2 7 4 2 7 4 2 7 4 2 7 4 2 7 4 2 7 4 2 7 4 2 7 4 2 7 4 1 8 3 2 10 3 1 12 3 1 12 3 1 12 3 1 12 3 1 12 3 1 12 3 1 12 4 2 13 4 2 13 4 2 13 4 2 13 4 2 13 4 2 13 4 2 13 4 2 13 4 2 15 4 2 15 4 2 15 4 2 15 4 2 15 4 2 15 4 2 15 4 2 15 6 4 17 6 4 17 6 4 17 6 4 17 6 4 17 6 4 17 6 4 17 5 5 17 6 9 18 5 9 18 5 9 18 5 9 18 5 9 18 5 9 18 5 9 18 5 9 18 2 6 15 5 9 18 9 13 22 15 19 28 21 25 34 27 31 40 31 35 44 33 38 44 52 57 63 54 59 63 57 62 66 61 66 70 65 70 74 69 74 78 72 77 81 73 78 82 67 72 76 65 70 74 63 68 72 60 65 69 56 61 65 53 58 62 51 56 60 49 54 58 47 52 58 45 50 56 43 48 54 40 45 51 36 41 47 33 38 44 31 36 42 29 34 40 18 23 29 16 21 27 14 19 25 11 16 22 7 12 18 4 9 15 2 7 13 0 5 11 2 10 13 2 10 13 2 10 13 2 10 13 2 10 13 2 10 13 2 10 13 2 10 13 10 18 21 12 20 23 14 22 25 17 25 28 21 29 32 24 32 35 26 34 37 28 36 39 36 41 44 36 41 44 36 41 44 36 41 44 36 41 44 36 41 44 36 41 44 36 41 44 38 43 46 38 43 46 38 43 46 38 43 46 38 43 46 38 43 46 38 43 46 39 43 44 47 47 47 46 45 43 44 43 41 41 40 38 37 36 34 34 33 31 32 31 29 30 29 27 32 31 29 32 31 29 32 31 29 32 31 29 32 31 29 32 31 29 32 31 29 32 31 27 37 32 29 37 32 28 37 32 28 37 32 28 37 32 28 37 32 28 37 32 28 37 32 28 37 32 28 37 32 28 37 32 28 37 32 28 37 32 28 37 32 28 37 32 28 37 32 28
1 0 5 1 0 5 1 0 5 1 0 5 1 0 5 1 0 5 1 0 5 1 0 5 1 0 5 1 0 5 1 0 5 1 0 5 4 2 7 4 2 7 4 2 7 4 2 7 4 2 7 4 2 7 4 2 7 4 2 7 4 2 7 4 2 7 4 2 7 4 2 7 4 2 7 4 2 7 4 2 7 4 1 8 3 2 10 3 1 12 3 1 12 3 1 12 3 1 12 3 1 12 3 1 12 3 1 12 4 2 13 4 2 13 4 2 13 4 2 13 4 2 13 4 2 13 4 2 13 4 2 13 4 2 15 4 2 15 4 2 15 4 2 15 4 2 15 4 2 15 4 2 15 4 2 15 6 4 17 6 4 17 6 4 17 6 4 17 6 4 17 6 4 17 6 4 17 5 5 17 6 9 18 5 9 18 5 9 18 5 9 18 5 9 18 5 9 18 5 9 18 5 9 18 1 5 14 4 8 17 10 14 23 17 21 30 24 28 37 31 35 44 36 40 49 39 44 50 61 66 72 62 67 71 64 69 73 66 71 75 69 74 78 72 77 81 74 79 83 75 80 84 67 72 76 65 70 74 63 68 72 60 65 69 56 61 65 53 58 62 51 56 60 49 54 58 47 52 58 45 50 56 43 48 54 40 45 51 36 41 47 33 38 44 31 36 42 29 34 40 18 23 29 16 21 27 14 19 25 11 16 22 7 12 18 4 9 15 2 7 13 0 5 11 2 10 13 2 10 13 2 10 13 2 10 13 2 10 13 2 10 13 2 10 13 2 10 13 10 18 21 12 20 23 14 22 25 17 25 28 21 29 32 24 32 35 26 34 37 28 36 39 36 41 44 36 41 44 36 41 44 36 41 44 36 41 44 36 41 44 36 41 44 36 41 44 36 41 44 36 41 44 36 41 44 36 41 44 36 41 44 36 41 44 36 41 44 37 41 42 47 47 47 46 45 43 44 43 41 41 40 38 37 36 34 34 33 31 32 31 29 30 29 27 32 31 29 32 31 29 32 31 29 32 31 29 32 31 29 32 31 29 32 31 29 32 31 27 37 32 29 37 32 28 37 32 28 37 32 28 37 32 28 37 32 28 37 32 28 37 32 28 37 32 28 37 32 28 37 32 28 37 32 28 37 32 28 37 32 28 37 32 28 37 32 28
1 0 5 1 0 5 1 0 5 1 0 5 1 0 5 1 0 5 1 0 5 1 0 5 1 0 5 1 0 5 1 0 5 1 0 5 4 2 7 4 2 7 4 2 7 4 2 7 4 2 7 4 2 7 4 2 7 4 2 7 4 2 7 4 2 7 4 2 7 4 2 7 4 2 7 4 2 7 4 2 7 4 1 8 3 2 10 3 1 12 3 1 12 3 1 12 3 1 12 3 1 12 3 1 12 3 1 12 4 2 13 4 2 13 4 2 13 4 2 13 4 2 13 4 2 13 4 2 13 4 2 13 4 2 15 4 2 15 4 2 15 4 2 15 4 2 15 4 2 15 4 2 15 4 2 15 6 4 17 6 4 17 6 4 17 6 4 17 6 4 17 6 4 17 6 4 17 5 5 17 6 9 18 5 9 18 5 9 18 5 9 18 5 9 18 5 9 18 5 9 18 5 9 18 1 5 14 4 8 17 10 14 23 18 22 31 26 30 39 33 37 46 39 43 52 42 47 53 65 70 76 66 71 75 67 72 76 69 74 78 71 76 80 73 78 82 75 80 84 76 81 85 67 72 76 65 70 74 63 68 72 60 65 69 56 61 65 53 58 62 51 56 60 49 54 58 47 52 58 45 50 56 43 48 54 40 45 51 36 41 47 33 38 44 31 36 42 29 34 40 18 23 29 16 21 27 14 19 25 11 16 22 7 12 18 4 9 15 2 7 13 0 5 11 2 10 13 2 10 13 2 10 13 2 10 13 2 10 13 2 10 13 2 10 13 2 10 13 10 18 21 12 20 23 14 22 25 17 25 28 21 29 32 24 32 35 26 34 37 28 36 39 36 41 44 36 41 44 36 41 44 36 41 44 36 41 44 36 41 44 36 41 44 36 41 44 34 39 42 34 39 42 34 39 42 34 39 42 34 39 42 34 39 42 34 39 42 35 39 40 47 47 47 46 45 43 44 43 41 41 40 38 37 36 34 34 33 31 32 31 29 30 29 27 32 31 29 32 31 29 32 31 29 32 31 29 32 31 29 32 31 29 32 31 29 32 31 27 37 32 29 37 32 28 37 32 28 37 32 28 37 32 28 37 32 28 37 32 28 37 32 28 37 32 28 37 32 28 37 32 28 37 32 28 37 32 28 37 32 28 37 32 28 37 32 28
0 0 4 0 0 4 0 0 4 0 0 4 0 0 4 0 0 4 0 0 4 0 0 4 0 0 4 0 0 4 0 0 4 0 0 4 1 0 4 1 0 4 1 0 4 1 0 4 1 0 4 1 0 4 1 0 4 1 0 4 1 0 4 1 0 4 1 0 4 1 0 4 1 0 4 1 0 4 1 0 4 1 0 5 2 1 9 2 0 11 2 0 11 2 0 11 2 0 11 2 0 11 2 0 11 2 0 11 3 1 12 3 1 12 3 1 12 3 1 12 3 1 12 3 1 12 3 1 12 3 1 12 5 3 16 5 3 16 5 3 16 5 3 16 5 3 16 5 3 16 5 3 16 5 3 16 7 5 18 7 5 18 7 5 18 7 5 18 7 5 18 7 5 18 7 5 18 6 6 18 8 11 20 6 10 19 6 10 19 4 8 17 3 7 16 2 6 15 1 5 14 0 4 13 27 31 40 30 34 43 36 40 49 43 47 56 51 55 64 59 63 72 65 69 78 68 73 79 69 74 80 69 74 78 69 74 78 69 74 78 69 74 78 69 74 78 69 74 78 69 74 78 76 81 85 74 79 83 72 77 81 69 74 78 65 70 74 62 67 71 60 65 69 58 63 67 43 48 54 42 47 53 39 44 50 36 41 47 33 38 44 29 34 40 27 32 38 26 31 37 21 26 32 19 24 30 17 22 28 14 19 25 10 15 21 7 12 18 5 10 16 3 8 14 6 14 17 6 14 17 6 14 17 6 14 17 6 14 17 6 14 17 6 14 17 6 14 17 19 27 30 19 27 30 19 27 30 19 27 30 19 27 30 19 27 30 19 27 30 19 27 30 27 32 35 27 32 35 27 32 35 27 32 35 27 32 35 27 32 35 27 32 35 27 32 35 29 34 37 29 34 37 29 34 37 29 34 37 29 34 37 29 34 37 29 34 37 30 34 35 30 30 30 31 30 28 31 30 28 31 30 28 31 30 28 31 30 28 31 30 28 31 30 28 32 31 29 32 31 29 32 31 29 32 31 29 32 31 29 32 31 29 32 31 29 32 31 27 36 31 28 36 31 27 36 31 27 36 31 27 36 31 27 36 31 27 36 31 27 36 31 27 37 32 28 37 32 28 37 32 28 37 32 28 37 32 28 37 32 28 37 32 28 37 32 28
0 0 4 0 0 4 0 0 4 0 0 4 0 0 4 0 0 4 0 0 4 0 0 4 0 0 4 0 0 4 0 0 4 0 0 4 1 0 4 1 0 4 1 0 4 1 0 4 1 0 4 1 0 4 1 0 4 1 0 4 1 0 4 1 0 4 1 0 4 1 0 4 1 0 4 1 0 4 1 0 4 1 0 5 2 1 9 2 0 11 2 0 11 2 0 11 2 0 11 2 0 11 2 0 11 2 0 11 3 1 12 3 1 12 3 1 12 3 1 12 3 1 12 3 1 12 3 1 12 3 1 12 5 3 16 5 3 16 5 3 16 5 3 16 5 3 16 5 3 16 5 3 16 5 3 16 7 5 18 7 5 18 7 5 18 7 5 18 7 5 18 7 5 18 7 5 18 6 6 18 9 12 21 8 12 21 7 11 20 7 11 20 6 10 19 5 9 18 5 9 18 5 9 18 30 34 43 33 37 46 38 42 51 45 49 58 52 56 65 59 63 72 65 69 78 68 73 79 69 74 80 69 74 78 69 74 78 69 74 78 69 74 78 69 74 78 69 74 78 69 74 78 76 81 85 74 79 83 72 77 81 69 74 78 65 70 74 62 67 71 60 65 69 58 63 67 44 49 55 43 48 54 41 46 52 37 42 48 34 39 45 31 36 42 28 33 39 27 32 38 21 26 32 19 24 30 17 22 28 14 19 25 10 15 21 7 12 18 5 10 16 3 8 14 6 14 17 6 14 17 6 14 17 6 14 17 6 14 17 6 14 17 6 14 17 6 14 17 19 27 30 19 27 30 19 27 30 19 27 30 19 27 30 19 27 30 19 27 30 19 27 30 27 32 35 27 32 35 27 32 35 27 32 35 27 32 35 27 32 35 27 32 35 27 32 35 29 34 37 29 34 37 29 34 37 29 34 37 29 34 37 29 34 37 29 34 37 30 34 35 30 30 30 31 30 28 31 30 28 31 30 28 31 30 28 31 30 28 31 30 28 31 30 28 32 31 29 32 31 29 32 31 29 32 31 29 32 31 29 32 31 29 32 31 29 32 31 27 36 31 28 36 31 27 36 31 27 36 31 27 36 31 27 36 31 27 36 31 27 36 31 27 37 32 28 37 32 28 37 32 28 37 32 28 37 32 28 37 32 28 37 32 28 37 32 28
0 0 4 0 0 4 0 0 4 0 0 4 0 0 4 0 0 4 0 0 4 0 0 4 0 0 4 0 0 4 0 0 4 0 0 4 1 0 4 1 0 4 1 0 4 1 0 4 1 0 4 1 0 4 1 0 4 1 0 4 1 0 4 1 0 4 1 0 4 1 0 4 1 0 4 1 0 4 1 0 4 1 0 5 2 1 9 2 0 11 2 0 11 2 0 11 2 0 11 2 0 11 2 0 11 2 0 11 3 1 12 3 1 12 3 1 12 3 1 12 3 1 12 3 1 12 3 1 12 3 1 12 5 3 16 5 3 16 5 3 16 5 3 16 5 3 16 5 3 16 5 3 16 5 3 16 7 5 18 7 5 18 7 5 18 7 5 18 7 5 18 7 5 18 7 5 18 6 6 18 10 13 22 10 14 23 10 14 23 11 15 24 12 16 25 12 16 25 13 17 26 13 17 26 36 40 49 38 42 51 42 46 55 48 52 61 54 58 67 60 64 73 64 68 77 67 72 78 69 74 80 69 74 78 69 74 78 69 74 78 69 74 78 69 74 78 69 74 78 69 74 78 76 81 85 74 79 83 72 77 81 69 74 78 65 70 74 62 67 71 60 65 69 58 63 67 47 52 58 45 50 56 43 48 54 40 45 51 36 41 47 33 38 44 31 36 42 29 34 40 21 26 32 19 24 30 17 22 28 14 19 25 10 15 21 7 12 18 5 10 16 3 8 14 6 14 17 6 14 17 6 14 17 6 14 17 6 14 17 6 14 17 6 14 17 6 14 17 19 27 30 19 27 30 19 27 30 19 27 30 19 27 30 19 27 30 19 27 30 19 27 30 27 32 35 27 32 35 27 32 35 27 32 35 27 32 35 27 32 35 27 32 35 27 32 35 29 34 37 29 34 37 29 34 37 29 34 37 29 34 37 29 34 37 29 34 37 30 34 35 30 30 30 31 30 28 31 30 28 31 30 28 31 30 28 31 30 28 31 30 28 31 30 28 32 31 29 32 31 29 32 31 29 32 31 29 32 31 29 32 31 29 32 31 29 32 31 27 36 31 28 36 31 27 36 31 27 36 31 27 36 31 27 36 31 27 36 31 27 36 31 27 37 32 28 37 32 28 37 32 28 37 32 28 37 32 28 37 32 28 37 32 28 37 32 28
0 0 4 0 0 4 0 0 4 0 0 4 0 0 4 0 0 4 0 0 4 0 0 4 0 0 4 0 0 4 0 0 4 0 0 4 1 0 4 1 0 4 1 0 4 1 0 4 1 0 4 1 0 4 1 0 4 1 0 4 1 0 4 1 0 4 1 0 4 1 0 4 1 0 4 1 0 4 1 0 4 1 0 5 2 1 9 2 0 11 2 0 11 2 0 11 2 0 11 2 0 11 2 0 11 2 0 11 3 1 12 3 1 12 3 1 12 3 1 12 3 1 12 3 1 12 3 1 12 3 1 12 5 3 16 5 3 16 5 3 16 5 3 16 5 3 16 5 3 16 5 3 16 5 3 16 7 5 18 7 5 18 7 5 18 7 5 18 7 5 18 7 5 18 7 5 18 6 6 18 12 15 24 12 16 25 14 18 27 16 20 29 19 23 32 21 25 34 23 27 36 24 28 37 43 47 56 45 49 58 48 52 61 52 56 65 56 60 69 61 65 74 64 68 77 65 70 76 69 74 80 69 74 78 69 74 78 69 74 78 69 74 78 69 74 78 69 74 78 69 74 78 76 81 85 74 79 83 72 77 81 69 74 78 65 70 74 62 67 71 60 65 69 58 63 67 50 55 61 49 54 60 46 51 57 43 48 54 40 45 51 36 41 47 34 39 45 33 38 44 21 26 32 19 24 30 17 22 28 14 19 25 10 15 21 7 12 18 5 10 16 3 8 14 6 14 17 6 14 17 6 14 17 6 14 17 6 14 17 6 14 17 6 14 17 6 14 17 19 27 30 19 27 30 19 27 30 19 27 30 19 27 30 19 27 30 19 27 30 19 27 30 27 32 35 27 32 35 27 32 35 27 32 35 27 32 35 27 32 35 27 32 35 27 32 35 29 34 37 29 34 37 29 34 37 29 34 37 29 34 37 29 34 37 29 34 37 30 34 35 30 30 30 31 30 28 31 30 28 31 30 28 31 30 28 31 30 28 31 30 28 31 30 28 32 31 29 32 31 29 32 31 29 32 31 29 32 31 29 32 31 29 32 31 29 32 31 27 36 31 28 36 31 27 36 31 27 36 31 27 36 31 27 36 31 27 36 31 27 36 31 27 37 32 28 37 32 28 37 32 28 37 32 28 37 32 28 37 32 28 37 32 28 37 32 28
0 0 4 0 0 4 0 0 4 0 0 4 0 0 4 0 0 4 0 0 4 0 0 4 0 0 4 0 0 4 0 0 4 0 0 4 1 0 4 1 0 4 1 0 4 1 0 4 1 0 4 1 0 4 1 0 4 1 0 4 1 0 4 1 0 4 1 0 4 1 0 4 1 0 4 1 0 4 1 0 4 1 0 5 2 1 9 2 0 11 2 0 11 2 0 11 2 0 11 2 0 11 2 0 11 2 0 11 3 1 12 3 1 12 3 1 12 3 1 12 3 1 12 3 1 12 3 1 12 3 1 12 5 3 16 5 3 16 5 3 16 5 3 16 5 3 16 5 3 16 5 3 16 5 3 16 7 5 18 7 5 18 7 5 18 7 5 18 7 5 18 7 5 18 7 5 18 6 6 18 14 17 26 15 19 28 18 22 31 22 26 35 27 31 40 31 35 44 34 38 47 35 39 48 51 55 64 52 56 65 54 58 67 56 60 69 59 63 72 61 65 74 63 67 76 64 69 75 69 74 80 69 74 78 69 74 78 69 74 78 69 74 78 69 74 78 69 74 78 69 74 78 76 81 85 74 79 83 72 77 81 69 74 78 65 70 74 62 67 71 60 65 69 58 63 67 53 58 64 52 57 63 50 55 61 46 51 57 43 48 54 40 45 51 37 42 48 36 41 47 21 26 32 19 24 30 17 22 28 14 19 25 10 15 21 7 12 18 5 10 16 3 8 14 6 14 17 6 14 17 6 14 17 6 14 17 6 14 17 6 14 17 6 14 17 6 14 17 19 27 30 19 27 30 19 27 30 19 27 30 19 27 30 19 27 30 19 27 30 19 27 30 27 32 35 27 32 35 27 32 35 27 32 35 27 32 35 27 32 35 27 32 35 27 32 35 29 34 37 29 34 37 29 34 37 29 34 37 29 34 37 29 34 37 29 34 37 30 34 35 30 30 30 31 30 28 31 30 28 31 30 28 31 30 28 31 30 28 31 30 28 31 30 28 32 31 29 32 31 29 32 31 29 32 31 29 32 31 29 32 31 29 32 31 29 32 31 27 36 31 28 36 31 27 36 31 27 36 31 27 36 31 27 36 31 27 36 31 27 36 31 27 37 32 28 37 32 28 37 32 28 37 32 28 37 32 28 37 32 28 37 32 28 37 32 28
0 0 4 0 0 4 0 0 4 0 0 4 0 0 4 0 0 4 0 0 4 0 0 4 0 0 4 0 0 4 0 0 4 0 0 4 1 0 4 1 0 4 1 0 4 1 0 4 1 0 4 1 0 4 1 0 4 1 0 4 1 0 4 1 0 4 1 0 4 1 0 4 1 0 4 1 0 4 1 0 4 1 0 5 2 1 9 2 0 11 2 0 11 2 0 11 2 0 11 2 0 11 2 0 11 2 0 11 3 1 12 3 1 12 3 1 12 3 1 12 3 1 12 3 1 12 3 1 12 3 1 12 5 3 16 5 3 16 5 3 16 5 3 16 5 3 16 5 3 16 5 3 16 5 3 16 7 5 18 7 5 18 7 5 18 7 5 18 7 5 18 7 5 18 7 5 18 6 6 18 16 19 28 18 22 31 22 26 35 28 32 41 34 38 47 40 44 53 44 48 57 46 50 59 59 63 72 59 63 72 60 64 73 61 65 74 61 65 74 62 66 75 62 66 75 63 68 74 69 74 80 69 74 78 69 74 78 69 74 78 69 74 78 69 74 78 69 74 78 69 74 78 76 81 85 74 79 83 72 77 81 69 74 78 65 70 74 62 67 71 60 65 69 58 63 67 57 62 68 55 60 66 53 58 64 50 55 61 46 51 57 43 48 54 41 46 52 39 44 50 21 26 32 19 24 30 17 22 28 14 19 25 10 15 21 7 12 18 5 10 16 3 8 14 6 14 17 6 14 17 6 14 17 6 14 17 6 14 17 6 14 17 6 14 17 6 14 17 19 27 30 19 27 30 19 27 30 19 27 30 19 27 30 19 27 30 19 27 30 19 27 30 27 32 35 27 32 35 27 32 35 27 32 35 27 32 35 27 32 35 27 32 35 27 32 35 29 34 37 29 34 37 29 34 37 29 34 37 29 34 37 29 34 37 29 34 37 30 34 35 30 30 30 31 30 28 31 30 28 31 30 28 31 30 28 31 30 28 31 30 28 31 30 28 32 31 29 32 31 29 32 31 29 32 31 29 32 31 29 32 31 29 32 31 29 32 31 27 36 31 28 36 31 27 36 31 27 36 31 27 36 31 27 36 31 27 36 31 27 36 31 27 37 32 28 37 32 28 37 32 28 37 32 28 37 32 28 37 32 28 37 32 28 37 32 28
0 0 4 0 0 4 0 0 4 0 0 4 0 0 4 0 0 4 0 0 4 0 0 4 0 0 4 0 0 4 0 0 4 0 0 4 1 0 4 1 0 4 1 0 4 1 0 4 1 0 4 1 0 4 1 0 4 1 0 4 1 0 4 1 0 4 1 0 4 1 0 4 1 0 4 1 0 4 1 0 4 1 0 5 2 1 9 2 0 11 2 0 11 2 0 11 2 0 11 2 0 11 2 0 11 2 0 11 3 1 12 3 1 12 3 1 12 3 1 12 3 1 12 3 1 12 3 1 12 3 1 12 5 3 16 5 3 16 5 3 16 5 3 16 5 3 16 5 3 16 5 3 16 5 3 16 7 5 18 7 5 18 7 5 18 7 5 18 7 5 18 7 5 18 7 5 18 6 6 18 18 21 30 20 24 33 25 29 38 32 36 45 39 43 52 46 50 59 52 56 65 55 59 68 65 69 78 65 69 78 64 68 77 64 68 77 63 67 76 62 66 75 62 66 75 62 67 73 69 74 80 69 74 78 69 74 78 69 74 78 69 74 78 69 74 78 69 74 78 69 74 78 76 81 85 74 79 83 72 77 81 69 74 78 65 70 74 62 67 71 60 65 69 58 63 67 59 64 70 58 63 69 55 60 66 52 57 63 49 54 60 45 50 56 43 48 54 42 47 53 21 26 32 19 24 30 17 22 28 14 19 25 10 15 21 7 12 18 5 10 16 3 8 14 6 14 17 6 14 17 6 14 17 6 14 17 6 14 17 6 14 17 6 14 17 6 14 17 19 27 30 19 27 30 19 27 30 19 27 30 19 27 30 19 27 30 19 27 30 19 27 30 27 32 35 27 32 35 27 32 35 27 32 35 27 32 35 27 32 35 27 32 35 27 32 35 29 34 37 29 34 37 29 34 37 29 34 37 29 34 37 29 34 37 29 34 37 30 34 35 30 30 30 31 30 28 31 30 28 31 30 28 31 30 28 31 30 28 31 30 28 31 30 28 32 31 29 32 31 29 32 31 29 32 31 29 32 31 29 32 31 29 32 31 29 32 31 27 36 31 28 36 31 27 36 31 27 36 31 27 36 31 27 36 31 27 36 31 27 36 31 27 37 32 28 37 32 28 37 32 28 37 32 28 37 32 28 37 32 28 37 32 28 37 32 28
0 0 4 0 0 2 0 0 4 0 0 2 0 0 4 0 0 2 0 0 4 0 0 2 0 0 4 0 0 2 0 0 4 0 0 4 1 0 4 1 0 4 1 0 4 1 0 4 1 0 4 1 0 4 1 0 4 1 0 4 1 0 4 1 0 4 1 0 4 1 0 4 1 0 4 1 0 4 1 0 4 1 0 5 2 1 9 2 1 9 2 0 11 2 1 9 2 0 11 2 1 9 2 0 11 2 1 9 3 1 12 3 2 10 3 1 12 3 2 10 3 1 12 3 2 10 3 1 12 3 1 12 5 3 14 4 4 14 5 3 16 4 4 14 5 3 16 4 4 14 5 3 16 4 4 14 7 5 18 6 6 16 7 5 18 6 6 16 7 5 18 6 6 16 7 5 18 6 6 16 19 22 31 21 26 32 27 31 40 34 39 45 42 46 55 50 55 61 56 60 69 59 64 70 68 72 81 67 72 78 67 71 80 65 70 76 64 68 77 63 68 74 62 66 75 61 66 72 69 74 78 69 74 78 69 74 78 69 74 78 69 74 78 69 74 78 69 74 78 69 74 78 76 81 85 74 79 83 72 77 81 69 74 78 65 70 74 62 67 71 60 65 69 58 63 67 60 65 69 59 64 68 57 62 68 53 58 62 50 55 61 47 52 56 44 49 55 43 48 52 21 26 32 19 24 28 17 22 28 14 19 23 10 15 21 7 12 16 5 10 16 3 8 12 6 14 17 6 14 17 6 14 17 6 14 17 6 14 17 6 14 17 6 14 17 6 14 17 19 27 30 19 27 30 19 27 30 19 27 30 19 27 30 19 27 30 19 27 30 19 27 30 27 32 35 27 32 35 27 32 35 27 32 35 27 32 35 27 32 35 27 32 35 27 32 35 29 34 37 29 34 37 29 34 37 29 34 37 29 34 37 29 34 37 29 34 37 30 34 35 30 30 30 31 30 28 31 30 28 31 30 28 31 30 28 31 30 28 31 30 28 31 30 28 32 31 29 32 31 29 32 31 29 32 31 29 32 31 29 32 31 29 32 31 29 34 30 29 36 31 28 36 31 27 36 31 27 36 31 27 36 31 27 36 31 27 36 31 27 36 31 27 37 32 28 37 32 28 37 32 28 37 32 28 37 32 28 37 32 28 37 32 28 37 32 29
0 0 2 0 0 0 0 0 2 0 0 0 0 0 2 0 0 0 0 0 2 0 0 0 0 0 2 0 0 0 0 0 2 0 0 2 0 0 4 0 0 4 0 0 4 0 0 4 0 0 4 0 0 4 0 0 4 0 0 4 2 1 6 2 1 6 2 1 6 2 1 6 2 1 6 2 1 6 2 1 6 2 1 6 2 1 7 2 1 7 2 1 9 2 1 7 2 1 9 2 1 7 2 1 9 2 1 7 1 0 8 1 0 6 1 0 8 1 0 6 1 0 8 1 0 6 1 0 8 1 0 8 3 3 11 0 3 10 1 1 11 0 1 8 0 0 9 0 0 7 0 0 9 0 0 7 0 0 9 0 0 7 0 0 9 3 6 13 13 13 23 19 22 29 27 27 37 28 31 38 55 60 66 55 60 64 55 60 66 55 60 64 55 60 66 55 60 64 55 60 66 55 60 64 67 72 78 67 72 76 67 72 78 67 72 76 67 72 78 67 72 76 67 72 78 67 72 76 75 80 84 75 80 83 75 80 83 75 80 83 75 80 83 75 80 83 75 80 83 75 80 83 73 78 81 74 79 82 76 81 84 80 85 88 83 88 91 86 91 94 89 94 97 90 95 98 90 95 98 87 92 95 82 87 91 76 81 84 69 74 78 63 68 71 58 63 67 55 60 63 10 15 19 12 17 20 16 21 25 20 25 28 25 30 34 29 34 37 33 38 42 34 39 43 18 26 29 17 25 28 14 22 25 11 19 22 8 16 19 4 12 15 2 10 13 1 9 12 13 21 24 13 21 24 13 21 24 13 21 24 13 21 24 13 21 24 13 21 24 13 21 24 29 34 38 29 34 38 29 34 38 29 34 38 29 34 38 29 34 38 29 34 38 29 34 38 18 23 27 18 23 27 18 23 27 18 23 27 18 23 27 18 23 27 18 23 27 19 23 26 28 26 27 30 26 25 30 26 25 30 26 25 30 26 25 30 26 25 30 26 25 30 26 25 34 30 29 34 30 29 34 30 29 34 30 29 34 30 29 34 30 29 34 30 29 34 30 29 34 29 26 36 28 26 36 28 26 36 28 26 36 28 26 36 28 26 36 28 26 36 28 26 38 30 28 38 30 28 38 30 28 38 30 28 38 30 28 38 30 28 38 30 28 36 31 28
0 0 0 0 0 0 0 0 0 0 0 0 0 0 0 0 0 0 0 0 0 0 0 0 0 0 0 0 0 0 0 0 0 0 0 0 0 0 4 0 0 4 0 0 4 0 0 4 0 0 4 0 0 4 0 0 4 0 0 4 2 1 6 2 1 6 2 1 6 2 1 6 2 1 6 2 1 6 2 1 6 2 1 6 2 1 7 2 1 7 2 1 7 2 1 7 2 1 7 2 1 7 2 1 7 2 1 7 1 0 6 1 0 6 1 0 6 1 0 6 1 0 6 1 0 6 1 0 6 0 1 6 2 2 10 0 3 10 0 3 10 0 2 9 0 1 8 0 1 8 0 0 7 0 0 7 0 0 7 0 2 9 5 8 15 12 15 22 19 22 29 26 29 36 31 34 41 34 37 44 55 60 64 55 60 64 55 60 64 55 60 64 55 60 64 55 60 64 55 60 64 55 60 64 67 72 76 67 72 76 67 72 76 67 72 76 67 72 76 67 72 76 67 72 76 67 72 76 75 80 83 75 80 83 75 80 83 75 80 83 75 80 83 75 80 83 75 80 83 75 80 83 74 79 82 75 80 83 78 83 86 81 86 89 84 89 92 88 93 96 90 95 98 91 96 99 91 96 99 88 93 96 83 88 91 77 82 85 70 75 78 64 69 72 59 64 67 56 61 64 13 18 21 15 20 23 18 23 26 22 27 30 26 31 34 29 34 37 32 37 40 34 39 42 19 27 30 18 26 29 16 24 27 12 20 23 9 17 20 6 14 17 3 11 14 2 10 13 13 21 24 13 21 24 13 21 24 13 21 24 13 21 24 13 21 24 13 21 24 13 21 24 27 32 36 27 32 36 27 32 36 27 32 36 27 32 36 27 32 36 27 32 36 27 32 36 18 23 27 18 23 27 18 23 27 18 23 27 18 23 27 18 23 27 18 23 27 19 23 26 28 26 27 30 26 25 30 26 25 30 26 25 30 26 25 30 26 25 30 26 25 30 26 25 34 30 29 34 30 29 34 30 29 34 30 29 34 30 29 34 30 29 34 30 29 34 30 29 36 28 26 36 28 26 36 28 26 36 28 26 36 28 26 36 28 26 36 28 26 36 28 26 38 30 28 38 30 28 38 30 28 38 30 28 38 30 28 38 30 28 38 30 28 38 30 28
0 0 0 0 0 0 0 0 0 0 0 0 0 0 0 0 0 0 0 0 0 0 0 0 0 0 0 0 0 0 0 0 0 0 0 0 0 0 4 0 0 4 0 0 4 0 0 4 0 0 4 0 0 4 0 0 4 0 0 4 2 1 6 2 1 6 2 1 6 2 1 6 2 1 6 2 1 6 2 1 6 2 1 6 2 1 7 2 1 7 2 1 7 2 1 7 2 1 7 2 1 7 2 1 7 2 1 7 1 0 6 1 0 6 1 0 6 1 0 6 1 0 6 1 0 6 1 0 6 0 1 6 1 1 9 0 3 10 0 3 10 1 4 11 1 4 11 2 5 12 3 6 13 3 6 13 13 16 23 15 18 25 19 22 29 25 28 35 31 34 41 37 40 47 41 44 51 44 47 54 55 60 64 55 60 64 55 60 64 55 60 64 55 60 64 55 60 64 55 60 64 55 60 64 67 72 76 67 72 76 67 72 76 67 72 76 67 72 76 67 72 76 67 72 76 67 72 76 75 80 83 75 80 83 75 80 83 75 80 83 75 80 83 75 80 83 75 80 83 75 80 83 76 81 84 78 83 86 80 85 88 83 88 91 87 92 95 90 95 98 92 97 100 94 99 102 93 98 101 91 96 99 86 91 94 80 85 88 73 78 81 66 71 74 61 66 69 59 64 67 19 24 27 20 25 28 22 27 30 25 30 33 27 32 35 30 35 38 32 37 40 33 38 41 22 30 33 20 28 31 18 26 29 15 23 26 11 19 22 8 16 19 6 14 17 4 12 15 13 21 24 13 21 24 13 21 24 13 21 24 13 21 24 13 21 24 13 21 24 13 21 24 25 30 34 25 30 34 25 30 34 25 30 34 25 30 34 25 30 34 25 30 34 25 30 34 18 23 27 18 23 27 18 23 27 18 23 27 18 23 27 18 23 27 18 23 27 19 23 26 28 26 27 30 26 25 30 26 25 30 26 25 30 26 25 30 26 25 30 26 25 30 26 25 34 30 29 34 30 29 34 30 29 34 30 29 34 30 29 34 30 29 34 30 29 34 30 29 36 28 26 36 28 26 36 28 26 36 28 26 36 28 26 36 28 26 36 28 26 36 28 26 38 30 28 38 30 28 38 30 28 38 30 28 38 30 28 38 30 28 38 30 28 38 30 28
