P3
207 145
255
70 58 62 67 55 59 63 51 55 61 49 53 62 47 52 72 52 63 73 51 63 73 51 63 73 51 63 73 51 63 73 51 63 73 51 63 73 51 63 80 58 70 78 56 68 76 54 66 73 51 63 69 47 59 66 44 56 64 42 54 61 41 52 46 33 42 45 34 42 45 34 42 45 34 42 45 34 42 45 34 42 45 34 42 45 34 42 53 42 50 55 44 52 57 46 54 60 49 57 64 53 61 67 56 64 69 58 66 68 61 68 77 74 83 73 73 81 71 71 79 68 68 76 64 64 72 61 61 69 59 59 67 57 57 65 48 48 56 46 46 54 44 44 52 41 41 49 37 37 45 34 34 42 32 32 40 27 32 38 28 37 44 25 38 44 28 37 44 28 37 44 31 35 44 32 35 44 34 34 44 36 33 44 49 41 54 52 40 54 53 39 54 55 38 54 58 37 54 58 37 54 60 35 54 59 36 52 59 42 52 58 43 50 58 43 50 58 43 50 58 43 50 58 43 50 58 43 50 58 43 50 67 52 59 69 54 61 71 56 63 74 59 66 78 63 70 81 66 73 83 68 75 82 71 79 81 73 86 76 72 86 74 70 84 71 67 81 67 63 77 64 60 74 62 58 72 60 56 70 48 44 58 48 44 58 48 44 58 48 44 58 48 44 58 48 44 58 48 44 58 51 43 56 62 48 63 65 47 61 65 47 61 65 47 61 65 47 61 65 47 61 65 47 61 65 47 61 68 50 64 68 50 64 68 50 64 68 50 64 68 50 64 68 50 64 68 50 64 65 51 64 73 62 78 71 65 79 74 68 82 77 71 85 80 74 88 84 78 92 86 80 94 87 81 95 90 84 98 91 85 99 94 88 102 97 91 105 100 94 108 104 98 112 106 100 114 104 102 115 94 98 110 91 99 110 91 99 110 91 99 110 91 99 110 91 99 110 91 99 110 91 99 110 97 105 116 97 105 116 97 105 116 97 105 116 97 105 116 97 105 116 97 105 116 98 105 113 99 98 104 100 98 101 100 98 101 100 98 101 100 98 101 100 98 101 100 98 101 100 98 101 94 92 95 94 92 95 94 92 95 94 92 95 94 92 95 94 92 95 94 92 95 97 91 95 101 85 95 104 84 95 104 84 95 104 84 95 104 84 95 104 84 95 104 84 95 104 84 95 103 83 94 103 83 94 103 83 94 103 83 94 103 83 94 103 83 94 103 83 94 104 82 94 113 85 99 115 84 99 115 84 99 115 84 99 115 84 99 115 84 99 115 84 99 115 84 99 104 73 88 104 73 88 104 73 88 104 73 88 104 73 88 104 73 88 104 73 88 105 73 88 93 54 72 92 53 71 89 50 68 83 49 65 80 46 62 74 43 58 70 42 56 66 42 55 58 38 49 55 39 49
62 50 54 62 50 54 62 50 54 62 50 54 64 49 54 67 47 58 68 46 58 68 46 58 68 46 58 68 46 58 68 46 58 68 46 58 68 46 58 73 51 63 71 49 61 69 47 59 66 44 56 62 40 52 59 37 49 57 35 47 54 34 45 46 33 42 45 34 42 45 34 42 45 34 42 45 34 42 45 34 42 45 34 42 45 34 42 57 46 54 57 46 54 57 46 54 57 46 54 57 46 54 57 46 54 57 46 54 54 47 54 56 53 62 53 53 61 51 51 59 47 47 55 44 44 52 41 41 49 38 38 46 37 37 45 33 33 41 33 33 41 33 33 41 33 33 41 33 33 41 33 33 41 33 33 41 30 35 41 31 40 47 28 41 47 31 40 47 31 40 47 34 38 47 35 38 47 37 37 47 39 36 47 44 36 49 49 37 51 52 38 53 57 40 56 64 43 60 67 46 63 71 46 65 72 49 65 70 53 63 69 54 61 69 54 61 69 54 61 69 54 61 69 54 61 69 54 61 69 54 61 67 52 59 68 53 60 72 57 64 76 61 68 81 66 73 85 70 77 89 74 81 88 77 85 67 59 72 64 60 74 64 60 74 64 60 74 64 60 74 64 60 74 64 60 74 64 60 74 45 41 55 45 41 55 45 41 55 45 41 55 45 41 55 45 41 55 45 41 55 48 40 53 57 43 58 60 42 56 60 42 56 60 42 56 60 42 56 60 42 56 60 42 56 60 42 56 62 44 58 63 45 59 65 47 61 69 51 65 72 54 68 75 57 71 78 60 74 76 62 75 85 79 93 82 80 93 82 80 93 82 80 93 82 80 93 82 80 93 82 80 93 82 80 93 93 91 104 93 91 104 93 91 104 93 91 104 93 91 104 93 91 104 93 91 104 92 92 104 92 98 110 91 99 110 91 99 110 91 99 110 91 99 110 91 99 110 91 99 110 91 99 110 97 105 116 97 105 116 97 105 116 97 105 116 97 105 116 97 105 116 97 105 116 98 105 113 112 111 117 112 110 113 110 108 111 106 104 107 103 101 104 100 98 101 97 95 98 96 94 97 99 97 100 99 97 100 99 97 100 99 97 100 99 97 100 99 97 100 99 97 100 102 96 100 102 86 96 105 85 96 105 85 96 105 85 96 105 85 96 105 85 96 105 85 96 105 85 96 92 72 83 92 72 83 92 72 83 92 72 83 92 72 83 92 72 83 92 72 83 93 71 83 98 70 84 102 71 86 104 73 88 107 76 91 111 80 95 114 83 98 116 85 100 118 87 102 107 76 91 105 74 89 103 72 87 100 69 84 96 65 80 93 62 77 91 60 75 90 58 73 88 49 67 86 47 65 84 45 63 78 44 60 74 40 56 69 38 53 65 37 51 60 36 49 58 38 49 55 39 49
62 50 54 62 50 54 62 50 54 62 50 54 64 49 54 67 47 58 68 46 58 68 46 58 68 46 58 68 46 58 68 46 58 68 46 58 68 46 58 73 51 63 71 49 61 69 47 59 66 44 56 62 40 52 59 37 49 57 35 47 54 34 45 46 33 42 45 34 42 45 34 42 45 34 42 45 34 42 45 34 42 45 34 42 45 34 42 55 44 52 55 44 52 55 44 52 55 44 52 55 44 52 55 44 52 55 44 52 52 45 52 55 52 61 52 52 60 49 49 57 46 46 54 43 43 51 39 39 47 37 37 45 36 36 44 33 33 41 33 33 41 33 33 41 33 33 41 33 33 41 33 33 41 33 33 41 30 35 41 31 40 47 28 41 47 31 40 47 31 40 47 34 38 47 35 38 47 37 37 47 39 36 47 44 36 49 49 37 51 52 38 53 57 40 56 64 43 60 67 46 63 71 46 65 72 49 65 70 53 63 69 54 61 69 54 61 69 54 61 69 54 61 69 54 61 69 54 61 69 54 61 67 52 59 69 54 61 72 57 64 75 60 67 79 64 71 83 68 75 86 71 78 85 74 82 65 57 70 62 58 72 62 58 72 62 58 72 62 58 72 62 58 72 62 58 72 62 58 72 45 41 55 45 41 55 45 41 55 45 41 55 45 41 55 45 41 55 45 41 55 48 40 53 57 43 58 60 42 56 60 42 56 60 42 56 60 42 56 60 42 56 60 42 56 60 42 56 63 45 59 64 46 60 67 49 63 70 52 66 73 55 69 77 59 73 79 61 75 77 63 76 85 81 95 81 83 95 81 83 95 81 83 95 81 83 95 81 83 95 81 83 95 81 83 95 90 92 104 90 92 104 90 92 104 90 92 104 90 92 104 90 92 104 90 92 104 89 93 104 92 98 110 91 99 110 91 99 110 91 99 110 91 99 110 91 99 110 91 99 110 91 99 110 97 105 116 97 105 116 97 105 116 97 105 116 97 105 116 97 105 116 97 105 116 98 105 113 111 110 116 111 109 112 108 106 109 105 103 106 102 100 103 98 96 99 96 94 97 95 93 96 97 95 98 97 95 98 97 95 98 97 95 98 97 95 98 97 95 98 97 95 98 100 94 98 102 86 96 105 85 96 105 85 96 105 85 96 105 85 96 105 85 96 105 85 96 105 85 96 92 72 83 92 72 83 92 72 83 92 72 83 92 72 83 92 72 83 92 72 83 93 71 83 98 70 84 102 71 86 104 73 88 107 76 91 111 80 95 114 83 98 116 85 100 118 87 102 107 76 91 105 74 89 103 72 87 100 69 84 96 65 80 93 62 77 91 60 75 90 58 73 88 49 67 86 47 65 84 45 63 78 44 60 74 40 56 69 38 53 65 37 51 60 36 49 58 38 49 55 39 49
62 50 54 62 50 54 62 50 54 62 50 54 64 49 54 67 47 58 68 46 58 68 46 58 68 46 58 68 46 58 68 46 58 68 46 58 68 46 58 73 51 63 71 49 61 69 47 59 66 44 56 62 40 52 59 37 49 57 35 47 54 34 45 46 33 42 45 34 42 45 34 42 45 34 42 45 34 42 45 34 42 45 34 42 45 34 42 53 42 50 53 42 50 53 42 50 53 42 50 53 42 50 53 42 50 53 42 50 50 43 50 53 50 59 49 49 57 47 47 55 44 44 52 40 40 48 37 37 45 35 35 43 33 33 41 33 33 41 33 33 41 33 33 41 33 33 41 33 33 41 33 33 41 33 33 41 30 35 41 31 40 47 28 41 47 31 40 47 31 40 47 34 38 47 35 38 47 37 37 47 39 36 47 44 36 49 49 37 51 52 38 53 57 40 56 64 43 60 67 46 63 71 46 65 72 49 65 70 53 63 69 54 61 69 54 61 69 54 61 69 54 61 69 54 61 69 54 61 69 54 61 68 53 60 69 54 61 71 56 63 74 59 66 76 61 68 79 64 71 81 66 73 79 68 76 63 55 68 60 56 70 60 56 70 60 56 70 60 56 70 60 56 70 60 56 70 60 56 70 45 41 55 45 41 55 45 41 55 45 41 55 45 41 55 45 41 55 45 41 55 48 40 53 57 43 58 60 42 56 60 42 56 60 42 56 60 42 56 60 42 56 60 42 56 60 42 56 65 47 61 67 49 63 69 51 65 72 54 68 76 58 72 79 61 75 81 63 77 79 67 79 86 84 97 82 86 97 82 86 97 82 86 97 82 86 97 82 86 97 82 86 97 82 86 97 89 93 104 89 93 104 89 93 104 89 93 104 89 93 104 89 93 104 89 93 104 87 94 104 91 99 110 91 99 110 91 99 110 91 99 110 91 99 110 91 99 110 91 99 110 91 99 110 97 105 116 97 105 116 97 105 116 97 105 116 97 105 116 97 105 116 97 105 116 98 105 113 109 108 114 108 106 109 106 104 107 103 101 104 99 97 100 96 94 97 94 92 95 92 90 93 95 93 96 95 93 96 95 93 96 95 93 96 95 93 96 95 93 96 95 93 96 98 92 96 102 86 96 105 85 96 105 85 96 105 85 96 105 85 96 105 85 96 105 85 96 105 85 96 92 72 83 92 72 83 92 72 83 92 72 83 92 72 83 92 72 83 92 72 83 93 71 83 98 70 84 102 71 86 104 73 88 107 76 91 111 80 95 114 83 98 116 85 100 118 87 102 107 76 91 105 74 89 103 72 87 100 69 84 96 65 80 93 62 77 91 60 75 90 58 73 88 49 67 86 47 65 84 45 63 78 44 60 74 40 56 69 38 53 65 37 51 60 36 49 58 38 49 55 39 49
62 50 54 62 50 54 62 50 54 62 50 54 64 49 54 67 47 58 68 46 58 68 46 58 68 46 58 68 46 58 68 46 58 68 46 58 68 46 58 73 51 63 71 49 61 69 47 59 66 44 56 62 40 52 59 37 49 57 35 47 54 34 45 46 33 42 45 34 42 45 34 42 45 34 42 45 34 42 45 34 42 45 34 42 45 34 42 50 39 47 50 39 47 50 39 47 50 39 47 50 39 47 50 39 47 50 39 47 47 40 47 49 46 55 46 46 54 44 44 52 40 40 48 37 37 45 34 34 42 31 31 39 30 30 38 33 33 41 33 33 41 33 33 41 33 33 41 33 33 41 33 33 41 33 33 41 30 35 41 31 40 47 28 41 47 31 40 47 31 40 47 34 38 47 35 38 47 37 37 47 39 36 47 44 36 49 49 37 51 52 38 53 57 40 56 64 43 60 67 46 63 71 46 65 72 49 65 70 53 63 69 54 61 69 54 61 69 54 61 69 54 61 69 54 61 69 54 61 69 54 61 69 54 61 70 55 62 70 55 62 71 56 63 72 57 64 73 58 65 74 59 66 71 60 68 60 52 65 57 53 67 57 53 67 57 53 67 57 53 67 57 53 67 57 53 67 57 53 67 45 41 55 45 41 55 45 41 55 45 41 55 45 41 55 45 41 55 45 41 55 48 40 53 57 43 58 60 42 56 60 42 56 60 42 56 60 42 56 60 42 56 60 42 56 60 42 56 69 51 65 70 52 66 72 54 68 76 58 72 79 61 75 82 64 78 85 67 81 82 70 82 88 88 100 82 91 100 83 90 100 82 91 100 83 90 100 82 91 100 83 90 100 82 91 100 87 94 104 86 95 104 87 94 104 86 95 104 87 94 104 86 95 104 87 94 104 86 95 104 91 99 110 91 99 110 91 99 110 91 99 110 91 99 110 91 99 110 91 99 110 91 99 110 97 105 116 97 105 116 97 105 116 97 105 116 97 105 116 97 105 116 97 105 116 98 105 113 105 104 110 105 103 106 103 101 104 99 97 100 96 94 97 93 91 94 90 88 91 89 87 90 92 90 93 92 90 93 92 90 93 92 90 93 92 90 93 92 90 93 92 90 93 95 89 93 102 86 96 105 85 96 105 85 96 105 85 96 105 85 96 105 85 96 105 85 96 105 85 96 92 72 83 92 72 83 92 72 83 92 72 83 92 72 83 92 72 83 92 72 83 93 71 83 98 70 84 102 71 86 104 73 88 107 76 91 111 80 95 114 83 98 116 85 100 118 87 102 107 76 91 105 74 89 103 72 87 100 69 84 96 65 80 93 62 77 91 60 75 90 58 73 88 49 67 86 47 65 84 45 63 78 44 60 74 40 56 69 38 53 65 37 51 60 36 49 58 38 49 55 39 49
62 50 54 62 50 54 62 50 54 62 50 54 64 49 54 67 47 58 68 46 58 68 46 58 68 46 58 68 46 58 68 46 58 68 46 58 68 46 58 73 51 63 71 49 61 69 47 59 66 44 56 62 40 52 59 37 49 57 35 47 54 34 45 46 33 42 45 34 42 45 34 42 45 34 42 45 34 42 45 34 42 45 34 42 45 34 42 46 35 43 46 35 43 46 35 43 46 35 43 46 35 43 46 35 43 46 35 43 43 36 43 46 43 52 43 43 51 40 40 48 37 37 45 34 34 42 30 30 38 28 28 36 27 27 35 33 33 41 33 33 41 33 33 41 33 33 41 33 33 41 33 33 41 33 33 41 30 35 41 31 40 47 28 41 47 31 40 47 31 40 47 34 38 47 35 38 47 37 37 47 39 36 47 44 36 49 49 37 51 52 38 53 57 40 56 64 43 60 67 46 63 71 46 65 72 49 65 70 53 63 69 54 61 69 54 61 69 54 61 69 54 61 69 54 61 69 54 61 69 54 61 71 56 63 70 55 62 70 55 62 69 54 61 68 53 60 67 52 59 66 51 58 63 52 60 56 48 61 53 49 63 53 49 63 53 49 63 53 49 63 53 49 63 53 49 63 53 49 63 45 41 55 45 41 55 45 41 55 45 41 55 45 41 55 45 41 55 45 41 55 48 40 53 57 43 58 60 42 56 60 42 56 60 42 56 60 42 56 60 42 56 60 42 56 60 42 56 72 54 68 73 55 69 76 58 72 79 61 75 82 64 78 86 68 82 88 70 84 85 73 85 90 92 104 85 95 104 86 95 104 85 95 104 86 95 104 85 95 104 86 95 104 85 95 104 86 95 104 85 95 104 86 95 104 85 95 104 86 95 104 85 95 104 86 95 104 86 95 104 91 99 110 91 99 110 91 99 110 91 99 110 91 99 110 91 99 110 91 99 110 91 99 110 97 105 116 97 105 116 97 105 116 97 105 116 97 105 116 97 105 116 97 105 116 98 105 113 102 101 107 102 100 103 99 97 100 96 94 97 93 91 94 89 87 90 87 85 88 86 84 87 88 86 89 88 86 89 88 86 89 88 86 89 88 86 89 88 86 89 88 86 89 91 85 89 102 86 96 105 85 96 105 85 96 105 85 96 105 85 96 105 85 96 105 85 96 105 85 96 92 72 83 92 72 83 92 72 83 92 72 83 92 72 83 92 72 83 92 72 83 93 71 83 98 70 84 102 71 86 104 73 88 107 76 91 111 80 95 114 83 98 116 85 100 118 87 102 107 76 91 105 74 89 103 72 87 100 69 84 96 65 80 93 62 77 91 60 75 90 58 73 88 49 67 86 47 65 84 45 63 78 44 60 74 40 56 69 38 53 65 37 51 60 36 49 58 38 49 55 39 49
62 50 54 62 50 54 62 50 54 62 50 54 64 49 54 67 47 58 68 46 58 68 46 58 68 46 58 68 46 58 68 46 58 68 46 58 68 46 58 73 51 63 71 49 61 69 47 59 66 44 56 62 40 52 59 37 49 57 35 47 54 34 45 46 33 42 45 34 42 45 34 42 45 34 42 45 34 42 45 34 42 45 34 42 45 34 42 43 32 40 43 32 40 43 32 40 43 32 40 43 32 40 43 32 40 43 32 40 40 33 40 43 40 49 39 39 47 37 37 45 34 34 42 30 30 38 27 27 35 25 25 33 23 23 31 33 33 41 33 33 41 33 33 41 33 33 41 33 33 41 33 33 41 33 33 41 30 35 41 31 40 47 28 41 47 31 40 47 31 40 47 34 38 47 35 38 47 37 37 47 39 36 47 44 36 49 49 37 51 52 38 53 57 40 56 64 43 60 67 46 63 71 46 65 72 49 65 70 53 63 69 54 61 69 54 61 69 54 61 69 54 61 69 54 61 69 54 61 69 54 61 72 57 64 71 56 63 69 54 61 66 51 58 64 49 56 61 46 53 59 44 51 55 44 52 53 45 58 50 46 60 50 46 60 50 46 60 50 46 60 50 46 60 50 46 60 50 46 60 45 41 55 45 41 55 45 41 55 45 41 55 45 41 55 45 41 55 45 41 55 48 40 53 57 43 58 60 42 56 60 42 56 60 42 56 60 42 56 60 42 56 60 42 56 60 42 56 75 57 71 77 59 73 79 61 75 82 64 78 86 68 82 89 71 85 91 73 87 88 78 89 92 96 107 86 99 107 88 98 107 86 99 107 88 98 107 86 99 107 88 98 107 86 99 107 85 95 104 83 96 104 85 95 104 83 96 104 85 95 104 83 96 104 85 95 104 85 95 104 91 99 110 91 99 110 91 99 110 91 99 110 91 99 110 91 99 110 91 99 110 91 99 110 97 105 116 97 105 116 97 105 116 97 105 116 97 105 116 97 105 116 97 105 116 98 105 113 99 98 104 98 96 99 96 94 97 93 91 94 89 87 90 86 84 87 84 82 85 82 80 83 85 83 86 85 83 86 85 83 86 85 83 86 85 83 86 85 83 86 85 83 86 88 82 86 102 86 96 105 85 96 105 85 96 105 85 96 105 85 96 105 85 96 105 85 96 105 85 96 92 72 83 92 72 83 92 72 83 92 72 83 92 72 83 92 72 83 92 72 83 93 71 83 98 70 84 102 71 86 104 73 88 107 76 91 111 80 95 114 83 98 116 85 100 118 87 102 107 76 91 105 74 89 103 72 87 100 69 84 96 65 80 93 62 77 91 60 75 90 58 73 88 49 67 86 47 65 84 45 63 78 44 60 74 40 56 69 38 53 65 37 51 60 36 49 58 38 49 55 39 49
62 50 54 62 50 54 62 50 54 62 50 54 64 49 54 67 47 58 68 46 58 68 46 58 68 46 58 68 46 58 68 46 58 68 46 58 68 46 58 73 51 63 71 49 61 69 47 59 66 44 56 62 40 52 59 37 49 57 35 47 54 34 45 46 33 42 45 34 42 45 34 42 45 34 42 45 34 42 45 34 42 45 34 42 45 34 42 41 30 38 41 30 38 41 30 38 41 30 38 41 30 38 41 30 38 41 30 38 38 31 38 40 37 46 37 37 45 35 35 43 31 31 39 28 28 36 25 25 33 22 22 30 21 21 29 33 33 41 33 33 41 33 33 41 33 33 41 33 33 41 33 33 41 33 33 41 30 35 41 31 40 47 28 41 47 31 40 47 31 40 47 34 38 47 35 38 47 37 37 47 39 36 47 44 36 49 49 37 51 52 38 53 57 40 56 64 43 60 67 46 63 71 46 65 72 49 65 70 53 63 69 54 61 69 54 61 69 54 61 69 54 61 69 54 61 69 54 61 69 54 61 73 58 65 71 56 63 68 53 60 65 50 57 61 46 53 57 42 49 54 39 46 49 38 46 51 43 56 48 44 58 48 44 58 48 44 58 48 44 58 48 44 58 48 44 58 48 44 58 45 41 55 45 41 55 45 41 55 45 41 55 45 41 55 45 41 55 45 41 55 48 40 53 57 43 58 60 42 56 60 42 56 60 42 56 60 42 56 60 42 56 60 42 56 60 42 56 78 60 74 79 61 75 81 63 77 85 67 81 88 70 84 91 73 87 94 76 90 90 80 91 92 99 109 87 102 109 88 101 109 87 102 109 88 101 109 87 102 109 88 101 109 87 102 109 83 96 104 82 97 104 83 96 104 82 97 104 83 96 104 82 97 104 83 96 104 83 96 104 90 100 110 91 99 110 91 99 110 91 99 110 91 99 110 91 99 110 91 99 110 91 99 110 97 105 116 97 105 116 97 105 116 97 105 116 97 105 116 97 105 116 97 105 116 98 105 113 96 95 101 96 94 97 94 92 95 90 88 91 87 85 88 84 82 85 81 79 82 80 78 81 83 81 84 83 81 84 83 81 84 83 81 84 83 81 84 83 81 84 83 81 84 86 80 84 102 86 96 105 85 96 105 85 96 105 85 96 105 85 96 105 85 96 105 85 96 105 85 96 92 72 83 92 72 83 92 72 83 92 72 83 92 72 83 92 72 83 92 72 83 93 71 83 98 70 84 102 71 86 104 73 88 107 76 91 111 80 95 114 83 98 116 85 100 118 87 102 107 76 91 105 74 89 103 72 87 100 69 84 96 65 80 93 62 77 91 60 75 90 58 73 88 49 67 86 47 65 84 45 63 78 44 60 74 40 56 69 38 53 65 37 51 60 36 49 58 38 49 55 39 49
62 50 54 62 50 54 62 50 54 62 50 54 64 49 54 67 47 56 68 46 58 68 46 58 68 46 58 68 46 58 68 46 58 68 46 58 68 46 58 73 51 63 71 49 61 69 47 59 66 44 56 62 40 52 59 37 49 57 35 47 54 34 45 48 32 42 45 34 42 45 34 42 45 34 42 45 34 42 45 34 42 45 34 42 45 34 42 39 28 36 39 28 36 39 28 36 39 28 36 39 28 36 39 28 36 39 28 36 38 28 37 39 36 45 36 36 44 33 33 43 30 30 38 27 27 37 23 23 31 21 21 31 20 20 28 33 33 43 33 33 41 33 33 43 33 33 41 33 33 43 33 33 41 33 33 43 31 34 43 31 40 47 31 40 47 31 40 47 32 39 47 34 38 47 35 38 47 37 37 47 38 36 47 43 37 49 46 38 51 50 39 53 54 42 56 59 45 60 64 47 63 66 49 65 68 52 65 67 54 63 67 54 61 67 54 61 67 54 61 67 54 61 67 54 61 67 54 61 67 54 61 71 58 65 70 57 64 66 53 60 62 49 56 57 44 51 53 40 47 49 36 43 46 35 43 49 41 52 46 43 54 48 42 54 46 43 54 48 42 54 46 43 54 48 42 54 46 43 54 47 41 53 45 42 53 47 41 53 45 42 53 47 41 53 45 42 53 47 41 53 48 40 53 56 44 56 57 44 54 57 43 56 57 44 54 57 43 56 57 44 54 57 43 56 57 44 54 76 62 75 77 64 74 80 66 79 83 70 80 86 72 85 90 77 87 92 78 91 89 81 92 96 100 109 92 102 111 92 102 111 92 102 111 92 102 111 92 102 111 92 102 111 92 102 111 85 95 104 85 95 104 85 95 104 85 95 104 85 95 104 85 95 104 85 95 104 85 95 104 91 100 109 91 100 109 92 99 109 91 100 109 92 99 109 91 100 109 92 99 109 91 100 109 98 105 115 97 106 115 98 105 115 97 106 115 98 105 115 97 106 115 98 105 115 100 104 113 95 94 99 97 92 96 94 89 93 91 86 90 88 83 87 84 79 83 82 77 81 81 76 80 83 78 82 83 78 82 83 78 82 83 78 82 83 78 82 83 78 82 83 78 82 86 77 82 102 87 94 105 85 94 105 85 96 105 85 94 105 85 96 105 85 94 105 85 96 105 85 94 92 72 83 92 72 81 92 72 83 92 72 81 92 72 83 92 72 81 92 72 83 93 71 83 95 71 84 99 73 86 101 75 88 105 77 91 109 81 95 112 84 98 116 85 100 118 87 102 108 76 91 106 74 89 104 72 87 102 68 84 98 64 80 95 61 77 93 59 75 93 56 73 88 49 67 86 47 65 83 46 63 78 44 60 73 41 56 67 39 53 64 38 51 59 37 49 56 39 49 53 40 49
66 51 54 66 51 54 66 51 54 66 51 54 67 50 56 68 47 56 69 45 58 69 45 58 69 45 58 69 45 58 69 45 58 69 45 58 69 45 58 69 45 58 67 43 56 65 41 54 62 38 51 58 34 47 55 31 44 53 29 42 49 29 40 46 30 40 44 31 40 44 31 40 44 31 40 44 31 40 44 31 40 44 31 40 44 31 40 35 22 31 36 23 32 38 25 34 42 29 38 45 32 41 48 35 44 51 38 47 50 40 49 39 36 47 37 37 47 37 37 49 37 37 47 37 37 49 37 37 47 37 37 49 37 37 47 28 28 40 29 29 39 31 31 43 35 35 45 38 38 50 41 41 51 44 44 56 43 46 55 41 45 54 41 46 52 41 46 52 41 46 52 42 45 52 42 45 52 42 45 52 44 44 52 50 50 58 51 50 58 51 50 58 51 50 58 52 49 58 52 49 58 52 49 58 54 49 56 61 55 59 64 55 58 66 57 60 70 61 64 73 64 67 76 67 70 79 70 73 80 71 74 75 66 69 72 63 66 67 58 61 61 52 55 54 45 48 48 39 42 43 34 37 40 31 36 45 38 45 44 39 46 45 38 46 44 39 46 45 38 46 44 39 46 45 38 46 44 39 46 44 37 45 43 38 45 44 37 45 43 38 45 44 37 45 43 38 45 44 37 45 43 38 45 62 57 64 63 58 64 65 60 67 69 64 70 72 67 74 75 70 76 78 73 80 79 74 80 95 90 97 95 90 96 95 90 97 95 90 96 95 90 97 95 90 96 95 90 97 93 90 97 89 92 101 88 92 103 88 92 103 88 92 103 88 92 103 88 92 103 88 92 103 88 92 103 90 94 105 90 94 105 90 94 105 90 94 105 90 94 105 90 94 105 90 94 105 90 94 105 94 98 107 92 99 107 94 98 107 92 99 107 94 98 107 92 99 107 94 98 107 92 99 107 98 102 111 96 103 111 98 102 111 96 103 111 98 102 111 96 103 111 98 102 111 99 102 109 98 93 99 99 90 95 97 88 93 94 85 90 90 81 86 87 78 83 85 76 81 83 74 79 81 72 77 81 72 77 81 72 77 81 72 77 81 72 77 81 72 77 81 72 77 82 71 77 99 84 91 100 83 89 100 83 91 100 83 89 100 83 91 100 83 89 100 83 91 100 83 89 102 85 93 102 85 91 102 85 93 102 85 91 102 85 93 102 85 91 102 85 93 102 85 93 106 89 97 106 89 97 108 88 97 109 88 97 110 87 97 112 86 97 113 85 97 115 85 97 103 69 83 105 69 83 106 68 83 108 67 83 109 66 83 109 66 83 110 66 83 109 66 83 96 57 75 91 57 73 85 53 68 77 46 61 69 41 55 61 35 48 54 30 43 50 30 41 56 40 50 53 42 50
66 51 54 66 51 54 66 51 54 66 51 54 67 50 56 68 47 56 69 45 58 69 45 58 69 45 58 69 45 58 69 45 58 69 45 58 69 45 58 69 45 58 67 43 56 65 41 54 62 38 51 58 34 47 55 31 44 53 29 42 50 28 40 46 30 40 44 31 40 44 31 40 44 31 40 44 31 40 44 31 40 44 31 40 44 31 40 36 23 32 37 24 33 40 27 36 43 30 39 46 33 42 50 37 46 52 39 48 51 41 50 41 38 49 39 39 51 39 39 51 39 39 51 39 39 51 39 39 51 39 39 51 39 39 51 29 29 41 30 30 42 33 33 45 36 36 48 39 39 51 43 43 55 45 45 57 46 46 56 44 47 56 44 47 54 44 47 54 44 47 54 44 47 54 44 47 54 44 47 54 44 47 54 48 51 58 48 51 58 48 51 58 48 51 58 48 51 58 48 51 58 48 51 58 50 51 56 61 56 60 63 57 59 66 60 62 69 63 65 72 66 68 76 70 72 78 72 74 79 73 75 74 68 70 71 65 67 66 60 62 60 54 56 53 47 49 47 41 43 42 36 38 39 33 35 47 40 47 47 40 47 47 40 47 47 40 47 47 40 47 47 40 47 47 40 47 47 40 47 46 39 46 46 39 46 46 39 46 46 39 46 46 39 46 46 39 46 46 39 46 45 40 46 61 59 64 61 60 65 64 63 68 67 66 71 70 69 74 74 73 78 76 75 80 77 76 81 92 91 96 92 91 96 92 91 96 92 91 96 92 91 96 92 91 96 92 91 96 92 91 97 91 91 101 91 91 103 91 91 103 91 91 103 91 91 103 91 91 103 91 91 103 91 91 103 93 93 105 93 93 105 93 93 105 93 93 105 93 93 105 93 93 105 93 93 105 91 94 103 95 98 107 94 99 105 94 99 105 94 99 105 94 99 105 94 99 105 94 99 105 94 99 105 98 103 109 98 103 109 98 103 109 98 103 109 98 103 109 98 103 109 98 103 109 101 102 107 99 92 99 100 89 95 98 87 93 95 84 90 91 80 86 88 77 83 86 75 81 84 73 79 82 71 77 82 71 77 82 71 77 82 71 77 82 71 77 82 71 77 82 71 77 83 70 77 97 82 87 98 81 87 98 81 87 98 81 87 98 81 87 98 81 87 98 81 87 98 81 87 102 85 91 102 85 91 102 85 91 102 85 91 102 85 91 102 85 91 102 85 91 101 86 91 105 90 97 103 90 97 106 89 97 106 89 97 109 88 97 110 87 97 112 86 97 115 85 97 103 69 83 106 68 83 108 67 83 109 66 83 112 65 83 112 65 83 115 64 83 112 65 83 96 57 75 90 58 73 85 53 68 75 47 61 69 41 55 59 35 48 53 31 43 48 31 41 54 41 50 52 42 50
66 51 54 66 51 54 66 51 54 66 51 54 67 50 56 68 47 56 69 45 58 69 45 58 69 45 58 69 45 58 69 45 58 69 45 58 69 45 58 69 45 58 67 43 56 65 41 54 62 38 51 58 34 47 55 31 44 53 29 42 50 28 40 46 30 40 44 31 40 44 31 40 44 31 40 44 31 40 44 31 40 44 31 40 44 31 40 38 25 34 40 27 36 42 29 38 45 32 41 49 36 45 52 39 48 54 41 50 54 44 53 43 40 51 41 41 53 41 41 53 41 41 53 41 41 53 41 41 53 41 41 53 41 41 53 31 31 43 33 33 45 35 35 47 38 38 50 42 42 54 45 45 57 47 47 59 49 49 59 49 52 61 49 52 59 49 52 59 49 52 59 49 52 59 49 52 59 49 52 59 49 52 59 48 51 58 48 51 58 48 51 58 48 51 58 48 51 58 48 51 58 48 51 58 50 51 56 63 58 62 66 60 62 68 62 64 71 65 67 75 69 71 78 72 74 80 74 76 82 76 78 76 70 72 74 68 70 69 63 65 63 57 59 56 50 52 49 43 45 44 38 40 42 36 38 49 42 49 49 42 49 49 42 49 49 42 49 49 42 49 49 42 49 49 42 49 49 42 49 51 44 51 51 44 51 51 44 51 51 44 51 51 44 51 51 44 51 51 44 51 50 45 51 63 61 66 64 63 68 66 65 70 69 68 73 73 72 77 76 75 80 78 77 82 80 79 84 92 91 96 92 91 96 92 91 96 92 91 96 92 91 96 92 91 96 92 91 96 92 91 97 91 91 101 91 91 103 91 91 103 91 91 103 91 91 103 91 91 103 91 91 103 91 91 103 93 93 105 93 93 105 93 93 105 93 93 105 93 93 105 93 93 105 93 93 105 91 94 103 95 98 107 94 99 105 94 99 105 94 99 105 94 99 105 94 99 105 94 99 105 94 99 105 98 103 109 98 103 109 98 103 109 98 103 109 98 103 109 98 103 109 98 103 109 101 102 107 99 92 99 100 89 95 98 87 93 95 84 90 91 80 86 88 77 83 86 75 81 84 73 79 82 71 77 82 71 77 82 71 77 82 71 77 82 71 77 82 71 77 82 71 77 83 70 77 95 80 85 96 79 85 96 79 85 96 79 85 96 79 85 96 79 85 96 79 85 96 79 85 102 85 91 102 85 91 102 85 91 102 85 91 102 85 91 102 85 91 102 85 91 101 86 91 105 90 97 103 90 97 106 89 97 106 89 97 109 88 97 110 87 97 112 86 97 115 85 97 103 69 83 106 68 83 108 67 83 109 66 83 112 65 83 112 65 83 115 64 83 112 65 83 96 57 75 90 58 73 85 53 68 75 47 61 69 41 55 59 35 48 53 31 43 48 31 41 54 41 50 52 42 50
66 51 54 66 51 54 66 51 54 66 51 54 67 50 56 68 47 56 69 45 58 69 45 58 69 45 58 69 45 58 69 45 58 69 45 58 69 45 58 69 45 58 67 43 56 65 41 54 62 38 51 58 34 47 55 31 44 53 29 42 50 28 40 46 30 40 44 31 40 44 31 40 44 31 40 44 31 40 44 31 40 44 31 40 44 31 40 42 29 38 43 30 39 45 32 41 49 36 45 52 39 48 55 42 51 58 45 54 57 47 56 46 43 54 44 44 56 44 44 56 44 44 56 44 44 56 44 44 56 44 44 56 44 44 56 35 35 47 36 36 48 38 38 50 42 42 54 45 45 57 48 48 60 51 51 63 52 52 62 56 59 68 56 59 66 56 59 66 56 59 66 56 59 66 56 59 66 56 59 66 56 59 66 48 51 58 48 51 58 48 51 58 48 51 58 48 51 58 48 51 58 48 51 58 50 51 56 67 62 66 69 63 65 71 65 67 75 69 71 78 72 74 81 75 77 84 78 80 85 79 81 80 74 76 77 71 73 72 66 68 66 60 62 59 53 55 52 46 48 48 42 44 45 39 41 52 45 52 52 45 52 52 45 52 52 45 52 52 45 52 52 45 52 52 45 52 52 45 52 58 51 58 58 51 58 58 51 58 58 51 58 58 51 58 58 51 58 58 51 58 57 52 58 67 65 70 67 66 71 69 68 73 73 72 77 76 75 80 79 78 83 82 81 86 83 82 87 92 91 96 92 91 96 92 91 96 92 91 96 92 91 96 92 91 96 92 91 96 92 91 97 91 91 101 91 91 103 91 91 103 91 91 103 91 91 103 91 91 103 91 91 103 91 91 103 93 93 105 93 93 105 93 93 105 93 93 105 93 93 105 93 93 105 93 93 105 91 94 103 95 98 107 94 99 105 94 99 105 94 99 105 94 99 105 94 99 105 94 99 105 94 99 105 98 103 109 98 103 109 98 103 109 98 103 109 98 103 109 98 103 109 98 103 109 101 102 107 99 92 99 100 89 95 98 87 93 95 84 90 91 80 86 88 77 83 86 75 81 84 73 79 82 71 77 82 71 77 82 71 77 82 71 77 82 71 77 82 71 77 82 71 77 83 70 77 92 77 82 93 76 82 93 76 82 93 76 82 93 76 82 93 76 82 93 76 82 93 76 82 102 85 91 102 85 91 102 85 91 102 85 91 102 85 91 102 85 91 102 85 91 101 86 91 105 90 97 103 90 97 106 89 97 106 89 97 109 88 97 110 87 97 112 86 97 115 85 97 103 69 83 106 68 83 108 67 83 109 66 83 112 65 83 112 65 83 115 64 83 112 65 83 96 57 75 90 58 73 85 53 68 75 47 61 69 41 55 59 35 48 53 31 43 48 31 41 54 41 50 52 42 50
66 51 54 66 51 54 66 51 54 66 51 54 67 50 56 68 47 56 69 45 58 69 45 58 69 45 58 69 45 58 69 45 58 69 45 58 69 45 58 69 45 58 67 43 56 65 41 54 62 38 51 58 34 47 55 31 44 53 29 42 50 28 40 46 30 40 44 31 40 44 31 40 44 31 40 44 31 40 44 31 40 44 31 40 44 31 40 45 32 41 46 33 42 49 36 45 52 39 48 55 42 51 59 46 55 61 48 57 60 50 59 50 47 58 48 48 60 48 48 60 48 48 60 48 48 60 48 48 60 48 48 60 48 48 60 38 38 50 39 39 51 42 42 54 45 45 57 48 48 60 52 52 64 54 54 66 55 55 65 62 65 74 62 65 72 62 65 72 62 65 72 62 65 72 62 65 72 62 65 72 62 65 72 48 51 58 48 51 58 48 51 58 48 51 58 48 51 58 48 51 58 48 51 58 50 51 56 70 65 69 72 66 68 75 69 71 78 72 74 81 75 77 85 79 81 87 81 83 88 82 84 83 77 79 80 74 76 76 70 72 69 63 65 62 56 58 56 50 52 51 45 47 48 42 44 56 49 56 56 49 56 56 49 56 56 49 56 56 49 56 56 49 56 56 49 56 56 49 56 64 57 64 64 57 64 64 57 64 64 57 64 64 57 64 64 57 64 64 57 64 63 58 64 70 68 73 70 69 74 73 72 77 76 75 80 79 78 83 83 82 87 85 84 89 86 85 90 92 91 96 92 91 96 92 91 96 92 91 96 92 91 96 92 91 96 92 91 96 92 91 97 91 91 101 91 91 103 91 91 103 91 91 103 91 91 103 91 91 103 91 91 103 91 91 103 93 93 105 93 93 105 93 93 105 93 93 105 93 93 105 93 93 105 93 93 105 91 94 103 95 98 107 94 99 105 94 99 105 94 99 105 94 99 105 94 99 105 94 99 105 94 99 105 98 103 109 98 103 109 98 103 109 98 103 109 98 103 109 98 103 109 98 103 109 101 102 107 99 92 99 100 89 95 98 87 93 95 84 90 91 80 86 88 77 83 86 75 81 84 73 79 82 71 77 82 71 77 82 71 77 82 71 77 82 71 77 82 71 77 82 71 77 83 70 77 88 73 78 89 72 78 89 72 78 89 72 78 89 72 78 89 72 78 89 72 78 89 72 78 102 85 91 102 85 91 102 85 91 102 85 91 102 85 91 102 85 91 102 85 91 101 86 91 105 90 97 103 90 97 106 89 97 106 89 97 109 88 97 110 87 97 112 86 97 115 85 97 103 69 83 106 68 83 108 67 83 109 66 83 112 65 83 112 65 83 115 64 83 112 65 83 96 57 75 90 58 73 85 53 68 75 47 61 69 41 55 59 35 48 53 31 43 48 31 41 54 41 50 52 42 50
66 51 54 66 51 54 66 51 54 66 51 54 67 50 56 68 47 56 69 45 58 69 45 58 69 45 58 69 45 58 69 45 58 69 45 58 69 45 58 69 45 58 67 43 56 65 41 54 62 38 51 58 34 47 55 31 44 53 29 42 50 28 40 46 30 40 44 31 40 44 31 40 44 31 40 44 31 40 44 31 40 44 31 40 44 31 40 48 35 44 50 37 46 52 39 48 55 42 51 59 46 55 62 49 58 64 51 60 64 54 63 53 50 61 51 51 63 51 51 63 51 51 63 51 51 63 51 51 63 51 51 63 51 51 63 41 41 53 43 43 55 45 45 57 48 48 60 52 52 64 55 55 67 57 57 69 59 59 69 69 72 81 69 72 79 69 72 79 69 72 79 69 72 79 69 72 79 69 72 79 69 72 79 48 51 58 48 51 58 48 51 58 48 51 58 48 51 58 48 51 58 48 51 58 50 51 56 73 68 72 76 70 72 78 72 74 81 75 77 85 79 81 88 82 84 90 84 86 92 86 88 86 80 82 84 78 80 79 73 75 72 66 68 65 59 61 59 53 55 54 48 50 52 46 48 59 52 59 59 52 59 59 52 59 59 52 59 59 52 59 59 52 59 59 52 59 59 52 59 71 64 71 71 64 71 71 64 71 71 64 71 71 64 71 71 64 71 71 64 71 70 65 71 73 71 76 74 73 78 76 75 80 79 78 83 83 82 87 86 85 90 88 87 92 90 89 94 92 91 96 92 91 96 92 91 96 92 91 96 92 91 96 92 91 96 92 91 96 92 91 97 91 91 101 91 91 103 91 91 103 91 91 103 91 91 103 91 91 103 91 91 103 91 91 103 93 93 105 93 93 105 93 93 105 93 93 105 93 93 105 93 93 105 93 93 105 91 94 103 95 98 107 94 99 105 94 99 105 94 99 105 94 99 105 94 99 105 94 99 105 94 99 105 98 103 109 98 103 109 98 103 109 98 103 109 98 103 109 98 103 109 98 103 109 101 102 107 99 92 99 100 89 95 98 87 93 95 84 90 91 80 86 88 77 83 86 75 81 84 73 79 82 71 77 82 71 77 82 71 77 82 71 77 82 71 77 82 71 77 82 71 77 83 70 77 85 70 75 86 69 75 86 69 75 86 69 75 86 69 75 86 69 75 86 69 75 86 69 75 102 85 91 102 85 91 102 85 91 102 85 91 102 85 91 102 85 91 102 85 91 101 86 91 105 90 97 103 90 97 106 89 97 106 89 97 109 88 97 110 87 97 112 86 97 115 85 97 103 69 83 106 68 83 108 67 83 109 66 83 112 65 83 112 65 83 115 64 83 112 65 83 96 57 75 90 58 73 85 53 68 75 47 61 69 41 55 59 35 48 53 31 43 48 31 41 54 41 50 52 42 50
66 51 54 66 51 54 66 51 54 66 51 54 67 50 56 68 47 56 69 45 58 69 45 58 69 45 58 69 45 58 69 45 58 69 45 58 69 45 58 69 45 58 67 43 56 65 41 54 62 38 51 58 34 47 55 31 44 53 29 42 50 28 40 46 30 40 44 31 40 44 31 40 44 31 40 44 31 40 44 31 40 44 31 40 44 31 40 51 38 47 52 39 48 54 41 50 58 45 54 61 48 57 64 51 60 67 54 63 66 56 65 55 52 63 53 53 65 53 53 65 53 53 65 53 53 65 53 53 65 53 53 65 53 53 65 44 44 56 45 45 57 47 47 59 51 51 63 54 54 66 57 57 69 60 60 72 61 61 71 74 77 86 74 77 84 74 77 84 74 77 84 74 77 84 74 77 84 74 77 84 74 77 84 48 51 58 48 51 58 48 51 58 48 51 58 48 51 58 48 51 58 48 51 58 50 51 56 76 71 75 78 72 74 80 74 76 84 78 80 87 81 83 90 84 86 93 87 89 94 88 90 89 83 85 86 80 82 81 75 77 75 69 71 68 62 64 62 56 58 57 51 53 54 48 50 61 54 61 61 54 61 61 54 61 61 54 61 61 54 61 61 54 61 61 54 61 61 54 61 76 69 76 76 69 76 76 69 76 76 69 76 76 69 76 76 69 76 76 69 76 75 70 76 76 74 79 76 75 80 78 77 82 82 81 86 85 84 89 88 87 92 91 90 95 92 91 96 92 91 96 92 91 96 92 91 96 92 91 96 92 91 96 92 91 96 92 91 96 92 91 97 91 91 101 91 91 103 91 91 103 91 91 103 91 91 103 91 91 103 91 91 103 91 91 103 93 93 105 93 93 105 93 93 105 93 93 105 93 93 105 93 93 105 93 93 105 91 94 103 95 98 107 94 99 105 94 99 105 94 99 105 94 99 105 94 99 105 94 99 105 94 99 105 98 103 109 98 103 109 98 103 109 98 103 109 98 103 109 98 103 109 98 103 109 101 102 107 99 92 99 100 89 95 98 87 93 95 84 90 91 80 86 88 77 83 86 75 81 84 73 79 82 71 77 82 71 77 82 71 77 82 71 77 82 71 77 82 71 77 82 71 77 83 70 77 83 68 73 84 67 73 84 67 73 84 67 73 84 67 73 84 67 73 84 67 73 84 67 73 102 85 91 102 85 91 102 85 91 102 85 91 102 85 91 102 85 91 102 85 91 101 86 91 105 90 97 103 90 97 106 89 97 106 89 97 109 88 97 110 87 97 112 86 97 115 85 97 103 69 83 106 68 83 108 67 83 109 66 83 112 65 83 112 65 83 115 64 83 112 65 83 96 57 75 90 58 73 85 53 68 75 47 61 69 41 55 59 35 48 53 31 43 48 31 41 54 41 50 52 42 50
66 51 54 66 51 54 66 51 54 66 51 54 67 50 56 68 47 56 69 45 58 69 45 58 69 45 58 69 45 58 69 45 58 69 45 58 69 45 58 69 45 58 67 43 56 65 41 54 62 38 51 58 34 47 55 31 44 53 29 42 50 28 40 46 30 40 44 31 40 44 31 40 44 31 40 44 31 40 44 31 40 44 31 40 44 31 40 52 39 48 53 40 49 56 43 52 59 46 55 62 49 58 66 53 62 68 55 64 67 57 66 57 54 65 55 55 67 55 55 67 55 55 67 55 55 67 55 55 67 55 55 67 55 55 67 45 45 57 46 46 58 49 49 61 52 52 64 55 55 67 59 59 71 61 61 73 62 62 72 76 79 88 76 79 86 76 79 86 76 79 86 76 79 86 76 79 86 76 79 86 76 79 86 48 51 58 48 51 58 48 51 58 48 51 58 48 51 58 48 51 58 48 51 58 50 51 56 77 72 76 79 73 75 82 76 78 85 79 81 88 82 84 92 86 88 94 88 90 95 89 91 90 84 86 87 81 83 82 76 78 76 70 72 69 63 65 63 57 59 58 52 54 55 49 51 63 56 63 63 56 63 63 56 63 63 56 63 63 56 63 63 56 63 63 56 63 63 56 63 78 71 78 78 71 78 78 71 78 78 71 78 78 71 78 78 71 78 78 71 78 77 72 78 77 75 80 77 76 81 80 79 84 83 82 87 86 85 90 90 89 94 92 91 96 93 92 97 92 91 96 92 91 96 92 91 96 92 91 96 92 91 96 92 91 96 92 91 96 92 91 97 91 91 101 91 91 103 91 91 103 91 91 103 91 91 103 91 91 103 91 91 103 91 91 103 93 93 105 93 93 105 93 93 105 93 93 105 93 93 105 93 93 105 93 93 105 91 94 103 95 98 107 94 99 105 94 99 105 94 99 105 94 99 105 94 99 105 94 99 105 94 99 105 98 103 109 98 103 109 98 103 109 98 103 109 98 103 109 98 103 109 98 103 109 101 102 107 99 92 99 100 89 95 98 87 93 95 84 90 91 80 86 88 77 83 86 75 81 84 73 79 82 71 77 82 71 77 82 71 77 82 71 77 82 71 77 82 71 77 82 71 77 83 70 77 81 66 71 82 65 71 82 65 71 82 65 71 82 65 71 82 65 71 82 65 71 82 65 71 102 85 91 102 85 91 102 85 91 102 85 91 102 85 91 102 85 91 102 85 91 101 86 91 105 90 97 103 90 97 106 89 97 106 89 97 109 88 97 110 87 97 112 86 97 115 85 97 103 69 83 106 68 83 108 67 83 109 66 83 112 65 83 112 65 83 115 64 83 112 65 83 96 57 75 90 58 73 85 53 68 75 47 61 69 41 55 59 35 48 53 31 43 48 31 41 54 41 50 52 42 50
72 57 60 72 57 60 72 57 60 72 57 60 73 56 62 70 49 58 71 47 60 71 47 60 71 47 60 71 47 60 71 47 60 71 47 60 71 47 60 60 36 49 60 36 49 60 36 49 60 36 49 60 36 49 60 36 49 60 36 49 59 37 49 45 29 39 44 31 40 46 33 42 50 37 46 53 40 49 56 43 52 59 46 55 60 47 56 50 37 46 52 39 48 56 43 52 60 47 56 65 52 61 69 56 65 73 60 69 72 62 71 55 52 63 53 53 65 53 53 65 53 53 65 53 53 65 53 53 65 53 53 65 53 53 65 51 51 63 52 52 64 54 54 66 58 58 70 61 61 73 64 64 76 67 67 79 68 68 78 83 86 95 83 86 93 83 86 93 83 86 93 83 86 93 83 86 93 83 86 93 83 86 93 72 75 82 70 73 80 65 68 75 58 61 68 52 55 62 45 48 55 40 43 50 40 41 46 74 69 73 76 70 72 78 72 74 82 76 78 85 79 81 88 82 84 91 85 87 92 86 88 78 72 74 77 71 73 75 69 71 71 65 67 68 62 64 65 59 61 62 56 58 61 55 57 53 46 53 55 48 55 57 50 57 60 53 60 64 57 64 67 60 67 69 62 69 71 64 71 70 63 70 72 65 72 74 67 74 77 70 77 81 74 81 84 77 84 86 79 86 87 82 88 96 94 99 95 94 99 95 94 99 95 94 99 95 94 99 95 94 99 95 94 99 95 94 99 101 100 105 99 98 103 97 96 101 94 93 98 90 89 94 87 86 91 85 84 89 83 82 88 73 73 83 74 74 86 77 77 89 80 80 92 83 83 95 87 87 99 89 89 101 90 90 102 96 96 108 96 96 108 96 96 108 96 96 108 96 96 108 96 96 108 96 96 108 94 97 106 97 100 109 96 101 107 96 101 107 96 101 107 96 101 107 96 101 107 96 101 107 96 101 107 103 108 114 101 106 112 99 104 110 96 101 107 92 97 103 89 94 100 87 92 98 88 89 94 97 90 97 100 89 95 100 89 95 100 89 95 100 89 95 100 89 95 100 89 95 100 89 95 100 89 95 100 89 95 100 89 95 100 89 95 100 89 95 100 89 95 100 89 95 101 88 95 102 87 92 102 85 91 99 82 88 96 79 85 93 76 82 89 72 78 87 70 76 86 69 75 89 72 78 91 74 80 93 76 82 96 79 85 100 83 89 103 86 92 105 88 94 106 91 96 110 95 102 106 93 100 107 90 98 104 87 95 103 82 91 101 78 88 101 75 86 102 72 84 103 69 83 106 68 83 108 67 83 109 66 83 112 65 83 112 65 83 115 64 83 112 65 83 86 47 65 80 48 63 78 46 61 72 44 58 68 40 54 62 38 51 59 37 49 54 37 47 53 40 49 51 41 49
72 57 60 72 57 60 72 57 60 72 57 60 73 56 62 70 49 58 71 47 60 71 47 60 71 47 60 71 47 60 71 47 60 71 47 60 71 47 60 60 36 49 60 36 49 60 36 49 60 36 49 60 36 49 60 36 49 60 36 49 59 37 49 46 30 40 45 32 41 48 35 44 51 38 47 54 41 50 58 45 54 60 47 56 61 48 57 53 40 49 55 42 51 58 45 54 62 49 58 66 53 62 69 56 65 72 59 68 72 62 71 55 52 63 53 53 65 53 53 65 53 53 65 53 53 65 53 53 65 53 53 65 53 53 65 52 52 64 53 53 65 56 56 68 59 59 71 62 62 74 66 66 78 68 68 80 69 69 79 83 86 95 83 86 93 83 86 93 83 86 93 83 86 93 83 86 93 83 86 93 83 86 93 72 75 82 70 73 80 65 68 75 58 61 68 52 55 62 45 48 55 40 43 50 40 41 46 71 66 70 73 67 69 76 70 72 79 73 75 82 76 78 86 80 82 88 82 84 89 83 85 77 71 73 76 70 72 73 67 69 70 64 66 67 61 63 63 57 59 61 55 57 60 54 56 53 46 53 55 48 55 57 50 57 60 53 60 64 57 64 67 60 67 69 62 69 71 64 71 70 63 70 72 65 72 74 67 74 77 70 77 81 74 81 84 77 84 86 79 86 87 82 88 96 94 99 95 94 99 95 94 99 95 94 99 95 94 99 95 94 99 95 94 99 95 94 99 101 100 105 99 98 103 97 96 101 94 93 98 90 89 94 87 86 91 85 84 89 83 82 88 72 72 82 73 73 85 75 75 87 79 79 91 82 82 94 85 85 97 88 88 100 89 89 101 96 96 108 96 96 108 96 96 108 96 96 108 96 96 108 96 96 108 96 96 108 94 97 106 97 100 109 96 101 107 96 101 107 96 101 107 96 101 107 96 101 107 96 101 107 96 101 107 103 108 114 101 106 112 99 104 110 96 101 107 92 97 103 89 94 100 87 92 98 88 89 94 95 88 95 98 87 93 98 87 93 98 87 93 98 87 93 98 87 93 98 87 93 98 87 93 100 89 95 100 89 95 100 89 95 100 89 95 100 89 95 100 89 95 100 89 95 101 88 95 103 88 93 103 86 92 101 84 90 97 80 86 94 77 83 91 74 80 88 71 77 87 70 76 89 72 78 91 74 80 93 76 82 96 79 85 100 83 89 103 86 92 105 88 94 106 91 96 110 95 102 106 93 100 107 90 98 104 87 95 103 82 91 101 78 88 101 75 86 102 72 84 103 69 83 106 68 83 108 67 83 109 66 83 112 65 83 112 65 83 115 64 83 112 65 83 86 47 65 80 48 63 78 46 61 72 44 58 68 40 54 62 38 51 59 37 49 54 37 47 53 40 49 51 41 49
72 57 60 72 57 60 72 57 60 72 57 60 73 56 62 70 49 58 71 47 60 71 47 60 71 47 60 71 47 60 71 47 60 71 47 60 71 47 60 60 36 49 60 36 49 60 36 49 60 36 49 60 36 49 60 36 49 60 36 49 59 37 49 48 32 42 48 35 44 50 37 46 53 40 49 57 44 53 60 47 56 62 49 58 64 51 60 59 46 55 60 47 56 62 49 58 65 52 61 67 54 63 70 57 66 72 59 68 71 61 70 55 52 63 53 53 65 53 53 65 53 53 65 53 53 65 53 53 65 53 53 65 53 53 65 54 54 66 56 56 68 58 58 70 61 61 73 65 65 77 68 68 80 70 70 82 72 72 82 83 86 95 83 86 93 83 86 93 83 86 93 83 86 93 83 86 93 83 86 93 83 86 93 72 75 82 70 73 80 65 68 75 58 61 68 52 55 62 45 48 55 40 43 50 40 41 46 66 61 65 68 62 64 71 65 67 74 68 70 78 72 74 81 75 77 83 77 79 84 78 80 75 69 71 73 67 69 71 65 67 68 62 64 64 58 60 61 55 57 59 53 55 57 51 53 53 46 53 55 48 55 57 50 57 60 53 60 64 57 64 67 60 67 69 62 69 71 64 71 70 63 70 72 65 72 74 67 74 77 70 77 81 74 81 84 77 84 86 79 86 87 82 88 96 94 99 95 94 99 95 94 99 95 94 99 95 94 99 95 94 99 95 94 99 95 94 99 101 100 105 99 98 103 97 96 101 94 93 98 90 89 94 87 86 91 85 84 89 83 82 88 69 69 79 71 71 83 73 73 85 76 76 88 80 80 92 83 83 95 85 85 97 87 87 99 96 96 108 96 96 108 96 96 108 96 96 108 96 96 108 96 96 108 96 96 108 94 97 106 97 100 109 96 101 107 96 101 107 96 101 107 96 101 107 96 101 107 96 101 107 96 101 107 103 108 114 101 106 112 99 104 110 96 101 107 92 97 103 89 94 100 87 92 98 88 89 94 93 86 93 96 85 91 96 85 91 96 85 91 96 85 91 96 85 91 96 85 91 96 85 91 100 89 95 100 89 95 100 89 95 100 89 95 100 89 95 100 89 95 100 89 95 101 88 95 106 91 96 105 88 94 103 86 92 100 83 89 96 79 85 93 76 82 91 74 80 89 72 78 89 72 78 91 74 80 93 76 82 96 79 85 100 83 89 103 86 92 105 88 94 106 91 96 110 95 102 106 93 100 107 90 98 104 87 95 103 82 91 101 78 88 101 75 86 102 72 84 103 69 83 106 68 83 108 67 83 109 66 83 112 65 83 112 65 83 115 64 83 112 65 83 86 47 65 80 48 63 78 46 61 72 44 58 68 40 54 62 38 51 59 37 49 54 37 47 53 40 49 51 41 49
72 57 60 72 57 60 72 57 60 72 57 60 73 56 62 70 49 58 71 47 60 71 47 60 71 47 60 71 47 60 71 47 60 71 47 60 71 47 60 60 36 49 60 36 49 60 36 49 60 36 49 60 36 49 60 36 49 60 36 49 59 37 49 52 36 46 51 38 47 53 40 49 57 44 53 60 47 56 63 50 59 66 53 62 67 54 63 67 54 63 67 54 63 68 55 64 69 56 65 70 57 66 71 58 67 71 58 67 70 60 69 55 52 63 53 53 65 53 53 65 53 53 65 53 53 65 53 53 65 53 53 65 53 53 65 58 58 70 59 59 71 61 61 73 65 65 77 68 68 80 71 71 83 74 74 86 75 75 85 83 86 95 83 86 93 83 86 93 83 86 93 83 86 93 83 86 93 83 86 93 83 86 93 72 75 82 70 73 80 65 68 75 58 61 68 52 55 62 45 48 55 40 43 50 40 41 46 60 55 59 62 56 58 65 59 61 68 62 64 71 65 67 74 68 70 77 71 73 78 72 74 71 65 67 70 64 66 68 62 64 64 58 60 61 55 57 58 52 54 55 49 51 54 48 50 53 46 53 55 48 55 57 50 57 60 53 60 64 57 64 67 60 67 69 62 69 71 64 71 70 63 70 72 65 72 74 67 74 77 70 77 81 74 81 84 77 84 86 79 86 87 82 88 96 94 99 95 94 99 95 94 99 95 94 99 95 94 99 95 94 99 95 94 99 95 94 99 101 100 105 99 98 103 97 96 101 94 93 98 90 89 94 87 86 91 85 84 89 83 82 88 66 66 76 67 67 79 70 70 82 73 73 85 76 76 88 80 80 92 82 82 94 83 83 95 96 96 108 96 96 108 96 96 108 96 96 108 96 96 108 96 96 108 96 96 108 94 97 106 97 100 109 96 101 107 96 101 107 96 101 107 96 101 107 96 101 107 96 101 107 96 101 107 103 108 114 101 106 112 99 104 110 96 101 107 92 97 103 89 94 100 87 92 98 88 89 94 90 83 90 93 82 88 93 82 88 93 82 88 93 82 88 93 82 88 93 82 88 93 82 88 100 89 95 100 89 95 100 89 95 100 89 95 100 89 95 100 89 95 100 89 95 101 88 95 109 94 99 109 92 98 106 89 95 103 86 92 100 83 89 96 79 85 94 77 83 93 76 82 89 72 78 91 74 80 93 76 82 96 79 85 100 83 89 103 86 92 105 88 94 106 91 96 110 95 102 106 93 100 107 90 98 104 87 95 103 82 91 101 78 88 101 75 86 102 72 84 103 69 83 106 68 83 108 67 83 109 66 83 112 65 83 112 65 83 115 64 83 112 65 83 86 47 65 80 48 63 78 46 61 72 44 58 68 40 54 62 38 51 59 37 49 54 37 47 53 40 49 51 41 49
72 57 60 72 57 60 72 57 60 72 57 60 73 56 62 70 49 58 71 47 60 71 47 60 71 47 60 71 47 60 71 47 60 71 47 60 71 47 60 60 36 49 60 36 49 60 36 49 60 36 49 60 36 49 60 36 49 60 36 49 59 37 49 55 39 49 54 41 50 57 44 53 60 47 56 63 50 59 67 54 63 69 56 65 70 57 66 75 62 71 75 62 71 74 61 70 73 60 69 72 59 68 71 58 67 71 58 67 68 58 67 55 52 63 53 53 65 53 53 65 53 53 65 53 53 65 53 53 65 53 53 65 53 53 65 61 61 73 62 62 74 65 65 77 68 68 80 71 71 83 75 75 87 77 77 89 78 78 88 83 86 95 83 86 93 83 86 93 83 86 93 83 86 93 83 86 93 83 86 93 83 86 93 72 75 82 70 73 80 65 68 75 58 61 68 52 55 62 45 48 55 40 43 50 40 41 46 53 48 52 55 49 51 58 52 54 61 55 57 64 58 60 67 61 63 70 64 66 71 65 67 68 62 64 67 61 63 64 58 60 61 55 57 58 52 54 54 48 50 52 46 48 51 45 47 53 46 53 55 48 55 57 50 57 60 53 60 64 57 64 67 60 67 69 62 69 71 64 71 70 63 70 72 65 72 74 67 74 77 70 77 81 74 81 84 77 84 86 79 86 87 82 88 96 94 99 95 94 99 95 94 99 95 94 99 95 94 99 95 94 99 95 94 99 95 94 99 101 100 105 99 98 103 97 96 101 94 93 98 90 89 94 87 86 91 85 84 89 83 82 88 63 63 73 64 64 76 66 66 78 70 70 82 73 73 85 76 76 88 79 79 91 80 80 92 96 96 108 96 96 108 96 96 108 96 96 108 96 96 108 96 96 108 96 96 108 94 97 106 97 100 109 96 101 107 96 101 107 96 101 107 96 101 107 96 101 107 96 101 107 96 101 107 103 108 114 101 106 112 99 104 110 96 101 107 92 97 103 89 94 100 87 92 98 88 89 94 86 79 86 89 78 84 89 78 84 89 78 84 89 78 84 89 78 84 89 78 84 89 78 84 100 89 95 100 89 95 100 89 95 100 89 95 100 89 95 100 89 95 100 89 95 101 88 95 112 97 102 112 95 101 110 93 99 106 89 95 103 86 92 100 83 89 97 80 86 96 79 85 89 72 78 91 74 80 93 76 82 96 79 85 100 83 89 103 86 92 105 88 94 106 91 96 110 95 102 106 93 100 107 90 98 104 87 95 103 82 91 101 78 88 101 75 86 102 72 84 103 69 83 106 68 83 108 67 83 109 66 83 112 65 83 112 65 83 115 64 83 112 65 83 86 47 65 80 48 63 78 46 61 72 44 58 68 40 54 62 38 51 59 37 49 54 37 47 53 40 49 51 41 49
72 57 60 72 57 60 72 57 60 72 57 60 73 56 62 70 49 58 71 47 60 71 47 60 71 47 60 71 47 60 71 47 60 71 47 60 71 47 60 60 36 49 60 36 49 60 36 49 60 36 49 60 36 49 60 36 49 60 36 49 59 37 49 58 42 52 58 45 54 60 47 56 63 50 59 67 54 63 70 57 66 72 59 68 74 61 70 83 70 79 82 69 78 80 67 76 77 64 73 75 62 71 72 59 68 70 57 66 67 57 66 55 52 63 53 53 65 53 53 65 53 53 65 53 53 65 53 53 65 53 53 65 53 53 65 64 64 76 66 66 78 68 68 80 71 71 83 75 75 87 78 78 90 80 80 92 82 82 92 83 86 95 83 86 93 83 86 93 83 86 93 83 86 93 83 86 93 83 86 93 83 86 93 72 75 82 70 73 80 65 68 75 58 61 68 52 55 62 45 48 55 40 43 50 40 41 46 47 42 46 49 43 45 51 45 47 54 48 50 58 52 54 61 55 57 64 58 60 65 59 61 65 59 61 63 57 59 61 55 57 58 52 54 54 48 50 51 45 47 49 43 45 47 41 43 53 46 53 55 48 55 57 50 57 60 53 60 64 57 64 67 60 67 69 62 69 71 64 71 70 63 70 72 65 72 74 67 74 77 70 77 81 74 81 84 77 84 86 79 86 87 82 88 96 94 99 95 94 99 95 94 99 95 94 99 95 94 99 95 94 99 95 94 99 95 94 99 101 100 105 99 98 103 97 96 101 94 93 98 90 89 94 87 86 91 85 84 89 83 82 88 59 59 69 61 61 73 63 63 75 66 66 78 70 70 82 73 73 85 75 75 87 77 77 89 96 96 108 96 96 108 96 96 108 96 96 108 96 96 108 96 96 108 96 96 108 94 97 106 97 100 109 96 101 107 96 101 107 96 101 107 96 101 107 96 101 107 96 101 107 96 101 107 103 108 114 101 106 112 99 104 110 96 101 107 92 97 103 89 94 100 87 92 98 88 89 94 83 76 83 86 75 81 86 75 81 86 75 81 86 75 81 86 75 81 86 75 81 86 75 81 100 89 95 100 89 95 100 89 95 100 89 95 100 89 95 100 89 95 100 89 95 101 88 95 116 101 106 115 98 104 113 96 102 110 93 99 106 89 95 103 86 92 101 84 90 99 82 88 89 72 78 91 74 80 93 76 82 96 79 85 100 83 89 103 86 92 105 88 94 106 91 96 110 95 102 106 93 100 107 90 98 104 87 95 103 82 91 101 78 88 101 75 86 102 72 84 103 69 83 106 68 83 108 67 83 109 66 83 112 65 83 112 65 83 115 64 83 112 65 83 86 47 65 80 48 63 78 46 61 72 44 58 68 40 54 62 38 51 59 37 49 54 37 47 53 40 49 51 41 49
72 57 60 72 57 60 72 57 60 72 57 60 73 56 62 70 49 58 71 47 60 71 47 60 71 47 60 71 47 60 71 47 60 71 47 60 71 47 60 60 36 49 60 36 49 60 36 49 60 36 49 60 36 49 60 36 49 60 36 49 59 37 49 61 45 55 60 47 56 62 49 58 66 53 62 69 56 65 72 59 68 75 62 71 76 63 72 89 76 85 87 74 83 84 71 80 80 67 76 76 63 72 73 60 69 70 57 66 66 56 65 55 52 63 53 53 65 53 53 65 53 53 65 53 53 65 53 53 65 53 53 65 53 53 65 67 67 79 68 68 80 70 70 82 74 74 86 77 77 89 80 80 92 83 83 95 84 84 94 83 86 95 83 86 93 83 86 93 83 86 93 83 86 93 83 86 93 83 86 93 83 86 93 72 75 82 70 73 80 65 68 75 58 61 68 52 55 62 45 48 55 40 43 50 40 41 46 42 37 41 44 38 40 46 40 42 50 44 46 53 47 49 56 50 52 59 53 55 60 54 56 62 56 58 61 55 57 59 53 55 55 49 51 52 46 48 49 43 45 46 40 42 45 39 41 53 46 53 55 48 55 57 50 57 60 53 60 64 57 64 67 60 67 69 62 69 71 64 71 70 63 70 72 65 72 74 67 74 77 70 77 81 74 81 84 77 84 86 79 86 87 82 88 96 94 99 95 94 99 95 94 99 95 94 99 95 94 99 95 94 99 95 94 99 95 94 99 101 100 105 99 98 103 97 96 101 94 93 98 90 89 94 87 86 91 85 84 89 83 82 88 57 57 67 58 58 70 61 61 73 64 64 76 67 67 79 71 71 83 73 73 85 74 74 86 96 96 108 96 96 108 96 96 108 96 96 108 96 96 108 96 96 108 96 96 108 94 97 106 97 100 109 96 101 107 96 101 107 96 101 107 96 101 107 96 101 107 96 101 107 96 101 107 103 108 114 101 106 112 99 104 110 96 101 107 92 97 103 89 94 100 87 92 98 88 89 94 81 74 81 84 73 79 84 73 79 84 73 79 84 73 79 84 73 79 84 73 79 84 73 79 100 89 95 100 89 95 100 89 95 100 89 95 100 89 95 100 89 95 100 89 95 101 88 95 118 103 108 118 101 107 115 98 104 112 95 101 109 92 98 105 88 94 103 86 92 102 85 91 89 72 78 91 74 80 93 76 82 96 79 85 100 83 89 103 86 92 105 88 94 106 91 96 110 95 102 106 93 100 107 90 98 104 87 95 103 82 91 101 78 88 101 75 86 102 72 84 103 69 83 106 68 83 108 67 83 109 66 83 112 65 83 112 65 83 115 64 83 112 65 83 86 47 65 80 48 63 78 46 61 72 44 58 68 40 54 62 38 51 59 37 49 54 37 47 53 40 49 51 41 49
70 58 60 70 58 60 70 58 60 70 58 60 72 57 62 70 49 58 71 47 60 71 47 60 71 47 60 71 47 60 71 47 60 71 47 60 71 47 60 60 36 49 60 36 49 60 36 49 60 36 49 60 36 49 60 36 49 60 36 49 59 37 49 62 47 54 61 48 55 64 51 58 67 54 61 70 57 64 74 61 68 76 63 70 77 64 71 92 79 86 90 77 84 86 73 80 82 69 76 77 64 71 73 60 67 69 56 63 67 56 64 57 51 61 54 52 63 54 52 63 54 52 63 54 52 63 54 52 63 54 52 63 54 52 63 69 67 78 70 68 79 73 71 82 76 74 85 79 77 88 83 81 92 85 83 94 86 84 95 85 85 95 83 86 93 83 86 95 83 86 93 83 86 95 83 86 93 83 86 95 83 86 93 72 75 84 70 73 80 65 68 77 58 61 68 52 55 64 45 48 55 40 43 52 40 40 48 37 34 41 40 35 41 43 38 44 46 41 47 49 44 50 53 48 54 55 50 56 56 51 57 60 55 61 59 54 60 56 51 57 53 48 54 50 45 51 46 41 47 44 39 45 43 38 44 52 47 54 54 49 56 57 50 58 59 54 61 64 57 65 66 61 68 69 62 70 70 65 72 70 63 71 71 66 73 74 67 75 76 71 78 81 74 82 83 78 85 86 79 87 87 82 89 95 94 100 94 95 99 94 95 100 94 95 99 94 95 100 94 95 99 94 95 100 94 95 99 100 101 106 98 99 103 96 97 102 93 94 98 89 90 95 86 87 91 84 85 90 83 82 88 60 54 66 62 54 67 64 56 69 67 61 73 70 64 76 73 67 79 74 71 82 75 72 83 98 95 106 97 95 106 97 95 106 96 96 106 96 96 106 96 96 106 96 96 106 94 97 106 99 100 105 97 100 105 99 100 105 97 100 105 99 100 105 97 100 105 99 100 105 97 100 105 106 107 112 102 105 110 102 103 108 97 100 105 95 96 101 90 93 98 90 91 96 89 88 93 79 73 77 82 71 75 82 71 75 82 71 75 82 71 75 82 71 75 82 71 75 82 71 75 100 89 93 100 89 93 100 89 93 100 89 93 100 89 93 100 89 93 100 89 93 101 89 93 119 104 109 118 103 108 116 101 106 112 97 102 109 94 99 106 91 96 103 88 93 102 87 92 88 73 78 90 75 80 92 77 82 95 80 85 99 84 89 102 87 92 104 89 94 106 91 96 111 94 102 109 92 102 109 89 100 107 85 97 103 81 93 101 77 90 101 75 88 102 71 86 102 70 85 105 68 85 106 67 85 108 67 85 108 67 85 109 66 85 110 65 85 108 67 85 82 50 65 77 49 63 74 48 61 69 45 58 64 42 54 60 40 51 56 39 49 53 37 47 53 40 49 51 41 49
81 70 74 77 66 70 74 63 67 72 61 65 71 59 63 68 48 57 70 46 59 70 46 59 70 46 59 70 46 59 70 46 59 70 46 59 70 46 59 63 39 52 63 39 52 63 39 52 63 39 52 63 39 52 63 39 52 63 39 52 62 41 50 71 54 60 71 56 61 73 58 63 77 62 67 80 65 70 83 68 73 86 71 76 87 72 77 97 82 87 95 80 85 93 78 83 90 75 80 86 71 76 83 68 73 81 66 71 77 64 71 63 53 62 61 53 64 61 53 64 61 53 64 61 53 64 61 53 64 61 53 64 61 53 64 78 70 81 79 71 82 82 74 85 85 77 88 88 80 91 92 84 95 94 86 97 94 88 98 100 100 110 97 100 109 94 96 108 91 94 103 88 90 102 84 87 96 82 84 96 81 84 93 72 74 86 69 72 81 63 65 77 56 59 68 48 50 62 40 43 52 34 36 48 31 33 45 40 40 52 40 39 53 40 39 53 40 39 53 40 39 53 40 39 53 40 39 53 40 39 53 44 43 57 44 43 57 44 43 57 44 43 57 44 43 57 44 43 57 44 43 57 45 43 56 49 46 57 51 48 57 55 49 59 56 53 62 62 56 66 63 60 69 67 61 71 67 64 73 72 66 76 71 68 77 75 69 79 77 74 83 82 76 86 83 80 89 88 82 92 86 85 93 93 96 103 92 97 101 92 97 103 92 97 101 92 97 103 92 97 101 92 97 103 92 97 101 95 100 106 94 99 103 92 97 103 88 93 97 85 90 96 82 87 91 79 84 90 82 81 89 74 56 70 80 56 72 81 58 74 83 62 77 85 67 81 87 71 84 87 73 86 88 76 88 100 90 101 97 91 101 95 92 101 94 93 101 93 93 101 93 93 101 91 94 101 91 94 99 100 98 101 100 98 99 102 98 99 100 98 99 102 98 99 100 98 99 102 98 99 100 98 99 103 99 100 101 99 100 103 99 100 101 99 100 103 99 100 101 99 100 103 99 100 103 99 100 92 83 84 93 83 84 93 83 84 93 83 84 93 83 84 93 83 84 93 83 84 93 83 84 93 83 84 93 83 84 93 83 84 93 83 84 93 83 84 93 83 84 93 83 84 93 83 84 113 101 105 113 101 105 113 101 105 113 101 105 113 101 105 113 101 105 113 101 105 113 101 105 106 94 98 106 94 98 106 94 98 106 94 98 106 94 98 106 94 98 106 94 98 108 93 100 100 78 90 101 77 91 103 76 91 103 76 91 103 76 91 103 76 91 104 76 91 104 76 91 108 77 93 106 75 91 105 72 89 102 69 86 98 65 82 95 62 79 94 60 77 90 59 75 70 50 61 65 49 59 63 47 57 58 45 54 54 41 50 51 38 47 48 37 45 46 35 43 58 47 55 55 45 53
80 71 74 76 67 70 73 64 67 71 62 65 71 59 63 68 48 59 70 46 59 70 46 59 70 46 59 70 46 59 70 46 59 70 46 59 70 46 59 63 39 52 63 39 52 63 39 52 63 39 52 63 39 52 63 39 52 63 39 52 62 41 50 72 55 61 72 57 60 75 60 63 78 63 66 81 66 69 85 70 73 87 72 75 88 73 76 97 82 85 95 80 83 93 78 81 90 75 78 86 71 74 83 68 71 81 66 69 77 65 69 64 53 61 63 53 62 63 53 62 63 53 62 63 53 62 63 53 62 63 53 62 63 53 62 79 69 78 80 70 79 82 72 81 86 76 85 89 79 88 92 82 91 95 85 94 93 87 97 98 96 107 94 96 108 92 94 106 88 90 102 85 87 99 82 84 96 79 81 93 78 80 92 69 71 83 66 68 80 61 63 75 54 56 68 47 49 61 40 42 54 34 36 48 31 33 46 38 40 55 38 39 57 38 39 57 38 39 57 38 39 57 38 39 57 38 39 57 38 39 57 42 43 61 42 43 61 42 43 61 42 43 61 42 43 61 42 43 61 42 43 61 44 43 59 48 46 59 51 48 59 53 50 61 56 53 64 60 57 68 63 60 71 65 62 73 67 64 75 71 68 79 72 69 80 75 72 83 78 75 86 81 78 89 85 82 93 87 84 95 87 85 96 93 96 103 90 97 103 92 97 103 90 97 103 92 97 103 90 97 103 92 97 103 90 97 103 94 99 105 91 98 104 90 95 101 85 92 98 84 89 95 78 85 91 78 83 89 82 79 88 77 55 68 85 54 70 87 56 72 87 60 75 91 64 79 91 69 82 92 72 84 91 75 86 101 89 99 98 91 99 97 92 99 94 93 99 94 93 99 91 94 99 91 94 99 91 95 98 102 98 99 103 97 97 103 97 97 103 97 97 103 97 97 103 97 97 103 97 97 103 97 97 102 96 96 102 96 96 102 96 96 102 96 96 102 96 96 102 96 96 102 96 96 102 96 96 93 83 82 93 83 82 93 83 82 93 83 82 93 83 82 93 83 82 93 83 82 93 83 82 93 83 82 93 83 82 93 83 82 93 83 82 93 83 82 93 83 82 93 83 82 93 83 82 110 99 103 110 99 103 110 99 103 110 99 103 110 99 103 110 99 103 110 99 103 110 99 103 105 94 98 105 94 98 105 94 98 105 94 98 105 94 98 105 94 98 105 94 98 108 93 100 101 77 91 104 75 93 104 75 93 104 75 93 104 75 93 104 75 93 104 75 93 104 75 93 106 77 95 104 75 93 102 73 91 99 70 88 95 66 84 92 63 81 90 61 79 85 61 75 65 52 62 61 51 59 59 49 57 56 46 54 52 42 50 49 39 47 47 37 45 45 35 43 57 47 55 55 45 53
80 71 74 76 67 70 73 64 67 71 62 65 71 59 63 68 48 59 70 46 59 70 46 59 70 46 59 70 46 59 70 46 59 70 46 59 70 46 59 63 39 52 63 39 52 63 39 52 63 39 52 63 39 52 63 39 52 63 39 52 62 41 50 74 57 63 75 60 63 77 62 65 80 65 68 84 69 72 87 72 75 89 74 77 91 76 79 97 82 85 95 80 83 93 78 81 90 75 78 86 71 74 83 68 71 81 66 69 77 65 69 64 53 61 63 53 62 63 53 62 63 53 62 63 53 62 63 53 62 63 53 62 63 53 62 76 66 75 78 68 77 80 70 79 83 73 82 87 77 86 90 80 89 92 82 91 91 85 95 93 91 102 89 91 103 87 89 101 84 86 98 80 82 94 77 79 91 74 76 88 73 75 87 63 65 77 61 63 75 57 59 71 51 53 65 45 47 59 39 41 53 35 37 49 32 34 47 38 40 55 38 39 57 38 39 57 38 39 57 38 39 57 38 39 57 38 39 57 38 39 57 42 43 61 42 43 61 42 43 61 42 43 61 42 43 61 42 43 61 42 43 61 44 43 59 48 46 59 51 48 59 53 50 61 56 53 64 60 57 68 63 60 71 65 62 73 67 64 75 73 70 81 75 72 83 77 74 85 80 77 88 84 81 92 87 84 95 89 86 97 90 88 99 93 96 103 92 97 103 93 96 103 92 97 103 93 96 103 92 97 103 93 96 103 92 97 103 93 96 103 90 95 101 89 92 99 85 90 96 82 85 92 78 83 89 77 80 87 81 75 85 78 54 68 85 54 70 87 56 72 87 60 75 91 64 79 91 69 82 92 72 84 91 75 86 101 89 99 98 91 99 97 92 99 94 93 99 94 93 99 91 94 99 91 94 99 91 95 98 102 98 99 103 97 97 103 97 97 103 97 97 103 97 97 103 97 97 103 97 97 103 97 97 100 94 94 100 94 94 100 94 94 100 94 94 100 94 94 100 94 94 100 94 94 100 94 94 93 83 82 93 83 82 93 83 82 93 83 82 93 83 82 93 83 82 93 83 82 93 83 82 93 83 82 93 83 82 93 83 82 93 83 82 93 83 82 93 83 82 93 83 82 93 83 82 108 97 101 108 97 101 108 97 101 108 97 101 108 97 101 108 97 101 108 97 101 108 97 101 105 94 98 105 94 98 105 94 98 105 94 98 105 94 98 105 94 98 105 94 98 108 93 100 101 77 91 104 75 93 104 75 93 104 75 93 104 75 93 104 75 93 104 75 93 104 75 93 106 77 95 104 75 93 102 73 91 99 70 88 95 66 84 92 63 81 90 61 79 85 61 75 65 52 62 61 51 59 59 49 57 56 46 54 52 42 50 49 39 47 47 37 45 45 35 43 57 47 55 55 45 53
80 71 74 76 67 70 73 64 67 71 62 65 71 59 63 68 48 59 70 46 59 70 46 59 70 46 59 70 46 59 70 46 59 70 46 59 70 46 59 63 39 52 63 39 52 63 39 52 63 39 52 63 39 52 63 39 52 63 39 52 62 41 50 78 61 67 78 63 66 80 65 68 84 69 72 87 72 75 90 75 78 93 78 81 94 79 82 97 82 85 95 80 83 93 78 81 90 75 78 86 71 74 83 68 71 81 66 69 77 65 69 64 53 61 63 53 62 63 53 62 63 53 62 63 53 62 63 53 62 63 53 62 63 53 62 73 63 72 74 64 73 77 67 76 80 70 79 83 73 82 87 77 86 89 79 88 87 81 91 87 85 96 83 85 97 80 82 94 77 79 91 74 76 88 71 73 85 68 70 82 67 69 81 56 58 70 54 56 68 51 53 65 47 49 61 43 45 57 38 40 52 35 37 49 34 36 49 38 40 55 38 39 57 38 39 57 38 39 57 38 39 57 38 39 57 38 39 57 38 39 57 42 43 61 42 43 61 42 43 61 42 43 61 42 43 61 42 43 61 42 43 61 44 43 59 48 46 59 51 48 59 53 50 61 56 53 64 60 57 68 63 60 71 65 62 73 67 64 75 77 74 85 78 75 86 80 77 88 84 81 92 87 84 95 90 87 98 93 90 101 93 91 102 95 95 103 93 96 103 95 95 103 93 96 103 95 95 103 93 96 103 95 95 103 93 96 103 91 91 99 88 91 98 88 88 96 82 85 92 81 81 89 76 79 86 75 75 83 79 71 82 78 54 68 85 54 70 87 56 72 87 60 75 91 64 79 91 69 82 92 72 84 91 75 86 101 89 99 98 91 99 97 92 99 94 93 99 94 93 99 91 94 99 91 94 99 91 95 98 102 98 99 103 97 97 103 97 97 103 97 97 103 97 97 103 97 97 103 97 97 103 97 97 97 91 91 97 91 91 97 91 91 97 91 91 97 91 91 97 91 91 97 91 91 97 91 91 93 83 82 93 83 82 93 83 82 93 83 82 93 83 82 93 83 82 93 83 82 93 83 82 93 83 82 93 83 82 93 83 82 93 83 82 93 83 82 93 83 82 93 83 82 93 83 82 105 94 98 105 94 98 105 94 98 105 94 98 105 94 98 105 94 98 105 94 98 105 94 98 105 94 98 105 94 98 105 94 98 105 94 98 105 94 98 105 94 98 105 94 98 108 93 100 101 77 91 104 75 93 104 75 93 104 75 93 104 75 93 104 75 93 104 75 93 104 75 93 106 77 95 104 75 93 102 73 91 99 70 88 95 66 84 92 63 81 90 61 79 85 61 75 65 52 62 61 51 59 59 49 57 56 46 54 52 42 50 49 39 47 47 37 45 45 35 43 57 47 55 55 45 53
80 71 74 76 67 70 73 64 67 71 62 65 71 59 63 68 48 59 70 46 59 70 46 59 70 46 59 70 46 59 70 46 59 70 46 59 70 46 59 63 39 52 63 39 52 63 39 52 63 39 52 63 39 52 63 39 52 63 39 52 62 41 50 81 64 70 81 66 69 84 69 72 87 72 75 90 75 78 94 79 82 96 81 84 97 82 85 97 82 85 95 80 83 93 78 81 90 75 78 86 71 74 83 68 71 81 66 69 77 65 69 64 53 61 63 53 62 63 53 62 63 53 62 63 53 62 63 53 62 63 53 62 63 53 62 70 60 69 71 61 70 73 63 72 77 67 76 80 70 79 83 73 82 86 76 85 84 78 88 80 78 89 76 78 90 73 75 87 70 72 84 67 69 81 64 66 78 61 63 75 60 62 74 48 50 62 47 49 61 45 47 59 43 45 57 40 42 54 38 40 52 36 38 50 35 37 50 38 40 55 38 39 57 38 39 57 38 39 57 38 39 57 38 39 57 38 39 57 38 39 57 42 43 61 42 43 61 42 43 61 42 43 61 42 43 61 42 43 61 42 43 61 44 43 59 48 46 59 51 48 59 53 50 61 56 53 64 60 57 68 63 60 71 65 62 73 67 64 75 80 77 88 81 78 89 84 81 92 87 84 95 90 87 98 94 91 102 96 93 104 97 94 105 96 95 103 95 95 103 96 95 103 95 95 103 96 95 103 95 95 103 96 95 103 95 95 103 89 88 96 87 87 95 85 84 92 81 81 89 79 78 86 74 74 82 73 72 80 76 68 79 78 54 68 85 54 70 87 56 72 87 60 75 91 64 79 91 69 82 92 72 84 91 75 86 101 89 99 98 91 99 97 92 99 94 93 99 94 93 99 91 94 99 91 94 99 91 95 98 102 98 99 103 97 97 103 97 97 103 97 97 103 97 97 103 97 97 103 97 97 103 97 97 93 87 87 93 87 87 93 87 87 93 87 87 93 87 87 93 87 87 93 87 87 93 87 87 93 83 82 93 83 82 93 83 82 93 83 82 93 83 82 93 83 82 93 83 82 93 83 82 93 83 82 93 83 82 93 83 82 93 83 82 93 83 82 93 83 82 93 83 82 93 83 82 101 90 94 101 90 94 101 90 94 101 90 94 101 90 94 101 90 94 101 90 94 101 90 94 105 94 98 105 94 98 105 94 98 105 94 98 105 94 98 105 94 98 105 94 98 108 93 100 101 77 91 104 75 93 104 75 93 104 75 93 104 75 93 104 75 93 104 75 93 104 75 93 106 77 95 104 75 93 102 73 91 99 70 88 95 66 84 92 63 81 90 61 79 85 61 75 65 52 62 61 51 59 59 49 57 56 46 54 52 42 50 49 39 47 47 37 45 45 35 43 57 47 55 55 45 53
80 71 74 76 67 70 73 64 67 71 62 65 71 59 63 68 48 59 70 46 59 70 46 59 70 46 59 70 46 59 70 46 59 70 46 59 70 46 59 63 39 52 63 39 52 63 39 52 63 39 52 63 39 52 63 39 52 63 39 52 62 41 50 84 67 73 85 70 73 87 72 75 90 75 78 94 79 82 97 82 85 99 84 87 101 86 89 97 82 85 95 80 83 93 78 81 90 75 78 86 71 74 83 68 71 81 66 69 77 65 69 64 53 61 63 53 62 63 53 62 63 53 62 63 53 62 63 53 62 63 53 62 63 53 62 66 56 65 68 58 67 70 60 69 73 63 72 77 67 76 80 70 79 82 72 81 81 75 85 74 72 83 70 72 84 67 69 81 64 66 78 60 62 74 57 59 71 55 57 69 54 56 68 40 42 54 40 42 54 39 41 53 38 40 52 38 40 52 37 39 51 37 39 51 36 38 51 38 40 55 38 39 57 38 39 57 38 39 57 38 39 57 38 39 57 38 39 57 38 39 57 42 43 61 42 43 61 42 43 61 42 43 61 42 43 61 42 43 61 42 43 61 44 43 59 48 46 59 51 48 59 53 50 61 56 53 64 60 57 68 63 60 71 65 62 73 67 64 75 83 80 91 85 82 93 87 84 95 90 87 98 94 91 102 97 94 105 99 96 107 101 98 109 97 94 103 97 94 103 97 94 103 97 94 103 97 94 103 97 94 103 97 94 103 97 94 103 87 84 93 85 82 91 83 80 89 80 77 86 76 73 82 73 70 79 71 68 77 74 64 75 78 54 68 85 54 70 87 56 72 87 60 75 91 64 79 91 69 82 92 72 84 91 75 86 101 89 99 98 91 99 97 92 99 94 93 99 94 93 99 91 94 99 91 94 99 91 95 98 102 98 99 103 97 97 103 97 97 103 97 97 103 97 97 103 97 97 103 97 97 103 97 97 90 84 84 90 84 84 90 84 84 90 84 84 90 84 84 90 84 84 90 84 84 90 84 84 93 83 82 93 83 82 93 83 82 93 83 82 93 83 82 93 83 82 93 83 82 93 83 82 93 83 82 93 83 82 93 83 82 93 83 82 93 83 82 93 83 82 93 83 82 93 83 82 98 87 91 98 87 91 98 87 91 98 87 91 98 87 91 98 87 91 98 87 91 98 87 91 105 94 98 105 94 98 105 94 98 105 94 98 105 94 98 105 94 98 105 94 98 108 93 100 101 77 91 104 75 93 104 75 93 104 75 93 104 75 93 104 75 93 104 75 93 104 75 93 106 77 95 104 75 93 102 73 91 99 70 88 95 66 84 92 63 81 90 61 79 85 61 75 65 52 62 61 51 59 59 49 57 56 46 54 52 42 50 49 39 47 47 37 45 45 35 43 57 47 55 55 45 53
80 71 74 76 67 70 73 64 67 71 62 65 71 59 63 68 48 59 70 46 59 70 46 59 70 46 59 70 46 59 70 46 59 70 46 59 70 46 59 63 39 52 63 39 52 63 39 52 63 39 52 63 39 52 63 39 52 63 39 52 62 41 50 87 70 76 87 72 75 89 74 77 93 78 81 96 81 84 99 84 87 102 87 90 103 88 91 97 82 85 95 80 83 93 78 81 90 75 78 86 71 74 83 68 71 81 66 69 77 65 69 64 53 61 63 53 62 63 53 62 63 53 62 63 53 62 63 53 62 63 53 62 63 53 62 64 54 63 65 55 64 68 58 67 71 61 70 74 64 73 78 68 77 80 70 79 78 72 82 69 67 78 65 67 79 62 64 76 59 61 73 56 58 70 52 54 66 50 52 64 49 51 63 34 36 48 34 36 48 35 37 49 35 37 49 36 38 50 37 39 51 37 39 51 37 39 52 38 40 55 38 39 57 38 39 57 38 39 57 38 39 57 38 39 57 38 39 57 38 39 57 42 43 61 42 43 61 42 43 61 42 43 61 42 43 61 42 43 61 42 43 61 44 43 59 48 46 59 51 48 59 53 50 61 56 53 64 60 57 68 63 60 71 65 62 73 67 64 75 86 83 94 87 84 95 89 86 97 93 90 101 96 93 104 99 96 107 102 99 110 103 100 111 99 93 103 99 93 103 99 93 103 99 93 103 99 93 103 99 93 103 99 93 103 99 93 103 86 80 90 85 79 89 83 77 87 79 73 83 76 70 80 73 67 77 70 64 74 73 61 73 80 53 68 85 54 70 87 56 72 87 60 75 91 64 79 91 69 82 92 72 84 91 75 86 101 89 99 98 91 99 97 92 99 94 93 99 94 93 99 91 94 99 91 94 99 91 95 98 102 98 99 103 97 97 103 97 97 103 97 97 103 97 97 103 97 97 103 97 97 103 97 97 88 82 82 88 82 82 88 82 82 88 82 82 88 82 82 88 82 82 88 82 82 88 82 82 93 83 82 93 83 82 93 83 82 93 83 82 93 83 82 93 83 82 93 83 82 93 83 82 93 83 82 93 83 82 93 83 82 93 83 82 93 83 82 93 83 82 93 83 82 93 83 82 96 85 89 96 85 89 96 85 89 96 85 89 96 85 89 96 85 89 96 85 89 96 85 89 105 94 98 105 94 98 105 94 98 105 94 98 105 94 98 105 94 98 105 94 98 108 93 100 101 77 91 104 75 93 104 75 93 104 75 93 104 75 93 104 75 93 104 75 93 104 75 93 106 77 95 104 75 93 102 73 91 99 70 88 95 66 84 92 63 81 90 61 79 85 61 75 65 52 62 61 51 59 59 49 57 56 46 54 52 42 50 49 39 47 47 37 45 45 35 43 57 47 55 55 45 53
80 71 74 76 67 70 73 64 67 71 62 65 71 59 63 68 48 59 70 46 59 70 46 59 70 46 59 70 46 59 70 46 59 70 46 59 70 46 59 63 39 52 63 39 52 63 39 52 63 39 52 63 39 52 63 39 52 63 39 52 62 41 50 88 71 77 88 73 76 91 76 79 94 79 82 97 82 85 101 86 89 103 88 91 104 89 92 97 82 85 95 80 83 93 78 81 90 75 78 86 71 74 83 68 71 81 66 69 77 65 69 64 53 61 63 53 62 63 53 62 63 53 62 63 53 62 63 53 62 63 53 62 63 53 62 63 53 62 64 54 63 66 56 65 70 60 69 73 63 72 76 66 75 79 69 78 77 71 81 66 64 75 62 64 76 60 62 74 56 58 70 53 55 67 50 52 64 47 49 61 46 48 60 31 33 45 32 34 46 32 34 46 34 36 48 35 37 49 36 38 50 37 39 51 38 40 53 38 40 55 38 39 57 38 39 57 38 39 57 38 39 57 38 39 57 38 39 57 38 39 57 42 43 61 42 43 61 42 43 61 42 43 61 42 43 61 42 43 61 42 43 61 44 43 59 48 46 59 51 48 59 53 50 61 56 53 64 60 57 68 63 60 71 65 62 73 67 64 75 87 84 95 88 85 96 91 88 99 94 91 102 97 94 105 101 98 109 103 100 111 106 100 112 100 92 103 102 92 103 102 92 103 102 92 103 102 92 103 102 92 103 102 92 103 102 92 103 88 78 89 87 77 88 84 74 85 81 71 82 78 68 79 74 64 75 72 62 73 75 59 72 80 53 68 85 54 70 87 56 72 87 60 75 91 64 79 91 69 82 92 72 84 91 75 86 101 89 99 98 91 99 97 92 99 94 93 99 94 93 99 91 94 99 91 94 99 91 95 98 102 98 99 103 97 97 103 97 97 103 97 97 103 97 97 103 97 97 103 97 97 103 97 97 86 80 80 86 80 80 86 80 80 86 80 80 86 80 80 86 80 80 86 80 80 86 80 80 93 83 82 93 83 82 93 83 82 93 83 82 93 83 82 93 83 82 93 83 82 93 83 82 93 83 82 93 83 82 93 83 82 93 83 82 93 83 82 93 83 82 93 83 82 93 83 82 94 83 87 94 83 87 94 83 87 94 83 87 94 83 87 94 83 87 94 83 87 94 83 87 105 94 98 105 94 98 105 94 98 105 94 98 105 94 98 105 94 98 105 94 98 108 93 100 101 77 91 104 75 93 104 75 93 104 75 93 104 75 93 104 75 93 104 75 93 104 75 93 106 77 95 104 75 93 102 73 91 99 70 88 95 66 84 92 63 81 90 61 79 85 61 75 65 52 62 61 51 59 59 49 57 56 46 54 52 42 50 49 39 47 47 37 45 45 35 43 57 47 55 55 45 53
86 77 80 83 74 77 80 71 74 77 68 71 78 66 70 72 52 63 74 50 63 74 50 63 74 50 63 74 50 63 74 50 63 74 50 63 74 50 63 63 39 52 63 39 52 63 39 52 63 39 52 63 39 52 63 39 52 63 39 52 62 41 50 82 65 71 83 68 71 85 70 73 88 73 76 92 77 80 95 80 83 97 82 85 99 84 87 97 82 85 95 80 83 90 75 78 83 68 71 77 62 65 70 55 58 65 50 53 61 49 53 48 37 45 47 37 46 47 37 46 47 37 46 47 37 46 47 37 46 47 37 46 47 37 46 55 45 54 55 45 54 55 45 54 55 45 54 55 45 54 55 45 54 55 45 54 52 46 56 46 44 55 43 45 57 43 45 57 43 45 57 43 45 57 43 45 57 43 45 57 43 45 57 33 35 47 33 35 47 33 35 47 33 35 47 33 35 47 33 35 47 33 35 47 33 35 48 38 40 55 38 39 57 38 39 57 38 39 57 38 39 57 38 39 57 38 39 57 38 39 57 41 42 60 41 42 60 41 42 60 41 42 60 41 42 60 41 42 60 41 42 60 43 42 58 49 47 60 53 50 61 58 55 66 64 61 72 71 68 79 77 74 85 82 79 90 85 82 93 86 83 94 86 83 94 86 83 94 86 83 94 86 83 94 86 83 94 86 83 94 88 82 94 92 80 92 93 79 92 93 79 92 93 79 92 93 79 92 93 79 92 93 79 92 93 79 92 84 70 83 82 68 81 79 65 78 74 60 73 70 56 69 65 51 64 62 48 61 63 45 59 81 53 68 84 53 69 86 55 71 87 60 75 90 63 78 90 68 81 92 72 84 90 74 85 101 89 99 98 91 99 97 92 99 94 93 99 94 93 99 91 94 99 91 94 99 91 95 98 97 93 94 98 92 92 98 92 92 98 92 92 98 92 92 98 92 92 98 92 92 98 92 92 101 95 95 99 93 93 97 91 91 94 88 88 90 84 84 87 81 81 85 79 79 83 77 77 89 79 78 89 79 78 89 79 78 89 79 78 89 79 78 89 79 78 89 79 78 89 79 78 99 89 88 99 89 88 99 89 88 99 89 88 99 89 88 99 89 88 99 89 88 99 89 88 101 90 94 101 90 94 101 90 94 101 90 94 101 90 94 101 90 94 101 90 94 101 90 94 105 94 98 105 94 98 105 94 98 105 94 98 105 94 98 105 94 98 105 94 98 108 93 100 106 82 96 109 80 98 109 80 98 109 80 98 109 80 98 109 80 98 109 80 98 109 80 98 113 84 102 111 82 100 109 80 98 106 77 95 102 73 91 99 70 88 97 68 86 92 68 82 54 41 51 52 42 50 52 42 50 52 42 50 52 42 50 52 42 50 52 42 50 52 42 50 54 44 52 52 42 50
85 76 79 82 73 76 78 69 72 76 67 70 77 65 69 70 50 61 72 48 61 72 48 61 72 48 61 72 48 61 72 48 61 72 48 61 72 48 61 63 39 52 63 39 52 63 39 52 63 39 52 63 39 52 63 39 52 63 39 52 62 41 50 82 65 71 83 68 71 85 70 73 88 73 76 92 77 80 95 80 83 97 82 85 99 84 87 97 82 85 95 80 83 90 75 78 83 68 71 77 62 65 70 55 58 65 50 53 61 49 53 48 37 45 47 37 46 47 37 46 47 37 46 47 37 46 47 37 46 47 37 46 47 37 46 53 43 52 53 43 52 53 43 52 53 43 52 53 43 52 53 43 52 53 43 52 50 44 54 44 42 53 41 43 55 41 43 55 41 43 55 41 43 55 41 43 55 41 43 55 41 43 55 33 35 47 33 35 47 33 35 47 33 35 47 33 35 47 33 35 47 33 35 47 33 35 48 38 40 55 38 39 57 38 39 57 38 39 57 38 39 57 38 39 57 38 39 57 38 39 57 41 42 60 41 42 60 41 42 60 41 42 60 41 42 60 41 42 60 41 42 60 43 42 58 48 46 59 52 49 60 57 54 65 63 60 71 70 67 78 76 73 84 81 78 89 84 81 92 84 81 92 84 81 92 84 81 92 84 81 92 84 81 92 84 81 92 84 81 92 87 79 92 91 77 90 94 76 90 94 76 90 94 76 90 94 76 90 94 76 90 94 76 90 94 76 90 85 67 81 84 66 80 81 63 77 77 59 73 73 55 69 69 51 65 66 48 62 68 45 61 82 54 69 85 54 70 88 57 73 88 61 76 91 64 79 92 70 83 93 73 85 91 75 86 101 89 99 98 91 99 97 92 99 94 93 99 94 93 99 91 94 99 91 94 99 91 95 98 97 93 94 98 92 92 98 92 92 98 92 92 98 92 92 98 92 92 98 92 92 98 92 92 101 95 95 99 93 93 97 91 91 94 88 88 90 84 84 87 81 81 85 79 79 83 77 77 89 79 78 89 79 78 89 79 78 89 79 78 89 79 78 89 79 78 89 79 78 89 79 78 99 89 88 99 89 88 99 89 88 99 89 88 99 89 88 99 89 88 99 89 88 99 89 88 101 90 94 101 90 94 101 90 94 101 90 94 101 90 94 101 90 94 101 90 94 101 90 94 105 94 98 105 94 98 105 94 98 105 94 98 105 94 98 105 94 98 105 94 98 108 93 100 106 82 96 109 80 98 109 80 98 109 80 98 109 80 98 109 80 98 109 80 98 109 80 98 113 84 102 111 82 100 109 80 98 106 77 95 102 73 91 99 70 88 97 68 86 92 68 82 54 41 51 52 42 50 52 42 50 52 42 50 52 42 50 52 42 50 52 42 50 52 42 50 54 44 52 52 42 50
83 74 77 79 70 73 76 67 70 74 65 68 74 62 66 68 48 59 70 46 59 70 46 59 70 46 59 70 46 59 70 46 59 70 46 59 70 46 59 63 39 52 63 39 52 63 39 52 63 39 52 63 39 52 63 39 52 63 39 52 62 41 50 82 65 71 83 68 71 85 70 73 88 73 76 92 77 80 95 80 83 97 82 85 99 84 87 97 82 85 95 80 83 90 75 78 83 68 71 77 62 65 70 55 58 65 50 53 61 49 53 48 37 45 47 37 46 47 37 46 47 37 46 47 37 46 47 37 46 47 37 46 47 37 46 51 41 50 51 41 50 51 41 50 51 41 50 51 41 50 51 41 50 51 41 50 48 42 52 42 40 51 39 41 53 39 41 53 39 41 53 39 41 53 39 41 53 39 41 53 39 41 53 33 35 47 33 35 47 33 35 47 33 35 47 33 35 47 33 35 47 33 35 47 33 35 48 38 40 55 38 39 57 38 39 57 38 39 57 38 39 57 38 39 57 38 39 57 38 39 57 41 42 60 41 42 60 41 42 60 41 42 60 41 42 60 41 42 60 41 42 60 43 42 58 46 44 57 49 46 57 54 51 62 60 57 68 67 64 75 74 71 82 79 76 87 81 78 89 82 79 90 82 79 90 82 79 90 82 79 90 82 79 90 82 79 90 82 79 90 85 77 90 88 72 85 91 70 85 91 70 85 91 70 85 91 70 85 91 70 85 91 70 85 91 70 85 84 63 78 83 62 77 81 60 75 78 57 72 76 55 70 73 52 67 71 50 65 72 48 64 86 55 71 88 57 73 90 59 75 90 63 78 94 67 82 94 72 85 95 75 87 94 78 89 101 89 99 98 91 99 97 92 99 94 93 99 94 93 99 91 94 99 91 94 99 91 95 98 97 93 94 98 92 92 98 92 92 98 92 92 98 92 92 98 92 92 98 92 92 98 92 92 101 95 95 99 93 93 97 91 91 94 88 88 90 84 84 87 81 81 85 79 79 83 77 77 89 79 78 89 79 78 89 79 78 89 79 78 89 79 78 89 79 78 89 79 78 89 79 78 99 89 88 99 89 88 99 89 88 99 89 88 99 89 88 99 89 88 99 89 88 99 89 88 101 90 94 101 90 94 101 90 94 101 90 94 101 90 94 101 90 94 101 90 94 101 90 94 105 94 98 105 94 98 105 94 98 105 94 98 105 94 98 105 94 98 105 94 98 108 93 100 106 82 96 109 80 98 109 80 98 109 80 98 109 80 98 109 80 98 109 80 98 109 80 98 113 84 102 111 82 100 109 80 98 106 77 95 102 73 91 99 70 88 97 68 86 92 68 82 54 41 51 52 42 50 52 42 50 52 42 50 52 42 50 52 42 50 52 42 50 52 42 50 54 44 52 52 42 50
79 70 73 76 67 70 73 64 67 70 61 64 71 59 63 65 45 56 67 43 56 67 43 56 67 43 56 67 43 56 67 43 56 67 43 56 67 43 56 63 39 52 63 39 52 63 39 52 63 39 52 63 39 52 63 39 52 63 39 52 62 41 50 82 65 71 83 68 71 85 70 73 88 73 76 92 77 80 95 80 83 97 82 85 99 84 87 97 82 85 95 80 83 90 75 78 83 68 71 77 62 65 70 55 58 65 50 53 61 49 53 48 37 45 47 37 46 47 37 46 47 37 46 47 37 46 47 37 46 47 37 46 47 37 46 48 38 47 48 38 47 48 38 47 48 38 47 48 38 47 48 38 47 48 38 47 45 39 49 39 37 48 36 38 50 36 38 50 36 38 50 36 38 50 36 38 50 36 38 50 36 38 50 33 35 47 33 35 47 33 35 47 33 35 47 33 35 47 33 35 47 33 35 47 33 35 48 38 40 55 38 39 57 38 39 57 38 39 57 38 39 57 38 39 57 38 39 57 38 39 57 41 42 60 41 42 60 41 42 60 41 42 60 41 42 60 41 42 60 41 42 60 43 42 58 42 40 53 46 43 54 51 48 59 57 54 65 64 61 72 71 68 79 75 72 83 78 75 86 79 76 87 79 76 87 79 76 87 79 76 87 79 76 87 79 76 87 79 76 87 82 74 87 82 64 78 85 62 78 86 62 78 85 62 78 86 62 78 85 62 78 86 62 78 85 62 78 81 57 73 80 57 73 80 56 72 78 55 71 79 55 71 77 54 70 77 53 69 79 52 69 90 59 75 91 60 76 93 62 78 94 67 82 97 70 85 97 75 88 99 79 91 97 81 92 101 89 99 98 91 99 97 92 99 94 93 99 94 93 99 91 94 99 91 94 99 91 95 98 97 93 94 98 92 92 98 92 92 98 92 92 98 92 92 98 92 92 98 92 92 98 92 92 101 95 95 99 93 93 97 91 91 94 88 88 90 84 84 87 81 81 85 79 79 83 77 77 89 79 78 89 79 78 89 79 78 89 79 78 89 79 78 89 79 78 89 79 78 89 79 78 99 89 88 99 89 88 99 89 88 99 89 88 99 89 88 99 89 88 99 89 88 99 89 88 101 90 94 101 90 94 101 90 94 101 90 94 101 90 94 101 90 94 101 90 94 101 90 94 105 94 98 105 94 98 105 94 98 105 94 98 105 94 98 105 94 98 105 94 98 108 93 100 106 82 96 109 80 98 109 80 98 109 80 98 109 80 98 109 80 98 109 80 98 109 80 98 113 84 102 111 82 100 109 80 98 106 77 95 102 73 91 99 70 88 97 68 86 92 68 82 54 41 51 52 42 50 52 42 50 52 42 50 52 42 50 52 42 50 52 42 50 52 42 50 54 44 52 52 42 50
76 67 70 73 64 67 69 60 63 67 58 61 68 56 60 61 41 52 63 39 52 63 39 52 63 39 52 63 39 52 63 39 52 63 39 52 63 39 52 63 39 52 63 39 52 63 39 52 63 39 52 63 39 52 63 39 52 63 39 52 62 41 50 82 65 71 83 68 71 85 70 73 88 73 76 92 77 80 95 80 83 97 82 85 99 84 87 97 82 85 95 80 83 90 75 78 83 68 71 77 62 65 70 55 58 65 50 53 61 49 53 48 37 45 47 37 46 47 37 46 47 37 46 47 37 46 47 37 46 47 37 46 47 37 46 44 34 43 44 34 43 44 34 43 44 34 43 44 34 43 44 34 43 44 34 43 41 35 45 35 33 44 32 34 46 32 34 46 32 34 46 32 34 46 32 34 46 32 34 46 32 34 46 33 35 47 33 35 47 33 35 47 33 35 47 33 35 47 33 35 47 33 35 47 33 35 48 38 40 55 38 39 57 38 39 57 38 39 57 38 39 57 38 39 57 38 39 57 38 39 57 41 42 60 41 42 60 41 42 60 41 42 60 41 42 60 41 42 60 41 42 60 43 42 58 39 37 50 43 40 51 47 44 55 54 51 62 61 58 69 67 64 75 72 69 80 75 72 83 75 72 83 75 72 83 75 72 83 75 72 83 75 72 83 75 72 83 75 72 83 80 69 83 78 57 72 80 56 72 82 55 72 80 56 72 82 55 72 80 56 72 82 55 72 80 56 72 79 52 69 77 53 69 80 53 70 79 55 71 81 54 71 80 56 72 83 56 73 83 56 73 93 62 78 94 63 79 97 66 82 97 70 85 100 73 88 101 79 92 102 82 94 100 84 95 101 89 99 98 91 99 97 92 99 94 93 99 94 93 99 91 94 99 91 94 99 91 95 98 97 93 94 98 92 92 98 92 92 98 92 92 98 92 92 98 92 92 98 92 92 98 92 92 101 95 95 99 93 93 97 91 91 94 88 88 90 84 84 87 81 81 85 79 79 83 77 77 89 79 78 89 79 78 89 79 78 89 79 78 89 79 78 89 79 78 89 79 78 89 79 78 99 89 88 99 89 88 99 89 88 99 89 88 99 89 88 99 89 88 99 89 88 99 89 88 101 90 94 101 90 94 101 90 94 101 90 94 101 90 94 101 90 94 101 90 94 101 90 94 105 94 98 105 94 98 105 94 98 105 94 98 105 94 98 105 94 98 105 94 98 108 93 100 106 82 96 109 80 98 109 80 98 109 80 98 109 80 98 109 80 98 109 80 98 109 80 98 113 84 102 111 82 100 109 80 98 106 77 95 102 73 91 99 70 88 97 68 86 92 68 82 54 41 51 52 42 50 52 42 50 52 42 50 52 42 50 52 42 50 52 42 50 52 42 50 54 44 52 52 42 50
73 64 67 69 60 63 66 57 60 64 55 58 64 52 56 58 38 49 60 36 49 60 36 49 60 36 49 60 36 49 60 36 49 60 36 49 60 36 49 63 39 52 63 39 52 63 39 52 63 39 52 63 39 52 63 39 52 63 39 52 62 41 50 82 65 71 83 68 71 85 70 73 88 73 76 92 77 80 95 80 83 97 82 85 99 84 87 97 82 85 95 80 83 90 75 78 83 68 71 77 62 65 70 55 58 65 50 53 61 49 53 48 37 45 47 37 46 47 37 46 47 37 46 47 37 46 47 37 46 47 37 46 47 37 46 41 31 40 41 31 40 41 31 40 41 31 40 41 31 40 41 31 40 41 31 40 38 32 42 32 30 41 29 31 43 29 31 43 29 31 43 29 31 43 29 31 43 29 31 43 29 31 43 33 35 47 33 35 47 33 35 47 33 35 47 33 35 47 33 35 47 33 35 47 33 35 48 38 40 55 38 39 57 38 39 57 38 39 57 38 39 57 38 39 57 38 39 57 38 39 57 41 42 60 41 42 60 41 42 60 41 42 60 41 42 60 41 42 60 41 42 60 43 42 58 36 34 47 39 36 47 44 41 52 51 48 59 58 55 66 64 61 72 69 66 77 71 68 79 72 69 80 72 69 80 72 69 80 72 69 80 72 69 80 72 69 80 72 69 80 77 66 80 72 49 65 75 48 65 76 47 65 75 48 65 76 47 65 75 48 65 76 47 65 75 48 65 75 46 64 75 48 65 78 49 67 80 53 70 83 54 72 85 58 75 88 59 77 89 60 78 96 65 81 98 67 83 100 69 85 100 73 88 104 77 92 104 82 95 105 85 97 104 88 99 101 89 99 98 91 99 97 92 99 94 93 99 94 93 99 91 94 99 91 94 99 91 95 98 97 93 94 98 92 92 98 92 92 98 92 92 98 92 92 98 92 92 98 92 92 98 92 92 101 95 95 99 93 93 97 91 91 94 88 88 90 84 84 87 81 81 85 79 79 83 77 77 89 79 78 89 79 78 89 79 78 89 79 78 89 79 78 89 79 78 89 79 78 89 79 78 99 89 88 99 89 88 99 89 88 99 89 88 99 89 88 99 89 88 99 89 88 99 89 88 101 90 94 101 90 94 101 90 94 101 90 94 101 90 94 101 90 94 101 90 94 101 90 94 105 94 98 105 94 98 105 94 98 105 94 98 105 94 98 105 94 98 105 94 98 108 93 100 106 82 96 109 80 98 109 80 98 109 80 98 109 80 98 109 80 98 109 80 98 109 80 98 113 84 102 111 82 100 109 80 98 106 77 95 102 73 91 99 70 88 97 68 86 92 68 82 54 41 51 52 42 50 52 42 50 52 42 50 52 42 50 52 42 50 52 42 50 52 42 50 54 44 52 52 42 50
70 61 64 67 58 61 64 55 58 61 52 55 62 50 54 56 36 47 58 34 47 58 34 47 58 34 47 58 34 47 58 34 47 58 34 47 58 34 47 63 39 52 63 39 52 63 39 52 63 39 52 63 39 52 63 39 52 63 39 52 62 41 50 82 65 71 83 68 71 85 70 73 88 73 76 92 77 80 95 80 83 97 82 85 99 84 87 97 82 85 95 80 83 90 75 78 83 68 71 77 62 65 70 55 58 65 50 53 61 49 53 48 37 45 47 37 46 47 37 46 47 37 46 47 37 46 47 37 46 47 37 46 47 37 46 39 29 38 39 29 38 39 29 38 39 29 38 39 29 38 39 29 38 39 29 38 36 30 40 30 28 39 27 29 41 27 29 41 27 29 41 27 29 41 27 29 41 27 29 41 27 29 41 33 35 47 33 35 47 33 35 47 33 35 47 33 35 47 33 35 47 33 35 47 33 35 48 38 40 55 38 39 57 38 39 57 38 39 57 38 39 57 38 39 57 38 39 57 38 39 57 41 42 60 41 42 60 41 42 60 41 42 60 41 42 60 41 42 60 41 42 60 43 42 58 33 31 44 37 34 45 42 39 50 48 45 56 55 52 63 61 58 69 66 63 74 69 66 77 70 67 78 70 67 78 70 67 78 70 67 78 70 67 78 70 67 78 70 67 78 75 64 78 67 44 60 71 42 60 73 42 60 71 42 60 73 42 60 71 42 60 73 42 60 71 42 60 74 43 61 73 44 62 78 47 65 80 51 69 86 55 73 88 59 77 93 62 80 94 63 81 100 67 84 100 69 85 102 71 87 103 76 91 106 79 94 106 84 97 108 88 100 106 90 101 101 89 99 98 91 99 97 92 99 94 93 99 94 93 99 91 94 99 91 94 99 91 95 98 97 93 94 98 92 92 98 92 92 98 92 92 98 92 92 98 92 92 98 92 92 98 92 92 101 95 95 99 93 93 97 91 91 94 88 88 90 84 84 87 81 81 85 79 79 83 77 77 89 79 78 89 79 78 89 79 78 89 79 78 89 79 78 89 79 78 89 79 78 89 79 78 99 89 88 99 89 88 99 89 88 99 89 88 99 89 88 99 89 88 99 89 88 99 89 88 101 90 94 101 90 94 101 90 94 101 90 94 101 90 94 101 90 94 101 90 94 101 90 94 105 94 98 105 94 98 105 94 98 105 94 98 105 94 98 105 94 98 105 94 98 108 93 100 106 82 96 109 80 98 109 80 98 109 80 98 109 80 98 109 80 98 109 80 98 109 80 98 113 84 102 111 82 100 109 80 98 106 77 95 102 73 91 99 70 88 97 68 86 92 68 82 54 41 51 52 42 50 52 42 50 52 42 50 52 42 50 52 42 50 52 42 50 52 42 50 54 44 52 52 42 50
67 61 63 66 57 60 60 54 56 60 51 54 60 49 55 52 35 45 54 34 45 54 34 46 54 34 45 54 34 46 54 34 45 54 34 46 54 34 45 61 41 53 61 41 52 61 41 53 61 41 52 61 41 53 61 41 52 61 41 53 59 42 52 81 66 71 81 69 71 85 70 75 86 74 76 92 77 82 93 81 83 97 82 87 97 85 87 97 82 87 93 81 83 90 75 80 81 69 71 77 62 67 68 56 58 65 50 55 61 49 53 47 37 46 45 38 46 45 37 48 45 38 46 45 37 48 45 38 46 45 37 48 45 38 46 35 27 38 35 28 36 35 27 38 35 28 36 35 27 38 35 28 36 35 27 38 34 28 38 28 26 39 25 27 39 27 26 40 25 27 39 27 26 40 25 27 39 27 26 40 25 27 39 35 34 48 33 35 47 35 34 48 33 35 47 35 34 48 33 35 47 35 34 48 33 35 48 38 40 55 37 40 55 37 40 55 37 40 55 37 40 55 37 40 55 37 40 55 37 40 55 40 43 58 40 43 58 40 43 58 40 43 58 40 43 58 40 43 58 40 43 58 41 43 56 33 29 43 38 32 44 43 37 49 49 43 55 56 50 62 62 56 68 67 61 73 70 64 76 70 64 76 70 64 76 70 64 76 70 64 76 70 64 76 70 64 76 70 64 76 74 62 74 66 42 58 69 41 56 69 40 58 69 41 56 69 40 58 69 41 56 69 40 58 69 41 56 70 41 59 72 44 59 75 46 64 80 52 67 84 55 73 89 61 76 92 63 81 94 66 81 98 69 87 98 71 86 99 75 91 101 79 92 104 81 97 107 87 99 107 89 103 105 92 102 101 89 101 98 91 99 97 91 101 95 92 99 95 92 101 94 93 99 93 93 101 94 93 99 97 92 96 98 92 94 98 92 94 98 92 94 98 92 94 98 92 94 98 92 94 98 92 94 101 95 97 99 93 95 97 91 93 94 88 90 90 84 86 87 81 83 85 79 81 83 77 79 89 79 80 89 79 78 89 79 78 89 79 78 89 79 78 89 79 78 89 79 78 89 79 78 99 89 88 99 89 88 99 89 88 99 89 88 99 89 88 99 89 88 99 89 88 99 89 90 101 90 94 101 90 94 101 90 94 101 90 94 101 90 94 102 90 94 102 90 94 102 90 94 108 93 98 108 93 98 109 92 98 109 92 98 109 92 98 111 92 98 111 92 98 112 91 100 111 80 96 112 79 96 112 79 98 111 80 96 111 80 98 111 80 96 109 80 98 109 81 96 113 84 102 110 83 98 108 81 98 103 79 93 99 75 91 96 72 86 94 70 86 90 70 82 53 41 51 50 43 50 50 43 50 50 43 50 50 43 50 50 43 50 50 43 50 50 43 50 52 45 52 50 43 50
49 44 48 46 40 44 42 37 41 41 35 39 39 33 37 44 34 43 45 33 43 45 33 45 45 33 43 45 33 45 45 33 43 45 33 45 45 33 43 42 30 42 44 32 42 46 34 46 49 37 47 53 41 53 56 44 54 58 46 58 60 48 58 72 61 67 74 63 67 77 64 71 79 68 72 84 71 78 86 75 79 89 76 83 90 79 83 87 74 81 84 73 77 80 67 74 72 61 65 67 54 61 59 48 52 55 42 49 52 41 47 43 35 46 42 36 46 42 36 48 42 36 46 42 36 48 42 36 46 42 36 48 42 36 46 44 38 50 44 38 48 44 38 50 44 38 48 44 38 50 44 38 48 44 38 50 42 39 50 37 35 49 36 35 49 37 34 51 36 35 49 37 34 51 36 35 49 37 34 51 36 35 49 38 35 52 37 36 50 38 35 52 37 36 50 38 35 52 37 36 50 38 35 52 37 36 50 37 41 52 35 42 52 35 42 52 35 42 52 35 42 52 35 42 52 35 42 52 35 42 52 36 43 53 36 43 53 36 43 53 36 43 53 36 43 53 36 43 53 36 43 53 39 41 53 45 37 50 48 36 48 48 36 48 48 36 48 48 36 48 48 36 48 48 36 48 48 36 48 64 52 64 64 52 64 64 52 64 64 52 64 64 52 64 64 52 64 64 52 64 65 51 64 66 44 57 69 43 56 69 42 57 69 43 56 69 42 57 69 43 56 69 42 57 69 43 56 74 47 62 76 50 63 78 51 66 81 55 68 85 58 73 88 62 75 90 63 78 89 67 80 86 68 82 86 70 83 88 74 89 92 78 91 97 83 98 101 87 100 104 92 106 106 94 106 103 92 106 103 93 104 101 93 106 101 93 104 101 93 106 101 93 104 100 94 106 100 94 104 95 90 97 95 90 96 95 90 96 95 90 96 95 90 96 95 90 96 95 90 96 95 90 96 95 90 96 95 90 96 95 90 96 95 90 96 95 90 96 95 90 96 95 90 96 96 90 94 84 73 77 85 73 75 85 73 75 85 73 75 85 73 75 85 73 75 85 73 75 85 73 75 95 83 85 95 83 85 95 83 85 95 83 85 95 83 85 95 83 85 95 83 85 94 84 85 104 95 98 104 95 100 105 94 100 105 94 100 106 93 100 108 93 100 109 92 100 111 91 100 105 82 92 107 81 92 108 80 92 110 80 92 111 79 92 112 78 92 114 78 92 114 78 92 118 77 95 118 77 95 116 77 96 115 78 95 113 79 96 112 80 95 111 80 96 109 81 95 122 95 110 116 94 106 110 90 102 102 85 95 94 78 89 88 72 82 81 68 78 77 65 75 50 43 51 49 44 51 49 44 51 49 44 51 49 44 51 49 44 51 49 44 51 49 44 51 47 42 49 45 40 47
49 44 48 45 40 44 42 37 41 40 35 39 38 33 39 42 35 43 42 34 45 42 34 45 42 34 45 42 34 45 42 34 45 42 34 45 42 34 45 39 31 42 41 33 44 43 35 46 46 38 49 50 42 53 53 45 56 55 47 58 57 50 58 72 61 69 74 63 69 76 65 71 79 68 74 83 72 78 86 75 81 88 77 83 90 79 85 86 75 81 84 73 79 79 68 74 72 61 67 66 55 61 59 48 54 54 43 49 51 41 49 42 36 46 40 37 48 40 37 48 40 37 48 40 37 48 40 37 48 40 37 48 40 37 48 42 39 50 42 39 50 42 39 50 42 39 50 42 39 50 42 39 50 42 39 50 42 38 52 37 35 49 37 34 51 37 34 51 37 34 51 37 34 51 37 34 51 37 34 51 37 34 51 38 35 52 38 35 52 38 35 52 38 35 52 38 35 52 38 35 52 38 35 52 37 36 50 37 41 52 34 43 50 35 42 50 34 43 50 35 42 50 34 43 50 35 42 50 34 43 50 36 43 51 35 44 51 36 43 51 35 44 51 36 43 51 35 44 51 36 43 51 39 42 51 45 37 48 49 35 48 49 35 48 49 35 48 49 35 48 49 35 48 49 35 48 49 35 48 63 49 62 63 49 62 63 49 62 63 49 62 63 49 62 63 49 62 63 49 62 65 49 60 66 44 57 67 43 56 67 43 56 67 43 56 67 43 56 67 43 56 67 43 56 67 43 56 72 48 61 74 50 63 76 52 65 79 55 68 83 59 72 86 62 75 88 64 77 88 68 80 83 69 82 83 72 86 86 75 89 89 78 92 93 82 96 97 86 100 100 89 103 102 91 105 101 90 104 101 90 104 101 90 104 101 90 104 101 90 104 101 90 104 101 90 104 99 91 102 94 86 97 93 88 95 93 88 95 93 88 95 93 88 95 93 88 95 93 88 95 93 88 95 95 90 97 95 90 97 95 90 97 95 90 97 95 90 97 95 90 97 95 90 97 96 89 96 86 75 79 87 75 77 87 75 77 87 75 77 87 75 77 87 75 77 87 75 77 87 75 77 95 83 85 95 83 85 95 83 85 95 83 85 95 83 85 95 83 85 95 83 85 94 84 85 104 95 100 102 96 100 105 94 100 105 94 100 108 93 100 109 92 100 111 91 100 113 90 100 108 80 92 111 79 92 112 78 92 114 78 92 117 76 92 117 76 92 119 75 92 119 75 92 120 75 95 119 76 95 119 76 95 116 77 95 116 77 95 113 79 95 112 80 95 109 81 95 119 95 108 114 94 105 107 90 100 98 85 94 91 78 87 83 73 81 78 68 76 72 67 73 49 44 51 47 44 51 47 44 51 47 44 51 47 44 51 47 44 51 47 44 51 47 44 51 45 42 49 43 40 47
49 44 48 45 40 44 42 37 41 40 35 39 38 33 39 42 35 43 42 34 45 42 34 45 42 34 45 42 34 45 42 34 45 42 34 45 42 34 45 39 31 42 41 33 44 43 35 46 46 38 49 50 42 53 53 45 56 55 47 58 57 50 58 72 61 69 74 63 69 76 65 71 79 68 74 83 72 78 86 75 81 88 77 83 90 79 85 86 75 81 84 73 79 79 68 74 72 61 67 66 55 61 59 48 54 54 43 49 51 41 49 42 36 46 40 37 48 40 37 48 40 37 48 40 37 48 40 37 48 40 37 48 40 37 48 42 39 50 42 39 50 42 39 50 42 39 50 42 39 50 42 39 50 42 39 50 42 38 52 37 35 49 37 34 51 37 34 51 37 34 51 37 34 51 37 34 51 37 34 51 37 34 51 38 35 52 38 35 52 38 35 52 38 35 52 38 35 52 38 35 52 38 35 52 37 36 50 37 41 52 35 42 50 37 41 50 35 42 50 37 41 50 35 42 50 37 41 50 35 42 50 38 42 51 36 43 51 38 42 51 36 43 51 38 42 51 36 43 51 38 42 51 41 41 51 47 37 48 49 35 48 49 35 48 49 35 48 49 35 48 49 35 48 49 35 48 49 35 48 61 47 60 61 47 60 61 47 60 61 47 60 61 47 60 61 47 60 61 47 60 63 47 58 66 44 57 67 43 56 67 43 56 67 43 56 67 43 56 67 43 56 67 43 56 67 43 56 72 48 61 74 50 63 76 52 65 79 55 68 83 59 72 86 62 75 88 64 77 88 68 80 84 70 83 83 72 86 85 74 88 88 77 91 90 79 93 93 82 96 95 84 98 96 85 99 96 85 99 96 85 99 96 85 99 96 85 99 96 85 99 96 85 99 96 85 99 94 86 97 92 84 95 91 86 93 91 86 93 91 86 93 91 86 93 91 86 93 91 86 93 91 86 93 95 90 97 95 90 97 95 90 97 95 90 97 95 90 97 95 90 97 95 90 97 96 89 96 88 77 81 89 77 79 89 77 79 89 77 79 89 77 79 89 77 79 89 77 79 89 77 79 95 83 85 95 83 85 95 83 85 95 83 85 95 83 85 95 83 85 95 83 85 94 84 85 104 95 100 102 96 100 105 94 100 105 94 100 108 93 100 109 92 100 111 91 100 113 90 100 108 80 92 111 79 92 112 78 92 114 78 92 117 76 92 117 76 92 119 75 92 119 75 92 120 75 95 119 76 95 119 76 95 116 77 95 116 77 95 113 79 95 112 80 95 109 81 95 116 92 105 112 92 103 105 88 98 95 82 91 88 75 84 80 70 78 75 65 73 70 65 71 49 44 51 47 44 51 47 44 51 47 44 51 47 44 51 47 44 51 47 44 51 47 44 51 45 42 49 43 40 47
49 44 48 45 40 44 42 37 41 40 35 39 38 33 39 42 35 43 42 34 45 42 34 45 42 34 45 42 34 45 42 34 45 42 34 45 42 34 45 39 31 42 41 33 44 43 35 46 46 38 49 50 42 53 53 45 56 55 47 58 57 50 58 72 61 69 74 63 69 76 65 71 79 68 74 83 72 78 86 75 81 88 77 83 90 79 85 86 75 81 84 73 79 79 68 74 72 61 67 66 55 61 59 48 54 54 43 49 51 41 49 42 36 46 40 37 48 40 37 48 40 37 48 40 37 48 40 37 48 40 37 48 40 37 48 42 39 50 42 39 50 42 39 50 42 39 50 42 39 50 42 39 50 42 39 50 42 38 52 37 35 49 37 34 51 37 34 51 37 34 51 37 34 51 37 34 51 37 34 51 37 34 51 38 35 52 38 35 52 38 35 52 38 35 52 38 35 52 38 35 52 38 35 52 37 36 50 38 40 52 37 41 50 38 41 50 37 41 50 38 41 50 37 41 50 38 41 50 37 41 50 39 42 51 38 42 51 39 42 51 38 42 51 39 42 51 38 42 51 39 42 51 42 40 51 47 37 48 49 35 48 49 35 48 49 35 48 49 35 48 49 35 48 49 35 48 49 35 48 58 44 57 58 44 57 58 44 57 58 44 57 58 44 57 58 44 57 58 44 57 60 44 55 66 44 57 67 43 56 67 43 56 67 43 56 67 43 56 67 43 56 67 43 56 67 43 56 72 48 61 74 50 63 76 52 65 79 55 68 83 59 72 86 62 75 88 64 77 88 68 80 85 71 84 84 73 87 84 73 87 85 74 88 86 75 89 87 76 90 88 77 91 88 77 91 89 78 92 89 78 92 89 78 92 89 78 92 89 78 92 89 78 92 89 78 92 87 79 90 89 81 92 88 83 90 88 83 90 88 83 90 88 83 90 88 83 90 88 83 90 88 83 90 95 90 97 95 90 97 95 90 97 95 90 97 95 90 97 95 90 97 95 90 97 96 89 96 91 80 84 92 80 82 92 80 82 92 80 82 92 80 82 92 80 82 92 80 82 92 80 82 95 83 85 95 83 85 95 83 85 95 83 85 95 83 85 95 83 85 95 83 85 94 84 85 104 95 100 102 96 100 105 94 100 105 94 100 108 93 100 109 92 100 111 91 100 113 90 100 108 80 92 111 79 92 112 78 92 114 78 92 117 76 92 117 76 92 119 75 92 119 75 92 120 75 95 119 76 95 119 76 95 116 77 95 116 77 95 113 79 95 112 80 95 109 81 95 113 89 102 108 88 99 102 85 95 92 79 88 85 72 81 77 67 75 72 62 70 66 61 67 49 44 51 47 44 51 47 44 51 47 44 51 47 44 51 47 44 51 47 44 51 47 44 51 45 42 49 43 40 47
49 44 48 45 40 44 42 37 41 40 35 39 38 33 39 42 35 43 42 34 45 42 34 45 42 34 45 42 34 45 42 34 45 42 34 45 42 34 45 39 31 42 41 33 44 43 35 46 46 38 49 50 42 53 53 45 56 55 47 58 57 50 58 72 61 69 74 63 69 76 65 71 79 68 74 83 72 78 86 75 81 88 77 83 90 79 85 86 75 81 84 73 79 79 68 74 72 61 67 66 55 61 59 48 54 54 43 49 51 41 49 42 36 46 40 37 48 40 37 48 40 37 48 40 37 48 40 37 48 40 37 48 40 37 48 42 39 50 42 39 50 42 39 50 42 39 50 42 39 50 42 39 50 42 39 50 42 38 52 37 35 49 37 34 51 37 34 51 37 34 51 37 34 51 37 34 51 37 34 51 37 34 51 38 35 52 38 35 52 38 35 52 38 35 52 38 35 52 38 35 52 38 35 52 38 36 50 40 40 52 38 41 50 40 40 50 38 41 50 40 40 50 38 41 50 40 40 50 38 41 50 41 41 51 39 42 51 41 41 51 39 42 51 41 41 51 39 42 51 41 41 51 42 40 51 47 37 48 49 35 48 49 35 48 49 35 48 49 35 48 49 35 48 49 35 48 49 35 48 54 40 53 54 40 53 54 40 53 54 40 53 54 40 53 54 40 53 54 40 53 56 40 51 66 44 57 67 43 56 67 43 56 67 43 56 67 43 56 67 43 56 67 43 56 67 43 56 72 48 61 74 50 63 76 52 65 79 55 68 83 59 72 86 62 75 88 64 77 88 68 80 87 73 86 84 73 87 84 73 87 83 72 86 82 71 85 81 70 84 80 69 83 80 69 83 83 72 86 83 72 86 83 72 86 83 72 86 83 72 86 83 72 86 83 72 86 81 73 84 85 77 88 84 79 86 84 79 86 84 79 86 84 79 86 84 79 86 84 79 86 84 79 86 95 90 97 95 90 97 95 90 97 95 90 97 95 90 97 95 90 97 95 90 97 96 89 96 95 84 88 96 84 86 96 84 86 96 84 86 96 84 86 96 84 86 96 84 86 96 84 86 95 83 85 95 83 85 95 83 85 95 83 85 95 83 85 95 83 85 95 83 85 94 84 85 104 95 100 102 96 100 105 94 100 105 94 100 108 93 100 109 92 100 111 91 100 113 90 100 108 80 92 111 79 92 112 78 92 114 78 92 117 76 92 117 76 92 119 75 92 119 75 92 120 75 95 119 76 95 119 76 95 116 77 95 116 77 95 113 79 95 112 80 95 109 81 95 110 86 99 105 85 96 98 81 91 89 76 85 82 69 78 73 63 71 69 59 67 63 58 64 49 44 51 47 44 51 47 44 51 47 44 51 47 44 51 47 44 51 47 44 51 47 44 51 45 42 49 43 40 47
49 44 48 45 40 44 42 37 41 40 35 39 38 33 39 42 35 43 42 34 45 42 34 45 42 34 45 42 34 45 42 34 45 42 34 45 42 34 45 39 31 42 41 33 44 43 35 46 46 38 49 50 42 53 53 45 56 55 47 58 57 50 58 72 61 69 74 63 69 76 65 71 79 68 74 83 72 78 86 75 81 88 77 83 90 79 85 86 75 81 84 73 79 79 68 74 72 61 67 66 55 61 59 48 54 54 43 49 51 41 49 42 36 46 40 37 48 40 37 48 40 37 48 40 37 48 40 37 48 40 37 48 40 37 48 42 39 50 42 39 50 42 39 50 42 39 50 42 39 50 42 39 50 42 39 50 42 38 52 37 35 49 37 34 51 37 34 51 37 34 51 37 34 51 37 34 51 37 34 51 37 34 51 38 35 52 38 35 52 38 35 52 38 35 52 38 35 52 38 35 52 38 35 52 38 36 50 41 39 52 41 39 50 41 39 50 41 39 50 41 39 50 41 39 50 41 39 50 41 39 50 42 40 51 42 40 51 42 40 51 42 40 51 42 40 51 42 40 51 42 40 51 43 40 51 47 37 48 49 35 48 49 35 48 49 35 48 49 35 48 49 35 48 49 35 48 49 35 48 51 37 50 51 37 50 51 37 50 51 37 50 51 37 50 51 37 50 51 37 50 53 37 48 66 44 57 67 43 56 67 43 56 67 43 56 67 43 56 67 43 56 67 43 56 67 43 56 72 48 61 74 50 63 76 52 65 79 55 68 83 59 72 86 62 75 88 64 77 88 68 80 88 74 87 85 74 88 83 72 86 80 69 83 78 67 81 75 64 78 73 62 76 72 61 75 76 65 79 76 65 79 76 65 79 76 65 79 76 65 79 76 65 79 76 65 79 74 66 77 82 74 85 81 76 83 81 76 83 81 76 83 81 76 83 81 76 83 81 76 83 81 76 83 95 90 97 95 90 97 95 90 97 95 90 97 95 90 97 95 90 97 95 90 97 96 89 96 98 87 91 99 87 89 99 87 89 99 87 89 99 87 89 99 87 89 99 87 89 99 87 89 95 83 85 95 83 85 95 83 85 95 83 85 95 83 85 95 83 85 95 83 85 94 84 85 104 95 100 102 96 100 105 94 100 105 94 100 108 93 100 109 92 100 111 91 100 113 90 100 108 80 92 111 79 92 112 78 92 114 78 92 117 76 92 117 76 92 119 75 92 119 75 92 120 75 95 119 76 95 119 76 95 116 77 95 116 77 95 113 79 95 112 80 95 109 81 95 106 82 95 102 82 93 95 78 88 86 73 82 79 66 75 70 60 68 65 55 63 60 55 61 49 44 51 47 44 51 47 44 51 47 44 51 47 44 51 47 44 51 47 44 51 47 44 51 45 42 49 43 40 47
49 44 48 45 40 44 42 37 41 40 35 39 38 33 39 42 35 43 42 34 45 42 34 45 42 34 45 42 34 45 42 34 45 42 34 45 42 34 45 39 31 42 41 33 44 43 35 46 46 38 49 50 42 53 53 45 56 55 47 58 57 50 58 72 61 69 74 63 69 76 65 71 79 68 74 83 72 78 86 75 81 88 77 83 90 79 85 86 75 81 84 73 79 79 68 74 72 61 67 66 55 61 59 48 54 54 43 49 51 41 49 42 36 46 40 37 48 40 37 48 40 37 48 40 37 48 40 37 48 40 37 48 40 37 48 42 39 50 42 39 50 42 39 50 42 39 50 42 39 50 42 39 50 42 39 50 42 38 52 37 35 49 37 34 51 37 34 51 37 34 51 37 34 51 37 34 51 37 34 51 37 34 51 38 35 52 38 35 52 38 35 52 38 35 52 38 35 52 38 35 52 38 35 52 38 36 50 42 38 52 42 39 50 42 39 50 42 39 50 42 39 50 42 39 50 42 39 50 42 39 50 43 40 51 43 40 51 43 40 51 43 40 51 43 40 51 43 40 51 43 40 51 45 39 51 48 36 48 49 35 48 49 35 48 49 35 48 49 35 48 49 35 48 49 35 48 49 35 48 49 35 48 49 35 48 49 35 48 49 35 48 49 35 48 49 35 48 49 35 48 51 35 46 66 44 57 67 43 56 67 43 56 67 43 56 67 43 56 67 43 56 67 43 56 67 43 56 72 48 61 74 50 63 76 52 65 79 55 68 83 59 72 86 62 75 88 64 77 88 68 80 89 75 88 85 74 88 82 71 85 79 68 82 75 64 78 71 60 74 68 57 71 66 55 69 71 60 74 71 60 74 71 60 74 71 60 74 71 60 74 71 60 74 71 60 74 69 61 72 80 72 83 79 74 81 79 74 81 79 74 81 79 74 81 79 74 81 79 74 81 79 74 81 95 90 97 95 90 97 95 90 97 95 90 97 95 90 97 95 90 97 95 90 97 96 89 96 100 89 93 101 89 91 101 89 91 101 89 91 101 89 91 101 89 91 101 89 91 101 89 91 95 83 85 95 83 85 95 83 85 95 83 85 95 83 85 95 83 85 95 83 85 94 84 85 104 95 100 102 96 100 105 94 100 105 94 100 108 93 100 109 92 100 111 91 100 113 90 100 108 80 92 111 79 92 112 78 92 114 78 92 117 76 92 117 76 92 119 75 92 119 75 92 120 75 95 119 76 95 119 76 95 116 77 95 116 77 95 113 79 95 112 80 95 109 81 95 104 80 93 99 79 90 92 75 85 83 70 79 76 63 72 68 58 66 63 53 61 57 52 58 49 44 51 47 44 51 47 44 51 47 44 51 47 44 51 47 44 51 47 44 51 47 44 51 45 42 49 43 40 47
49 44 48 45 40 44 42 37 41 40 35 39 38 33 39 42 35 43 42 34 45 42 34 45 42 34 45 42 34 45 42 34 45 42 34 45 42 34 45 39 31 42 41 33 44 43 35 46 46 38 49 50 42 53 53 45 56 55 47 58 57 50 58 72 61 69 74 63 69 76 65 71 79 68 74 83 72 78 86 75 81 88 77 83 90 79 85 86 75 81 84 73 79 79 68 74 72 61 67 66 55 61 59 48 54 54 43 49 51 41 49 42 36 46 40 37 48 40 37 48 40 37 48 40 37 48 40 37 48 40 37 48 40 37 48 42 39 50 42 39 50 42 39 50 42 39 50 42 39 50 42 39 50 42 39 50 42 38 52 37 35 49 37 34 51 37 34 51 37 34 51 37 34 51 37 34 51 37 34 51 37 34 51 38 35 52 38 35 52 38 35 52 38 35 52 38 35 52 38 35 52 38 35 52 39 35 50 44 38 52 45 37 50 45 37 50 45 37 50 45 37 50 45 37 50 45 37 50 45 37 50 46 38 51 46 38 51 46 38 51 46 38 51 46 38 51 46 38 51 46 38 51 48 37 51 48 36 48 49 35 48 49 35 48 49 35 48 49 35 48 49 35 48 49 35 48 49 35 48 47 33 46 47 33 46 47 33 46 47 33 46 47 33 46 47 33 46 47 33 46 49 33 44 66 44 57 67 43 56 67 43 56 67 43 56 67 43 56 67 43 56 67 43 56 67 43 56 72 48 61 74 50 63 76 52 65 79 55 68 83 59 72 86 62 75 88 64 77 88 68 80 89 75 88 86 75 89 82 71 85 78 67 81 73 62 76 69 58 72 65 54 68 63 52 66 69 58 72 69 58 72 69 58 72 69 58 72 69 58 72 69 58 72 69 58 72 67 59 70 78 70 81 77 72 79 77 72 79 77 72 79 77 72 79 77 72 79 77 72 79 77 72 79 95 90 97 95 90 97 95 90 97 95 90 97 95 90 97 95 90 97 95 90 97 96 89 96 102 91 95 103 91 93 103 91 93 103 91 93 103 91 93 103 91 93 103 91 93 103 91 93 95 83 85 95 83 85 95 83 85 95 83 85 95 83 85 95 83 85 95 83 85 94 84 85 104 95 100 102 96 100 105 94 100 105 94 100 108 93 100 109 92 100 111 91 100 113 90 100 108 80 92 111 79 92 112 78 92 114 78 92 117 76 92 117 76 92 119 75 92 119 75 92 120 75 95 119 76 95 119 76 95 116 77 95 116 77 95 113 79 95 112 80 95 109 81 95 103 79 92 98 78 89 91 74 84 82 69 78 75 62 71 67 57 65 62 52 60 56 51 57 49 44 51 47 44 51 47 44 51 47 44 51 47 44 51 47 44 51 47 44 51 47 44 51 45 42 49 43 40 47
57 52 56 54 49 53 50 45 49 48 43 47 47 42 48 49 42 50 49 41 52 49 41 52 49 41 52 49 41 52 49 41 52 49 41 52 49 41 52 47 39 50 47 39 50 47 39 50 47 39 50 47 39 50 47 39 50 47 39 50 47 40 48 66 55 63 66 55 61 66 55 61 66 55 61 66 55 61 66 55 61 66 55 61 66 55 61 61 50 56 61 50 56 61 50 56 61 50 56 61 50 56 61 50 56 61 50 56 60 50 58 42 36 46 40 37 48 40 37 48 40 37 48 40 37 48 40 37 48 40 37 48 40 37 48 46 43 54 46 43 54 46 43 54 46 43 54 46 43 54 46 43 54 46 43 54 46 42 56 47 45 59 47 44 61 47 44 61 47 44 61 47 44 61 47 44 61 47 44 61 47 44 61 42 39 56 42 39 56 42 39 56 42 39 56 42 39 56 42 39 56 42 39 56 43 39 54 50 39 55 51 39 53 51 39 53 51 39 53 51 39 53 51 39 53 51 39 53 51 39 53 50 38 52 50 38 52 50 38 52 50 38 52 50 38 52 50 38 52 50 38 52 50 38 52 46 32 45 46 32 45 46 32 45 46 32 45 46 32 45 46 32 45 46 32 45 46 32 45 57 43 56 57 43 56 57 43 56 57 43 56 57 43 56 57 43 56 57 43 56 59 43 54 67 45 58 69 45 58 71 47 60 75 51 64 78 54 67 81 57 70 84 60 73 85 61 74 90 66 79 88 64 77 86 62 75 83 59 72 79 55 68 76 52 65 74 50 63 70 50 62 62 48 61 60 49 63 60 49 63 60 49 63 60 49 63 60 49 63 60 49 63 60 49 63 57 46 60 57 46 60 57 46 60 57 46 60 57 46 60 57 46 60 57 46 60 55 47 58 58 50 61 57 52 59 57 52 59 57 52 59 57 52 59 57 52 59 57 52 59 57 52 59 67 62 69 69 64 71 71 66 73 74 69 76 78 73 80 81 76 83 83 78 85 86 79 86 95 84 88 96 84 86 96 84 86 96 84 86 96 84 86 96 84 86 96 84 86 96 84 86 100 88 90 100 88 90 100 88 90 100 88 90 100 88 90 100 88 90 100 88 90 99 89 90 97 88 93 95 89 93 98 87 93 98 87 93 101 86 93 102 85 93 104 84 93 106 83 93 99 71 83 102 70 83 103 69 83 105 69 83 108 67 83 108 67 83 110 66 83 110 66 83 109 64 84 108 65 84 108 65 84 105 66 84 105 66 84 102 68 84 101 69 84 98 70 84 103 79 92 98 78 89 91 74 84 82 69 78 75 62 71 67 57 65 62 52 60 56 51 57 47 42 49 45 42 49 45 42 49 45 42 49 45 42 49 45 42 49 45 42 49 45 42 49 40 37 44 38 35 42
58 53 57 55 50 54 52 47 51 49 44 48 48 43 49 49 42 50 49 41 52 49 41 52 49 41 52 49 41 52 49 41 52 49 41 52 49 41 52 47 39 50 47 39 50 47 39 50 47 39 50 47 39 50 47 39 50 47 39 50 47 40 48 64 53 61 64 53 59 64 53 59 64 53 59 64 53 59 64 53 59 64 53 59 64 53 59 59 48 54 59 48 54 59 48 54 59 48 54 59 48 54 59 48 54 59 48 54 58 48 56 42 36 46 40 37 48 40 37 48 40 37 48 40 37 48 40 37 48 40 37 48 40 37 48 46 43 54 46 43 54 46 43 54 46 43 54 46 43 54 46 43 54 46 43 54 46 42 56 47 45 59 47 44 61 47 44 61 47 44 61 47 44 61 47 44 61 47 44 61 47 44 61 42 39 56 42 39 56 42 39 56 42 39 56 42 39 56 42 39 56 42 39 56 45 38 54 51 38 55 54 37 53 54 37 53 54 37 53 54 37 53 54 37 53 54 37 53 54 37 53 53 36 52 53 36 52 53 36 52 53 36 52 53 36 52 53 36 52 53 36 52 53 36 52 46 32 45 46 32 45 46 32 45 46 32 45 46 32 45 46 32 45 46 32 45 46 32 45 57 43 56 57 43 56 57 43 56 57 43 56 57 43 56 57 43 56 57 43 56 59 43 54 68 46 59 70 46 59 73 49 62 76 52 65 79 55 68 83 59 72 85 61 74 86 62 75 90 66 79 88 64 77 86 62 75 83 59 72 79 55 68 76 52 65 74 50 63 70 50 62 60 46 59 58 47 61 58 47 61 58 47 61 58 47 61 58 47 61 58 47 61 58 47 61 57 46 60 57 46 60 57 46 60 57 46 60 57 46 60 57 46 60 57 46 60 55 47 58 58 50 61 57 52 59 57 52 59 57 52 59 57 52 59 57 52 59 57 52 59 57 52 59 67 62 69 69 64 71 71 66 73 74 69 76 78 73 80 81 76 83 83 78 85 86 79 86 95 84 88 96 84 86 96 84 86 96 84 86 96 84 86 96 84 86 96 84 86 96 84 86 100 88 90 100 88 90 100 88 90 100 88 90 100 88 90 100 88 90 100 88 90 99 89 90 97 88 93 95 89 93 98 87 93 98 87 93 101 86 93 102 85 93 104 84 93 106 83 93 99 71 83 102 70 83 103 69 83 105 69 83 108 67 83 108 67 83 110 66 83 110 66 83 109 64 84 108 65 84 108 65 84 105 66 84 105 66 84 102 68 84 101 69 84 98 70 84 102 78 91 97 77 88 90 73 83 81 68 77 74 61 70 66 56 64 61 51 59 55 50 56 47 42 49 45 42 49 45 42 49 45 42 49 45 42 49 45 42 49 45 42 49 45 42 49 40 37 44 38 35 42
61 56 60 57 52 56 54 49 53 52 47 51 50 45 51 49 42 50 49 41 52 49 41 52 49 41 52 49 41 52 49 41 52 49 41 52 49 41 52 47 39 50 47 39 50 47 39 50 47 39 50 47 39 50 47 39 50 47 39 50 47 40 48 62 51 59 62 51 57 62 51 57 62 51 57 62 51 57 62 51 57 62 51 57 62 51 57 57 46 52 57 46 52 57 46 52 57 46 52 57 46 52 57 46 52 57 46 52 56 46 54 42 36 46 40 37 48 40 37 48 40 37 48 40 37 48 40 37 48 40 37 48 40 37 48 46 43 54 46 43 54 46 43 54 46 43 54 46 43 54 46 43 54 46 43 54 46 42 56 47 45 59 47 44 61 47 44 61 47 44 61 47 44 61 47 44 61 47 44 61 47 44 61 42 39 56 42 39 56 42 39 56 42 39 56 42 39 56 42 39 56 42 39 56 45 38 54 52 38 55 55 37 53 55 37 53 55 37 53 55 37 53 55 37 53 55 37 53 55 37 53 54 36 52 54 36 52 54 36 52 54 36 52 54 36 52 54 36 52 54 36 52 54 36 52 48 32 45 46 32 45 46 32 45 46 32 45 46 32 45 46 32 45 46 32 45 46 32 45 57 43 56 57 43 56 57 43 56 57 43 56 57 43 56 57 43 56 57 43 56 59 43 54 70 48 61 73 49 62 75 51 64 78 54 67 82 58 71 85 61 74 87 63 76 89 65 78 90 66 79 88 64 77 86 62 75 83 59 72 79 55 68 76 52 65 74 50 63 70 50 62 58 44 57 56 45 59 56 45 59 56 45 59 56 45 59 56 45 59 56 45 59 56 45 59 57 46 60 57 46 60 57 46 60 57 46 60 57 46 60 57 46 60 57 46 60 55 47 58 58 50 61 57 52 59 57 52 59 57 52 59 57 52 59 57 52 59 57 52 59 57 52 59 67 62 69 69 64 71 71 66 73 74 69 76 78 73 80 81 76 83 83 78 85 86 79 86 95 84 88 96 84 86 96 84 86 96 84 86 96 84 86 96 84 86 96 84 86 96 84 86 100 88 90 100 88 90 100 88 90 100 88 90 100 88 90 100 88 90 100 88 90 99 89 90 97 88 93 95 89 93 98 87 93 98 87 93 101 86 93 102 85 93 104 84 93 106 83 93 99 71 83 102 70 83 103 69 83 105 69 83 108 67 83 108 67 83 110 66 83 110 66 83 109 64 84 108 65 84 108 65 84 105 66 84 105 66 84 102 68 84 101 69 84 98 70 84 99 75 88 95 75 86 88 71 81 78 65 74 71 58 67 63 53 61 58 48 56 53 48 54 47 42 49 45 42 49 45 42 49 45 42 49 45 42 49 45 42 49 45 42 49 45 42 49 40 37 44 38 35 42
64 59 63 61 56 60 57 52 56 55 50 54 54 49 55 49 42 50 49 41 52 49 41 52 49 41 52 49 41 52 49 41 52 49 41 52 49 41 52 47 39 50 47 39 50 47 39 50 47 39 50 47 39 50 47 39 50 47 39 50 47 40 48 59 48 56 59 48 54 59 48 54 59 48 54 59 48 54 59 48 54 59 48 54 59 48 54 54 43 49 54 43 49 54 43 49 54 43 49 54 43 49 54 43 49 54 43 49 53 43 51 42 36 46 40 37 48 40 37 48 40 37 48 40 37 48 40 37 48 40 37 48 40 37 48 46 43 54 46 43 54 46 43 54 46 43 54 46 43 54 46 43 54 46 43 54 46 42 56 47 45 59 47 44 61 47 44 61 47 44 61 47 44 61 47 44 61 47 44 61 47 44 61 42 39 56 42 39 56 42 39 56 42 39 56 42 39 56 42 39 56 42 39 56 45 38 54 54 37 55 57 36 53 58 35 53 57 36 53 58 35 53 57 36 53 58 35 53 57 36 53 57 34 52 56 35 52 57 34 52 56 35 52 57 34 52 56 35 52 57 34 52 56 35 52 48 32 45 46 32 45 46 32 45 46 32 45 46 32 45 46 32 45 46 32 45 46 32 45 57 43 56 57 43 56 57 43 56 57 43 56 57 43 56 57 43 56 57 43 56 59 43 54 74 52 65 76 52 65 78 54 67 82 58 71 85 61 74 88 64 77 91 67 80 92 68 81 90 66 79 88 64 77 86 62 75 83 59 72 79 55 68 76 52 65 74 50 63 70 50 62 55 41 54 53 42 56 53 42 56 53 42 56 53 42 56 53 42 56 53 42 56 53 42 56 57 46 60 57 46 60 57 46 60 57 46 60 57 46 60 57 46 60 57 46 60 55 47 58 58 50 61 57 52 59 57 52 59 57 52 59 57 52 59 57 52 59 57 52 59 57 52 59 67 62 69 69 64 71 71 66 73 74 69 76 78 73 80 81 76 83 83 78 85 86 79 86 95 84 88 96 84 86 96 84 86 96 84 86 96 84 86 96 84 86 96 84 86 96 84 86 100 88 90 100 88 90 100 88 90 100 88 90 100 88 90 100 88 90 100 88 90 99 89 90 97 88 93 95 89 93 98 87 93 98 87 93 101 86 93 102 85 93 104 84 93 106 83 93 99 71 83 102 70 83 103 69 83 105 69 83 108 67 83 108 67 83 110 66 83 110 66 83 109 64 84 108 65 84 108 65 84 105 66 84 105 66 84 102 68 84 101 69 84 98 70 84 96 72 85 91 71 82 85 68 78 75 62 71 68 55 64 60 50 58 55 45 53 49 44 50 47 42 49 45 42 49 45 42 49 45 42 49 45 42 49 45 42 49 45 42 49 45 42 49 40 37 44 38 35 42
67 62 66 64 59 63 61 56 60 58 53 57 57 52 58 49 42 50 49 41 52 49 41 52 49 41 52 49 41 52 49 41 52 49 41 52 49 41 52 47 39 50 47 39 50 47 39 50 47 39 50 47 39 50 47 39 50 47 39 50 47 40 48 55 44 52 55 44 50 55 44 50 55 44 50 55 44 50 55 44 50 55 44 50 55 44 50 50 39 45 50 39 45 50 39 45 50 39 45 50 39 45 50 39 45 50 39 45 49 39 47 42 36 46 40 37 48 40 37 48 40 37 48 40 37 48 40 37 48 40 37 48 40 37 48 46 43 54 46 43 54 46 43 54 46 43 54 46 43 54 46 43 54 46 43 54 46 42 56 47 45 59 47 44 61 47 44 61 47 44 61 47 44 61 47 44 61 47 44 61 47 44 61 42 39 56 42 39 56 42 39 56 42 39 56 42 39 56 42 39 56 42 39 56 46 37 54 55 36 55 58 35 53 59 34 53 58 35 53 59 34 53 58 35 53 59 34 53 58 35 53 58 33 52 57 34 52 58 33 52 57 34 52 58 33 52 57 34 52 58 33 52 56 35 52 48 32 45 46 32 45 46 32 45 46 32 45 46 32 45 46 32 45 46 32 45 46 32 45 57 43 56 57 43 56 57 43 56 57 43 56 57 43 56 57 43 56 57 43 56 59 43 54 77 55 68 79 55 68 82 58 71 85 61 74 88 64 77 92 68 81 94 70 83 95 71 84 90 66 79 88 64 77 86 62 75 83 59 72 79 55 68 76 52 65 74 50 63 70 50 62 51 37 50 49 38 52 49 38 52 49 38 52 49 38 52 49 38 52 49 38 52 49 38 52 57 46 60 57 46 60 57 46 60 57 46 60 57 46 60 57 46 60 57 46 60 55 47 58 58 50 61 57 52 59 57 52 59 57 52 59 57 52 59 57 52 59 57 52 59 57 52 59 67 62 69 69 64 71 71 66 73 74 69 76 78 73 80 81 76 83 83 78 85 86 79 86 95 84 88 96 84 86 96 84 86 96 84 86 96 84 86 96 84 86 96 84 86 96 84 86 100 88 90 100 88 90 100 88 90 100 88 90 100 88 90 100 88 90 100 88 90 99 89 90 97 88 93 95 89 93 98 87 93 98 87 93 101 86 93 102 85 93 104 84 93 106 83 93 99 71 83 102 70 83 103 69 83 105 69 83 108 67 83 108 67 83 110 66 83 110 66 83 109 64 84 108 65 84 108 65 84 105 66 84 105 66 84 102 68 84 101 69 84 98 70 84 93 69 82 88 68 79 81 64 74 72 59 68 65 52 61 56 46 54 52 42 50 46 41 47 47 42 49 45 42 49 45 42 49 45 42 49 45 42 49 45 42 49 45 42 49 45 42 49 40 37 44 38 35 42
71 66 70 67 62 66 64 59 63 62 57 61 60 55 61 49 42 50 49 41 52 49 41 52 49 41 52 49 41 52 49 41 52 49 41 52 49 41 52 47 39 50 47 39 50 47 39 50 47 39 50 47 39 50 47 39 50 47 39 50 47 40 48 52 41 49 52 41 47 52 41 47 52 41 47 52 41 47 52 41 47 52 41 47 52 41 47 47 36 42 47 36 42 47 36 42 47 36 42 47 36 42 47 36 42 47 36 42 46 36 44 42 36 46 40 37 48 40 37 48 40 37 48 40 37 48 40 37 48 40 37 48 40 37 48 46 43 54 46 43 54 46 43 54 46 43 54 46 43 54 46 43 54 46 43 54 46 42 56 47 45 59 47 44 61 47 44 61 47 44 61 47 44 61 47 44 61 47 44 61 47 44 61 42 39 56 42 39 56 42 39 56 42 39 56 42 39 56 42 39 56 42 39 56 46 37 54 57 36 55 59 34 53 61 34 53 59 34 53 61 34 53 59 34 53 61 34 53 59 34 53 60 33 52 58 33 52 60 33 52 58 33 52 60 33 52 58 33 52 60 33 52 57 34 52 48 32 45 46 32 45 46 32 45 46 32 45 46 32 45 46 32 45 46 32 45 46 32 45 57 43 56 57 43 56 57 43 56 57 43 56 57 43 56 57 43 56 57 43 56 59 43 54 80 58 71 83 59 72 85 61 74 88 64 77 92 68 81 95 71 84 97 73 86 99 75 88 90 66 79 88 64 77 86 62 75 83 59 72 79 55 68 76 52 65 74 50 63 70 50 62 48 34 47 46 35 49 46 35 49 46 35 49 46 35 49 46 35 49 46 35 49 46 35 49 57 46 60 57 46 60 57 46 60 57 46 60 57 46 60 57 46 60 57 46 60 55 47 58 58 50 61 57 52 59 57 52 59 57 52 59 57 52 59 57 52 59 57 52 59 57 52 59 67 62 69 69 64 71 71 66 73 74 69 76 78 73 80 81 76 83 83 78 85 86 79 86 95 84 88 96 84 86 96 84 86 96 84 86 96 84 86 96 84 86 96 84 86 96 84 86 100 88 90 100 88 90 100 88 90 100 88 90 100 88 90 100 88 90 100 88 90 99 89 90 97 88 93 95 89 93 98 87 93 98 87 93 101 86 93 102 85 93 104 84 93 106 83 93 99 71 83 102 70 83 103 69 83 105 69 83 108 67 83 108 67 83 110 66 83 110 66 83 109 64 84 108 65 84 108 65 84 105 66 84 105 66 84 102 68 84 101 69 84 98 70 84 89 65 78 85 65 76 78 61 71 69 56 65 62 49 58 53 43 51 48 38 46 43 38 44 47 42 49 45 42 49 45 42 49 45 42 49 45 42 49 45 42 49 45 42 49 45 42 49 40 37 44 38 35 42
73 68 72 70 65 69 66 61 65 64 59 63 63 58 64 49 42 50 49 41 52 49 41 52 49 41 52 49 41 52 49 41 52 49 41 52 49 41 52 47 39 50 47 39 50 47 39 50 47 39 50 47 39 50 47 39 50 47 39 50 47 40 48 50 39 47 50 39 45 50 39 45 50 39 45 50 39 45 50 39 45 50 39 45 50 39 45 45 34 40 45 34 40 45 34 40 45 34 40 45 34 40 45 34 40 45 34 40 44 34 42 42 36 46 40 37 48 40 37 48 40 37 48 40 37 48 40 37 48 40 37 48 40 37 48 46 43 54 46 43 54 46 43 54 46 43 54 46 43 54 46 43 54 46 43 54 46 42 56 47 45 59 47 44 61 47 44 61 47 44 61 47 44 61 47 44 61 47 44 61 47 44 61 42 39 56 42 39 56 42 39 56 42 39 56 42 39 56 42 39 56 42 39 56 46 37 54 57 36 55 61 34 53 62 33 53 61 34 53 62 33 53 61 34 53 62 33 53 61 34 53 61 32 52 60 33 52 61 32 52 60 33 52 61 32 52 60 33 52 61 32 52 58 33 52 49 31 45 46 32 45 46 32 45 46 32 45 46 32 45 46 32 45 46 32 45 46 32 45 57 43 56 57 43 56 57 43 56 57 43 56 57 43 56 57 43 56 57 43 56 59 43 54 83 61 74 85 61 74 87 63 76 91 67 80 94 70 83 97 73 86 100 76 89 101 77 90 90 66 79 88 64 77 86 62 75 83 59 72 79 55 68 76 52 65 74 50 63 70 50 62 46 32 45 44 33 47 44 33 47 44 33 47 44 33 47 44 33 47 44 33 47 44 33 47 57 46 60 57 46 60 57 46 60 57 46 60 57 46 60 57 46 60 57 46 60 55 47 58 58 50 61 57 52 59 57 52 59 57 52 59 57 52 59 57 52 59 57 52 59 57 52 59 67 62 69 69 64 71 71 66 73 74 69 76 78 73 80 81 76 83 83 78 85 86 79 86 95 84 88 96 84 86 96 84 86 96 84 86 96 84 86 96 84 86 96 84 86 96 84 86 100 88 90 100 88 90 100 88 90 100 88 90 100 88 90 100 88 90 100 88 90 99 89 90 97 88 93 95 89 93 98 87 93 98 87 93 101 86 93 102 85 93 104 84 93 106 83 93 99 71 83 102 70 83 103 69 83 105 69 83 108 67 83 108 67 83 110 66 83 110 66 83 109 64 84 108 65 84 108 65 84 105 66 84 105 66 84 102 68 84 101 69 84 98 70 84 87 63 76 82 62 73 75 58 68 66 53 62 59 46 55 51 41 49 46 36 44 40 35 41 47 42 49 45 42 49 45 42 49 45 42 49 45 42 49 45 42 49 45 42 49 45 42 49 40 37 44 38 35 42
74 69 73 71 66 70 68 63 67 65 60 64 64 59 65 48 42 52 48 42 52 48 42 54 48 42 52 48 42 54 48 42 52 48 42 54 48 42 52 46 40 52 46 40 50 46 40 52 46 40 50 46 40 52 46 40 50 46 40 52 46 40 50 45 38 46 45 38 46 45 38 46 45 38 46 45 38 46 45 38 46 45 38 46 45 38 46 40 33 41 40 33 41 40 33 41 40 33 41 40 33 41 40 33 41 40 33 41 39 33 43 40 37 48 39 37 50 39 37 50 39 37 50 39 37 50 39 37 50 39 37 50 39 37 50 45 43 56 45 43 56 45 43 56 45 43 56 45 43 56 45 43 56 45 43 56 45 43 56 47 45 59 47 45 59 47 45 59 47 45 59 47 45 59 47 45 59 47 45 59 47 45 59 42 40 54 42 40 54 42 40 54 42 40 54 42 40 54 42 40 54 42 40 54 46 37 54 55 37 53 58 35 53 59 34 53 58 35 53 59 34 53 58 35 53 59 34 53 58 35 53 58 33 52 57 34 52 58 33 52 57 34 52 58 33 52 57 34 52 58 33 52 56 35 52 46 32 45 45 33 45 45 33 45 45 33 45 45 33 45 45 33 45 45 33 45 45 33 45 56 44 56 56 44 56 56 44 56 56 44 56 56 44 56 56 44 56 56 44 56 57 43 56 81 63 75 84 64 76 87 67 79 90 70 82 93 73 85 97 77 89 99 79 91 100 80 92 88 68 80 86 66 78 84 64 76 81 61 73 77 57 69 74 54 66 72 52 64 67 51 64 42 31 47 39 33 47 39 32 48 39 33 47 39 32 48 39 33 47 39 32 48 39 33 47 54 47 63 54 48 62 54 47 63 54 48 62 54 47 63 54 48 62 54 47 63 54 48 62 57 51 61 57 52 59 57 52 59 57 52 59 57 52 59 57 52 59 57 52 59 57 52 59 67 62 69 69 64 71 71 66 73 74 69 76 78 73 80 81 76 83 83 78 85 86 79 86 95 84 88 96 84 86 96 84 86 96 84 86 96 84 86 96 84 86 96 84 86 96 84 86 100 88 90 100 88 90 100 88 90 100 88 90 100 88 90 100 88 90 100 88 90 100 88 92 99 86 93 99 86 93 101 85 95 102 85 93 104 84 95 105 84 93 106 82 95 108 82 93 101 70 85 102 70 83 103 69 85 105 69 83 106 67 85 106 68 83 108 67 85 109 66 85 109 64 84 109 64 84 108 65 84 107 66 84 105 66 84 104 67 84 101 69 84 98 70 84 88 62 75 82 60 72 74 57 67 67 51 61 58 45 54 51 40 48 45 35 43 40 33 41 45 42 49 44 43 49 44 43 51 44 43 49 44 43 51 44 43 49 44 43 51 44 43 49 39 38 46 37 36 42
80 74 76 80 74 76 80 74 76 80 74 76 79 74 80 65 62 71 63 61 72 60 58 71 57 55 66 54 52 65 50 48 59 48 46 59 47 45 56 42 40 53 42 40 51 42 40 53 42 40 51 42 40 53 42 40 51 42 40 53 42 40 53 38 37 51 38 37 51 38 37 51 38 37 51 38 37 51 38 37 51 38 37 51 38 37 51 37 36 50 37 36 50 37 36 50 37 36 50 37 36 50 37 36 50 37 36 50 37 36 50 41 40 54 41 40 54 41 40 54 41 40 54 41 40 54 41 40 54 41 40 54 41 40 54 50 49 63 50 49 63 50 49 63 50 49 63 50 49 63 50 49 63 50 49 63 50 49 63 57 55 68 58 54 68 58 54 68 58 54 68 58 54 68 58 54 68 58 54 68 58 54 68 46 42 56 46 42 56 46 42 56 46 42 56 46 42 56 46 42 56 46 42 56 48 42 54 58 47 61 59 47 59 60 46 59 59 47 59 60 46 59 59 47 59 60 46 59 59 47 59 55 41 54 54 42 54 55 41 54 54 42 54 55 41 54 54 42 54 55 41 54 54 42 54 49 38 52 47 39 52 47 39 52 47 39 52 47 39 52 47 39 52 47 39 52 47 39 52 49 41 54 51 43 56 53 45 58 56 48 61 60 52 65 63 55 68 65 57 70 67 59 72 83 71 83 83 71 83 83 71 83 83 71 83 83 71 83 83 71 83 83 71 83 83 71 83 69 57 69 68 56 68 66 54 66 62 50 62 59 47 59 56 44 56 53 41 53 49 41 56 31 30 46 30 33 50 32 35 54 35 38 55 39 42 61 42 45 62 44 47 66 46 49 66 45 48 67 45 48 65 45 48 67 45 48 65 45 48 67 45 48 65 45 48 67 46 48 63 54 51 62 57 51 61 59 53 63 63 57 67 66 60 70 69 63 73 72 66 76 73 67 77 81 75 85 81 75 85 81 75 85 81 75 85 81 75 85 81 75 85 81 75 85 82 75 83 93 84 89 94 83 87 94 83 87 94 83 87 94 83 87 94 83 87 94 83 87 94 83 87 96 85 89 96 85 89 96 85 89 96 85 89 96 85 89 96 85 89 96 85 89 99 84 89 94 72 84 97 71 84 97 70 85 98 70 84 98 70 85 98 70 84 100 69 85 100 69 84 92 59 76 92 60 75 92 59 76 93 59 75 93 59 76 93 59 75 93 59 76 96 57 76 99 54 75 101 53 75 99 54 75 98 55 75 97 55 75 95 56 75 92 58 75 90 59 75 90 62 77 85 61 75 78 58 70 69 51 63 62 46 57 53 40 50 47 35 45 42 35 43 43 42 50 42 42 50 42 42 52 42 42 50 42 42 52 42 42 50 42 42 52 42 42 50 36 36 46 34 34 42
80 74 76 80 74 76 80 74 76 80 74 76 79 74 78 65 63 74 63 63 75 61 61 73 57 57 69 54 54 66 51 51 63 48 48 60 47 47 59 41 41 53 41 41 53 41 41 53 41 41 53 41 41 53 41 41 53 41 41 53 39 41 54 36 38 53 35 38 55 35 38 55 35 38 55 35 38 55 35 38 55 35 38 55 35 38 55 34 37 54 34 37 54 34 37 54 34 37 54 34 37 54 34 37 54 34 37 54 34 37 54 39 41 56 39 41 56 39 41 56 39 41 56 39 41 56 39 41 56 39 41 56 39 41 56 48 50 65 48 50 65 48 50 65 48 50 65 48 50 65 48 50 65 48 50 65 50 49 63 57 55 68 58 55 66 58 55 66 58 55 66 58 55 66 58 55 66 58 55 66 58 55 66 48 45 56 48 45 56 48 45 56 48 45 56 48 45 56 48 45 56 48 45 56 48 45 56 56 48 59 56 48 59 56 48 59 56 48 59 56 48 59 56 48 59 56 48 59 56 48 59 51 43 54 51 43 54 51 43 54 51 43 54 51 43 54 51 43 54 51 43 54 51 43 54 46 40 52 46 40 52 46 40 52 46 40 52 46 40 52 46 40 52 46 40 52 46 40 52 48 42 54 50 44 56 52 46 58 55 49 61 59 53 65 62 56 68 64 58 70 66 60 72 78 70 83 78 70 83 78 70 83 78 70 83 78 70 83 78 70 83 78 70 83 78 70 83 65 57 70 64 56 69 61 53 66 58 50 63 55 47 60 51 43 56 49 41 54 45 41 55 28 31 50 27 34 53 29 36 55 32 39 58 36 43 62 39 46 65 41 48 67 43 50 69 42 49 68 42 49 68 42 49 68 42 49 68 42 49 68 42 49 68 42 49 68 45 48 65 54 52 65 58 52 62 61 55 65 64 58 68 67 61 71 71 65 75 73 67 77 74 68 78 81 75 85 81 75 85 81 75 85 81 75 85 81 75 85 81 75 85 81 75 85 82 75 83 93 84 89 94 83 87 94 83 87 94 83 87 94 83 87 94 83 87 94 83 87 94 83 87 96 85 89 96 85 89 96 85 89 96 85 89 96 85 89 96 85 89 96 85 89 99 84 91 98 70 84 101 68 85 101 68 85 101 68 85 101 68 85 101 68 85 101 68 85 101 68 85 92 59 76 92 59 76 92 59 76 92 59 76 92 59 76 92 59 76 92 59 76 95 58 76 99 54 75 101 53 75 101 53 75 98 55 75 98 55 75 95 56 75 94 57 75 91 58 75 90 62 77 85 61 75 79 57 70 69 51 63 63 45 57 53 40 50 48 35 45 42 35 43 43 41 52 40 43 52 40 43 52 40 43 52 40 43 52 40 43 52 40 43 52 40 43 52 34 37 46 32 35 44
80 74 76 80 74 76 80 74 76 80 74 76 79 74 78 68 66 77 65 65 77 63 63 75 60 60 72 56 56 68 53 53 65 51 51 63 49 49 61 41 41 53 41 41 53 41 41 53 41 41 53 41 41 53 41 41 53 41 41 53 39 41 54 36 38 53 35 38 55 35 38 55 35 38 55 35 38 55 35 38 55 35 38 55 35 38 55 34 37 54 34 37 54 34 37 54 34 37 54 34 37 54 34 37 54 34 37 54 34 37 54 39 41 56 39 41 56 39 41 56 39 41 56 39 41 56 39 41 56 39 41 56 39 41 56 48 50 65 48 50 65 48 50 65 48 50 65 48 50 65 48 50 65 48 50 65 50 49 63 57 55 68 58 55 66 58 55 66 58 55 66 58 55 66 58 55 66 58 55 66 58 55 66 50 47 58 50 47 58 50 47 58 50 47 58 50 47 58 50 47 58 50 47 58 50 47 58 56 48 59 56 48 59 56 48 59 56 48 59 56 48 59 56 48 59 56 48 59 56 48 59 51 43 54 51 43 54 51 43 54 51 43 54 51 43 54 51 43 54 51 43 54 51 43 54 46 40 52 46 40 52 46 40 52 46 40 52 46 40 52 46 40 52 46 40 52 46 40 52 48 42 54 50 44 56 52 46 58 55 49 61 59 53 65 62 56 68 64 58 70 66 60 72 76 68 81 76 68 81 76 68 81 76 68 81 76 68 81 76 68 81 76 68 81 76 68 81 63 55 68 61 53 66 59 51 64 56 48 61 52 44 57 49 41 54 47 39 52 42 38 52 28 31 50 27 34 53 29 36 55 32 39 58 36 43 62 39 46 65 41 48 67 43 50 69 42 49 68 42 49 68 42 49 68 42 49 68 42 49 68 42 49 68 42 49 68 45 48 65 56 54 67 61 55 65 63 57 67 66 60 70 70 64 74 73 67 77 75 69 79 77 71 81 81 75 85 81 75 85 81 75 85 81 75 85 81 75 85 81 75 85 81 75 85 82 75 83 93 84 89 94 83 87 94 83 87 94 83 87 94 83 87 94 83 87 94 83 87 94 83 87 96 85 89 96 85 89 96 85 89 96 85 89 96 85 89 96 85 89 96 85 89 99 84 91 98 70 84 101 68 85 101 68 85 101 68 85 101 68 85 101 68 85 101 68 85 101 68 85 92 59 76 92 59 76 92 59 76 92 59 76 92 59 76 92 59 76 92 59 76 95 58 76 99 54 75 101 53 75 101 53 75 98 55 75 98 55 75 95 56 75 94 57 75 91 58 75 90 62 77 85 61 75 79 57 70 69 51 63 63 45 57 53 40 50 48 35 45 42 35 43 43 41 52 40 43 52 40 43 52 40 43 52 40 43 52 40 43 52 40 43 52 40 43 52 34 37 46 32 35 44
80 74 76 80 74 76 80 74 76 80 74 76 79 74 78 71 69 80 69 69 81 66 66 78 63 63 75 60 60 72 56 56 68 54 54 66 53 53 65 41 41 53 41 41 53 41 41 53 41 41 53 41 41 53 41 41 53 41 41 53 39 41 54 36 38 53 35 38 55 35 38 55 35 38 55 35 38 55 35 38 55 35 38 55 35 38 55 34 37 54 34 37 54 34 37 54 34 37 54 34 37 54 34 37 54 34 37 54 34 37 54 39 41 56 39 41 56 39 41 56 39 41 56 39 41 56 39 41 56 39 41 56 39 41 56 48 50 65 48 50 65 48 50 65 48 50 65 48 50 65 48 50 65 48 50 65 50 49 63 57 55 68 58 55 66 58 55 66 58 55 66 58 55 66 58 55 66 58 55 66 58 55 66 53 50 61 53 50 61 53 50 61 53 50 61 53 50 61 53 50 61 53 50 61 53 50 61 56 48 59 56 48 59 56 48 59 56 48 59 56 48 59 56 48 59 56 48 59 56 48 59 51 43 54 51 43 54 51 43 54 51 43 54 51 43 54 51 43 54 51 43 54 51 43 54 46 40 52 46 40 52 46 40 52 46 40 52 46 40 52 46 40 52 46 40 52 46 40 52 48 42 54 50 44 56 52 46 58 55 49 61 59 53 65 62 56 68 64 58 70 66 60 72 73 65 78 73 65 78 73 65 78 73 65 78 73 65 78 73 65 78 73 65 78 73 65 78 59 51 64 58 50 63 56 48 61 52 44 57 49 41 54 46 38 51 43 35 48 39 35 49 28 31 50 27 34 53 29 36 55 32 39 58 36 43 62 39 46 65 41 48 67 43 50 69 42 49 68 42 49 68 42 49 68 42 49 68 42 49 68 42 49 68 42 49 68 45 48 65 60 58 71 64 58 68 66 60 70 70 64 74 73 67 77 76 70 80 79 73 83 80 74 84 81 75 85 81 75 85 81 75 85 81 75 85 81 75 85 81 75 85 81 75 85 82 75 83 93 84 89 94 83 87 94 83 87 94 83 87 94 83 87 94 83 87 94 83 87 94 83 87 96 85 89 96 85 89 96 85 89 96 85 89 96 85 89 96 85 89 96 85 89 99 84 91 98 70 84 101 68 85 101 68 85 101 68 85 101 68 85 101 68 85 101 68 85 101 68 85 92 59 76 92 59 76 92 59 76 92 59 76 92 59 76 92 59 76 92 59 76 95 58 76 99 54 75 101 53 75 101 53 75 98 55 75 98 55 75 95 56 75 94 57 75 91 58 75 90 62 77 85 61 75 79 57 70 69 51 63 63 45 57 53 40 50 48 35 45 42 35 43 43 41 52 40 43 52 40 43 52 40 43 52 40 43 52 40 43 52 40 43 52 40 43 52 34 37 46 32 35 44
80 74 76 80 74 76 80 74 76 80 74 76 79 74 78 74 72 83 72 72 84 70 70 82 66 66 78 63 63 75 60 60 72 57 57 69 56 56 68 41 41 53 41 41 53 41 41 53 41 41 53 41 41 53 41 41 53 41 41 53 39 41 54 36 38 53 35 38 55 35 38 55 35 38 55 35 38 55 35 38 55 35 38 55 35 38 55 34 37 54 34 37 54 34 37 54 34 37 54 34 37 54 34 37 54 34 37 54 34 37 54 39 41 56 39 41 56 39 41 56 39 41 56 39 41 56 39 41 56 39 41 56 39 41 56 48 50 65 48 50 65 48 50 65 48 50 65 48 50 65 48 50 65 48 50 65 50 49 63 57 55 68 58 55 66 58 55 66 58 55 66 58 55 66 58 55 66 58 55 66 58 55 66 57 54 65 57 54 65 57 54 65 57 54 65 57 54 65 57 54 65 57 54 65 57 54 65 56 48 59 56 48 59 56 48 59 56 48 59 56 48 59 56 48 59 56 48 59 56 48 59 51 43 54 51 43 54 51 43 54 51 43 54 51 43 54 51 43 54 51 43 54 51 43 54 46 40 52 46 40 52 46 40 52 46 40 52 46 40 52 46 40 52 46 40 52 46 40 52 48 42 54 50 44 56 52 46 58 55 49 61 59 53 65 62 56 68 64 58 70 66 60 72 69 61 74 69 61 74 69 61 74 69 61 74 69 61 74 69 61 74 69 61 74 69 61 74 56 48 61 55 47 60 52 44 57 49 41 54 46 38 51 42 34 47 40 32 45 36 32 46 28 31 50 27 34 53 29 36 55 32 39 58 36 43 62 39 46 65 41 48 67 43 50 69 42 49 68 42 49 68 42 49 68 42 49 68 42 49 68 42 49 68 42 49 68 45 48 65 63 61 74 67 61 71 70 64 74 73 67 77 76 70 80 80 74 84 82 76 86 83 77 87 81 75 85 81 75 85 81 75 85 81 75 85 81 75 85 81 75 85 81 75 85 82 75 83 93 84 89 94 83 87 94 83 87 94 83 87 94 83 87 94 83 87 94 83 87 94 83 87 96 85 89 96 85 89 96 85 89 96 85 89 96 85 89 96 85 89 96 85 89 99 84 91 98 70 84 101 68 85 101 68 85 101 68 85 101 68 85 101 68 85 101 68 85 101 68 85 92 59 76 92 59 76 92 59 76 92 59 76 92 59 76 92 59 76 92 59 76 95 58 76 99 54 75 101 53 75 101 53 75 98 55 75 98 55 75 95 56 75 94 57 75 91 58 75 90 62 77 85 61 75 79 57 70 69 51 63 63 45 57 53 40 50 48 35 45 42 35 43 43 41 52 40 43 52 40 43 52 40 43 52 40 43 52 40 43 52 40 43 52 40 43 52 34 37 46 32 35 44
80 74 76 80 74 76 80 74 76 80 74 76 79 74 78 78 76 87 75 75 87 73 73 85 70 70 82 66 66 78 63 63 75 61 61 73 59 59 71 41 41 53 41 41 53 41 41 53 41 41 53 41 41 53 41 41 53 41 41 53 39 41 54 36 38 53 35 38 55 35 38 55 35 38 55 35 38 55 35 38 55 35 38 55 35 38 55 34 37 54 34 37 54 34 37 54 34 37 54 34 37 54 34 37 54 34 37 54 34 37 54 39 41 56 39 41 56 39 41 56 39 41 56 39 41 56 39 41 56 39 41 56 39 41 56 48 50 65 48 50 65 48 50 65 48 50 65 48 50 65 48 50 65 48 50 65 50 49 63 57 55 68 58 55 66 58 55 66 58 55 66 58 55 66 58 55 66 58 55 66 58 55 66 60 57 68 60 57 68 60 57 68 60 57 68 60 57 68 60 57 68 60 57 68 60 57 68 56 48 59 56 48 59 56 48 59 56 48 59 56 48 59 56 48 59 56 48 59 56 48 59 51 43 54 51 43 54 51 43 54 51 43 54 51 43 54 51 43 54 51 43 54 51 43 54 46 40 52 46 40 52 46 40 52 46 40 52 46 40 52 46 40 52 46 40 52 46 40 52 48 42 54 50 44 56 52 46 58 55 49 61 59 53 65 62 56 68 64 58 70 66 60 72 66 58 71 66 58 71 66 58 71 66 58 71 66 58 71 66 58 71 66 58 71 66 58 71 53 45 58 51 43 56 49 41 54 46 38 51 42 34 47 39 31 44 37 29 42 32 28 42 28 31 50 27 34 53 29 36 55 32 39 58 36 43 62 39 46 65 41 48 67 43 50 69 42 49 68 42 49 68 42 49 68 42 49 68 42 49 68 42 49 68 42 49 68 45 48 65 66 64 77 71 65 75 73 67 77 76 70 80 80 74 84 83 77 87 85 79 89 87 81 91 81 75 85 81 75 85 81 75 85 81 75 85 81 75 85 81 75 85 81 75 85 82 75 83 93 84 89 94 83 87 94 83 87 94 83 87 94 83 87 94 83 87 94 83 87 94 83 87 96 85 89 96 85 89 96 85 89 96 85 89 96 85 89 96 85 89 96 85 89 99 84 91 98 70 84 101 68 85 101 68 85 101 68 85 101 68 85 101 68 85 101 68 85 101 68 85 92 59 76 92 59 76 92 59 76 92 59 76 92 59 76 92 59 76 92 59 76 95 58 76 99 54 75 101 53 75 101 53 75 98 55 75 98 55 75 95 56 75 94 57 75 91 58 75 90 62 77 85 61 75 79 57 70 69 51 63 63 45 57 53 40 50 48 35 45 42 35 43 43 41 52 40 43 52 40 43 52 40 43 52 40 43 52 40 43 52 40 43 52 40 43 52 34 37 46 32 35 44
80 74 76 80 74 76 80 74 76 80 74 76 79 74 78 80 78 89 78 78 90 75 75 87 72 72 84 69 69 81 65 65 77 63 63 75 62 62 74 41 41 53 41 41 53 41 41 53 41 41 53 41 41 53 41 41 53 41 41 53 39 41 54 36 38 53 35 38 55 35 38 55 35 38 55 35 38 55 35 38 55 35 38 55 35 38 55 34 37 54 34 37 54 34 37 54 34 37 54 34 37 54 34 37 54 34 37 54 34 37 54 39 41 56 39 41 56 39 41 56 39 41 56 39 41 56 39 41 56 39 41 56 39 41 56 48 50 65 48 50 65 48 50 65 48 50 65 48 50 65 48 50 65 48 50 65 50 49 63 57 55 68 58 55 66 58 55 66 58 55 66 58 55 66 58 55 66 58 55 66 58 55 66 62 59 70 62 59 70 62 59 70 62 59 70 62 59 70 62 59 70 62 59 70 62 59 70 56 48 59 56 48 59 56 48 59 56 48 59 56 48 59 56 48 59 56 48 59 56 48 59 51 43 54 51 43 54 51 43 54 51 43 54 51 43 54 51 43 54 51 43 54 51 43 54 46 40 52 46 40 52 46 40 52 46 40 52 46 40 52 46 40 52 46 40 52 46 40 52 48 42 54 50 44 56 52 46 58 55 49 61 59 53 65 62 56 68 64 58 70 66 60 72 64 56 69 64 56 69 64 56 69 64 56 69 64 56 69 64 56 69 64 56 69 64 56 69 50 42 55 49 41 54 47 39 52 43 35 48 40 32 45 37 29 42 34 26 39 30 26 40 28 31 50 27 34 53 29 36 55 32 39 58 36 43 62 39 46 65 41 48 67 43 50 69 42 49 68 42 49 68 42 49 68 42 49 68 42 49 68 42 49 68 42 49 68 45 48 65 69 67 80 73 67 77 75 69 79 79 73 83 82 76 86 85 79 89 88 82 92 89 83 93 81 75 85 81 75 85 81 75 85 81 75 85 81 75 85 81 75 85 81 75 85 82 75 83 93 84 89 94 83 87 94 83 87 94 83 87 94 83 87 94 83 87 94 83 87 94 83 87 96 85 89 96 85 89 96 85 89 96 85 89 96 85 89 96 85 89 96 85 89 99 84 91 98 70 84 101 68 85 101 68 85 101 68 85 101 68 85 101 68 85 101 68 85 101 68 85 92 59 76 92 59 76 92 59 76 92 59 76 92 59 76 92 59 76 92 59 76 95 58 76 99 54 75 101 53 75 101 53 75 98 55 75 98 55 75 95 56 75 94 57 75 91 58 75 90 62 77 85 61 75 79 57 70 69 51 63 63 45 57 53 40 50 48 35 45 42 35 43 43 41 52 40 43 52 40 43 52 40 43 52 40 43 52 40 43 52 40 43 52 40 43 52 34 37 46 32 35 44
80 74 76 80 74 76 80 74 76 80 74 76 79 74 78 81 79 90 79 79 91 77 77 89 73 73 85 70 70 82 67 67 79 64 64 76 63 63 75 41 41 53 41 41 53 41 41 53 41 41 53 41 41 53 41 41 53 41 41 53 39 41 54 36 38 53 35 38 55 35 38 55 35 38 55 35 38 55 35 38 55 35 38 55 35 38 55 34 37 54 34 37 54 34 37 54 34 37 54 34 37 54 34 37 54 34 37 54 34 37 54 39 41 56 39 41 56 39 41 56 39 41 56 39 41 56 39 41 56 39 41 56 39 41 56 48 50 65 48 50 65 48 50 65 48 50 65 48 50 65 48 50 65 48 50 65 50 49 63 57 55 68 58 55 66 58 55 66 58 55 66 58 55 66 58 55 66 58 55 66 58 55 66 64 61 72 64 61 72 64 61 72 64 61 72 64 61 72 64 61 72 64 61 72 64 61 72 56 48 59 56 48 59 56 48 59 56 48 59 56 48 59 56 48 59 56 48 59 56 48 59 51 43 54 51 43 54 51 43 54 51 43 54 51 43 54 51 43 54 51 43 54 51 43 54 46 40 52 46 40 52 46 40 52 46 40 52 46 40 52 46 40 52 46 40 52 46 40 52 48 42 54 50 44 56 52 46 58 55 49 61 59 53 65 62 56 68 64 58 70 66 60 72 62 54 67 62 54 67 62 54 67 62 54 67 62 54 67 62 54 67 62 54 67 62 54 67 49 41 54 48 40 53 45 37 50 42 34 47 39 31 44 35 27 40 33 25 38 29 25 39 28 31 50 27 34 53 29 36 55 32 39 58 36 43 62 39 46 65 41 48 67 43 50 69 42 49 68 42 49 68 42 49 68 42 49 68 42 49 68 42 49 68 42 49 68 45 48 65 70 68 81 74 68 78 77 71 81 80 74 84 83 77 87 87 81 91 89 83 93 90 84 94 81 75 85 81 75 85 81 75 85 81 75 85 81 75 85 81 75 85 81 75 85 82 75 83 93 84 89 94 83 87 94 83 87 94 83 87 94 83 87 94 83 87 94 83 87 94 83 87 96 85 89 96 85 89 96 85 89 96 85 89 96 85 89 96 85 89 96 85 89 99 84 91 98 70 84 101 68 85 101 68 85 101 68 85 101 68 85 101 68 85 101 68 85 101 68 85 92 59 76 92 59 76 92 59 76 92 59 76 92 59 76 92 59 76 92 59 76 95 58 76 99 54 75 101 53 75 101 53 75 98 55 75 98 55 75 95 56 75 94 57 75 91 58 75 90 62 77 85 61 75 79 57 70 69 51 63 63 45 57 53 40 50 48 35 45 42 35 43 43 41 52 40 43 52 40 43 52 40 43 52 40 43 52 40 43 52 40 43 52 40 43 52 34 37 46 32 35 44
77 71 73 77 71 73 77 71 73 77 71 73 76 71 75 71 69 80 70 70 82 70 70 82 70 70 82 70 70 82 70 70 82 70 70 82 70 70 82 58 58 70 58 58 70 58 58 70 58 58 70 58 58 70 58 58 70 58 58 70 56 58 71 39 41 56 38 41 58 38 41 58 38 41 58 38 41 58 38 41 58 38 41 58 38 41 58 44 47 64 44 47 64 44 47 64 44 47 64 44 47 64 44 47 64 44 47 64 44 47 64 49 51 66 49 51 66 49 51 66 49 51 66 49 51 66 49 51 66 49 51 66 49 51 66 45 47 62 45 47 62 45 47 62 45 47 62 45 47 62 45 47 62 45 47 62 47 46 60 57 55 68 59 56 67 61 58 69 65 62 73 68 65 76 71 68 79 74 71 82 75 72 83 79 76 87 79 76 87 79 76 87 79 76 87 79 76 87 79 76 87 79 76 87 79 76 87 77 69 80 76 68 79 73 65 76 70 62 73 67 59 70 63 55 66 61 53 64 60 52 63 62 54 65 60 52 63 58 50 61 55 47 58 51 43 54 48 40 51 46 38 49 44 36 47 46 40 52 46 40 52 46 40 52 46 40 52 46 40 52 46 40 52 46 40 52 46 40 52 47 41 53 47 41 53 47 41 53 47 41 53 47 41 53 47 41 53 47 41 53 47 41 53 51 43 56 51 43 56 51 43 56 51 43 56 51 43 56 51 43 56 51 43 56 51 43 56 42 34 47 42 34 47 42 34 47 42 34 47 42 34 47 42 34 47 42 34 47 39 35 49 38 41 60 35 42 61 35 42 61 35 42 61 35 42 61 35 42 61 35 42 61 35 42 61 43 50 69 45 52 71 47 54 73 50 57 76 54 61 80 57 64 83 59 66 85 64 67 84 72 70 83 75 69 79 75 69 79 75 69 79 75 69 79 75 69 79 75 69 79 75 69 79 83 77 87 83 77 87 83 77 87 83 77 87 83 77 87 83 77 87 83 77 87 84 77 85 93 84 89 94 83 87 94 83 87 94 83 87 94 83 87 94 83 87 94 83 87 94 83 87 91 80 84 91 80 84 91 80 84 91 80 84 91 80 84 91 80 84 91 80 84 94 79 86 97 69 83 100 67 84 100 67 84 100 67 84 100 67 84 100 67 84 100 67 84 100 67 84 93 60 77 93 60 77 93 60 77 93 60 77 93 60 77 93 60 77 93 60 77 96 59 77 94 49 70 96 48 70 96 48 70 93 50 70 93 50 70 90 51 70 89 52 70 86 53 70 76 48 63 71 47 61 68 46 59 62 44 56 58 40 52 52 39 49 50 37 47 44 37 45 40 38 49 37 40 49 37 40 49 37 40 49 37 40 49 37 40 49 37 40 49 37 40 49 22 25 34 22 25 34
77 71 73 77 71 73 77 71 73 77 71 73 76 71 75 69 67 78 68 68 80 68 68 80 68 68 80 68 68 80 68 68 80 68 68 80 68 68 80 58 58 70 58 58 70 58 58 70 58 58 70 58 58 70 58 58 70 58 58 70 56 58 71 41 43 58 40 43 60 40 43 60 40 43 60 40 43 60 40 43 60 40 43 60 40 43 60 46 49 66 46 49 66 46 49 66 46 49 66 46 49 66 46 49 66 46 49 66 46 49 66 49 51 66 49 51 66 49 51 66 49 51 66 49 51 66 49 51 66 49 51 66 49 51 66 47 49 64 47 49 64 47 49 64 47 49 64 47 49 64 47 49 64 47 49 64 49 48 62 58 56 69 60 57 68 63 60 71 66 63 74 69 66 77 73 70 81 75 72 83 76 73 84 79 76 87 79 76 87 79 76 87 79 76 87 79 76 87 79 76 87 79 76 87 79 76 87 78 70 81 77 69 80 75 67 78 71 63 74 68 60 71 65 57 68 62 54 65 61 53 64 62 54 65 60 52 63 58 50 61 55 47 58 51 43 54 48 40 51 46 38 49 44 36 47 46 40 52 46 40 52 46 40 52 46 40 52 46 40 52 46 40 52 46 40 52 46 40 52 47 41 53 47 41 53 47 41 53 47 41 53 47 41 53 47 41 53 47 41 53 47 41 53 51 43 56 51 43 56 51 43 56 51 43 56 51 43 56 51 43 56 51 43 56 51 43 56 42 34 47 42 34 47 42 34 47 42 34 47 42 34 47 42 34 47 42 34 47 39 35 49 38 41 60 35 42 61 35 42 61 35 42 61 35 42 61 35 42 61 35 42 61 35 42 61 43 50 69 45 52 71 47 54 73 50 57 76 54 61 80 57 64 83 59 66 85 64 67 84 72 70 83 75 69 79 75 69 79 75 69 79 75 69 79 75 69 79 75 69 79 75 69 79 83 77 87 83 77 87 83 77 87 83 77 87 83 77 87 83 77 87 83 77 87 84 77 85 93 84 89 94 83 87 94 83 87 94 83 87 94 83 87 94 83 87 94 83 87 94 83 87 91 80 84 91 80 84 91 80 84 91 80 84 91 80 84 91 80 84 91 80 84 94 79 86 97 69 83 100 67 84 100 67 84 100 67 84 100 67 84 100 67 84 100 67 84 100 67 84 93 60 77 93 60 77 93 60 77 93 60 77 93 60 77 93 60 77 93 60 77 96 59 77 94 49 70 96 48 70 96 48 70 93 50 70 93 50 70 90 51 70 89 52 70 86 53 70 76 48 63 71 47 61 68 46 59 62 44 56 58 40 52 52 39 49 50 37 47 44 37 45 40 38 49 37 40 49 37 40 49 37 40 49 37 40 49 37 40 49 37 40 49 37 40 49 22 25 34 22 25 34
77 71 73 77 71 73 77 71 73 77 71 73 76 71 75 67 65 76 66 66 78 66 66 78 66 66 78 66 66 78 66 66 78 66 66 78 66 66 78 58 58 70 58 58 70 58 58 70 58 58 70 58 58 70 58 58 70 58 58 70 56 58 71 46 48 63 45 48 65 45 48 65 45 48 65 45 48 65 45 48 65 45 48 65 45 48 65 48 51 68 48 51 68 48 51 68 48 51 68 48 51 68 48 51 68 48 51 68 48 51 68 49 51 66 49 51 66 49 51 66 49 51 66 49 51 66 49 51 66 49 51 66 49 51 66 49 51 66 49 51 66 49 51 66 49 51 66 49 51 66 49 51 66 49 51 66 51 50 64 60 58 71 63 60 71 65 62 73 68 65 76 72 69 80 75 72 83 77 74 85 79 76 87 79 76 87 79 76 87 79 76 87 79 76 87 79 76 87 79 76 87 79 76 87 79 76 87 81 73 84 79 71 82 77 69 80 74 66 77 70 62 73 67 59 70 65 57 68 63 55 66 62 54 65 60 52 63 58 50 61 55 47 58 51 43 54 48 40 51 46 38 49 44 36 47 46 40 52 46 40 52 46 40 52 46 40 52 46 40 52 46 40 52 46 40 52 46 40 52 47 41 53 47 41 53 47 41 53 47 41 53 47 41 53 47 41 53 47 41 53 47 41 53 51 43 56 51 43 56 51 43 56 51 43 56 51 43 56 51 43 56 51 43 56 51 43 56 42 34 47 42 34 47 42 34 47 42 34 47 42 34 47 42 34 47 42 34 47 39 35 49 38 41 60 35 42 61 35 42 61 35 42 61 35 42 61 35 42 61 35 42 61 35 42 61 43 50 69 45 52 71 47 54 73 50 57 76 54 61 80 57 64 83 59 66 85 64 67 84 72 70 83 75 69 79 75 69 79 75 69 79 75 69 79 75 69 79 75 69 79 75 69 79 83 77 87 83 77 87 83 77 87 83 77 87 83 77 87 83 77 87 83 77 87 84 77 85 93 84 89 94 83 87 94 83 87 94 83 87 94 83 87 94 83 87 94 83 87 94 83 87 91 80 84 91 80 84 91 80 84 91 80 84 91 80 84 91 80 84 91 80 84 94 79 86 97 69 83 100 67 84 100 67 84 100 67 84 100 67 84 100 67 84 100 67 84 100 67 84 93 60 77 93 60 77 93 60 77 93 60 77 93 60 77 93 60 77 93 60 77 96 59 77 94 49 70 96 48 70 96 48 70 93 50 70 93 50 70 90 51 70 89 52 70 86 53 70 76 48 63 71 47 61 68 46 59 62 44 56 58 40 52 52 39 49 50 37 47 44 37 45 40 38 49 37 40 49 37 40 49 37 40 49 37 40 49 37 40 49 37 40 49 37 40 49 22 25 34 22 25 34
77 71 73 77 71 73 77 71 73 77 71 73 76 71 75 64 62 73 63 63 75 63 63 75 63 63 75 63 63 75 63 63 75 63 63 75 63 63 75 58 58 70 58 58 70 58 58 70 58 58 70 58 58 70 58 58 70 58 58 70 56 58 71 53 55 70 52 55 72 52 55 72 52 55 72 52 55 72 52 55 72 52 55 72 52 55 72 51 54 71 51 54 71 51 54 71 51 54 71 51 54 71 51 54 71 51 54 71 51 54 71 49 51 66 49 51 66 49 51 66 49 51 66 49 51 66 49 51 66 49 51 66 49 51 66 52 54 69 52 54 69 52 54 69 52 54 69 52 54 69 52 54 69 52 54 69 54 53 67 64 62 75 66 63 74 68 65 76 72 69 80 75 72 83 78 75 86 81 78 89 82 79 90 79 76 87 79 76 87 79 76 87 79 76 87 79 76 87 79 76 87 79 76 87 79 76 87 84 76 87 83 75 86 80 72 83 77 69 80 74 66 77 70 62 73 68 60 71 67 59 70 62 54 65 60 52 63 58 50 61 55 47 58 51 43 54 48 40 51 46 38 49 44 36 47 46 40 52 46 40 52 46 40 52 46 40 52 46 40 52 46 40 52 46 40 52 46 40 52 47 41 53 47 41 53 47 41 53 47 41 53 47 41 53 47 41 53 47 41 53 47 41 53 51 43 56 51 43 56 51 43 56 51 43 56 51 43 56 51 43 56 51 43 56 51 43 56 42 34 47 42 34 47 42 34 47 42 34 47 42 34 47 42 34 47 42 34 47 39 35 49 38 41 60 35 42 61 35 42 61 35 42 61 35 42 61 35 42 61 35 42 61 35 42 61 43 50 69 45 52 71 47 54 73 50 57 76 54 61 80 57 64 83 59 66 85 64 67 84 72 70 83 75 69 79 75 69 79 75 69 79 75 69 79 75 69 79 75 69 79 75 69 79 83 77 87 83 77 87 83 77 87 83 77 87 83 77 87 83 77 87 83 77 87 84 77 85 93 84 89 94 83 87 94 83 87 94 83 87 94 83 87 94 83 87 94 83 87 94 83 87 91 80 84 91 80 84 91 80 84 91 80 84 91 80 84 91 80 84 91 80 84 94 79 86 97 69 83 100 67 84 100 67 84 100 67 84 100 67 84 100 67 84 100 67 84 100 67 84 93 60 77 93 60 77 93 60 77 93 60 77 93 60 77 93 60 77 93 60 77 96 59 77 94 49 70 96 48 70 96 48 70 93 50 70 93 50 70 90 51 70 89 52 70 86 53 70 76 48 63 71 47 61 68 46 59 62 44 56 58 40 52 52 39 49 50 37 47 44 37 45 40 38 49 37 40 49 37 40 49 37 40 49 37 40 49 37 40 49 37 40 49 37 40 49 22 25 34 22 25 34
77 71 73 77 71 73 77 71 73 77 71 73 76 71 75 60 58 69 59 59 71 59 59 71 59 59 71 59 59 71 59 59 71 59 59 71 59 59 71 58 58 70 58 58 70 58 58 70 58 58 70 58 58 70 58 58 70 58 58 70 56 58 71 59 61 76 58 61 78 58 61 78 58 61 78 58 61 78 58 61 78 58 61 78 58 61 78 55 58 75 55 58 75 55 58 75 55 58 75 55 58 75 55 58 75 55 58 75 55 58 75 49 51 66 49 51 66 49 51 66 49 51 66 49 51 66 49 51 66 49 51 66 49 51 66 56 58 73 56 58 73 56 58 73 56 58 73 56 58 73 56 58 73 56 58 73 58 57 71 67 65 78 69 66 77 72 69 80 75 72 83 78 75 86 82 79 90 84 81 92 85 82 93 79 76 87 79 76 87 79 76 87 79 76 87 79 76 87 79 76 87 79 76 87 79 76 87 87 79 90 86 78 89 84 76 87 80 72 83 77 69 80 74 66 77 71 63 74 70 62 73 62 54 65 60 52 63 58 50 61 55 47 58 51 43 54 48 40 51 46 38 49 44 36 47 46 40 52 46 40 52 46 40 52 46 40 52 46 40 52 46 40 52 46 40 52 46 40 52 47 41 53 47 41 53 47 41 53 47 41 53 47 41 53 47 41 53 47 41 53 47 41 53 51 43 56 51 43 56 51 43 56 51 43 56 51 43 56 51 43 56 51 43 56 51 43 56 42 34 47 42 34 47 42 34 47 42 34 47 42 34 47 42 34 47 42 34 47 39 35 49 38 41 60 35 42 61 35 42 61 35 42 61 35 42 61 35 42 61 35 42 61 35 42 61 43 50 69 45 52 71 47 54 73 50 57 76 54 61 80 57 64 83 59 66 85 64 67 84 72 70 83 75 69 79 75 69 79 75 69 79 75 69 79 75 69 79 75 69 79 75 69 79 83 77 87 83 77 87 83 77 87 83 77 87 83 77 87 83 77 87 83 77 87 84 77 85 93 84 89 94 83 87 94 83 87 94 83 87 94 83 87 94 83 87 94 83 87 94 83 87 91 80 84 91 80 84 91 80 84 91 80 84 91 80 84 91 80 84 91 80 84 94 79 86 97 69 83 100 67 84 100 67 84 100 67 84 100 67 84 100 67 84 100 67 84 100 67 84 93 60 77 93 60 77 93 60 77 93 60 77 93 60 77 93 60 77 93 60 77 96 59 77 94 49 70 96 48 70 96 48 70 93 50 70 93 50 70 90 51 70 89 52 70 86 53 70 76 48 63 71 47 61 68 46 59 62 44 56 58 40 52 52 39 49 50 37 47 44 37 45 40 38 49 37 40 49 37 40 49 37 40 49 37 40 49 37 40 49 37 40 49 37 40 49 22 25 34 22 25 34
77 71 73 77 71 73 77 71 73 77 71 73 76 71 75 57 55 66 56 56 68 56 56 68 56 56 68 56 56 68 56 56 68 56 56 68 56 56 68 58 58 70 58 58 70 58 58 70 58 58 70 58 58 70 58 58 70 58 58 70 56 58 71 66 68 83 65 68 85 65 68 85 65 68 85 65 68 85 65 68 85 65 68 85 65 68 85 58 61 78 58 61 78 58 61 78 58 61 78 58 61 78 58 61 78 58 61 78 58 61 78 49 51 66 49 51 66 49 51 66 49 51 66 49 51 66 49 51 66 49 51 66 49 51 66 59 61 76 59 61 76 59 61 76 59 61 76 59 61 76 59 61 76 59 61 76 61 60 74 70 68 81 73 70 81 75 72 83 78 75 86 82 79 90 85 82 93 87 84 95 89 86 97 79 76 87 79 76 87 79 76 87 79 76 87 79 76 87 79 76 87 79 76 87 79 76 87 91 83 94 89 81 92 87 79 90 84 76 87 80 72 83 77 69 80 75 67 78 73 65 76 62 54 65 60 52 63 58 50 61 55 47 58 51 43 54 48 40 51 46 38 49 44 36 47 46 40 52 46 40 52 46 40 52 46 40 52 46 40 52 46 40 52 46 40 52 46 40 52 47 41 53 47 41 53 47 41 53 47 41 53 47 41 53 47 41 53 47 41 53 47 41 53 51 43 56 51 43 56 51 43 56 51 43 56 51 43 56 51 43 56 51 43 56 51 43 56 42 34 47 42 34 47 42 34 47 42 34 47 42 34 47 42 34 47 42 34 47 39 35 49 38 41 60 35 42 61 35 42 61 35 42 61 35 42 61 35 42 61 35 42 61 35 42 61 43 50 69 45 52 71 47 54 73 50 57 76 54 61 80 57 64 83 59 66 85 64 67 84 72 70 83 75 69 79 75 69 79 75 69 79 75 69 79 75 69 79 75 69 79 75 69 79 83 77 87 83 77 87 83 77 87 83 77 87 83 77 87 83 77 87 83 77 87 84 77 85 93 84 89 94 83 87 94 83 87 94 83 87 94 83 87 94 83 87 94 83 87 94 83 87 91 80 84 91 80 84 91 80 84 91 80 84 91 80 84 91 80 84 91 80 84 94 79 86 97 69 83 100 67 84 100 67 84 100 67 84 100 67 84 100 67 84 100 67 84 100 67 84 93 60 77 93 60 77 93 60 77 93 60 77 93 60 77 93 60 77 93 60 77 96 59 77 94 49 70 96 48 70 96 48 70 93 50 70 93 50 70 90 51 70 89 52 70 86 53 70 76 48 63 71 47 61 68 46 59 62 44 56 58 40 52 52 39 49 50 37 47 44 37 45 40 38 49 37 40 49 37 40 49 37 40 49 37 40 49 37 40 49 37 40 49 37 40 49 22 25 34 22 25 34
77 71 73 77 71 73 77 71 73 77 71 73 76 71 75 55 53 64 54 54 66 54 54 66 54 54 66 54 54 66 54 54 66 54 54 66 54 54 66 58 58 70 58 58 70 58 58 70 58 58 70 58 58 70 58 58 70 58 58 70 56 58 71 71 73 88 70 73 90 70 73 90 70 73 90 70 73 90 70 73 90 70 73 90 70 73 90 60 63 80 60 63 80 60 63 80 60 63 80 60 63 80 60 63 80 60 63 80 60 63 80 49 51 66 49 51 66 49 51 66 49 51 66 49 51 66 49 51 66 49 51 66 49 51 66 61 63 78 61 63 78 61 63 78 61 63 78 61 63 78 61 63 78 61 63 78 63 62 76 73 71 84 75 72 83 77 74 85 81 78 89 84 81 92 87 84 95 90 87 98 91 88 99 79 76 87 79 76 87 79 76 87 79 76 87 79 76 87 79 76 87 79 76 87 79 76 87 93 85 96 92 84 95 89 81 92 86 78 89 83 75 86 79 71 82 77 69 80 76 68 79 62 54 65 60 52 63 58 50 61 55 47 58 51 43 54 48 40 51 46 38 49 44 36 47 46 40 52 46 40 52 46 40 52 46 40 52 46 40 52 46 40 52 46 40 52 46 40 52 47 41 53 47 41 53 47 41 53 47 41 53 47 41 53 47 41 53 47 41 53 47 41 53 51 43 56 51 43 56 51 43 56 51 43 56 51 43 56 51 43 56 51 43 56 51 43 56 42 34 47 42 34 47 42 34 47 42 34 47 42 34 47 42 34 47 42 34 47 39 35 49 38 41 60 35 42 61 35 42 61 35 42 61 35 42 61 35 42 61 35 42 61 35 42 61 43 50 69 45 52 71 47 54 73 50 57 76 54 61 80 57 64 83 59 66 85 64 67 84 72 70 83 75 69 79 75 69 79 75 69 79 75 69 79 75 69 79 75 69 79 75 69 79 83 77 87 83 77 87 83 77 87 83 77 87 83 77 87 83 77 87 83 77 87 84 77 85 93 84 89 94 83 87 94 83 87 94 83 87 94 83 87 94 83 87 94 83 87 94 83 87 91 80 84 91 80 84 91 80 84 91 80 84 91 80 84 91 80 84 91 80 84 94 79 86 97 69 83 100 67 84 100 67 84 100 67 84 100 67 84 100 67 84 100 67 84 100 67 84 93 60 77 93 60 77 93 60 77 93 60 77 93 60 77 93 60 77 93 60 77 96 59 77 94 49 70 96 48 70 96 48 70 93 50 70 93 50 70 90 51 70 89 52 70 86 53 70 76 48 63 71 47 61 68 46 59 62 44 56 58 40 52 52 39 49 50 37 47 44 37 45 40 38 49 37 40 49 37 40 49 37 40 49 37 40 49 37 40 49 37 40 49 37 40 49 22 25 34 22 25 34
76 72 73 77 71 73 76 72 73 77 71 73 76 71 75 53 52 60 52 52 62 53 51 62 52 52 62 53 51 62 52 52 62 53 51 62 52 52 62 59 57 68 58 58 68 59 57 68 58 58 68 59 57 68 58 58 68 59 57 68 58 58 70 75 74 88 75 74 88 75 74 88 75 74 88 75 74 88 75 74 88 75 74 88 75 74 88 65 64 78 65 64 78 65 64 78 65 64 78 65 64 78 65 64 78 65 64 78 65 64 78 51 50 64 51 51 63 52 50 63 51 51 63 52 50 63 51 51 63 52 50 63 51 51 63 66 64 77 65 65 77 66 64 77 65 65 77 66 64 77 65 65 77 66 64 77 66 64 77 77 71 83 78 72 82 81 75 85 84 78 88 87 81 91 91 85 95 93 87 97 94 88 98 81 75 85 81 75 85 81 75 85 81 75 85 81 75 85 81 75 85 81 75 85 81 75 85 94 86 97 93 86 94 91 83 94 87 80 88 84 76 87 81 74 82 78 70 81 77 70 78 62 54 65 60 53 61 58 50 61 55 48 56 51 43 54 48 41 49 46 38 49 43 37 47 44 41 52 44 40 54 44 40 54 44 40 54 44 40 54 44 40 54 44 40 54 44 40 54 45 41 55 45 41 55 45 41 55 45 41 55 45 41 55 45 41 55 45 41 55 45 41 55 48 44 58 48 44 58 48 44 58 48 44 58 48 44 58 48 44 58 48 44 58 48 44 58 39 35 49 39 35 49 39 35 49 39 35 49 39 35 49 39 35 49 39 35 49 38 36 50 38 41 58 36 41 60 36 41 60 36 41 60 36 41 60 36 41 60 36 41 60 36 41 60 44 49 68 46 51 70 48 53 72 51 56 75 55 60 79 58 63 82 60 65 84 65 67 82 73 70 81 76 69 77 76 69 77 76 69 77 76 69 77 76 69 77 76 69 77 76 69 77 84 77 85 84 77 85 84 77 85 84 77 85 84 77 85 84 77 85 84 77 85 86 76 85 94 83 89 95 82 89 95 82 89 95 82 89 95 82 89 95 82 89 95 82 89 95 82 89 92 79 86 92 79 86 92 79 86 92 79 86 92 79 86 92 79 86 92 79 86 95 78 86 97 69 83 100 67 84 100 67 84 100 67 84 100 67 84 100 67 84 100 67 84 100 67 84 93 60 77 93 60 77 93 60 77 93 60 77 93 60 77 93 60 77 93 60 77 96 59 77 94 49 70 96 48 70 96 48 70 93 50 70 93 50 70 90 51 70 89 52 70 86 53 70 76 48 63 71 47 61 68 46 59 62 44 56 58 40 52 52 39 49 50 37 47 44 37 45 40 38 49 37 40 49 37 40 49 37 40 49 37 40 49 37 40 49 37 40 49 37 40 49 22 25 34 22 25 34
78 76 79 80 75 79 78 76 79 80 75 79 78 76 79 69 67 72 66 65 71 65 62 69 61 60 66 58 55 62 54 53 59 53 50 57 50 49 55 57 54 61 56 55 61 57 54 61 56 55 61 57 54 61 56 55 61 57 54 61 57 54 61 78 72 82 78 72 82 78 72 82 78 72 82 78 72 82 78 72 82 78 72 82 78 72 82 86 80 90 85 79 89 83 77 87 79 73 83 76 70 80 73 67 77 70 64 74 69 64 71 63 58 65 63 58 65 64 57 65 63 58 65 64 57 65 63 58 65 64 57 65 63 58 65 77 70 78 76 71 78 77 70 78 76 71 78 77 70 78 76 71 78 77 70 78 77 70 78 85 75 83 86 75 83 86 75 83 86 75 83 86 75 83 86 75 83 86 75 83 86 75 83 95 84 92 93 82 90 91 80 88 88 77 85 84 73 81 81 70 78 79 68 76 76 66 74 73 66 73 72 67 73 72 67 74 72 67 73 72 67 74 72 67 73 72 67 74 72 67 73 68 63 70 66 61 67 64 59 66 61 56 62 57 52 59 54 49 55 52 47 54 48 45 54 40 40 52 38 40 53 38 40 53 38 40 53 38 40 53 38 40 53 38 40 53 38 40 53 42 44 57 42 44 57 42 44 57 42 44 57 42 44 57 42 44 57 42 44 57 42 44 57 39 41 56 39 41 56 39 41 56 39 41 56 39 41 56 39 41 56 39 41 56 39 41 56 37 39 54 37 39 54 37 39 54 37 39 54 37 39 54 37 39 54 37 39 54 37 39 54 36 38 53 38 40 55 40 42 57 43 45 60 47 49 64 50 52 67 52 54 69 54 56 71 61 63 78 63 65 80 65 67 82 68 70 85 72 74 89 75 77 92 77 79 94 82 80 93 81 74 82 83 73 81 83 73 81 83 73 81 83 73 81 83 73 81 83 73 81 83 73 81 91 81 89 91 81 89 91 81 89 91 81 89 91 81 89 91 81 89 91 81 89 92 81 89 93 76 86 95 75 86 95 75 86 95 75 86 95 75 86 95 75 86 95 75 86 95 75 86 92 72 83 92 72 83 92 72 83 92 72 83 92 72 83 92 72 83 92 72 83 93 71 83 97 69 84 99 68 84 99 68 84 99 68 84 99 68 84 99 68 84 99 68 84 99 68 84 95 64 80 95 64 80 95 64 80 95 64 80 95 64 80 95 64 80 95 64 80 97 63 80 94 49 70 96 48 70 96 48 70 93 50 70 93 50 70 90 51 70 89 52 70 86 53 70 71 43 58 66 42 56 63 41 54 57 39 51 53 35 47 47 34 44 45 32 42 39 32 40 39 39 49 36 40 49 36 40 49 36 40 49 36 40 49 36 40 49 36 40 49 36 40 49 20 24 33 20 24 33
78 76 79 78 76 79 78 76 79 78 76 79 78 76 79 69 67 72 67 65 70 65 63 68 62 60 65 58 56 61 55 53 58 53 51 56 51 49 54 57 55 60 57 55 60 57 55 60 57 55 60 57 55 60 57 55 60 57 55 60 59 54 60 79 72 79 81 71 79 81 71 79 81 71 79 81 71 79 81 71 79 81 71 79 81 71 79 88 78 86 87 77 85 84 74 82 81 71 79 78 68 76 74 64 72 72 62 70 71 61 69 66 57 62 66 57 62 66 57 62 66 57 62 66 57 62 66 57 62 66 57 62 66 57 62 79 70 75 79 70 75 79 70 75 79 70 75 79 70 75 79 70 75 79 70 75 79 70 75 87 74 81 87 74 81 87 74 81 87 74 81 87 74 81 87 74 81 87 74 81 87 74 81 96 83 90 94 81 88 92 79 86 89 76 83 85 72 79 82 69 76 80 67 74 77 66 72 73 66 73 72 67 73 72 67 73 72 67 73 72 67 73 72 67 73 72 67 73 72 67 73 68 63 69 66 61 67 64 59 65 61 56 62 57 52 58 54 49 55 52 47 53 48 45 52 38 40 53 37 40 55 37 40 55 37 40 55 37 40 55 37 40 55 37 40 55 37 40 55 41 44 59 41 44 59 41 44 59 41 44 59 41 44 59 41 44 59 41 44 59 41 44 59 36 42 58 36 42 58 36 42 58 36 42 58 36 42 58 36 42 58 36 42 58 36 42 58 34 40 56 34 40 56 34 40 56 34 40 56 34 40 56 34 40 56 34 40 56 36 39 54 36 38 53 40 39 53 42 41 55 45 44 58 49 48 62 52 51 65 54 53 67 56 55 69 63 62 76 65 64 78 67 66 80 70 69 83 74 73 87 77 76 90 79 78 92 82 80 91 83 73 82 84 73 79 84 73 79 84 73 79 84 73 79 84 73 79 84 73 79 84 73 79 92 81 87 92 81 87 92 81 87 92 81 87 92 81 87 92 81 87 92 81 87 93 80 87 95 75 87 96 74 87 96 74 87 96 74 87 96 74 87 96 74 87 96 74 87 96 74 87 93 71 84 93 71 84 93 71 84 93 71 84 93 71 84 93 71 84 93 71 84 94 70 84 97 69 84 99 68 84 99 68 84 99 68 84 99 68 84 99 68 84 99 68 84 99 68 84 95 64 80 95 64 80 95 64 80 95 64 80 95 64 80 95 64 80 95 64 80 97 63 80 94 49 70 96 48 70 96 48 70 93 50 70 93 50 70 90 51 70 89 52 70 86 53 70 71 43 58 66 42 56 63 41 54 57 39 51 53 35 47 47 34 44 45 32 42 39 32 40 39 39 49 36 40 49 36 40 49 36 40 49 36 40 49 36 40 49 36 40 49 36 40 49 20 24 33 20 24 33
78 76 79 78 76 79 78 76 79 78 76 79 78 76 79 69 67 72 67 65 70 65 63 68 62 60 65 58 56 61 55 53 58 53 51 56 51 49 54 57 55 60 57 55 60 57 55 60 57 55 60 57 55 60 57 55 60 57 55 60 59 54 60 79 72 79 81 71 79 81 71 79 81 71 79 81 71 79 81 71 79 81 71 79 81 71 79 86 76 84 84 74 82 82 72 80 79 69 77 75 65 73 72 62 70 70 60 68 68 58 66 66 57 62 66 57 62 66 57 62 66 57 62 66 57 62 66 57 62 66 57 62 66 57 62 79 70 75 79 70 75 79 70 75 79 70 75 79 70 75 79 70 75 79 70 75 79 70 75 87 74 81 87 74 81 87 74 81 87 74 81 87 74 81 87 74 81 87 74 81 87 74 81 96 83 90 94 81 88 92 79 86 89 76 83 85 72 79 82 69 76 80 67 74 77 66 72 73 66 73 72 67 73 72 67 73 72 67 73 72 67 73 72 67 73 72 67 73 72 67 73 68 63 69 66 61 67 64 59 65 61 56 62 57 52 58 54 49 55 52 47 53 48 45 52 38 40 53 37 40 55 37 40 55 37 40 55 37 40 55 37 40 55 37 40 55 37 40 55 41 44 59 41 44 59 41 44 59 41 44 59 41 44 59 41 44 59 41 44 59 41 44 59 36 42 58 36 42 58 36 42 58 36 42 58 36 42 58 36 42 58 36 42 58 36 42 58 34 40 56 34 40 56 34 40 56 34 40 56 34 40 56 34 40 56 34 40 56 36 39 54 36 38 53 40 39 53 42 41 55 45 44 58 49 48 62 52 51 65 54 53 67 56 55 69 63 62 76 65 64 78 67 66 80 70 69 83 74 73 87 77 76 90 79 78 92 82 80 91 83 73 82 84 73 79 84 73 79 84 73 79 84 73 79 84 73 79 84 73 79 84 73 79 92 81 87 92 81 87 92 81 87 92 81 87 92 81 87 92 81 87 92 81 87 93 80 87 95 75 87 96 74 87 96 74 87 96 74 87 96 74 87 96 74 87 96 74 87 96 74 87 93 71 84 93 71 84 93 71 84 93 71 84 93 71 84 93 71 84 93 71 84 94 70 84 97 69 84 99 68 84 99 68 84 99 68 84 99 68 84 99 68 84 99 68 84 99 68 84 95 64 80 95 64 80 95 64 80 95 64 80 95 64 80 95 64 80 95 64 80 97 63 80 94 49 70 96 48 70 96 48 70 93 50 70 93 50 70 90 51 70 89 52 70 86 53 70 71 43 58 66 42 56 63 41 54 57 39 51 53 35 47 47 34 44 45 32 42 39 32 40 39 39 49 36 40 49 36 40 49 36 40 49 36 40 49 36 40 49 36 40 49 36 40 49 20 24 33 20 24 33
78 76 79 78 76 79 78 76 79 78 76 79 78 76 79 69 67 72 67 65 70 65 63 68 62 60 65 58 56 61 55 53 58 53 51 56 51 49 54 57 55 60 57 55 60 57 55 60 57 55 60 57 55 60 57 55 60 57 55 60 59 54 60 79 72 79 81 71 79 81 71 79 81 71 79 81 71 79 81 71 79 81 71 79 81 71 79 82 72 80 81 71 79 79 69 77 75 65 73 72 62 70 69 59 67 66 56 64 65 55 63 66 57 62 66 57 62 66 57 62 66 57 62 66 57 62 66 57 62 66 57 62 66 57 62 79 70 75 79 70 75 79 70 75 79 70 75 79 70 75 79 70 75 79 70 75 79 70 75 87 74 81 87 74 81 87 74 81 87 74 81 87 74 81 87 74 81 87 74 81 87 74 81 96 83 90 94 81 88 92 79 86 89 76 83 85 72 79 82 69 76 80 67 74 77 66 72 73 66 73 72 67 73 72 67 73 72 67 73 72 67 73 72 67 73 72 67 73 72 67 73 68 63 69 66 61 67 64 59 65 61 56 62 57 52 58 54 49 55 52 47 53 48 45 52 38 40 53 37 40 55 37 40 55 37 40 55 37 40 55 37 40 55 37 40 55 37 40 55 41 44 59 41 44 59 41 44 59 41 44 59 41 44 59 41 44 59 41 44 59 41 44 59 36 42 58 36 42 58 36 42 58 36 42 58 36 42 58 36 42 58 36 42 58 36 42 58 34 40 56 34 40 56 34 40 56 34 40 56 34 40 56 34 40 56 34 40 56 36 39 54 36 38 53 40 39 53 42 41 55 45 44 58 49 48 62 52 51 65 54 53 67 56 55 69 63 62 76 65 64 78 67 66 80 70 69 83 74 73 87 77 76 90 79 78 92 82 80 91 83 73 82 84 73 79 84 73 79 84 73 79 84 73 79 84 73 79 84 73 79 84 73 79 92 81 87 92 81 87 92 81 87 92 81 87 92 81 87 92 81 87 92 81 87 93 80 87 95 75 87 96 74 87 96 74 87 96 74 87 96 74 87 96 74 87 96 74 87 96 74 87 93 71 84 93 71 84 93 71 84 93 71 84 93 71 84 93 71 84 93 71 84 94 70 84 97 69 84 99 68 84 99 68 84 99 68 84 99 68 84 99 68 84 99 68 84 99 68 84 95 64 80 95 64 80 95 64 80 95 64 80 95 64 80 95 64 80 95 64 80 97 63 80 94 49 70 96 48 70 96 48 70 93 50 70 93 50 70 90 51 70 89 52 70 86 53 70 71 43 58 66 42 56 63 41 54 57 39 51 53 35 47 47 34 44 45 32 42 39 32 40 39 39 49 36 40 49 36 40 49 36 40 49 36 40 49 36 40 49 36 40 49 36 40 49 20 24 33 20 24 33
78 76 79 78 76 79 78 76 79 78 76 79 78 76 79 69 67 72 67 65 70 65 63 68 62 60 65 58 56 61 55 53 58 53 51 56 51 49 54 57 55 60 57 55 60 57 55 60 57 55 60 57 55 60 57 55 60 57 55 60 59 54 60 79 72 79 81 71 79 81 71 79 81 71 79 81 71 79 81 71 79 81 71 79 81 71 79 79 69 77 78 68 76 75 65 73 72 62 70 69 59 67 65 55 63 63 53 61 62 52 60 66 57 62 66 57 62 66 57 62 66 57 62 66 57 62 66 57 62 66 57 62 66 57 62 79 70 75 79 70 75 79 70 75 79 70 75 79 70 75 79 70 75 79 70 75 79 70 75 87 74 81 87 74 81 87 74 81 87 74 81 87 74 81 87 74 81 87 74 81 87 74 81 96 83 90 94 81 88 92 79 86 89 76 83 85 72 79 82 69 76 80 67 74 77 66 72 73 66 73 72 67 73 72 67 73 72 67 73 72 67 73 72 67 73 72 67 73 72 67 73 68 63 69 66 61 67 64 59 65 61 56 62 57 52 58 54 49 55 52 47 53 48 45 52 38 40 53 37 40 55 37 40 55 37 40 55 37 40 55 37 40 55 37 40 55 37 40 55 41 44 59 41 44 59 41 44 59 41 44 59 41 44 59 41 44 59 41 44 59 41 44 59 36 42 58 36 42 58 36 42 58 36 42 58 36 42 58 36 42 58 36 42 58 36 42 58 34 40 56 34 40 56 34 40 56 34 40 56 34 40 56 34 40 56 34 40 56 36 39 54 36 38 53 40 39 53 42 41 55 45 44 58 49 48 62 52 51 65 54 53 67 56 55 69 63 62 76 65 64 78 67 66 80 70 69 83 74 73 87 77 76 90 79 78 92 82 80 91 83 73 82 84 73 79 84 73 79 84 73 79 84 73 79 84 73 79 84 73 79 84 73 79 92 81 87 92 81 87 92 81 87 92 81 87 92 81 87 92 81 87 92 81 87 93 80 87 95 75 87 96 74 87 96 74 87 96 74 87 96 74 87 96 74 87 96 74 87 96 74 87 93 71 84 93 71 84 93 71 84 93 71 84 93 71 84 93 71 84 93 71 84 94 70 84 97 69 84 99 68 84 99 68 84 99 68 84 99 68 84 99 68 84 99 68 84 99 68 84 95 64 80 95 64 80 95 64 80 95 64 80 95 64 80 95 64 80 95 64 80 97 63 80 94 49 70 96 48 70 96 48 70 93 50 70 93 50 70 90 51 70 89 52 70 86 53 70 71 43 58 66 42 56 63 41 54 57 39 51 53 35 47 47 34 44 45 32 42 39 32 40 39 39 49 36 40 49 36 40 49 36 40 49 36 40 49 36 40 49 36 40 49 36 40 49 20 24 33 20 24 33
78 76 79 78 76 79 78 76 79 78 76 79 78 76 79 69 67 72 67 65 70 65 63 68 62 60 65 58 56 61 55 53 58 53 51 56 51 49 54 57 55 60 57 55 60 57 55 60 57 55 60 57 55 60 57 55 60 57 55 60 59 54 60 79 72 79 81 71 79 81 71 79 81 71 79 81 71 79 81 71 79 81 71 79 81 71 79 76 66 74 74 64 72 72 62 70 69 59 67 65 55 63 62 52 60 60 50 58 58 48 56 66 57 62 66 57 62 66 57 62 66 57 62 66 57 62 66 57 62 66 57 62 66 57 62 79 70 75 79 70 75 79 70 75 79 70 75 79 70 75 79 70 75 79 70 75 79 70 75 87 74 81 87 74 81 87 74 81 87 74 81 87 74 81 87 74 81 87 74 81 87 74 81 96 83 90 94 81 88 92 79 86 89 76 83 85 72 79 82 69 76 80 67 74 77 66 72 73 66 73 72 67 73 72 67 73 72 67 73 72 67 73 72 67 73 72 67 73 72 67 73 68 63 69 66 61 67 64 59 65 61 56 62 57 52 58 54 49 55 52 47 53 48 45 52 38 40 53 37 40 55 37 40 55 37 40 55 37 40 55 37 40 55 37 40 55 37 40 55 41 44 59 41 44 59 41 44 59 41 44 59 41 44 59 41 44 59 41 44 59 41 44 59 36 42 58 36 42 58 36 42 58 36 42 58 36 42 58 36 42 58 36 42 58 36 42 58 34 40 56 34 40 56 34 40 56 34 40 56 34 40 56 34 40 56 34 40 56 36 39 54 36 38 53 40 39 53 42 41 55 45 44 58 49 48 62 52 51 65 54 53 67 56 55 69 63 62 76 65 64 78 67 66 80 70 69 83 74 73 87 77 76 90 79 78 92 82 80 91 83 73 82 84 73 79 84 73 79 84 73 79 84 73 79 84 73 79 84 73 79 84 73 79 92 81 87 92 81 87 92 81 87 92 81 87 92 81 87 92 81 87 92 81 87 93 80 87 95 75 87 96 74 87 96 74 87 96 74 87 96 74 87 96 74 87 96 74 87 96 74 87 93 71 84 93 71 84 93 71 84 93 71 84 93 71 84 93 71 84 93 71 84 94 70 84 97 69 84 99 68 84 99 68 84 99 68 84 99 68 84 99 68 84 99 68 84 99 68 84 95 64 80 95 64 80 95 64 80 95 64 80 95 64 80 95 64 80 95 64 80 97 63 80 94 49 70 96 48 70 96 48 70 93 50 70 93 50 70 90 51 70 89 52 70 86 53 70 71 43 58 66 42 56 63 41 54 57 39 51 53 35 47 47 34 44 45 32 42 39 32 40 39 39 49 36 40 49 36 40 49 36 40 49 36 40 49 36 40 49 36 40 49 36 40 49 20 24 33 20 24 33
78 76 79 78 76 79 78 76 79 78 76 79 78 76 79 69 67 72 67 65 70 65 63 68 62 60 65 58 56 61 55 53 58 53 51 56 51 49 54 57 55 60 57 55 60 57 55 60 57 55 60 57 55 60 57 55 60 57 55 60 59 54 60 79 72 79 81 71 79 81 71 79 81 71 79 81 71 79 81 71 79 81 71 79 81 71 79 73 63 71 72 62 70 70 60 68 66 56 64 63 53 61 60 50 58 57 47 55 56 46 54 66 57 62 66 57 62 66 57 62 66 57 62 66 57 62 66 57 62 66 57 62 66 57 62 79 70 75 79 70 75 79 70 75 79 70 75 79 70 75 79 70 75 79 70 75 79 70 75 87 74 81 87 74 81 87 74 81 87 74 81 87 74 81 87 74 81 87 74 81 87 74 81 96 83 90 94 81 88 92 79 86 89 76 83 85 72 79 82 69 76 80 67 74 77 66 72 73 66 73 72 67 73 72 67 73 72 67 73 72 67 73 72 67 73 72 67 73 72 67 73 68 63 69 66 61 67 64 59 65 61 56 62 57 52 58 54 49 55 52 47 53 48 45 52 38 40 53 37 40 55 37 40 55 37 40 55 37 40 55 37 40 55 37 40 55 37 40 55 41 44 59 41 44 59 41 44 59 41 44 59 41 44 59 41 44 59 41 44 59 41 44 59 36 42 58 36 42 58 36 42 58 36 42 58 36 42 58 36 42 58 36 42 58 36 42 58 34 40 56 34 40 56 34 40 56 34 40 56 34 40 56 34 40 56 34 40 56 36 39 54 36 38 53 40 39 53 42 41 55 45 44 58 49 48 62 52 51 65 54 53 67 56 55 69 63 62 76 65 64 78 67 66 80 70 69 83 74 73 87 77 76 90 79 78 92 82 80 91 83 73 82 84 73 79 84 73 79 84 73 79 84 73 79 84 73 79 84 73 79 84 73 79 92 81 87 92 81 87 92 81 87 92 81 87 92 81 87 92 81 87 92 81 87 93 80 87 95 75 87 96 74 87 96 74 87 96 74 87 96 74 87 96 74 87 96 74 87 96 74 87 93 71 84 93 71 84 93 71 84 93 71 84 93 71 84 93 71 84 93 71 84 94 70 84 97 69 84 99 68 84 99 68 84 99 68 84 99 68 84 99 68 84 99 68 84 99 68 84 95 64 80 95 64 80 95 64 80 95 64 80 95 64 80 95 64 80 95 64 80 97 63 80 94 49 70 96 48 70 96 48 70 93 50 70 93 50 70 90 51 70 89 52 70 86 53 70 71 43 58 66 42 56 63 41 54 57 39 51 53 35 47 47 34 44 45 32 42 39 32 40 39 39 49 36 40 49 36 40 49 36 40 49 36 40 49 36 40 49 36 40 49 36 40 49 20 24 33 20 24 33
78 76 79 78 76 79 78 76 79 78 76 79 78 76 79 69 67 72 67 65 70 65 63 68 62 60 65 58 56 61 55 53 58 53 51 56 51 49 54 57 55 60 57 55 60 57 55 60 57 55 60 57 55 60 57 55 60 57 55 60 59 54 60 79 72 79 81 71 79 81 71 79 81 71 79 81 71 79 81 71 79 81 71 79 81 71 79 72 62 70 71 61 69 68 58 66 65 55 63 62 52 60 58 48 56 56 46 54 55 45 53 66 57 62 66 57 62 66 57 62 66 57 62 66 57 62 66 57 62 66 57 62 66 57 62 79 70 75 79 70 75 79 70 75 79 70 75 79 70 75 79 70 75 79 70 75 79 70 75 87 74 81 87 74 81 87 74 81 87 74 81 87 74 81 87 74 81 87 74 81 87 74 81 96 83 90 94 81 88 92 79 86 89 76 83 85 72 79 82 69 76 80 67 74 77 66 72 73 66 73 72 67 73 72 67 73 72 67 73 72 67 73 72 67 73 72 67 73 72 67 73 68 63 69 66 61 67 64 59 65 61 56 62 57 52 58 54 49 55 52 47 53 48 45 52 38 40 53 37 40 55 37 40 55 37 40 55 37 40 55 37 40 55 37 40 55 37 40 55 41 44 59 41 44 59 41 44 59 41 44 59 41 44 59 41 44 59 41 44 59 41 44 59 36 42 58 36 42 58 36 42 58 36 42 58 36 42 58 36 42 58 36 42 58 36 42 58 34 40 56 34 40 56 34 40 56 34 40 56 34 40 56 34 40 56 34 40 56 36 39 54 36 38 53 40 39 53 42 41 55 45 44 58 49 48 62 52 51 65 54 53 67 56 55 69 63 62 76 65 64 78 67 66 80 70 69 83 74 73 87 77 76 90 79 78 92 82 80 91 83 73 82 84 73 79 84 73 79 84 73 79 84 73 79 84 73 79 84 73 79 84 73 79 92 81 87 92 81 87 92 81 87 92 81 87 92 81 87 92 81 87 92 81 87 93 80 87 95 75 87 96 74 87 96 74 87 96 74 87 96 74 87 96 74 87 96 74 87 96 74 87 93 71 84 93 71 84 93 71 84 93 71 84 93 71 84 93 71 84 93 71 84 94 70 84 97 69 84 99 68 84 99 68 84 99 68 84 99 68 84 99 68 84 99 68 84 99 68 84 95 64 80 95 64 80 95 64 80 95 64 80 95 64 80 95 64 80 95 64 80 97 63 80 94 49 70 96 48 70 96 48 70 93 50 70 93 50 70 90 51 70 89 52 70 86 53 70 71 43 58 66 42 56 63 41 54 57 39 51 53 35 47 47 34 44 45 32 42 39 32 40 39 39 49 36 40 49 36 40 49 36 40 49 36 40 49 36 40 49 36 40 49 36 40 49 20 24 33 20 24 33
66 64 67 66 64 67 66 64 67 66 64 67 66 64 67 58 56 61 58 56 61 58 56 61 58 56 61 58 56 61 58 56 61 58 56 61 58 56 61 56 54 59 56 54 59 56 54 59 56 54 59 56 54 59 56 54 59 56 54 59 58 53 59 70 63 70 72 62 70 72 62 70 72 62 70 72 62 70 72 62 70 72 62 70 72 62 70 64 54 62 64 54 62 64 54 62 64 54 62 64 54 62 64 54 62 64 54 62 64 54 62 73 64 69 73 64 69 73 64 69 73 64 69 73 64 69 73 64 69 73 64 69 73 64 69 83 74 79 81 72 77 79 70 75 76 67 72 72 63 68 69 60 65 67 58 63 65 56 61 65 52 59 67 54 61 69 56 63 72 59 66 76 63 70 79 66 73 81 68 75 83 70 77 87 74 81 87 74 81 87 74 81 87 74 81 87 74 81 87 74 81 87 74 81 86 75 81 69 62 69 68 63 69 68 63 69 68 63 69 68 63 69 68 63 69 68 63 69 68 63 69 68 63 69 66 61 67 64 59 65 61 56 62 57 52 58 54 49 55 52 47 53 48 45 52 45 47 60 44 47 62 44 47 62 44 47 62 44 47 62 44 47 62 44 47 62 44 47 62 51 54 69 51 54 69 51 54 69 51 54 69 51 54 69 51 54 69 51 54 69 51 54 69 37 43 59 37 43 59 37 43 59 37 43 59 37 43 59 37 43 59 37 43 59 37 43 59 38 44 60 38 44 60 38 44 60 38 44 60 38 44 60 38 44 60 38 44 60 40 43 58 38 40 55 41 40 54 43 42 56 47 46 60 50 49 63 53 52 66 56 55 69 57 56 70 69 68 82 69 68 82 69 68 82 69 68 82 69 68 82 69 68 82 69 68 82 70 68 79 91 81 90 92 81 87 92 81 87 92 81 87 92 81 87 92 81 87 92 81 87 92 81 87 88 77 83 88 77 83 88 77 83 88 77 83 88 77 83 88 77 83 88 77 83 89 76 83 90 70 82 91 69 82 91 69 82 91 69 82 91 69 82 91 69 82 91 69 82 91 69 82 87 65 78 87 65 78 87 65 78 87 65 78 87 65 78 87 65 78 87 65 78 88 64 78 93 65 80 95 64 80 95 64 80 95 64 80 95 64 80 95 64 80 95 64 80 95 64 80 93 62 78 93 62 78 93 62 78 93 62 78 93 62 78 93 62 78 93 62 78 95 61 78 92 47 68 94 46 68 94 46 68 91 48 68 91 48 68 88 49 68 87 50 68 84 51 68 60 32 47 57 33 47 56 34 47 53 35 47 53 35 47 50 37 47 50 37 47 46 39 47 45 45 55 40 44 53 38 42 51 35 39 48 31 35 44 28 32 41 26 30 39 24 28 37 20 24 33 20 24 33
66 64 67 66 64 67 66 64 67 66 64 67 66 64 67 58 56 61 58 56 61 58 56 61 58 56 61 58 56 61 58 56 61 58 56 61 58 56 61 56 54 59 56 54 59 56 54 59 56 54 59 56 54 59 56 54 59 56 54 59 58 53 59 68 61 68 70 60 68 70 60 68 70 60 68 70 60 68 70 60 68 70 60 68 70 60 68 64 54 62 64 54 62 64 54 62 64 54 62 64 54 62 64 54 62 64 54 62 64 54 62 73 64 69 73 64 69 73 64 69 73 64 69 73 64 69 73 64 69 73 64 69 73 64 69 83 74 79 81 72 77 79 70 75 76 67 72 72 63 68 69 60 65 67 58 63 65 56 61 65 52 59 67 54 61 69 56 63 72 59 66 76 63 70 79 66 73 81 68 75 83 70 77 87 74 81 87 74 81 87 74 81 87 74 81 87 74 81 87 74 81 87 74 81 86 75 81 69 62 69 68 63 69 68 63 69 68 63 69 68 63 69 68 63 69 68 63 69 68 63 69 68 63 69 66 61 67 64 59 65 61 56 62 57 52 58 54 49 55 52 47 53 48 45 52 47 49 62 46 49 64 46 49 64 46 49 64 46 49 64 46 49 64 46 49 64 46 49 64 51 54 69 51 54 69 51 54 69 51 54 69 51 54 69 51 54 69 51 54 69 51 54 69 37 43 59 37 43 59 37 43 59 37 43 59 37 43 59 37 43 59 37 43 59 37 43 59 38 44 60 38 44 60 38 44 60 38 44 60 38 44 60 38 44 60 38 44 60 40 43 58 39 41 56 42 41 55 45 44 58 48 47 61 51 50 64 55 54 68 57 56 70 58 57 71 71 70 84 71 70 84 71 70 84 71 70 84 71 70 84 71 70 84 71 70 84 72 70 81 91 81 90 92 81 87 92 81 87 92 81 87 92 81 87 92 81 87 92 81 87 92 81 87 88 77 83 88 77 83 88 77 83 88 77 83 88 77 83 88 77 83 88 77 83 89 76 83 90 70 82 91 69 82 91 69 82 91 69 82 91 69 82 91 69 82 91 69 82 91 69 82 87 65 78 87 65 78 87 65 78 87 65 78 87 65 78 87 65 78 87 65 78 88 64 78 93 65 80 95 64 80 95 64 80 95 64 80 95 64 80 95 64 80 95 64 80 95 64 80 93 62 78 93 62 78 93 62 78 93 62 78 93 62 78 93 62 78 93 62 78 95 61 78 92 47 68 94 46 68 94 46 68 91 48 68 91 48 68 88 49 68 87 50 68 84 51 68 60 32 47 57 33 47 56 34 47 53 35 47 53 35 47 50 37 47 50 37 47 46 39 47 45 45 55 40 44 53 38 42 51 35 39 48 31 35 44 28 32 41 26 30 39 24 28 37 20 24 33 20 24 33
66 64 67 66 64 67 66 64 67 66 64 67 66 64 67 58 56 61 58 56 61 58 56 61 58 56 61 58 56 61 58 56 61 58 56 61 58 56 61 56 54 59 56 54 59 56 54 59 56 54 59 56 54 59 56 54 59 56 54 59 58 53 59 66 59 66 68 58 66 68 58 66 68 58 66 68 58 66 68 58 66 68 58 66 68 58 66 64 54 62 64 54 62 64 54 62 64 54 62 64 54 62 64 54 62 64 54 62 64 54 62 73 64 69 73 64 69 73 64 69 73 64 69 73 64 69 73 64 69 73 64 69 73 64 69 83 74 79 81 72 77 79 70 75 76 67 72 72 63 68 69 60 65 67 58 63 65 56 61 65 52 59 67 54 61 69 56 63 72 59 66 76 63 70 79 66 73 81 68 75 83 70 77 87 74 81 87 74 81 87 74 81 87 74 81 87 74 81 87 74 81 87 74 81 86 75 81 69 62 69 68 63 69 68 63 69 68 63 69 68 63 69 68 63 69 68 63 69 68 63 69 68 63 69 66 61 67 64 59 65 61 56 62 57 52 58 54 49 55 52 47 53 48 45 52 49 51 64 48 51 66 48 51 66 48 51 66 48 51 66 48 51 66 48 51 66 48 51 66 51 54 69 51 54 69 51 54 69 51 54 69 51 54 69 51 54 69 51 54 69 51 54 69 37 43 59 37 43 59 37 43 59 37 43 59 37 43 59 37 43 59 37 43 59 37 43 59 38 44 60 38 44 60 38 44 60 38 44 60 38 44 60 38 44 60 38 44 60 40 43 58 41 43 58 45 44 58 47 46 60 50 49 63 54 53 67 57 56 70 59 58 72 61 60 74 73 72 86 73 72 86 73 72 86 73 72 86 73 72 86 73 72 86 73 72 86 74 72 83 91 81 90 92 81 87 92 81 87 92 81 87 92 81 87 92 81 87 92 81 87 92 81 87 88 77 83 88 77 83 88 77 83 88 77 83 88 77 83 88 77 83 88 77 83 89 76 83 90 70 82 91 69 82 91 69 82 91 69 82 91 69 82 91 69 82 91 69 82 91 69 82 87 65 78 87 65 78 87 65 78 87 65 78 87 65 78 87 65 78 87 65 78 88 64 78 93 65 80 95 64 80 95 64 80 95 64 80 95 64 80 95 64 80 95 64 80 95 64 80 93 62 78 93 62 78 93 62 78 93 62 78 93 62 78 93 62 78 93 62 78 95 61 78 92 47 68 94 46 68 94 46 68 91 48 68 91 48 68 88 49 68 87 50 68 84 51 68 60 32 47 57 33 47 56 34 47 53 35 47 53 35 47 50 37 47 50 37 47 46 39 47 45 45 55 40 44 53 38 42 51 35 39 48 31 35 44 28 32 41 26 30 39 24 28 37 20 24 33 20 24 33
66 64 67 66 64 67 66 64 67 66 64 67 66 64 67 58 56 61 58 56 61 58 56 61 58 56 61 58 56 61 58 56 61 58 56 61 58 56 61 56 54 59 56 54 59 56 54 59 56 54 59 56 54 59 56 54 59 56 54 59 58 53 59 63 56 63 65 55 63 65 55 63 65 55 63 65 55 63 65 55 63 65 55 63 65 55 63 64 54 62 64 54 62 64 54 62 64 54 62 64 54 62 64 54 62 64 54 62 64 54 62 73 64 69 73 64 69 73 64 69 73 64 69 73 64 69 73 64 69 73 64 69 73 64 69 83 74 79 81 72 77 79 70 75 76 67 72 72 63 68 69 60 65 67 58 63 65 56 61 65 52 59 67 54 61 69 56 63 72 59 66 76 63 70 79 66 73 81 68 75 83 70 77 87 74 81 87 74 81 87 74 81 87 74 81 87 74 81 87 74 81 87 74 81 86 75 81 69 62 69 68 63 69 68 63 69 68 63 69 68 63 69 68 63 69 68 63 69 68 63 69 68 63 69 66 61 67 64 59 65 61 56 62 57 52 58 54 49 55 52 47 53 48 45 52 52 54 67 51 54 69 51 54 69 51 54 69 51 54 69 51 54 69 51 54 69 51 54 69 51 54 69 51 54 69 51 54 69 51 54 69 51 54 69 51 54 69 51 54 69 51 54 69 37 43 59 37 43 59 37 43 59 37 43 59 37 43 59 37 43 59 37 43 59 37 43 59 38 44 60 38 44 60 38 44 60 38 44 60 38 44 60 38 44 60 38 44 60 40 43 58 45 47 62 48 47 61 50 49 63 54 53 67 57 56 70 60 59 73 63 62 76 64 63 77 76 75 89 76 75 89 76 75 89 76 75 89 76 75 89 76 75 89 76 75 89 77 75 86 91 81 90 92 81 87 92 81 87 92 81 87 92 81 87 92 81 87 92 81 87 92 81 87 88 77 83 88 77 83 88 77 83 88 77 83 88 77 83 88 77 83 88 77 83 89 76 83 90 70 82 91 69 82 91 69 82 91 69 82 91 69 82 91 69 82 91 69 82 91 69 82 87 65 78 87 65 78 87 65 78 87 65 78 87 65 78 87 65 78 87 65 78 88 64 78 93 65 80 95 64 80 95 64 80 95 64 80 95 64 80 95 64 80 95 64 80 95 64 80 93 62 78 93 62 78 93 62 78 93 62 78 93 62 78 93 62 78 93 62 78 95 61 78 92 47 68 94 46 68 94 46 68 91 48 68 91 48 68 88 49 68 87 50 68 84 51 68 60 32 47 57 33 47 56 34 47 53 35 47 53 35 47 50 37 47 50 37 47 46 39 47 45 45 55 40 44 53 38 42 51 35 39 48 31 35 44 28 32 41 26 30 39 24 28 37 20 24 33 20 24 33
66 64 67 66 64 67 66 64 67 66 64 67 66 64 67 58 56 61 58 56 61 58 56 61 58 56 61 58 56 61 58 56 61 58 56 61 58 56 61 56 54 59 56 54 59 56 54 59 56 54 59 56 54 59 56 54 59 56 54 59 58 53 59 59 52 59 61 51 59 61 51 59 61 51 59 61 51 59 61 51 59 61 51 59 61 51 59 64 54 62 64 54 62 64 54 62 64 54 62 64 54 62 64 54 62 64 54 62 64 54 62 73 64 69 73 64 69 73 64 69 73 64 69 73 64 69 73 64 69 73 64 69 73 64 69 83 74 79 81 72 77 79 70 75 76 67 72 72 63 68 69 60 65 67 58 63 65 56 61 65 52 59 67 54 61 69 56 63 72 59 66 76 63 70 79 66 73 81 68 75 83 70 77 87 74 81 87 74 81 87 74 81 87 74 81 87 74 81 87 74 81 87 74 81 86 75 81 69 62 69 68 63 69 68 63 69 68 63 69 68 63 69 68 63 69 68 63 69 68 63 69 68 63 69 66 61 67 64 59 65 61 56 62 57 52 58 54 49 55 52 47 53 48 45 52 56 58 71 55 58 73 55 58 73 55 58 73 55 58 73 55 58 73 55 58 73 55 58 73 51 54 69 51 54 69 51 54 69 51 54 69 51 54 69 51 54 69 51 54 69 51 54 69 37 43 59 37 43 59 37 43 59 37 43 59 37 43 59 37 43 59 37 43 59 37 43 59 38 44 60 38 44 60 38 44 60 38 44 60 38 44 60 38 44 60 38 44 60 40 43 58 48 50 65 51 50 64 54 53 67 57 56 70 60 59 73 64 63 77 66 65 79 67 66 80 80 79 93 80 79 93 80 79 93 80 79 93 80 79 93 80 79 93 80 79 93 81 79 90 91 81 90 92 81 87 92 81 87 92 81 87 92 81 87 92 81 87 92 81 87 92 81 87 88 77 83 88 77 83 88 77 83 88 77 83 88 77 83 88 77 83 88 77 83 89 76 83 90 70 82 91 69 82 91 69 82 91 69 82 91 69 82 91 69 82 91 69 82 91 69 82 87 65 78 87 65 78 87 65 78 87 65 78 87 65 78 87 65 78 87 65 78 88 64 78 93 65 80 95 64 80 95 64 80 95 64 80 95 64 80 95 64 80 95 64 80 95 64 80 93 62 78 93 62 78 93 62 78 93 62 78 93 62 78 93 62 78 93 62 78 95 61 78 92 47 68 94 46 68 94 46 68 91 48 68 91 48 68 88 49 68 87 50 68 84 51 68 60 32 47 57 33 47 56 34 47 53 35 47 53 35 47 50 37 47 50 37 47 46 39 47 45 45 55 40 44 53 38 42 51 35 39 48 31 35 44 28 32 41 26 30 39 24 28 37 20 24 33 20 24 33
66 64 67 66 64 67 66 64 67 66 64 67 66 64 67 58 56 61 58 56 61 58 56 61 58 56 61 58 56 61 58 56 61 58 56 61 58 56 61 56 54 59 56 54 59 56 54 59 56 54 59 56 54 59 56 54 59 56 54 59 58 53 59 56 49 56 58 48 56 58 48 56 58 48 56 58 48 56 58 48 56 58 48 56 58 48 56 64 54 62 64 54 62 64 54 62 64 54 62 64 54 62 64 54 62 64 54 62 64 54 62 73 64 69 73 64 69 73 64 69 73 64 69 73 64 69 73 64 69 73 64 69 73 64 69 83 74 79 81 72 77 79 70 75 76 67 72 72 63 68 69 60 65 67 58 63 65 56 61 65 52 59 67 54 61 69 56 63 72 59 66 76 63 70 79 66 73 81 68 75 83 70 77 87 74 81 87 74 81 87 74 81 87 74 81 87 74 81 87 74 81 87 74 81 86 75 81 69 62 69 68 63 69 68 63 69 68 63 69 68 63 69 68 63 69 68 63 69 68 63 69 68 63 69 66 61 67 64 59 65 61 56 62 57 52 58 54 49 55 52 47 53 48 45 52 59 61 74 58 61 76 58 61 76 58 61 76 58 61 76 58 61 76 58 61 76 58 61 76 51 54 69 51 54 69 51 54 69 51 54 69 51 54 69 51 54 69 51 54 69 51 54 69 37 43 59 37 43 59 37 43 59 37 43 59 37 43 59 37 43 59 37 43 59 37 43 59 38 44 60 38 44 60 38 44 60 38 44 60 38 44 60 38 44 60 38 44 60 40 43 58 51 53 68 55 54 68 57 56 70 60 59 73 64 63 77 67 66 80 69 68 82 71 70 84 83 82 96 83 82 96 83 82 96 83 82 96 83 82 96 83 82 96 83 82 96 84 82 93 91 81 90 92 81 87 92 81 87 92 81 87 92 81 87 92 81 87 92 81 87 92 81 87 88 77 83 88 77 83 88 77 83 88 77 83 88 77 83 88 77 83 88 77 83 89 76 83 90 70 82 91 69 82 91 69 82 91 69 82 91 69 82 91 69 82 91 69 82 91 69 82 87 65 78 87 65 78 87 65 78 87 65 78 87 65 78 87 65 78 87 65 78 88 64 78 93 65 80 95 64 80 95 64 80 95 64 80 95 64 80 95 64 80 95 64 80 95 64 80 93 62 78 93 62 78 93 62 78 93 62 78 93 62 78 93 62 78 93 62 78 95 61 78 92 47 68 94 46 68 94 46 68 91 48 68 91 48 68 88 49 68 87 50 68 84 51 68 60 32 47 57 33 47 56 34 47 53 35 47 53 35 47 50 37 47 50 37 47 46 39 47 45 45 55 40 44 53 38 42 51 35 39 48 31 35 44 28 32 41 26 30 39 24 28 37 20 24 33 20 24 33
66 64 67 66 64 67 66 64 67 66 64 67 66 64 67 58 56 61 58 56 61 58 56 61 58 56 61 58 56 61 58 56 61 58 56 61 58 56 61 56 54 59 56 54 59 56 54 59 56 54 59 56 54 59 56 54 59 56 54 59 58 53 59 54 47 54 56 46 54 56 46 54 56 46 54 56 46 54 56 46 54 56 46 54 56 46 54 64 54 62 64 54 62 64 54 62 64 54 62 64 54 62 64 54 62 64 54 62 64 54 62 73 64 69 73 64 69 73 64 69 73 64 69 73 64 69 73 64 69 73 64 69 73 64 69 83 74 79 81 72 77 79 70 75 76 67 72 72 63 68 69 60 65 67 58 63 65 56 61 65 52 59 67 54 61 69 56 63 72 59 66 76 63 70 79 66 73 81 68 75 83 70 77 87 74 81 87 74 81 87 74 81 87 74 81 87 74 81 87 74 81 87 74 81 86 75 81 69 62 69 68 63 69 68 63 69 68 63 69 68 63 69 68 63 69 68 63 69 68 63 69 68 63 69 66 61 67 64 59 65 61 56 62 57 52 58 54 49 55 52 47 53 48 45 52 61 63 76 60 63 78 60 63 78 60 63 78 60 63 78 60 63 78 60 63 78 60 63 78 51 54 69 51 54 69 51 54 69 51 54 69 51 54 69 51 54 69 51 54 69 51 54 69 37 43 59 37 43 59 37 43 59 37 43 59 37 43 59 37 43 59 37 43 59 37 43 59 38 44 60 38 44 60 38 44 60 38 44 60 38 44 60 38 44 60 38 44 60 40 43 58 54 56 71 57 56 70 59 58 72 63 62 76 66 65 79 69 68 82 72 71 85 73 72 86 85 84 98 85 84 98 85 84 98 85 84 98 85 84 98 85 84 98 85 84 98 86 84 95 91 81 90 92 81 87 92 81 87 92 81 87 92 81 87 92 81 87 92 81 87 92 81 87 88 77 83 88 77 83 88 77 83 88 77 83 88 77 83 88 77 83 88 77 83 89 76 83 90 70 82 91 69 82 91 69 82 91 69 82 91 69 82 91 69 82 91 69 82 91 69 82 87 65 78 87 65 78 87 65 78 87 65 78 87 65 78 87 65 78 87 65 78 88 64 78 93 65 80 95 64 80 95 64 80 95 64 80 95 64 80 95 64 80 95 64 80 95 64 80 93 62 78 93 62 78 93 62 78 93 62 78 93 62 78 93 62 78 93 62 78 95 61 78 92 47 68 94 46 68 94 46 68 91 48 68 91 48 68 88 49 68 87 50 68 84 51 68 60 32 47 57 33 47 56 34 47 53 35 47 53 35 47 50 37 47 50 37 47 46 39 47 45 45 55 40 44 53 38 42 51 35 39 48 31 35 44 28 32 41 26 30 39 24 28 37 20 24 33 20 24 33
66 64 67 66 64 69 66 64 67 66 64 69 66 64 69 58 56 61 58 56 61 58 56 61 58 56 61 58 56 61 58 56 61 58 56 61 58 56 61 56 54 59 56 54 59 56 54 59 56 54 59 56 54 59 56 54 59 56 54 59 58 53 59 52 45 52 52 45 52 54 44 52 52 45 52 54 44 52 52 45 52 54 44 52 52 45 52 64 54 62 62 55 62 64 54 62 62 55 62 64 54 62 62 55 62 64 54 62 64 54 62 73 64 69 73 64 69 73 64 69 73 64 69 73 64 69 73 64 69 73 64 69 73 64 69 83 74 79 81 72 77 79 70 75 76 67 72 72 63 68 69 60 65 67 58 63 65 56 61 64 53 59 66 55 61 68 57 65 71 60 66 75 64 72 78 67 73 80 69 77 82 71 77 86 75 83 86 75 81 86 75 83 86 75 81 86 75 83 86 75 81 86 75 83 85 75 83 69 62 69 68 63 69 68 63 69 68 63 69 68 63 69 68 63 69 68 63 69 68 63 69 68 63 69 66 61 67 64 59 65 61 56 62 57 52 58 54 49 55 52 47 53 48 45 52 65 65 75 63 65 77 63 65 78 63 65 77 63 65 78 63 65 77 63 65 78 63 65 77 52 54 67 52 54 66 52 54 67 52 54 66 52 54 67 52 54 66 52 54 67 52 54 67 40 42 57 39 42 57 40 42 57 39 42 57 40 42 57 39 42 57 40 42 57 39 42 57 41 43 58 40 43 58 41 43 58 40 43 58 41 43 58 40 43 58 41 43 58 41 43 58 57 56 70 58 58 70 62 60 73 64 64 76 68 66 79 71 71 83 74 72 85 74 74 86 88 86 99 87 87 99 88 86 99 87 87 99 88 86 99 87 87 99 88 86 99 89 86 97 91 81 89 92 81 87 92 81 87 92 81 87 92 81 87 92 81 87 92 81 87 92 81 87 88 77 83 88 77 83 88 77 83 88 77 83 88 77 83 88 77 83 88 77 83 89 76 83 90 70 81 91 69 81 91 69 82 91 69 81 91 69 82 91 69 81 91 69 82 91 69 81 87 65 78 87 65 77 87 65 78 87 65 77 87 65 78 87 65 77 87 65 78 88 64 78 93 65 80 93 65 80 95 64 80 93 65 80 95 64 80 93 65 80 95 64 80 93 65 80 93 62 78 91 63 78 93 62 78 91 63 78 93 62 78 91 63 78 93 62 78 94 61 78 90 48 68 92 47 68 91 48 68 90 48 68 88 49 68 85 51 68 84 51 68 81 53 68 57 33 47 55 35 47 53 35 47 52 36 47 50 37 47 49 37 47 48 38 47 45 40 47 43 46 53 40 44 53 38 42 51 35 39 48 31 35 44 28 32 41 26 30 39 24 28 37 20 24 33 20 24 33
66 64 69 66 63 70 66 64 69 66 63 70 66 63 70 54 51 58 54 51 58 54 51 58 54 51 58 54 51 58 54 51 58 54 51 58 54 51 58 56 53 60 56 53 60 56 53 60 56 53 60 56 53 60 56 53 60 56 53 60 56 53 60 56 51 57 56 51 57 57 50 57 56 51 57 57 50 57 56 51 57 57 50 57 56 51 57 66 59 66 65 60 66 66 59 66 65 60 66 66 59 66 65 60 66 66 59 66 66 59 66 69 60 65 70 59 65 70 59 65 70 59 65 70 59 65 70 59 65 70 59 65 70 59 65 72 61 67 72 61 67 72 61 67 72 61 67 72 61 67 72 61 67 72 61 67 71 62 67 64 57 64 64 57 64 64 57 65 64 57 64 64 57 65 64 57 64 64 57 65 64 57 64 76 69 77 76 69 76 76 69 77 76 69 76 76 69 77 76 69 76 76 69 77 76 69 77 65 60 67 65 60 67 65 60 67 65 60 67 65 60 67 65 60 67 65 60 67 65 60 67 61 56 63 61 56 63 61 56 63 61 56 63 61 56 63 61 56 63 61 56 63 59 56 63 66 65 71 65 66 71 65 65 73 65 66 71 65 65 73 65 66 71 65 65 73 65 66 71 61 61 69 61 62 67 61 61 69 61 62 67 61 61 69 61 62 67 61 61 69 62 61 69 45 43 54 45 43 56 46 42 56 45 43 56 46 42 56 45 43 56 46 42 56 45 43 56 56 52 66 55 53 66 56 52 66 55 53 66 56 52 66 55 53 66 56 52 66 55 53 66 62 59 70 63 61 72 66 63 74 68 66 77 73 70 81 75 73 84 78 75 86 79 77 88 95 92 103 94 92 103 95 92 103 94 92 103 95 92 103 94 92 103 95 92 103 97 91 101 95 85 93 97 84 91 97 84 91 97 84 91 97 84 91 97 84 91 97 84 91 97 84 91 84 71 78 84 71 78 84 71 78 84 71 78 84 71 78 84 71 78 84 71 78 86 71 78 86 69 77 88 68 77 88 68 79 88 68 77 88 68 79 88 68 77 88 68 79 88 68 77 75 55 66 75 55 64 75 55 66 75 55 64 75 55 66 75 55 64 75 55 66 76 54 66 75 49 62 77 51 64 80 52 66 82 56 69 87 59 73 89 63 76 92 64 78 93 67 80 93 65 79 92 66 79 93 65 79 92 66 79 93 65 79 92 66 79 93 65 79 95 64 79 95 61 77 95 58 75 91 57 73 87 55 70 82 51 66 77 49 63 74 48 61 69 47 59 53 36 46 50 37 46 49 38 46 46 39 46 45 40 46 43 41 46 42 41 46 41 42 47 42 47 53 38 45 51 36 43 49 33 40 46 29 36 42 26 33 39 24 31 37 22 29 35 19 26 32 19 26 32
66 63 70 66 63 70 66 63 70 66 63 70 66 63 70 56 53 60 56 53 60 56 53 60 56 53 60 56 53 60 56 53 60 56 53 60 56 53 60 56 53 60 56 53 60 56 53 60 56 53 60 56 53 60 56 53 60 56 53 60 56 53 60 56 51 57 56 51 57 56 51 57 56 51 57 56 51 57 56 51 57 56 51 57 56 51 57 65 60 66 65 60 66 65 60 66 65 60 66 65 60 66 65 60 66 65 60 66 66 59 66 69 60 65 70 59 65 70 59 65 70 59 65 70 59 65 70 59 65 70 59 65 70 59 65 72 61 67 72 61 67 72 61 67 72 61 67 72 61 67 72 61 67 72 61 67 71 62 67 64 57 65 63 58 65 63 58 65 63 58 65 63 58 65 63 58 65 63 58 65 63 58 65 75 70 77 75 70 77 75 70 77 75 70 77 75 70 77 75 70 77 75 70 77 75 70 77 65 60 67 65 60 67 65 60 67 65 60 67 65 60 67 65 60 67 65 60 67 65 60 67 61 56 63 61 56 63 61 56 63 61 56 63 61 56 63 61 56 63 61 56 63 59 56 63 67 65 70 66 65 70 66 65 70 66 65 70 66 65 70 66 65 70 66 65 70 66 65 70 62 61 66 62 61 66 62 61 66 62 61 66 62 61 66 62 61 66 62 61 66 62 61 67 50 44 54 50 44 56 50 44 56 50 44 56 50 44 56 50 44 56 50 44 56 50 44 56 58 52 64 58 52 64 58 52 64 58 52 64 58 52 64 58 52 64 58 52 64 58 52 64 62 59 68 64 61 70 66 63 72 69 66 75 73 70 79 76 73 82 78 75 84 80 77 86 93 90 99 93 90 99 93 90 99 93 90 99 93 90 99 93 90 99 93 90 99 95 90 97 94 83 91 95 82 89 95 82 89 95 82 89 95 82 89 95 82 89 95 82 89 95 82 89 84 71 78 84 71 78 84 71 78 84 71 78 84 71 78 84 71 78 84 71 78 86 71 78 84 67 75 86 66 75 86 66 75 86 66 75 86 66 75 86 66 75 86 66 75 86 66 75 75 55 64 75 55 64 75 55 64 75 55 64 75 55 64 75 55 64 75 55 64 76 55 64 73 49 62 77 51 64 79 53 66 82 56 69 86 60 73 89 63 76 91 65 78 93 67 80 92 66 79 92 66 79 92 66 79 92 66 79 92 66 79 92 66 79 92 66 79 93 65 79 94 62 77 92 60 75 90 58 73 84 56 70 80 52 66 74 50 63 71 49 61 66 49 59 50 37 46 48 38 46 46 39 46 43 41 46 43 41 46 41 42 46 41 42 46 38 43 46 42 47 53 38 45 51 36 43 49 33 40 46 29 36 42 26 33 39 24 31 37 22 29 35 19 26 32 19 26 32
66 63 70 66 63 70 66 63 70 66 63 70 66 63 70 58 55 62 58 55 62 58 55 62 58 55 62 58 55 62 58 55 62 58 55 62 58 55 62 56 53 60 56 53 60 56 53 60 56 53 60 56 53 60 56 53 60 56 53 60 56 53 60 56 51 57 56 51 57 56 51 57 56 51 57 56 51 57 56 51 57 56 51 57 56 51 57 65 60 66 65 60 66 65 60 66 65 60 66 65 60 66 65 60 66 65 60 66 66 59 66 69 60 65 70 59 65 70 59 65 70 59 65 70 59 65 70 59 65 70 59 65 70 59 65 72 61 67 72 61 67 72 61 67 72 61 67 72 61 67 72 61 67 72 61 67 71 62 67 64 57 65 63 58 65 63 58 65 63 58 65 63 58 65 63 58 65 63 58 65 63 58 65 75 70 77 75 70 77 75 70 77 75 70 77 75 70 77 75 70 77 75 70 77 75 70 77 65 60 67 65 60 67 65 60 67 65 60 67 65 60 67 65 60 67 65 60 67 65 60 67 61 56 63 61 56 63 61 56 63 61 56 63 61 56 63 61 56 63 61 56 63 59 56 63 67 65 70 66 65 70 66 65 70 66 65 70 66 65 70 66 65 70 66 65 70 66 65 70 62 61 66 62 61 66 62 61 66 62 61 66 62 61 66 62 61 66 62 61 66 62 61 67 52 46 56 52 46 58 52 46 58 52 46 58 52 46 58 52 46 58 52 46 58 52 46 58 58 52 64 58 52 64 58 52 64 58 52 64 58 52 64 58 52 64 58 52 64 58 52 64 62 59 68 64 61 70 66 63 72 69 66 75 73 70 79 76 73 82 78 75 84 80 77 86 91 88 97 91 88 97 91 88 97 91 88 97 91 88 97 91 88 97 91 88 97 93 88 95 92 81 89 93 80 87 93 80 87 93 80 87 93 80 87 93 80 87 93 80 87 93 80 87 84 71 78 84 71 78 84 71 78 84 71 78 84 71 78 84 71 78 84 71 78 86 71 78 82 65 73 84 64 73 84 64 73 84 64 73 84 64 73 84 64 73 84 64 73 84 64 73 75 55 64 75 55 64 75 55 64 75 55 64 75 55 64 75 55 64 75 55 64 76 55 64 73 49 62 77 51 64 79 53 66 82 56 69 86 60 73 89 63 76 91 65 78 93 67 80 92 66 79 92 66 79 92 66 79 92 66 79 92 66 79 92 66 79 92 66 79 93 65 79 94 62 77 92 60 75 90 58 73 84 56 70 80 52 66 74 50 63 71 49 61 66 49 59 50 37 46 48 38 46 46 39 46 43 41 46 43 41 46 41 42 46 41 42 46 38 43 46 42 47 53 38 45 51 36 43 49 33 40 46 29 36 42 26 33 39 24 31 37 22 29 35 19 26 32 19 26 32
66 63 70 66 63 70 66 63 70 66 63 70 66 63 70 61 58 65 61 58 65 61 58 65 61 58 65 61 58 65 61 58 65 61 58 65 61 58 65 56 53 60 56 53 60 56 53 60 56 53 60 56 53 60 56 53 60 56 53 60 56 53 60 56 51 57 56 51 57 56 51 57 56 51 57 56 51 57 56 51 57 56 51 57 56 51 57 65 60 66 65 60 66 65 60 66 65 60 66 65 60 66 65 60 66 65 60 66 66 59 66 69 60 65 70 59 65 70 59 65 70 59 65 70 59 65 70 59 65 70 59 65 70 59 65 72 61 67 72 61 67 72 61 67 72 61 67 72 61 67 72 61 67 72 61 67 71 62 67 64 57 65 63 58 65 63 58 65 63 58 65 63 58 65 63 58 65 63 58 65 63 58 65 75 70 77 75 70 77 75 70 77 75 70 77 75 70 77 75 70 77 75 70 77 75 70 77 65 60 67 65 60 67 65 60 67 65 60 67 65 60 67 65 60 67 65 60 67 65 60 67 61 56 63 61 56 63 61 56 63 61 56 63 61 56 63 61 56 63 61 56 63 59 56 63 67 65 70 66 65 70 66 65 70 66 65 70 66 65 70 66 65 70 66 65 70 66 65 70 62 61 66 62 61 66 62 61 66 62 61 66 62 61 66 62 61 66 62 61 66 62 61 67 55 49 59 55 49 61 55 49 61 55 49 61 55 49 61 55 49 61 55 49 61 55 49 61 58 52 64 58 52 64 58 52 64 58 52 64 58 52 64 58 52 64 58 52 64 58 52 64 62 59 68 64 61 70 66 63 72 69 66 75 73 70 79 76 73 82 78 75 84 80 77 86 88 85 94 88 85 94 88 85 94 88 85 94 88 85 94 88 85 94 88 85 94 90 85 92 89 78 86 90 77 84 90 77 84 90 77 84 90 77 84 90 77 84 90 77 84 90 77 84 84 71 78 84 71 78 84 71 78 84 71 78 84 71 78 84 71 78 84 71 78 86 71 78 79 62 70 81 61 70 81 61 70 81 61 70 81 61 70 81 61 70 81 61 70 81 61 70 75 55 64 75 55 64 75 55 64 75 55 64 75 55 64 75 55 64 75 55 64 76 55 64 73 49 62 77 51 64 79 53 66 82 56 69 86 60 73 89 63 76 91 65 78 93 67 80 92 66 79 92 66 79 92 66 79 92 66 79 92 66 79 92 66 79 92 66 79 93 65 79 94 62 77 92 60 75 90 58 73 84 56 70 80 52 66 74 50 63 71 49 61 66 49 59 50 37 46 48 38 46 46 39 46 43 41 46 43 41 46 41 42 46 41 42 46 38 43 46 42 47 53 38 45 51 36 43 49 33 40 46 29 36 42 26 33 39 24 31 37 22 29 35 19 26 32 19 26 32
66 63 70 66 63 70 66 63 70 66 63 70 66 63 70 65 62 69 65 62 69 65 62 69 65 62 69 65 62 69 65 62 69 65 62 69 65 62 69 56 53 60 56 53 60 56 53 60 56 53 60 56 53 60 56 53 60 56 53 60 56 53 60 56 51 57 56 51 57 56 51 57 56 51 57 56 51 57 56 51 57 56 51 57 56 51 57 65 60 66 65 60 66 65 60 66 65 60 66 65 60 66 65 60 66 65 60 66 66 59 66 69 60 65 70 59 65 70 59 65 70 59 65 70 59 65 70 59 65 70 59 65 70 59 65 72 61 67 72 61 67 72 61 67 72 61 67 72 61 67 72 61 67 72 61 67 71 62 67 64 57 65 63 58 65 63 58 65 63 58 65 63 58 65 63 58 65 63 58 65 63 58 65 75 70 77 75 70 77 75 70 77 75 70 77 75 70 77 75 70 77 75 70 77 75 70 77 65 60 67 65 60 67 65 60 67 65 60 67 65 60 67 65 60 67 65 60 67 65 60 67 61 56 63 61 56 63 61 56 63 61 56 63 61 56 63 61 56 63 61 56 63 59 56 63 67 65 70 66 65 70 66 65 70 66 65 70 66 65 70 66 65 70 66 65 70 66 65 70 62 61 66 62 61 66 62 61 66 62 61 66 62 61 66 62 61 66 62 61 66 62 61 67 59 53 63 59 53 65 59 53 65 59 53 65 59 53 65 59 53 65 59 53 65 59 53 65 58 52 64 58 52 64 58 52 64 58 52 64 58 52 64 58 52 64 58 52 64 58 52 64 62 59 68 64 61 70 66 63 72 69 66 75 73 70 79 76 73 82 78 75 84 80 77 86 84 81 90 84 81 90 84 81 90 84 81 90 84 81 90 84 81 90 84 81 90 86 81 88 85 74 82 86 73 80 86 73 80 86 73 80 86 73 80 86 73 80 86 73 80 86 73 80 84 71 78 84 71 78 84 71 78 84 71 78 84 71 78 84 71 78 84 71 78 86 71 78 75 58 66 77 57 66 77 57 66 77 57 66 77 57 66 77 57 66 77 57 66 77 57 66 75 55 64 75 55 64 75 55 64 75 55 64 75 55 64 75 55 64 75 55 64 76 55 64 73 49 62 77 51 64 79 53 66 82 56 69 86 60 73 89 63 76 91 65 78 93 67 80 92 66 79 92 66 79 92 66 79 92 66 79 92 66 79 92 66 79 92 66 79 93 65 79 94 62 77 92 60 75 90 58 73 84 56 70 80 52 66 74 50 63 71 49 61 66 49 59 50 37 46 48 38 46 46 39 46 43 41 46 43 41 46 41 42 46 41 42 46 38 43 46 42 47 53 38 45 51 36 43 49 33 40 46 29 36 42 26 33 39 24 31 37 22 29 35 19 26 32 19 26 32
66 63 70 66 63 70 66 63 70 66 63 70 66 63 70 68 65 72 68 65 72 68 65 72 68 65 72 68 65 72 68 65 72 68 65 72 68 65 72 56 53 60 56 53 60 56 53 60 56 53 60 56 53 60 56 53 60 56 53 60 56 53 60 56 51 57 56 51 57 56 51 57 56 51 57 56 51 57 56 51 57 56 51 57 56 51 57 65 60 66 65 60 66 65 60 66 65 60 66 65 60 66 65 60 66 65 60 66 66 59 66 69 60 65 70 59 65 70 59 65 70 59 65 70 59 65 70 59 65 70 59 65 70 59 65 72 61 67 72 61 67 72 61 67 72 61 67 72 61 67 72 61 67 72 61 67 71 62 67 64 57 65 63 58 65 63 58 65 63 58 65 63 58 65 63 58 65 63 58 65 63 58 65 75 70 77 75 70 77 75 70 77 75 70 77 75 70 77 75 70 77 75 70 77 75 70 77 65 60 67 65 60 67 65 60 67 65 60 67 65 60 67 65 60 67 65 60 67 65 60 67 61 56 63 61 56 63 61 56 63 61 56 63 61 56 63 61 56 63 61 56 63 59 56 63 67 65 70 66 65 70 66 65 70 66 65 70 66 65 70 66 65 70 66 65 70 66 65 70 62 61 66 62 61 66 62 61 66 62 61 66 62 61 66 62 61 66 62 61 66 62 61 67 62 56 66 62 56 68 62 56 68 62 56 68 62 56 68 62 56 68 62 56 68 62 56 68 58 52 64 58 52 64 58 52 64 58 52 64 58 52 64 58 52 64 58 52 64 58 52 64 62 59 68 64 61 70 66 63 72 69 66 75 73 70 79 76 73 82 78 75 84 80 77 86 81 78 87 81 78 87 81 78 87 81 78 87 81 78 87 81 78 87 81 78 87 83 78 85 82 71 79 83 70 77 83 70 77 83 70 77 83 70 77 83 70 77 83 70 77 83 70 77 84 71 78 84 71 78 84 71 78 84 71 78 84 71 78 84 71 78 84 71 78 86 71 78 72 55 63 74 54 63 74 54 63 74 54 63 74 54 63 74 54 63 74 54 63 74 54 63 75 55 64 75 55 64 75 55 64 75 55 64 75 55 64 75 55 64 75 55 64 76 55 64 73 49 62 77 51 64 79 53 66 82 56 69 86 60 73 89 63 76 91 65 78 93 67 80 92 66 79 92 66 79 92 66 79 92 66 79 92 66 79 92 66 79 92 66 79 93 65 79 94 62 77 92 60 75 90 58 73 84 56 70 80 52 66 74 50 63 71 49 61 66 49 59 50 37 46 48 38 46 46 39 46 43 41 46 43 41 46 41 42 46 41 42 46 38 43 46 42 47 53 38 45 51 36 43 49 33 40 46 29 36 42 26 33 39 24 31 37 22 29 35 19 26 32 19 26 32
66 63 70 66 63 70 66 63 70 66 63 70 66 63 70 70 67 74 70 67 74 70 67 74 70 67 74 70 67 74 70 67 74 70 67 74 70 67 74 56 53 60 56 53 60 56 53 60 56 53 60 56 53 60 56 53 60 56 53 60 56 53 60 56 51 57 56 51 57 56 51 57 56 51 57 56 51 57 56 51 57 56 51 57 56 51 57 65 60 66 65 60 66 65 60 66 65 60 66 65 60 66 65 60 66 65 60 66 66 59 66 69 60 65 70 59 65 70 59 65 70 59 65 70 59 65 70 59 65 70 59 65 70 59 65 72 61 67 72 61 67 72 61 67 72 61 67 72 61 67 72 61 67 72 61 67 71 62 67 64 57 65 63 58 65 63 58 65 63 58 65 63 58 65 63 58 65 63 58 65 63 58 65 75 70 77 75 70 77 75 70 77 75 70 77 75 70 77 75 70 77 75 70 77 75 70 77 65 60 67 65 60 67 65 60 67 65 60 67 65 60 67 65 60 67 65 60 67 65 60 67 61 56 63 61 56 63 61 56 63 61 56 63 61 56 63 61 56 63 61 56 63 59 56 63 67 65 70 66 65 70 66 65 70 66 65 70 66 65 70 66 65 70 66 65 70 66 65 70 62 61 66 62 61 66 62 61 66 62 61 66 62 61 66 62 61 66 62 61 66 62 61 67 64 58 68 64 58 70 64 58 70 64 58 70 64 58 70 64 58 70 64 58 70 64 58 70 58 52 64 58 52 64 58 52 64 58 52 64 58 52 64 58 52 64 58 52 64 58 52 64 62 59 68 64 61 70 66 63 72 69 66 75 73 70 79 76 73 82 78 75 84 80 77 86 79 76 85 79 76 85 79 76 85 79 76 85 79 76 85 79 76 85 79 76 85 81 76 83 80 69 77 81 68 75 81 68 75 81 68 75 81 68 75 81 68 75 81 68 75 81 68 75 84 71 78 84 71 78 84 71 78 84 71 78 84 71 78 84 71 78 84 71 78 86 71 78 70 53 61 72 52 61 72 52 61 72 52 61 72 52 61 72 52 61 72 52 61 72 52 61 75 55 64 75 55 64 75 55 64 75 55 64 75 55 64 75 55 64 75 55 64 76 55 64 73 49 62 77 51 64 79 53 66 82 56 69 86 60 73 89 63 76 91 65 78 93 67 80 92 66 79 92 66 79 92 66 79 92 66 79 92 66 79 92 66 79 92 66 79 93 65 79 94 62 77 92 60 75 90 58 73 84 56 70 80 52 66 74 50 63 71 49 61 66 49 59 50 37 46 48 38 46 46 39 46 43 41 46 43 41 46 41 42 46 41 42 46 38 43 46 42 47 53 38 45 51 36 43 49 33 40 46 29 36 42 26 33 39 24 31 37 22 29 35 19 26 32 19 26 32
66 63 70 66 63 70 66 63 70 66 63 70 66 63 70 72 69 76 72 69 76 72 69 76 72 69 76 72 69 76 72 69 76 72 69 76 72 69 76 56 53 60 56 53 60 56 53 60 56 53 60 56 53 60 56 53 60 56 53 60 56 53 60 56 51 57 56 51 57 56 51 57 56 51 57 56 51 57 56 51 57 56 51 57 56 51 57 65 60 66 65 60 66 65 60 66 65 60 66 65 60 66 65 60 66 65 60 66 66 59 66 69 60 65 70 59 65 70 59 65 70 59 65 70 59 65 70 59 65 70 59 65 70 59 65 72 61 67 72 61 67 72 61 67 72 61 67 72 61 67 72 61 67 72 61 67 71 62 67 64 57 65 63 58 65 63 58 65 63 58 65 63 58 65 63 58 65 63 58 65 63 58 65 75 70 77 75 70 77 75 70 77 75 70 77 75 70 77 75 70 77 75 70 77 75 70 77 65 60 67 65 60 67 65 60 67 65 60 67 65 60 67 65 60 67 65 60 67 65 60 67 61 56 63 61 56 63 61 56 63 61 56 63 61 56 63 61 56 63 61 56 63 59 56 63 67 65 70 66 65 70 66 65 70 66 65 70 66 65 70 66 65 70 66 65 70 66 65 70 62 61 66 62 61 66 62 61 66 62 61 66 62 61 66 62 61 66 62 61 66 62 61 67 66 60 70 66 60 72 66 60 72 66 60 72 66 60 72 66 60 72 66 60 72 66 60 72 58 52 64 58 52 64 58 52 64 58 52 64 58 52 64 58 52 64 58 52 64 58 52 64 62 59 68 64 61 70 66 63 72 69 66 75 73 70 79 76 73 82 78 75 84 80 77 86 77 74 83 77 74 83 77 74 83 77 74 83 77 74 83 77 74 83 77 74 83 79 74 81 78 67 75 79 66 73 79 66 73 79 66 73 79 66 73 79 66 73 79 66 73 79 66 73 84 71 78 84 71 78 84 71 78 84 71 78 84 71 78 84 71 78 84 71 78 86 71 78 68 51 59 70 50 59 70 50 59 70 50 59 70 50 59 70 50 59 70 50 59 70 50 59 75 55 64 75 55 64 75 55 64 75 55 64 75 55 64 75 55 64 75 55 64 76 55 64 73 49 62 77 51 64 79 53 66 82 56 69 86 60 73 89 63 76 91 65 78 93 67 80 92 66 79 92 66 79 92 66 79 92 66 79 92 66 79 92 66 79 92 66 79 93 65 79 94 62 77 92 60 75 90 58 73 84 56 70 80 52 66 74 50 63 71 49 61 66 49 59 50 37 46 48 38 46 46 39 46 43 41 46 43 41 46 41 42 46 41 42 46 38 43 46 42 47 53 38 45 51 36 43 49 33 40 46 29 36 42 26 33 39 24 31 37 22 29 35 19 26 32 19 26 32
71 68 75 71 68 75 71 68 75 71 68 75 71 68 75 72 69 76 72 69 76 72 69 76 72 69 76 72 69 76 72 69 76 72 69 76 72 69 76 60 57 64 60 57 64 60 57 64 60 57 64 60 57 64 60 57 64 60 57 64 60 57 64 63 58 64 63 58 64 63 58 64 63 58 64 63 58 64 63 58 64 63 58 64 63 58 64 69 64 70 69 64 70 69 64 70 69 64 70 69 64 70 69 64 70 69 64 70 70 63 70 69 60 65 70 59 65 70 59 65 70 59 65 70 59 65 70 59 65 70 59 65 70 59 65 72 61 67 71 60 66 68 57 63 65 54 60 62 51 57 58 47 53 56 45 51 54 45 50 54 47 55 53 48 55 53 48 55 53 48 55 53 48 55 53 48 55 53 48 55 53 48 55 62 57 64 62 57 64 62 57 64 62 57 64 62 57 64 62 57 64 62 57 64 62 57 64 65 60 67 65 60 67 65 60 67 65 60 67 65 60 67 65 60 67 65 60 67 65 60 67 60 55 62 60 55 62 60 55 62 60 55 62 60 55 62 60 55 62 60 55 62 58 55 62 59 57 62 58 57 62 58 57 62 58 57 62 58 57 62 58 57 62 58 57 62 58 57 62 66 65 70 66 65 70 66 65 70 66 65 70 66 65 70 66 65 70 66 65 70 66 65 71 71 65 75 71 65 77 71 65 77 71 65 77 71 65 77 71 65 77 71 65 77 71 65 77 59 53 65 59 53 65 59 53 65 59 53 65 59 53 65 59 53 65 59 53 65 59 53 65 61 58 67 61 58 67 61 58 67 61 58 67 61 58 67 61 58 67 61 58 67 61 58 67 64 61 70 64 61 70 64 61 70 64 61 70 64 61 70 64 61 70 64 61 70 66 61 68 68 57 65 69 56 63 69 56 63 69 56 63 69 56 63 69 56 63 69 56 63 69 56 63 66 53 60 66 53 60 66 53 60 66 53 60 66 53 60 66 53 60 66 53 60 68 53 60 68 51 59 70 50 59 70 50 59 70 50 59 70 50 59 70 50 59 70 50 59 70 50 59 73 53 62 73 53 62 73 53 62 73 53 62 73 53 62 73 53 62 73 53 62 74 53 62 79 55 68 81 55 68 81 55 68 81 55 68 81 55 68 81 55 68 81 55 68 81 55 68 89 63 76 89 63 76 89 63 76 89 63 76 89 63 76 89 63 76 89 63 76 90 62 76 95 63 78 93 61 76 91 59 74 85 57 71 81 53 67 75 51 64 72 50 62 67 50 60 52 39 48 50 40 48 48 41 48 45 43 48 45 43 48 43 44 48 43 44 48 40 45 48 41 46 52 37 44 50 35 42 48 32 39 45 28 35 41 25 32 38 23 30 36 21 28 34 21 28 34 21 28 34
71 68 75 71 68 75 71 68 75 71 68 75 71 68 75 72 69 76 72 69 76 72 69 76 72 69 76 72 69 76 72 69 76 72 69 76 72 69 76 60 57 64 60 57 64 60 57 64 60 57 64 60 57 64 60 57 64 60 57 64 60 57 64 63 58 64 63 58 64 63 58 64 63 58 64 63 58 64 63 58 64 63 58 64 63 58 64 69 64 70 69 64 70 69 64 70 69 64 70 69 64 70 69 64 70 69 64 70 70 63 70 71 62 67 72 61 67 72 61 67 72 61 67 72 61 67 72 61 67 72 61 67 72 61 67 73 62 68 72 61 67 70 59 65 66 55 61 63 52 58 60 49 55 57 46 52 55 46 51 54 47 55 53 48 55 53 48 55 53 48 55 53 48 55 53 48 55 53 48 55 53 48 55 60 55 62 60 55 62 60 55 62 60 55 62 60 55 62 60 55 62 60 55 62 60 55 62 65 60 67 65 60 67 65 60 67 65 60 67 65 60 67 65 60 67 65 60 67 65 60 67 60 55 62 60 55 62 60 55 62 60 55 62 60 55 62 60 55 62 60 55 62 58 55 62 59 57 62 58 57 62 58 57 62 58 57 62 58 57 62 58 57 62 58 57 62 58 57 62 66 65 70 66 65 70 66 65 70 66 65 70 66 65 70 66 65 70 66 65 70 66 65 71 71 65 75 71 65 77 71 65 77 71 65 77 71 65 77 71 65 77 71 65 77 71 65 77 59 53 65 59 53 65 59 53 65 59 53 65 59 53 65 59 53 65 59 53 65 59 53 65 59 56 65 59 56 65 59 56 65 59 56 65 59 56 65 59 56 65 59 56 65 59 56 65 62 59 68 62 59 68 62 59 68 62 59 68 62 59 68 62 59 68 62 59 68 64 59 66 68 57 65 69 56 63 69 56 63 69 56 63 69 56 63 69 56 63 69 56 63 69 56 63 66 53 60 66 53 60 66 53 60 66 53 60 66 53 60 66 53 60 66 53 60 68 53 60 68 51 59 70 50 59 70 50 59 70 50 59 70 50 59 70 50 59 70 50 59 70 50 59 73 53 62 73 53 62 73 53 62 73 53 62 73 53 62 73 53 62 73 53 62 74 53 62 79 55 68 81 55 68 81 55 68 81 55 68 81 55 68 81 55 68 81 55 68 81 55 68 89 63 76 89 63 76 89 63 76 89 63 76 89 63 76 89 63 76 89 63 76 90 62 76 95 63 78 93 61 76 91 59 74 85 57 71 81 53 67 75 51 64 72 50 62 67 50 60 52 39 48 50 40 48 48 41 48 45 43 48 45 43 48 43 44 48 43 44 48 40 45 48 41 46 52 37 44 50 35 42 48 32 39 45 28 35 41 25 32 38 23 30 36 21 28 34 21 28 34 21 28 34
71 68 75 71 68 75 71 68 75 71 68 75 71 68 75 72 69 76 72 69 76 72 69 76 72 69 76 72 69 76 72 69 76 72 69 76 72 69 76 60 57 64 60 57 64 60 57 64 60 57 64 60 57 64 60 57 64 60 57 64 60 57 64 63 58 64 63 58 64 63 58 64 63 58 64 63 58 64 63 58 64 63 58 64 63 58 64 69 64 70 69 64 70 69 64 70 69 64 70 69 64 70 69 64 70 69 64 70 70 63 70 73 64 69 74 63 69 74 63 69 74 63 69 74 63 69 74 63 69 74 63 69 74 63 69 76 65 71 74 63 69 72 61 67 69 58 64 65 54 60 62 51 57 60 49 55 57 48 53 54 47 55 53 48 55 53 48 55 53 48 55 53 48 55 53 48 55 53 48 55 53 48 55 58 53 60 58 53 60 58 53 60 58 53 60 58 53 60 58 53 60 58 53 60 58 53 60 65 60 67 65 60 67 65 60 67 65 60 67 65 60 67 65 60 67 65 60 67 65 60 67 60 55 62 60 55 62 60 55 62 60 55 62 60 55 62 60 55 62 60 55 62 58 55 62 59 57 62 58 57 62 58 57 62 58 57 62 58 57 62 58 57 62 58 57 62 58 57 62 66 65 70 66 65 70 66 65 70 66 65 70 66 65 70 66 65 70 66 65 70 66 65 71 71 65 75 71 65 77 71 65 77 71 65 77 71 65 77 71 65 77 71 65 77 71 65 77 59 53 65 59 53 65 59 53 65 59 53 65 59 53 65 59 53 65 59 53 65 59 53 65 57 54 63 57 54 63 57 54 63 57 54 63 57 54 63 57 54 63 57 54 63 57 54 63 60 57 66 60 57 66 60 57 66 60 57 66 60 57 66 60 57 66 60 57 66 62 57 64 68 57 65 69 56 63 69 56 63 69 56 63 69 56 63 69 56 63 69 56 63 69 56 63 66 53 60 66 53 60 66 53 60 66 53 60 66 53 60 66 53 60 66 53 60 68 53 60 68 51 59 70 50 59 70 50 59 70 50 59 70 50 59 70 50 59 70 50 59 70 50 59 73 53 62 73 53 62 73 53 62 73 53 62 73 53 62 73 53 62 73 53 62 74 53 62 79 55 68 81 55 68 81 55 68 81 55 68 81 55 68 81 55 68 81 55 68 81 55 68 89 63 76 89 63 76 89 63 76 89 63 76 89 63 76 89 63 76 89 63 76 90 62 76 95 63 78 93 61 76 91 59 74 85 57 71 81 53 67 75 51 64 72 50 62 67 50 60 52 39 48 50 40 48 48 41 48 45 43 48 45 43 48 43 44 48 43 44 48 40 45 48 41 46 52 37 44 50 35 42 48 32 39 45 28 35 41 25 32 38 23 30 36 21 28 34 21 28 34 21 28 34
71 68 75 71 68 75 71 68 75 71 68 75 71 68 75 72 69 76 72 69 76 72 69 76 72 69 76 72 69 76 72 69 76 72 69 76 72 69 76 60 57 64 60 57 64 60 57 64 60 57 64 60 57 64 60 57 64 60 57 64 60 57 64 63 58 64 63 58 64 63 58 64 63 58 64 63 58 64 63 58 64 63 58 64 63 58 64 69 64 70 69 64 70 69 64 70 69 64 70 69 64 70 69 64 70 69 64 70 70 63 70 76 67 72 77 66 72 77 66 72 77 66 72 77 66 72 77 66 72 77 66 72 77 66 72 79 68 74 78 67 73 75 64 70 72 61 67 69 58 64 65 54 60 63 52 58 61 52 57 54 47 55 53 48 55 53 48 55 53 48 55 53 48 55 53 48 55 53 48 55 53 48 55 55 50 57 55 50 57 55 50 57 55 50 57 55 50 57 55 50 57 55 50 57 55 50 57 65 60 67 65 60 67 65 60 67 65 60 67 65 60 67 65 60 67 65 60 67 65 60 67 60 55 62 60 55 62 60 55 62 60 55 62 60 55 62 60 55 62 60 55 62 58 55 62 59 57 62 58 57 62 58 57 62 58 57 62 58 57 62 58 57 62 58 57 62 58 57 62 66 65 70 66 65 70 66 65 70 66 65 70 66 65 70 66 65 70 66 65 70 66 65 71 71 65 75 71 65 77 71 65 77 71 65 77 71 65 77 71 65 77 71 65 77 71 65 77 59 53 65 59 53 65 59 53 65 59 53 65 59 53 65 59 53 65 59 53 65 59 53 65 54 51 60 54 51 60 54 51 60 54 51 60 54 51 60 54 51 60 54 51 60 54 51 60 57 54 63 57 54 63 57 54 63 57 54 63 57 54 63 57 54 63 57 54 63 59 54 61 68 57 65 69 56 63 69 56 63 69 56 63 69 56 63 69 56 63 69 56 63 69 56 63 66 53 60 66 53 60 66 53 60 66 53 60 66 53 60 66 53 60 66 53 60 68 53 60 68 51 59 70 50 59 70 50 59 70 50 59 70 50 59 70 50 59 70 50 59 70 50 59 73 53 62 73 53 62 73 53 62 73 53 62 73 53 62 73 53 62 73 53 62 74 53 62 79 55 68 81 55 68 81 55 68 81 55 68 81 55 68 81 55 68 81 55 68 81 55 68 89 63 76 89 63 76 89 63 76 89 63 76 89 63 76 89 63 76 89 63 76 90 62 76 95 63 78 93 61 76 91 59 74 85 57 71 81 53 67 75 51 64 72 50 62 67 50 60 52 39 48 50 40 48 48 41 48 45 43 48 45 43 48 43 44 48 43 44 48 40 45 48 41 46 52 37 44 50 35 42 48 32 39 45 28 35 41 25 32 38 23 30 36 21 28 34 21 28 34 21 28 34
71 68 75 71 68 75 71 68 75 71 68 75 71 68 75 72 69 76 72 69 76 72 69 76 72 69 76 72 69 76 72 69 76 72 69 76 72 69 76 60 57 64 60 57 64 60 57 64 60 57 64 60 57 64 60 57 64 60 57 64 60 57 64 63 58 64 63 58 64 63 58 64 63 58 64 63 58 64 63 58 64 63 58 64 63 58 64 69 64 70 69 64 70 69 64 70 69 64 70 69 64 70 69 64 70 69 64 70 70 63 70 80 71 76 81 70 76 81 70 76 81 70 76 81 70 76 81 70 76 81 70 76 81 70 76 82 71 77 81 70 76 79 68 74 75 64 70 72 61 67 69 58 64 66 55 61 64 55 60 54 47 55 53 48 55 53 48 55 53 48 55 53 48 55 53 48 55 53 48 55 53 48 55 51 46 53 51 46 53 51 46 53 51 46 53 51 46 53 51 46 53 51 46 53 51 46 53 65 60 67 65 60 67 65 60 67 65 60 67 65 60 67 65 60 67 65 60 67 65 60 67 60 55 62 60 55 62 60 55 62 60 55 62 60 55 62 60 55 62 60 55 62 58 55 62 59 57 62 58 57 62 58 57 62 58 57 62 58 57 62 58 57 62 58 57 62 58 57 62 66 65 70 66 65 70 66 65 70 66 65 70 66 65 70 66 65 70 66 65 70 66 65 71 71 65 75 71 65 77 71 65 77 71 65 77 71 65 77 71 65 77 71 65 77 71 65 77 59 53 65 59 53 65 59 53 65 59 53 65 59 53 65 59 53 65 59 53 65 59 53 65 50 47 56 50 47 56 50 47 56 50 47 56 50 47 56 50 47 56 50 47 56 50 47 56 53 50 59 53 50 59 53 50 59 53 50 59 53 50 59 53 50 59 53 50 59 55 50 57 68 57 65 69 56 63 69 56 63 69 56 63 69 56 63 69 56 63 69 56 63 69 56 63 66 53 60 66 53 60 66 53 60 66 53 60 66 53 60 66 53 60 66 53 60 68 53 60 68 51 59 70 50 59 70 50 59 70 50 59 70 50 59 70 50 59 70 50 59 70 50 59 73 53 62 73 53 62 73 53 62 73 53 62 73 53 62 73 53 62 73 53 62 74 53 62 79 55 68 81 55 68 81 55 68 81 55 68 81 55 68 81 55 68 81 55 68 81 55 68 89 63 76 89 63 76 89 63 76 89 63 76 89 63 76 89 63 76 89 63 76 90 62 76 95 63 78 93 61 76 91 59 74 85 57 71 81 53 67 75 51 64 72 50 62 67 50 60 52 39 48 50 40 48 48 41 48 45 43 48 45 43 48 43 44 48 43 44 48 40 45 48 41 46 52 37 44 50 35 42 48 32 39 45 28 35 41 25 32 38 23 30 36 21 28 34 21 28 34 21 28 34
71 68 75 71 68 75 71 68 75 71 68 75 71 68 75 72 69 76 72 69 76 72 69 76 72 69 76 72 69 76 72 69 76 72 69 76 72 69 76 60 57 64 60 57 64 60 57 64 60 57 64 60 57 64 60 57 64 60 57 64 60 57 64 63 58 64 63 58 64 63 58 64 63 58 64 63 58 64 63 58 64 63 58 64 63 58 64 69 64 70 69 64 70 69 64 70 69 64 70 69 64 70 69 64 70 69 64 70 70 63 70 83 74 79 84 73 79 84 73 79 84 73 79 84 73 79 84 73 79 84 73 79 84 73 79 86 75 81 84 73 79 82 71 77 79 68 74 75 64 70 72 61 67 70 59 65 67 58 63 54 47 55 53 48 55 53 48 55 53 48 55 53 48 55 53 48 55 53 48 55 53 48 55 48 43 50 48 43 50 48 43 50 48 43 50 48 43 50 48 43 50 48 43 50 48 43 50 65 60 67 65 60 67 65 60 67 65 60 67 65 60 67 65 60 67 65 60 67 65 60 67 60 55 62 60 55 62 60 55 62 60 55 62 60 55 62 60 55 62 60 55 62 58 55 62 59 57 62 58 57 62 58 57 62 58 57 62 58 57 62 58 57 62 58 57 62 58 57 62 66 65 70 66 65 70 66 65 70 66 65 70 66 65 70 66 65 70 66 65 70 66 65 71 71 65 75 71 65 77 71 65 77 71 65 77 71 65 77 71 65 77 71 65 77 71 65 77 59 53 65 59 53 65 59 53 65 59 53 65 59 53 65 59 53 65 59 53 65 59 53 65 47 44 53 47 44 53 47 44 53 47 44 53 47 44 53 47 44 53 47 44 53 47 44 53 50 47 56 50 47 56 50 47 56 50 47 56 50 47 56 50 47 56 50 47 56 52 47 54 68 57 65 69 56 63 69 56 63 69 56 63 69 56 63 69 56 63 69 56 63 69 56 63 66 53 60 66 53 60 66 53 60 66 53 60 66 53 60 66 53 60 66 53 60 68 53 60 68 51 59 70 50 59 70 50 59 70 50 59 70 50 59 70 50 59 70 50 59 70 50 59 73 53 62 73 53 62 73 53 62 73 53 62 73 53 62 73 53 62 73 53 62 74 53 62 79 55 68 81 55 68 81 55 68 81 55 68 81 55 68 81 55 68 81 55 68 81 55 68 89 63 76 89 63 76 89 63 76 89 63 76 89 63 76 89 63 76 89 63 76 90 62 76 95 63 78 93 61 76 91 59 74 85 57 71 81 53 67 75 51 64 72 50 62 67 50 60 52 39 48 50 40 48 48 41 48 45 43 48 45 43 48 43 44 48 43 44 48 40 45 48 41 46 52 37 44 50 35 42 48 32 39 45 28 35 41 25 32 38 23 30 36 21 28 34 21 28 34 21 28 34
71 68 75 71 68 75 71 68 75 71 68 75 71 68 75 72 69 76 72 69 76 72 69 76 72 69 76 72 69 76 72 69 76 72 69 76 72 69 76 60 57 64 60 57 64 60 57 64 60 57 64 60 57 64 60 57 64 60 57 64 60 57 64 63 58 64 63 58 64 63 58 64 63 58 64 63 58 64 63 58 64 63 58 64 63 58 64 69 64 70 69 64 70 69 64 70 69 64 70 69 64 70 69 64 70 69 64 70 70 63 70 85 76 81 86 75 81 86 75 81 86 75 81 86 75 81 86 75 81 86 75 81 86 75 81 88 77 83 87 76 82 84 73 79 81 70 76 78 67 73 74 63 69 72 61 67 70 61 66 54 47 55 53 48 55 53 48 55 53 48 55 53 48 55 53 48 55 53 48 55 53 48 55 46 41 48 46 41 48 46 41 48 46 41 48 46 41 48 46 41 48 46 41 48 46 41 48 65 60 67 65 60 67 65 60 67 65 60 67 65 60 67 65 60 67 65 60 67 65 60 67 60 55 62 60 55 62 60 55 62 60 55 62 60 55 62 60 55 62 60 55 62 58 55 62 59 57 62 58 57 62 58 57 62 58 57 62 58 57 62 58 57 62 58 57 62 58 57 62 66 65 70 66 65 70 66 65 70 66 65 70 66 65 70 66 65 70 66 65 70 66 65 71 71 65 75 71 65 77 71 65 77 71 65 77 71 65 77 71 65 77 71 65 77 71 65 77 59 53 65 59 53 65 59 53 65 59 53 65 59 53 65 59 53 65 59 53 65 59 53 65 45 42 51 45 42 51 45 42 51 45 42 51 45 42 51 45 42 51 45 42 51 45 42 51 48 45 54 48 45 54 48 45 54 48 45 54 48 45 54 48 45 54 48 45 54 50 45 52 68 57 65 69 56 63 69 56 63 69 56 63 69 56 63 69 56 63 69 56 63 69 56 63 66 53 60 66 53 60 66 53 60 66 53 60 66 53 60 66 53 60 66 53 60 68 53 60 68 51 59 70 50 59 70 50 59 70 50 59 70 50 59 70 50 59 70 50 59 70 50 59 73 53 62 73 53 62 73 53 62 73 53 62 73 53 62 73 53 62 73 53 62 74 53 62 79 55 68 81 55 68 81 55 68 81 55 68 81 55 68 81 55 68 81 55 68 81 55 68 89 63 76 89 63 76 89 63 76 89 63 76 89 63 76 89 63 76 89 63 76 90 62 76 95 63 78 93 61 76 91 59 74 85 57 71 81 53 67 75 51 64 72 50 62 67 50 60 52 39 48 50 40 48 48 41 48 45 43 48 45 43 48 43 44 48 43 44 48 40 45 48 41 46 52 37 44 50 35 42 48 32 39 45 28 35 41 25 32 38 23 30 36 21 28 34 21 28 34 21 28 34
70 69 77 70 69 77 70 69 77 70 69 77 70 69 77 72 69 78 72 69 78 72 69 78 72 69 78 72 69 78 72 69 78 72 69 78 72 69 78 60 57 66 60 57 66 60 57 66 60 57 66 60 57 66 60 57 66 60 57 66 60 57 64 63 58 65 63 58 65 63 58 65 63 58 65 63 58 65 63 58 65 63 58 65 63 58 65 69 64 71 69 64 71 69 64 71 69 64 71 69 64 71 69 64 71 69 64 71 70 63 70 87 77 85 87 78 83 88 77 85 87 78 83 88 77 85 87 78 83 88 77 85 87 78 83 89 78 86 87 78 83 86 75 83 81 72 77 79 68 76 75 66 71 73 62 70 71 61 69 53 48 55 53 48 55 53 48 55 53 48 55 53 48 55 53 48 55 53 48 55 53 48 55 44 39 46 44 39 46 44 39 46 44 39 46 44 39 46 44 39 46 44 39 46 44 39 46 65 60 67 65 60 67 65 60 67 65 60 67 65 60 67 65 60 67 65 60 67 65 60 67 60 55 62 60 55 62 60 55 62 60 55 62 60 55 62 60 55 62 60 55 62 60 55 62 59 56 63 58 57 62 59 57 62 58 57 62 59 57 62 58 57 62 59 57 62 58 57 62 67 65 70 66 65 70 67 65 70 66 65 70 67 65 70 66 65 70 67 65 70 67 64 71 69 66 77 71 65 77 71 65 77 71 65 77 71 65 77 71 65 77 71 65 77 71 65 77 59 53 65 59 53 65 59 53 65 59 53 65 59 53 65 59 53 65 59 53 65 59 53 65 43 40 51 43 40 49 43 40 51 43 40 49 43 40 51 43 40 49 43 40 51 43 40 49 46 43 54 46 43 52 46 43 54 46 43 52 46 43 54 46 43 52 46 43 54 48 42 52 68 57 65 69 56 63 69 56 63 69 56 63 69 56 63 69 56 63 69 56 63 69 56 63 66 53 60 66 53 60 66 53 60 66 53 60 66 53 60 66 53 60 66 53 60 66 53 60 67 52 59 68 51 59 68 51 59 68 51 59 68 51 59 68 51 59 68 51 59 68 51 59 71 54 62 71 54 62 71 54 62 71 54 62 71 54 62 71 54 62 71 54 62 71 54 62 78 56 68 79 55 68 79 55 68 79 55 68 79 55 68 79 55 68 79 55 68 79 55 68 87 63 76 87 63 76 87 63 76 87 63 76 87 63 76 87 63 76 87 63 76 87 63 76 91 65 78 90 62 76 87 60 75 82 58 71 77 55 68 73 53 64 69 51 63 66 50 60 52 39 49 50 40 48 48 41 49 47 42 48 45 42 49 45 43 48 44 43 49 43 44 49 41 46 52 37 44 50 35 42 50 32 39 45 28 35 43 25 32 38 23 30 38 21 28 34 21 28 36 21 28 34
82 82 94 78 78 90 75 75 87 73 73 85 71 71 83 73 71 82 74 71 82 74 71 82 74 71 82 74 71 82 74 71 82 74 71 82 74 71 82 76 73 84 74 71 82 72 69 80 69 66 77 65 62 73 62 59 70 60 57 68 58 55 66 65 59 71 66 58 69 66 58 69 66 58 69 66 58 69 66 58 69 66 58 69 66 58 69 71 63 74 71 63 74 71 63 74 71 63 74 71 63 74 71 63 74 71 63 74 71 63 74 89 82 90 89 82 89 91 81 90 89 82 89 91 81 90 89 82 89 91 81 90 89 82 89 97 87 96 93 86 93 93 83 92 88 81 88 86 76 85 81 74 81 81 71 80 77 70 78 68 63 70 64 61 70 62 59 68 59 56 65 55 52 61 52 49 58 50 47 56 48 45 54 47 44 53 49 46 55 51 48 57 54 51 60 58 55 64 61 58 67 63 60 69 65 62 71 68 62 72 68 62 72 68 62 72 68 62 72 68 62 72 68 62 72 68 62 72 68 62 72 58 52 62 58 52 62 58 52 62 58 52 62 58 52 62 58 52 62 58 52 62 58 53 60 57 52 59 57 54 61 61 56 63 62 59 66 68 63 70 69 66 73 73 68 75 73 70 77 76 71 78 74 71 78 76 71 78 74 71 78 76 71 78 74 71 78 76 71 78 74 71 78 77 74 85 77 73 87 77 73 87 77 73 87 77 73 87 77 73 87 77 73 87 77 73 87 62 58 72 61 57 71 58 54 68 55 51 65 52 48 62 48 44 58 46 42 56 45 41 55 43 39 53 43 40 51 43 39 53 43 40 51 43 39 53 43 40 51 43 39 53 43 40 51 44 40 54 44 41 52 44 40 54 44 41 52 44 40 54 44 41 52 44 40 54 46 40 52 64 54 63 65 54 62 65 54 62 65 54 62 65 54 62 65 54 62 65 54 62 65 54 62 66 55 63 66 55 63 66 55 63 66 55 63 66 55 63 66 55 63 66 55 63 66 55 61 77 66 72 77 66 70 77 66 70 77 66 70 77 66 70 77 66 70 77 66 70 77 66 70 75 64 68 75 64 68 75 64 68 75 64 68 75 64 68 75 64 68 75 64 68 76 63 70 81 64 74 81 64 74 81 64 74 81 64 74 81 64 74 81 64 74 81 64 74 81 64 74 82 65 75 82 65 75 82 65 75 82 65 75 82 65 75 82 65 75 82 65 75 82 65 75 78 62 73 76 60 71 74 58 71 69 56 66 65 51 64 62 49 59 59 47 59 57 45 55 50 38 50 49 39 48 49 39 50 47 40 48 47 39 50 47 40 48 47 39 50 44 41 50 40 44 53 35 44 51 33 42 51 30 39 46 26 35 44 23 32 39 21 30 39 19 28 35 20 29 38 20 29 36
80 82 95 76 78 91 73 75 88 71 73 86 71 70 84 73 71 84 74 70 84 74 70 84 74 70 84 74 70 84 74 70 84 74 70 84 74 70 84 76 72 86 74 70 84 72 68 82 69 65 79 65 61 75 62 58 72 60 56 70 58 54 68 66 58 71 66 58 71 66 58 71 66 58 71 66 58 71 66 58 71 66 58 71 66 58 71 71 63 76 71 63 76 71 63 76 71 63 76 71 63 76 71 63 76 71 63 76 71 63 74 89 81 92 89 82 90 89 82 90 89 82 90 89 82 90 89 82 90 89 82 90 89 82 90 95 88 96 93 86 94 91 84 92 88 81 89 84 77 85 81 74 82 79 72 80 76 71 78 68 62 72 64 61 70 62 59 68 59 56 65 55 52 61 52 49 58 50 47 56 48 45 54 47 44 53 49 46 55 51 48 57 54 51 60 58 55 64 61 58 67 63 60 69 65 62 71 68 62 72 68 62 72 68 62 72 68 62 72 68 62 72 68 62 72 68 62 72 68 62 72 58 52 62 58 52 62 58 52 62 58 52 62 58 52 62 58 52 62 58 52 62 58 52 62 57 52 59 59 54 61 61 56 63 64 59 66 68 63 70 71 66 73 73 68 75 75 70 77 76 71 78 76 71 78 76 71 78 76 71 78 76 71 78 76 71 78 76 71 78 76 70 80 77 74 85 77 73 87 77 73 87 77 73 87 77 73 87 77 73 87 77 73 87 77 73 87 63 59 73 62 58 72 60 56 70 56 52 66 53 49 63 50 46 60 47 43 57 46 42 56 45 41 55 45 41 55 45 41 55 45 41 55 45 41 55 45 41 55 45 41 55 45 41 55 46 42 56 46 42 56 46 42 56 46 42 56 46 42 56 46 42 56 46 42 56 48 42 54 64 54 63 65 54 62 65 54 62 65 54 62 65 54 62 65 54 62 65 54 62 65 54 62 66 55 63 66 55 63 66 55 63 66 55 63 66 55 63 66 55 63 66 55 63 66 55 61 76 67 72 76 67 70 76 67 70 76 67 70 76 67 70 76 67 70 76 67 70 76 67 70 74 65 68 74 65 68 74 65 68 74 65 68 74 65 68 74 65 68 74 65 68 75 64 68 78 65 74 80 64 74 80 64 74 80 64 74 80 64 74 80 64 74 80 64 74 80 64 74 81 65 75 81 65 75 81 65 75 81 65 75 81 65 75 81 65 75 81 65 75 79 66 75 75 63 75 72 62 73 70 60 71 67 57 68 63 53 64 60 50 61 58 48 59 56 46 57 49 39 50 49 39 50 49 39 50 49 39 50 49 39 50 49 39 50 49 39 50 46 40 50 40 44 55 35 44 53 33 42 51 30 39 48 26 35 44 23 32 41 21 30 39 19 28 37 20 29 38 20 29 38
80 82 95 76 78 91 73 75 88 71 73 86 71 70 84 73 71 84 74 70 84 74 70 84 74 70 84 74 70 84 74 70 84 74 70 84 74 70 84 76 72 86 74 70 84 72 68 82 69 65 79 65 61 75 62 58 72 60 56 70 58 54 68 66 58 71 66 58 71 66 58 71 66 58 71 66 58 71 66 58 71 66 58 71 66 58 71 71 63 76 71 63 76 71 63 76 71 63 76 71 63 76 71 63 76 71 63 76 71 63 74 89 81 92 89 82 90 89 82 90 89 82 90 89 82 90 89 82 90 89 82 90 89 82 90 95 88 96 93 86 94 91 84 92 88 81 89 84 77 85 81 74 82 79 72 80 76 71 78 68 62 72 64 61 70 62 59 68 59 56 65 55 52 61 52 49 58 50 47 56 48 45 54 47 44 53 49 46 55 51 48 57 54 51 60 58 55 64 61 58 67 63 60 69 65 62 71 68 62 72 68 62 72 68 62 72 68 62 72 68 62 72 68 62 72 68 62 72 68 62 72 58 52 62 58 52 62 58 52 62 58 52 62 58 52 62 58 52 62 58 52 62 58 52 62 57 52 59 59 54 61 61 56 63 64 59 66 68 63 70 71 66 73 73 68 75 75 70 77 76 71 78 76 71 78 76 71 78 76 71 78 76 71 78 76 71 78 76 71 78 76 70 80 77 74 85 77 73 87 77 73 87 77 73 87 77 73 87 77 73 87 77 73 87 77 73 87 66 62 76 64 60 74 62 58 72 59 55 69 55 51 65 52 48 62 50 46 60 48 44 58 47 43 57 47 43 57 47 43 57 47 43 57 47 43 57 47 43 57 47 43 57 47 43 57 48 44 58 48 44 58 48 44 58 48 44 58 48 44 58 48 44 58 48 44 58 50 44 56 64 54 63 65 54 62 65 54 62 65 54 62 65 54 62 65 54 62 65 54 62 65 54 62 66 55 63 66 55 63 66 55 63 66 55 63 66 55 63 66 55 63 66 55 63 66 55 61 76 67 72 76 67 70 76 67 70 76 67 70 76 67 70 76 67 70 76 67 70 76 67 70 74 65 68 74 65 68 74 65 68 74 65 68 74 65 68 74 65 68 74 65 68 75 64 68 78 65 74 80 64 74 80 64 74 80 64 74 80 64 74 80 64 74 80 64 74 80 64 74 81 65 75 81 65 75 81 65 75 81 65 75 81 65 75 81 65 75 81 65 75 79 66 75 75 63 75 72 62 73 70 60 71 67 57 68 63 53 64 60 50 61 58 48 59 56 46 57 49 39 50 49 39 50 49 39 50 49 39 50 49 39 50 49 39 50 49 39 50 46 40 50 40 44 55 35 44 53 33 42 51 30 39 48 26 35 44 23 32 41 21 30 39 19 28 37 20 29 38 20 29 38
80 82 95 76 78 91 73 75 88 71 73 86 71 70 84 73 71 84 74 70 84 74 70 84 74 70 84 74 70 84 74 70 84 74 70 84 74 70 84 76 72 86 74 70 84 72 68 82 69 65 79 65 61 75 62 58 72 60 56 70 58 54 68 66 58 71 66 58 71 66 58 71 66 58 71 66 58 71 66 58 71 66 58 71 66 58 71 71 63 76 71 63 76 71 63 76 71 63 76 71 63 76 71 63 76 71 63 76 71 63 74 89 81 92 89 82 90 89 82 90 89 82 90 89 82 90 89 82 90 89 82 90 89 82 90 95 88 96 93 86 94 91 84 92 88 81 89 84 77 85 81 74 82 79 72 80 76 71 78 68 62 72 64 61 70 62 59 68 59 56 65 55 52 61 52 49 58 50 47 56 48 45 54 47 44 53 49 46 55 51 48 57 54 51 60 58 55 64 61 58 67 63 60 69 65 62 71 68 62 72 68 62 72 68 62 72 68 62 72 68 62 72 68 62 72 68 62 72 68 62 72 58 52 62 58 52 62 58 52 62 58 52 62 58 52 62 58 52 62 58 52 62 58 52 62 57 52 59 59 54 61 61 56 63 64 59 66 68 63 70 71 66 73 73 68 75 75 70 77 76 71 78 76 71 78 76 71 78 76 71 78 76 71 78 76 71 78 76 71 78 76 70 80 77 74 85 77 73 87 77 73 87 77 73 87 77 73 87 77 73 87 77 73 87 77 73 87 69 65 79 68 64 78 65 61 75 62 58 72 59 55 69 55 51 65 53 49 63 52 48 62 50 46 60 50 46 60 50 46 60 50 46 60 50 46 60 50 46 60 50 46 60 50 46 60 51 47 61 51 47 61 51 47 61 51 47 61 51 47 61 51 47 61 51 47 61 53 47 59 64 54 63 65 54 62 65 54 62 65 54 62 65 54 62 65 54 62 65 54 62 65 54 62 66 55 63 66 55 63 66 55 63 66 55 63 66 55 63 66 55 63 66 55 63 66 55 61 76 67 72 76 67 70 76 67 70 76 67 70 76 67 70 76 67 70 76 67 70 76 67 70 74 65 68 74 65 68 74 65 68 74 65 68 74 65 68 74 65 68 74 65 68 75 64 68 78 65 74 80 64 74 80 64 74 80 64 74 80 64 74 80 64 74 80 64 74 80 64 74 81 65 75 81 65 75 81 65 75 81 65 75 81 65 75 81 65 75 81 65 75 79 66 75 75 63 75 72 62 73 70 60 71 67 57 68 63 53 64 60 50 61 58 48 59 56 46 57 49 39 50 49 39 50 49 39 50 49 39 50 49 39 50 49 39 50 49 39 50 46 40 50 40 44 55 35 44 53 33 42 51 30 39 48 26 35 44 23 32 41 21 30 39 19 28 37 20 29 38 20 29 38
80 82 95 76 78 91 73 75 88 71 73 86 71 70 84 73 71 84 74 70 84 74 70 84 74 70 84 74 70 84 74 70 84 74 70 84 74 70 84 76 72 86 74 70 84 72 68 82 69 65 79 65 61 75 62 58 72 60 56 70 58 54 68 66 58 71 66 58 71 66 58 71 66 58 71 66 58 71 66 58 71 66 58 71 66 58 71 71 63 76 71 63 76 71 63 76 71 63 76 71 63 76 71 63 76 71 63 76 71 63 74 89 81 92 89 82 90 89 82 90 89 82 90 89 82 90 89 82 90 89 82 90 89 82 90 95 88 96 93 86 94 91 84 92 88 81 89 84 77 85 81 74 82 79 72 80 76 71 78 68 62 72 64 61 70 62 59 68 59 56 65 55 52 61 52 49 58 50 47 56 48 45 54 47 44 53 49 46 55 51 48 57 54 51 60 58 55 64 61 58 67 63 60 69 65 62 71 68 62 72 68 62 72 68 62 72 68 62 72 68 62 72 68 62 72 68 62 72 68 62 72 58 52 62 58 52 62 58 52 62 58 52 62 58 52 62 58 52 62 58 52 62 58 52 62 57 52 59 59 54 61 61 56 63 64 59 66 68 63 70 71 66 73 73 68 75 75 70 77 76 71 78 76 71 78 76 71 78 76 71 78 76 71 78 76 71 78 76 71 78 76 70 80 77 74 85 77 73 87 77 73 87 77 73 87 77 73 87 77 73 87 77 73 87 77 73 87 72 68 82 71 67 81 69 65 79 65 61 75 62 58 72 59 55 69 56 52 66 55 51 65 54 50 64 54 50 64 54 50 64 54 50 64 54 50 64 54 50 64 54 50 64 54 50 64 55 51 65 55 51 65 55 51 65 55 51 65 55 51 65 55 51 65 55 51 65 57 51 63 64 54 63 65 54 62 65 54 62 65 54 62 65 54 62 65 54 62 65 54 62 65 54 62 66 55 63 66 55 63 66 55 63 66 55 63 66 55 63 66 55 63 66 55 63 66 55 61 76 67 72 76 67 70 76 67 70 76 67 70 76 67 70 76 67 70 76 67 70 76 67 70 74 65 68 74 65 68 74 65 68 74 65 68 74 65 68 74 65 68 74 65 68 75 64 68 78 65 74 80 64 74 80 64 74 80 64 74 80 64 74 80 64 74 80 64 74 80 64 74 81 65 75 81 65 75 81 65 75 81 65 75 81 65 75 81 65 75 81 65 75 79 66 75 75 63 75 72 62 73 70 60 71 67 57 68 63 53 64 60 50 61 58 48 59 56 46 57 49 39 50 49 39 50 49 39 50 49 39 50 49 39 50 49 39 50 49 39 50 46 40 50 40 44 55 35 44 53 33 42 51 30 39 48 26 35 44 23 32 41 21 30 39 19 28 37 20 29 38 20 29 38
80 82 95 76 78 91 73 75 88 71 73 86 71 70 84 73 71 84 74 70 84 74 70 84 74 70 84 74 70 84 74 70 84 74 70 84 74 70 84 76 72 86 74 70 84 72 68 82 69 65 79 65 61 75 62 58 72 60 56 70 58 54 68 66 58 71 66 58 71 66 58 71 66 58 71 66 58 71 66 58 71 66 58 71 66 58 71 71 63 76 71 63 76 71 63 76 71 63 76 71 63 76 71 63 76 71 63 76 71 63 74 89 81 92 89 82 90 89 82 90 89 82 90 89 82 90 89 82 90 89 82 90 89 82 90 95 88 96 93 86 94 91 84 92 88 81 89 84 77 85 81 74 82 79 72 80 76 71 78 68 62 72 64 61 70 62 59 68 59 56 65 55 52 61 52 49 58 50 47 56 48 45 54 47 44 53 49 46 55 51 48 57 54 51 60 58 55 64 61 58 67 63 60 69 65 62 71 68 62 72 68 62 72 68 62 72 68 62 72 68 62 72 68 62 72 68 62 72 68 62 72 58 52 62 58 52 62 58 52 62 58 52 62 58 52 62 58 52 62 58 52 62 58 52 62 57 52 59 59 54 61 61 56 63 64 59 66 68 63 70 71 66 73 73 68 75 75 70 77 76 71 78 76 71 78 76 71 78 76 71 78 76 71 78 76 71 78 76 71 78 76 70 80 77 74 85 77 73 87 77 73 87 77 73 87 77 73 87 77 73 87 77 73 87 77 73 87 76 72 86 74 70 84 72 68 82 69 65 79 65 61 75 62 58 72 60 56 70 58 54 68 57 53 67 57 53 67 57 53 67 57 53 67 57 53 67 57 53 67 57 53 67 57 53 67 58 54 68 58 54 68 58 54 68 58 54 68 58 54 68 58 54 68 58 54 68 60 54 66 64 54 63 65 54 62 65 54 62 65 54 62 65 54 62 65 54 62 65 54 62 65 54 62 66 55 63 66 55 63 66 55 63 66 55 63 66 55 63 66 55 63 66 55 63 66 55 61 76 67 72 76 67 70 76 67 70 76 67 70 76 67 70 76 67 70 76 67 70 76 67 70 74 65 68 74 65 68 74 65 68 74 65 68 74 65 68 74 65 68 74 65 68 75 64 68 78 65 74 80 64 74 80 64 74 80 64 74 80 64 74 80 64 74 80 64 74 80 64 74 81 65 75 81 65 75 81 65 75 81 65 75 81 65 75 81 65 75 81 65 75 79 66 75 75 63 75 72 62 73 70 60 71 67 57 68 63 53 64 60 50 61 58 48 59 56 46 57 49 39 50 49 39 50 49 39 50 49 39 50 49 39 50 49 39 50 49 39 50 46 40 50 40 44 55 35 44 53 33 42 51 30 39 48 26 35 44 23 32 41 21 30 39 19 28 37 20 29 38 20 29 38
80 82 95 76 78 91 73 75 88 71 73 86 71 70 84 73 71 84 74 70 84 74 70 84 74 70 84 74 70 84 74 70 84 74 70 84 74 70 84 76 72 86 74 70 84 72 68 82 69 65 79 65 61 75 62 58 72 60 56 70 58 54 68 66 58 71 66 58 71 66 58 71 66 58 71 66 58 71 66 58 71 66 58 71 66 58 71 71 63 76 71 63 76 71 63 76 71 63 76 71 63 76 71 63 76 71 63 76 71 63 74 89 81 92 89 82 90 89 82 90 89 82 90 89 82 90 89 82 90 89 82 90 89 82 90 95 88 96 93 86 94 91 84 92 88 81 89 84 77 85 81 74 82 79 72 80 76 71 78 68 62 72 64 61 70 62 59 68 59 56 65 55 52 61 52 49 58 50 47 56 48 45 54 47 44 53 49 46 55 51 48 57 54 51 60 58 55 64 61 58 67 63 60 69 65 62 71 68 62 72 68 62 72 68 62 72 68 62 72 68 62 72 68 62 72 68 62 72 68 62 72 58 52 62 58 52 62 58 52 62 58 52 62 58 52 62 58 52 62 58 52 62 58 52 62 57 52 59 59 54 61 61 56 63 64 59 66 68 63 70 71 66 73 73 68 75 75 70 77 76 71 78 76 71 78 76 71 78 76 71 78 76 71 78 76 71 78 76 71 78 76 70 80 77 74 85 77 73 87 77 73 87 77 73 87 77 73 87 77 73 87 77 73 87 77 73 87 78 74 88 77 73 87 74 70 84 71 67 81 68 64 78 64 60 74 62 58 72 61 57 71 59 55 69 59 55 69 59 55 69 59 55 69 59 55 69 59 55 69 59 55 69 59 55 69 60 56 70 60 56 70 60 56 70 60 56 70 60 56 70 60 56 70 60 56 70 62 56 68 64 54 63 65 54 62 65 54 62 65 54 62 65 54 62 65 54 62 65 54 62 65 54 62 66 55 63 66 55 63 66 55 63 66 55 63 66 55 63 66 55 63 66 55 63 66 55 61 76 67 72 76 67 70 76 67 70 76 67 70 76 67 70 76 67 70 76 67 70 76 67 70 74 65 68 74 65 68 74 65 68 74 65 68 74 65 68 74 65 68 74 65 68 75 64 68 78 65 74 80 64 74 80 64 74 80 64 74 80 64 74 80 64 74 80 64 74 80 64 74 81 65 75 81 65 75 81 65 75 81 65 75 81 65 75 81 65 75 81 65 75 79 66 75 75 63 75 72 62 73 70 60 71 67 57 68 63 53 64 60 50 61 58 48 59 56 46 57 49 39 50 49 39 50 49 39 50 49 39 50 49 39 50 49 39 50 49 39 50 46 40 50 40 44 55 35 44 53 33 42 51 30 39 48 26 35 44 23 32 41 21 30 39 19 28 37 20 29 38 20 29 38
80 82 95 76 78 91 73 75 88 71 73 86 71 70 84 73 71 84 74 70 84 74 70 84 74 70 84 74 70 84 74 70 84 74 70 84 74 70 84 76 72 86 74 70 84 72 68 82 69 65 79 65 61 75 62 58 72 60 56 70 58 54 68 66 58 71 66 58 71 66 58 71 66 58 71 66 58 71 66 58 71 66 58 71 66 58 71 71 63 76 71 63 76 71 63 76 71 63 76 71 63 76 71 63 76 71 63 76 71 63 74 89 81 92 89 82 90 89 82 90 89 82 90 89 82 90 89 82 90 89 82 90 89 82 90 95 88 96 93 86 94 91 84 92 88 81 89 84 77 85 81 74 82 79 72 80 76 71 78 68 62 72 64 61 70 62 59 68 59 56 65 55 52 61 52 49 58 50 47 56 48 45 54 47 44 53 49 46 55 51 48 57 54 51 60 58 55 64 61 58 67 63 60 69 65 62 71 68 62 72 68 62 72 68 62 72 68 62 72 68 62 72 68 62 72 68 62 72 68 62 72 58 52 62 58 52 62 58 52 62 58 52 62 58 52 62 58 52 62 58 52 62 58 52 62 57 52 59 59 54 61 61 56 63 64 59 66 68 63 70 71 66 73 73 68 75 75 70 77 76 71 78 76 71 78 76 71 78 76 71 78 76 71 78 76 71 78 76 71 78 76 70 80 77 74 85 77 73 87 77 73 87 77 73 87 77 73 87 77 73 87 77 73 87 77 73 87 79 75 89 78 74 88 76 72 86 72 68 82 69 65 79 66 62 76 63 59 73 62 58 72 61 57 71 61 57 71 61 57 71 61 57 71 61 57 71 61 57 71 61 57 71 61 57 71 62 58 72 62 58 72 62 58 72 62 58 72 62 58 72 62 58 72 62 58 72 64 58 70 64 54 63 65 54 62 65 54 62 65 54 62 65 54 62 65 54 62 65 54 62 65 54 62 66 55 63 66 55 63 66 55 63 66 55 63 66 55 63 66 55 63 66 55 63 66 55 61 76 67 72 76 67 70 76 67 70 76 67 70 76 67 70 76 67 70 76 67 70 76 67 70 74 65 68 74 65 68 74 65 68 74 65 68 74 65 68 74 65 68 74 65 68 75 64 68 78 65 74 80 64 74 80 64 74 80 64 74 80 64 74 80 64 74 80 64 74 80 64 74 81 65 75 81 65 75 81 65 75 81 65 75 81 65 75 81 65 75 81 65 75 79 66 75 75 63 75 72 62 73 70 60 71 67 57 68 63 53 64 60 50 61 58 48 59 56 46 57 49 39 50 49 39 50 49 39 50 49 39 50 49 39 50 49 39 50 49 39 50 46 40 50 40 44 55 35 44 53 33 42 51 30 39 48 26 35 44 23 32 41 21 30 39 19 28 37 20 29 38 20 29 38
70 72 85 70 72 85 70 72 85 70 72 85 72 71 85 68 66 79 69 65 79 69 65 79 69 65 79 69 65 79 69 65 79 69 65 79 69 65 79 69 65 79 69 65 79 69 65 79 69 65 79 69 65 79 69 65 79 69 65 79 69 65 79 69 61 74 69 61 74 69 61 74 69 61 74 69 61 74 69 61 74 69 61 74 69 61 74 71 63 76 71 63 76 71 63 76 71 63 76 71 63 76 71 63 76 71 63 76 71 63 74 82 74 85 82 75 83 82 75 83 82 75 83 82 75 83 82 75 83 82 75 83 82 75 83 90 83 91 90 83 91 90 83 91 90 83 91 90 83 91 90 83 91 90 83 91 89 84 91 76 70 80 72 69 78 70 67 76 67 64 73 63 60 69 60 57 66 58 55 64 56 53 62 65 62 71 65 62 71 65 62 71 65 62 71 65 62 71 65 62 71 65 62 71 65 62 71 62 56 66 62 56 66 62 56 66 62 56 66 62 56 66 62 56 66 62 56 66 62 56 66 57 51 61 57 51 61 57 51 61 57 51 61 57 51 61 57 51 61 57 51 61 57 51 61 62 57 64 62 57 64 62 57 64 62 57 64 62 57 64 62 57 64 62 57 64 62 57 64 80 75 82 80 75 82 80 75 82 80 75 82 80 75 82 80 75 82 80 75 82 80 74 84 82 79 90 82 78 92 82 78 92 82 78 92 82 78 92 82 78 92 82 78 92 82 78 92 72 68 82 72 68 82 72 68 82 72 68 82 72 68 82 72 68 82 72 68 82 72 68 82 71 67 81 71 67 81 71 67 81 71 67 81 71 67 81 71 67 81 71 67 81 71 67 81 70 66 80 70 66 80 70 66 80 70 66 80 70 66 80 70 66 80 70 66 80 72 66 78 72 62 71 73 62 70 73 62 70 73 62 70 73 62 70 73 62 70 73 62 70 73 62 70 63 52 60 65 54 62 67 56 64 70 59 67 74 63 71 77 66 74 79 68 76 81 70 76 78 69 74 78 69 72 78 69 72 78 69 72 78 69 72 78 69 72 78 69 72 78 69 72 83 74 77 83 74 77 83 74 77 83 74 77 83 74 77 83 74 77 83 74 77 84 73 77 81 68 77 83 67 77 83 67 77 83 67 77 83 67 77 83 67 77 83 67 77 83 67 77 75 59 69 75 59 69 75 59 69 75 59 69 75 59 69 75 59 69 75 59 69 73 60 69 70 58 70 67 57 68 65 55 66 62 52 63 58 48 59 55 45 56 53 43 54 51 41 52 50 40 51 50 40 51 50 40 51 50 40 51 50 40 51 50 40 51 50 40 51 47 41 51 38 42 53 33 42 51 31 40 49 28 37 46 24 33 42 21 30 39 19 28 37 17 26 35 20 29 38 20 29 38
68 70 83 68 70 83 68 70 83 68 70 83 70 69 83 68 66 79 69 65 79 69 65 79 69 65 79 69 65 79 69 65 79 69 65 79 69 65 79 69 65 79 69 65 79 69 65 79 69 65 79 69 65 79 69 65 79 69 65 79 69 65 79 69 61 74 69 61 74 69 61 74 69 61 74 69 61 74 69 61 74 69 61 74 69 61 74 71 63 76 71 63 76 71 63 76 71 63 76 71 63 76 71 63 76 71 63 76 71 63 74 82 74 85 82 75 83 82 75 83 82 75 83 82 75 83 82 75 83 82 75 83 82 75 83 88 81 89 88 81 89 88 81 89 88 81 89 88 81 89 88 81 89 88 81 89 87 82 89 76 70 80 72 69 78 70 67 76 67 64 73 63 60 69 60 57 66 58 55 64 56 53 62 65 62 71 65 62 71 65 62 71 65 62 71 65 62 71 65 62 71 65 62 71 65 62 71 62 56 66 62 56 66 62 56 66 62 56 66 62 56 66 62 56 66 62 56 66 62 56 66 57 51 61 57 51 61 57 51 61 57 51 61 57 51 61 57 51 61 57 51 61 57 51 61 62 57 64 62 57 64 62 57 64 62 57 64 62 57 64 62 57 64 62 57 64 62 57 64 78 73 80 78 73 80 78 73 80 78 73 80 78 73 80 78 73 80 78 73 80 78 72 82 80 77 88 80 76 90 80 76 90 80 76 90 80 76 90 80 76 90 80 76 90 80 76 90 72 68 82 72 68 82 72 68 82 72 68 82 72 68 82 72 68 82 72 68 82 72 68 82 71 67 81 71 67 81 71 67 81 71 67 81 71 67 81 71 67 81 71 67 81 71 67 81 70 66 80 70 66 80 70 66 80 70 66 80 70 66 80 70 66 80 70 66 80 72 66 78 72 62 71 73 62 70 73 62 70 73 62 70 73 62 70 73 62 70 73 62 70 73 62 70 63 52 60 65 54 62 67 56 64 70 59 67 74 63 71 77 66 74 79 68 76 81 70 76 78 69 74 78 69 72 78 69 72 78 69 72 78 69 72 78 69 72 78 69 72 78 69 72 83 74 77 83 74 77 83 74 77 83 74 77 83 74 77 83 74 77 83 74 77 84 73 77 81 68 77 83 67 77 83 67 77 83 67 77 83 67 77 83 67 77 83 67 77 83 67 77 75 59 69 75 59 69 75 59 69 75 59 69 75 59 69 75 59 69 75 59 69 73 60 69 70 58 70 67 57 68 65 55 66 62 52 63 58 48 59 55 45 56 53 43 54 51 41 52 50 40 51 50 40 51 50 40 51 50 40 51 50 40 51 50 40 51 50 40 51 47 41 51 38 42 53 33 42 51 31 40 49 28 37 46 24 33 42 21 30 39 19 28 37 17 26 35 20 29 38 20 29 38
66 68 81 66 68 81 66 68 81 66 68 81 68 67 81 68 66 79 69 65 79 69 65 79 69 65 79 69 65 79 69 65 79 69 65 79 69 65 79 69 65 79 69 65 79 69 65 79 69 65 79 69 65 79 69 65 79 69 65 79 69 65 79 69 61 74 69 61 74 69 61 74 69 61 74 69 61 74 69 61 74 69 61 74 69 61 74 71 63 76 71 63 76 71 63 76 71 63 76 71 63 76 71 63 76 71 63 76 71 63 74 82 74 85 82 75 83 82 75 83 82 75 83 82 75 83 82 75 83 82 75 83 82 75 83 86 79 87 86 79 87 86 79 87 86 79 87 86 79 87 86 79 87 86 79 87 85 80 87 76 70 80 72 69 78 70 67 76 67 64 73 63 60 69 60 57 66 58 55 64 56 53 62 65 62 71 65 62 71 65 62 71 65 62 71 65 62 71 65 62 71 65 62 71 65 62 71 62 56 66 62 56 66 62 56 66 62 56 66 62 56 66 62 56 66 62 56 66 62 56 66 57 51 61 57 51 61 57 51 61 57 51 61 57 51 61 57 51 61 57 51 61 57 51 61 62 57 64 62 57 64 62 57 64 62 57 64 62 57 64 62 57 64 62 57 64 62 57 64 76 71 78 76 71 78 76 71 78 76 71 78 76 71 78 76 71 78 76 71 78 76 70 80 78 75 86 78 74 88 78 74 88 78 74 88 78 74 88 78 74 88 78 74 88 78 74 88 72 68 82 72 68 82 72 68 82 72 68 82 72 68 82 72 68 82 72 68 82 72 68 82 71 67 81 71 67 81 71 67 81 71 67 81 71 67 81 71 67 81 71 67 81 71 67 81 70 66 80 70 66 80 70 66 80 70 66 80 70 66 80 70 66 80 70 66 80 72 66 78 72 62 71 73 62 70 73 62 70 73 62 70 73 62 70 73 62 70 73 62 70 73 62 70 63 52 60 65 54 62 67 56 64 70 59 67 74 63 71 77 66 74 79 68 76 81 70 76 78 69 74 78 69 72 78 69 72 78 69 72 78 69 72 78 69 72 78 69 72 78 69 72 83 74 77 83 74 77 83 74 77 83 74 77 83 74 77 83 74 77 83 74 77 84 73 77 81 68 77 83 67 77 83 67 77 83 67 77 83 67 77 83 67 77 83 67 77 83 67 77 75 59 69 75 59 69 75 59 69 75 59 69 75 59 69 75 59 69 75 59 69 73 60 69 70 58 70 67 57 68 65 55 66 62 52 63 58 48 59 55 45 56 53 43 54 51 41 52 50 40 51 50 40 51 50 40 51 50 40 51 50 40 51 50 40 51 50 40 51 47 41 51 38 42 53 33 42 51 31 40 49 28 37 46 24 33 42 21 30 39 19 28 37 17 26 35 20 29 38 20 29 38
63 65 78 63 65 78 63 65 78 63 65 78 65 64 78 68 66 79 69 65 79 69 65 79 69 65 79 69 65 79 69 65 79 69 65 79 69 65 79 69 65 79 69 65 79 69 65 79 69 65 79 69 65 79 69 65 79 69 65 79 69 65 79 69 61 74 69 61 74 69 61 74 69 61 74 69 61 74 69 61 74 69 61 74 69 61 74 71 63 76 71 63 76 71 63 76 71 63 76 71 63 76 71 63 76 71 63 76 71 63 74 82 74 85 82 75 83 82 75 83 82 75 83 82 75 83 82 75 83 82 75 83 82 75 83 83 76 84 83 76 84 83 76 84 83 76 84 83 76 84 83 76 84 83 76 84 82 77 84 76 70 80 72 69 78 70 67 76 67 64 73 63 60 69 60 57 66 58 55 64 56 53 62 65 62 71 65 62 71 65 62 71 65 62 71 65 62 71 65 62 71 65 62 71 65 62 71 62 56 66 62 56 66 62 56 66 62 56 66 62 56 66 62 56 66 62 56 66 62 56 66 57 51 61 57 51 61 57 51 61 57 51 61 57 51 61 57 51 61 57 51 61 57 51 61 62 57 64 62 57 64 62 57 64 62 57 64 62 57 64 62 57 64 62 57 64 62 57 64 73 68 75 73 68 75 73 68 75 73 68 75 73 68 75 73 68 75 73 68 75 73 67 77 75 72 83 75 71 85 75 71 85 75 71 85 75 71 85 75 71 85 75 71 85 75 71 85 72 68 82 72 68 82 72 68 82 72 68 82 72 68 82 72 68 82 72 68 82 72 68 82 71 67 81 71 67 81 71 67 81 71 67 81 71 67 81 71 67 81 71 67 81 71 67 81 70 66 80 70 66 80 70 66 80 70 66 80 70 66 80 70 66 80 70 66 80 72 66 78 72 62 71 73 62 70 73 62 70 73 62 70 73 62 70 73 62 70 73 62 70 73 62 70 63 52 60 65 54 62 67 56 64 70 59 67 74 63 71 77 66 74 79 68 76 81 70 76 78 69 74 78 69 72 78 69 72 78 69 72 78 69 72 78 69 72 78 69 72 78 69 72 83 74 77 83 74 77 83 74 77 83 74 77 83 74 77 83 74 77 83 74 77 84 73 77 81 68 77 83 67 77 83 67 77 83 67 77 83 67 77 83 67 77 83 67 77 83 67 77 75 59 69 75 59 69 75 59 69 75 59 69 75 59 69 75 59 69 75 59 69 73 60 69 70 58 70 67 57 68 65 55 66 62 52 63 58 48 59 55 45 56 53 43 54 51 41 52 50 40 51 50 40 51 50 40 51 50 40 51 50 40 51 50 40 51 50 40 51 47 41 51 38 42 53 33 42 51 31 40 49 28 37 46 24 33 42 21 30 39 19 28 37 17 26 35 20 29 38 20 29 38
59 61 74 59 61 74 59 61 74 59 61 74 61 60 74 68 66 79 69 65 79 69 65 79 69 65 79 69 65 79 69 65 79 69 65 79 69 65 79 69 65 79 69 65 79 69 65 79 69 65 79 69 65 79 69 65 79 69 65 79 69 65 79 69 61 74 69 61 74 69 61 74 69 61 74 69 61 74 69 61 74 69 61 74 69 61 74 71 63 76 71 63 76 71 63 76 71 63 76 71 63 76 71 63 76 71 63 76 71 63 74 82 74 85 82 75 83 82 75 83 82 75 83 82 75 83 82 75 83 82 75 83 82 75 83 79 72 80 79 72 80 79 72 80 79 72 80 79 72 80 79 72 80 79 72 80 78 73 80 76 70 80 72 69 78 70 67 76 67 64 73 63 60 69 60 57 66 58 55 64 56 53 62 65 62 71 65 62 71 65 62 71 65 62 71 65 62 71 65 62 71 65 62 71 65 62 71 62 56 66 62 56 66 62 56 66 62 56 66 62 56 66 62 56 66 62 56 66 62 56 66 57 51 61 57 51 61 57 51 61 57 51 61 57 51 61 57 51 61 57 51 61 57 51 61 62 57 64 62 57 64 62 57 64 62 57 64 62 57 64 62 57 64 62 57 64 62 57 64 69 64 71 69 64 71 69 64 71 69 64 71 69 64 71 69 64 71 69 64 71 69 63 73 71 68 79 71 67 81 71 67 81 71 67 81 71 67 81 71 67 81 71 67 81 71 67 81 72 68 82 72 68 82 72 68 82 72 68 82 72 68 82 72 68 82 72 68 82 72 68 82 71 67 81 71 67 81 71 67 81 71 67 81 71 67 81 71 67 81 71 67 81 71 67 81 70 66 80 70 66 80 70 66 80 70 66 80 70 66 80 70 66 80 70 66 80 72 66 78 72 62 71 73 62 70 73 62 70 73 62 70 73 62 70 73 62 70 73 62 70 73 62 70 63 52 60 65 54 62 67 56 64 70 59 67 74 63 71 77 66 74 79 68 76 81 70 76 78 69 74 78 69 72 78 69 72 78 69 72 78 69 72 78 69 72 78 69 72 78 69 72 83 74 77 83 74 77 83 74 77 83 74 77 83 74 77 83 74 77 83 74 77 84 73 77 81 68 77 83 67 77 83 67 77 83 67 77 83 67 77 83 67 77 83 67 77 83 67 77 75 59 69 75 59 69 75 59 69 75 59 69 75 59 69 75 59 69 75 59 69 73 60 69 70 58 70 67 57 68 65 55 66 62 52 63 58 48 59 55 45 56 53 43 54 51 41 52 50 40 51 50 40 51 50 40 51 50 40 51 50 40 51 50 40 51 50 40 51 47 41 51 38 42 53 33 42 51 31 40 49 28 37 46 24 33 42 21 30 39 19 28 37 17 26 35 20 29 38 20 29 38
56 58 71 56 58 71 56 58 71 56 58 71 58 57 71 68 66 79 69 65 79 69 65 79 69 65 79 69 65 79 69 65 79 69 65 79 69 65 79 69 65 79 69 65 79 69 65 79 69 65 79 69 65 79 69 65 79 69 65 79 69 65 79 69 61 74 69 61 74 69 61 74 69 61 74 69 61 74 69 61 74 69 61 74 69 61 74 71 63 76 71 63 76 71 63 76 71 63 76 71 63 76 71 63 76 71 63 76 71 63 74 82 74 85 82 75 83 82 75 83 82 75 83 82 75 83 82 75 83 82 75 83 82 75 83 76 69 77 76 69 77 76 69 77 76 69 77 76 69 77 76 69 77 76 69 77 75 70 77 76 70 80 72 69 78 70 67 76 67 64 73 63 60 69 60 57 66 58 55 64 56 53 62 65 62 71 65 62 71 65 62 71 65 62 71 65 62 71 65 62 71 65 62 71 65 62 71 62 56 66 62 56 66 62 56 66 62 56 66 62 56 66 62 56 66 62 56 66 62 56 66 57 51 61 57 51 61 57 51 61 57 51 61 57 51 61 57 51 61 57 51 61 57 51 61 62 57 64 62 57 64 62 57 64 62 57 64 62 57 64 62 57 64 62 57 64 62 57 64 66 61 68 66 61 68 66 61 68 66 61 68 66 61 68 66 61 68 66 61 68 66 60 70 68 65 76 68 64 78 68 64 78 68 64 78 68 64 78 68 64 78 68 64 78 68 64 78 72 68 82 72 68 82 72 68 82 72 68 82 72 68 82 72 68 82 72 68 82 72 68 82 71 67 81 71 67 81 71 67 81 71 67 81 71 67 81 71 67 81 71 67 81 71 67 81 70 66 80 70 66 80 70 66 80 70 66 80 70 66 80 70 66 80 70 66 80 72 66 78 72 62 71 73 62 70 73 62 70 73 62 70 73 62 70 73 62 70 73 62 70 73 62 70 63 52 60 65 54 62 67 56 64 70 59 67 74 63 71 77 66 74 79 68 76 81 70 76 78 69 74 78 69 72 78 69 72 78 69 72 78 69 72 78 69 72 78 69 72 78 69 72 83 74 77 83 74 77 83 74 77 83 74 77 83 74 77 83 74 77 83 74 77 84 73 77 81 68 77 83 67 77 83 67 77 83 67 77 83 67 77 83 67 77 83 67 77 83 67 77 75 59 69 75 59 69 75 59 69 75 59 69 75 59 69 75 59 69 75 59 69 73 60 69 70 58 70 67 57 68 65 55 66 62 52 63 58 48 59 55 45 56 53 43 54 51 41 52 50 40 51 50 40 51 50 40 51 50 40 51 50 40 51 50 40 51 50 40 51 47 41 51 38 42 53 33 42 51 31 40 49 28 37 46 24 33 42 21 30 39 19 28 37 17 26 35 20 29 38 20 29 38
54 56 69 54 56 69 54 56 69 54 56 69 56 55 69 68 66 79 69 65 79 69 65 79 69 65 79 69 65 79 69 65 79 69 65 79 69 65 79 69 65 79 69 65 79 69 65 79 69 65 79 69 65 79 69 65 79 69 65 79 69 65 79 69 61 74 69 61 74 69 61 74 69 61 74 69 61 74 69 61 74 69 61 74 69 61 74 71 63 76 71 63 76 71 63 76 71 63 76 71 63 76 71 63 76 71 63 76 71 63 74 82 74 85 82 75 83 82 75 83 82 75 83 82 75 83 82 75 83 82 75 83 82 75 83 74 67 75 74 67 75 74 67 75 74 67 75 74 67 75 74 67 75 74 67 75 73 68 75 76 70 80 72 69 78 70 67 76 67 64 73 63 60 69 60 57 66 58 55 64 56 53 62 65 62 71 65 62 71 65 62 71 65 62 71 65 62 71 65 62 71 65 62 71 65 62 71 62 56 66 62 56 66 62 56 66 62 56 66 62 56 66 62 56 66 62 56 66 62 56 66 57 51 61 57 51 61 57 51 61 57 51 61 57 51 61 57 51 61 57 51 61 57 51 61 62 57 64 62 57 64 62 57 64 62 57 64 62 57 64 62 57 64 62 57 64 62 57 64 64 59 66 64 59 66 64 59 66 64 59 66 64 59 66 64 59 66 64 59 66 64 58 68 66 63 74 66 62 76 66 62 76 66 62 76 66 62 76 66 62 76 66 62 76 66 62 76 72 68 82 72 68 82 72 68 82 72 68 82 72 68 82 72 68 82 72 68 82 72 68 82 71 67 81 71 67 81 71 67 81 71 67 81 71 67 81 71 67 81 71 67 81 71 67 81 70 66 80 70 66 80 70 66 80 70 66 80 70 66 80 70 66 80 70 66 80 72 66 78 72 62 71 73 62 70 73 62 70 73 62 70 73 62 70 73 62 70 73 62 70 73 62 70 63 52 60 65 54 62 67 56 64 70 59 67 74 63 71 77 66 74 79 68 76 81 70 76 78 69 74 78 69 72 78 69 72 78 69 72 78 69 72 78 69 72 78 69 72 78 69 72 83 74 77 83 74 77 83 74 77 83 74 77 83 74 77 83 74 77 83 74 77 84 73 77 81 68 77 83 67 77 83 67 77 83 67 77 83 67 77 83 67 77 83 67 77 83 67 77 75 59 69 75 59 69 75 59 69 75 59 69 75 59 69 75 59 69 75 59 69 73 60 69 70 58 70 67 57 68 65 55 66 62 52 63 58 48 59 55 45 56 53 43 54 51 41 52 50 40 51 50 40 51 50 40 51 50 40 51 50 40 51 50 40 51 50 40 51 47 41 51 38 42 53 33 42 51 31 40 49 28 37 46 24 33 42 21 30 39 19 28 37 17 26 35 20 29 38 20 29 38
49 55 71 51 54 73 49 55 71 51 54 73 51 54 71 67 66 84 67 66 82 67 66 84 67 66 82 67 66 84 67 66 82 67 66 84 67 66 82 67 66 84 67 66 82 67 66 84 67 66 82 67 66 84 67 66 82 67 66 84 68 65 82 66 62 77 66 62 77 68 61 77 66 62 77 68 61 77 66 62 77 68 61 77 66 62 77 70 63 79 68 64 79 70 63 79 68 64 79 70 63 79 68 64 79 70 63 79 70 64 78 81 75 87 81 75 85 81 75 87 81 75 85 81 75 87 81 75 85 81 75 87 81 75 85 71 65 77 71 65 75 71 65 77 71 65 75 71 65 77 71 65 75 71 65 77 71 65 75 74 71 82 72 69 78 70 67 78 67 64 73 63 60 71 60 57 66 58 55 66 56 53 62 65 62 73 65 62 71 65 62 73 65 62 71 65 62 73 65 62 71 65 62 73 65 62 71 63 55 66 63 55 66 63 55 66 63 55 66 63 55 66 63 55 66 63 55 66 63 55 66 58 50 61 58 50 61 58 50 61 58 50 61 58 50 61 58 50 61 58 50 61 58 50 61 63 55 66 63 56 64 63 56 64 63 56 64 63 56 64 63 56 64 63 56 64 63 56 64 63 56 64 63 56 64 63 56 64 63 56 64 63 56 64 63 56 64 63 56 64 63 55 66 66 60 72 66 60 74 66 60 74 66 60 74 66 60 74 66 60 74 66 60 74 66 60 74 74 68 82 74 68 82 74 68 82 74 68 82 74 68 82 74 68 82 74 68 82 74 68 82 73 67 81 73 67 81 73 67 81 73 67 81 73 67 81 73 67 81 73 67 81 73 67 81 72 66 80 72 66 80 72 66 80 72 66 80 72 66 80 72 66 80 72 66 80 73 65 78 72 62 71 72 62 70 73 62 70 72 62 70 73 62 70 72 62 70 73 62 70 72 62 70 63 52 60 64 54 62 67 56 64 69 59 67 74 63 71 76 66 74 79 68 76 80 70 78 78 69 74 78 69 72 78 69 74 78 69 72 78 69 74 78 69 72 78 69 74 78 69 72 83 74 79 83 74 77 83 74 79 83 74 77 83 74 79 83 74 77 83 74 79 84 73 79 81 68 77 81 68 78 83 67 78 81 68 78 83 67 78 81 68 78 83 67 78 81 68 78 75 59 70 73 60 70 75 59 70 73 60 70 75 59 70 73 60 70 75 59 70 73 60 70 69 59 70 65 57 68 63 55 66 60 52 63 56 48 59 53 45 56 51 43 54 49 41 52 48 40 51 48 40 51 48 40 51 48 40 51 48 40 51 48 40 51 48 40 51 45 42 53 38 42 53 33 41 52 31 39 50 28 36 47 24 32 43 21 29 40 19 27 38 17 25 36 20 28 39 20 28 39
51 61 86 53 60 88 51 61 86 53 60 88 53 60 86 55 61 87 56 60 85 56 60 87 56 60 85 56 60 87 56 60 85 56 60 87 56 60 85 58 62 89 58 62 87 58 62 89 58 62 87 58 62 89 58 62 87 58 62 89 58 62 87 61 61 85 61 62 83 63 61 83 61 62 83 63 61 83 61 62 83 63 61 83 61 62 83 67 65 87 65 66 87 67 65 87 65 66 87 67 65 87 65 66 87 67 65 87 67 65 86 74 71 88 74 72 86 74 71 88 74 72 86 74 71 88 74 72 86 74 71 88 74 72 86 77 74 91 75 73 87 73 70 87 70 68 82 66 63 80 63 61 75 61 58 75 59 57 71 59 57 70 61 59 70 63 61 74 66 64 75 70 68 81 73 71 82 75 73 86 77 75 86 72 70 83 72 70 81 72 70 83 72 70 81 72 70 83 72 70 81 72 70 83 75 69 81 75 64 78 77 63 78 77 63 78 77 63 78 77 63 78 77 63 78 77 63 78 77 63 78 75 61 76 75 61 76 75 61 76 75 61 76 75 61 76 75 61 76 75 61 76 75 61 74 72 60 72 72 60 72 72 60 72 72 60 72 72 60 72 72 60 72 72 60 72 72 60 72 71 59 71 71 59 71 71 59 71 71 59 71 71 59 71 71 59 71 71 59 71 71 59 71 61 49 63 61 49 63 61 49 63 61 49 63 61 49 63 61 49 63 61 49 63 61 49 63 60 48 62 60 48 62 60 48 62 60 48 62 60 48 62 60 48 62 60 48 62 60 48 62 67 55 69 67 55 69 67 55 69 67 55 69 67 55 69 67 55 69 67 55 69 67 55 69 68 56 70 68 56 70 68 56 70 68 56 70 68 56 70 68 56 70 68 56 70 67 56 70 74 64 73 72 65 73 74 64 73 72 65 73 74 64 73 72 65 73 74 64 73 72 65 73 73 63 72 71 64 72 73 63 72 71 64 72 73 63 72 71 64 72 73 63 72 73 63 71 83 73 81 83 74 79 83 73 81 83 74 79 83 73 81 83 74 79 83 73 81 83 74 79 86 76 84 86 77 82 86 76 84 86 77 82 86 76 84 86 77 82 86 76 84 86 76 84 86 74 86 86 74 86 87 73 86 86 74 86 87 73 86 86 74 86 87 73 86 86 74 86 74 60 73 73 61 73 74 60 73 73 61 73 74 60 73 73 61 73 74 60 73 73 61 73 66 58 71 63 57 69 61 55 67 58 52 64 54 48 60 51 45 57 49 43 55 47 41 53 46 40 52 46 40 52 46 40 52 46 40 52 46 40 52 46 40 52 46 40 52 43 41 54 29 33 45 26 34 47 26 34 47 26 34 47 26 34 47 26 34 47 26 34 47 26 34 47 22 30 43 22 30 43
50 61 91 50 61 91 50 61 91 50 61 91 50 61 91 54 61 90 54 61 90 54 61 90 54 61 90 54 61 90 54 61 90 54 61 90 54 61 90 56 63 92 56 63 92 56 63 92 56 63 92 56 63 92 56 63 92 56 63 92 57 62 91 58 62 89 60 62 87 60 62 87 60 62 87 60 62 87 60 62 87 60 62 87 60 62 87 64 66 91 64 66 91 64 66 91 64 66 91 64 66 91 64 66 91 64 66 91 64 66 89 73 71 92 73 72 90 73 72 90 73 72 90 73 72 90 73 72 90 73 72 90 73 72 90 76 75 93 74 73 91 72 71 89 69 68 86 65 64 82 62 61 79 60 59 77 58 57 73 59 57 71 61 59 72 63 61 74 66 64 77 70 68 81 73 71 84 75 73 86 77 75 88 72 70 83 72 70 83 72 70 83 72 70 83 72 70 83 72 70 83 72 70 83 75 69 83 76 64 78 79 62 78 79 62 78 79 62 78 79 62 78 79 62 78 79 62 78 79 62 78 77 60 76 77 60 76 77 60 76 77 60 76 77 60 76 77 60 76 77 60 76 77 60 76 73 59 72 73 59 72 73 59 72 73 59 72 73 59 72 73 59 72 73 59 72 73 59 72 72 58 71 72 58 71 72 58 71 72 58 71 72 58 71 72 58 71 72 58 71 72 58 71 64 50 65 64 50 65 64 50 65 64 50 65 64 50 65 64 50 65 64 50 65 64 50 65 63 49 64 63 49 64 63 49 64 63 49 64 63 49 64 63 49 64 63 49 64 63 49 64 68 54 69 68 54 69 68 54 69 68 54 69 68 54 69 68 54 69 68 54 69 68 54 69 69 55 70 69 55 70 69 55 70 69 55 70 69 55 70 69 55 70 69 55 70 68 56 68 72 62 73 70 63 71 70 63 71 70 63 71 70 63 71 70 63 71 70 63 71 70 63 71 69 62 70 69 62 70 69 62 70 69 62 70 69 62 70 69 62 70 69 62 70 69 62 70 81 71 79 81 71 79 81 71 79 81 71 79 81 71 79 81 71 79 81 71 79 81 71 79 84 74 82 84 74 82 84 74 82 84 74 82 84 74 82 84 74 82 84 74 82 84 74 83 84 72 84 84 72 86 84 72 86 84 72 86 84 72 86 84 72 86 84 72 86 84 72 86 73 61 75 73 61 75 73 61 75 73 61 75 73 61 75 73 61 75 73 61 75 72 61 75 65 59 71 61 58 69 59 56 67 56 53 64 52 49 60 49 46 57 47 44 55 45 42 53 44 41 52 44 41 52 44 41 52 44 41 52 44 41 52 44 41 52 44 41 52 42 42 54 29 32 47 26 33 49 26 33 49 26 33 49 26 33 49 26 33 49 26 33 49 26 33 49 22 29 45 22 29 45
50 61 91 50 61 91 50 61 91 50 61 91 50 61 91 54 61 90 54 61 90 54 61 90 54 61 90 54 61 90 54 61 90 54 61 90 54 61 90 56 63 92 56 63 92 56 63 92 56 63 92 56 63 92 56 63 92 56 63 92 57 62 91 58 62 89 60 62 87 60 62 87 60 62 87 60 62 87 60 62 87 60 62 87 60 62 87 64 66 91 64 66 91 64 66 91 64 66 91 64 66 91 64 66 91 64 66 91 64 66 89 73 71 92 73 72 90 73 72 90 73 72 90 73 72 90 73 72 90 73 72 90 73 72 90 76 75 93 74 73 91 72 71 89 69 68 86 65 64 82 62 61 79 60 59 77 58 57 73 59 57 71 61 59 72 63 61 74 66 64 77 70 68 81 73 71 84 75 73 86 77 75 88 72 70 83 72 70 83 72 70 83 72 70 83 72 70 83 72 70 83 72 70 83 75 69 83 76 64 78 79 62 78 79 62 78 79 62 78 79 62 78 79 62 78 79 62 78 79 62 78 77 60 76 77 60 76 77 60 76 77 60 76 77 60 76 77 60 76 77 60 76 77 60 76 73 59 72 73 59 72 73 59 72 73 59 72 73 59 72 73 59 72 73 59 72 73 59 72 72 58 71 72 58 71 72 58 71 72 58 71 72 58 71 72 58 71 72 58 71 72 58 71 66 52 67 66 52 67 66 52 67 66 52 67 66 52 67 66 52 67 66 52 67 66 52 67 65 51 66 65 51 66 65 51 66 65 51 66 65 51 66 65 51 66 65 51 66 65 51 66 68 54 69 68 54 69 68 54 69 68 54 69 68 54 69 68 54 69 68 54 69 68 54 69 69 55 70 69 55 70 69 55 70 69 55 70 69 55 70 69 55 70 69 55 70 68 56 68 70 60 71 68 61 69 68 61 69 68 61 69 68 61 69 68 61 69 68 61 69 68 61 69 67 60 68 67 60 68 67 60 68 67 60 68 67 60 68 67 60 68 67 60 68 67 60 68 79 69 77 79 69 77 79 69 77 79 69 77 79 69 77 79 69 77 79 69 77 79 69 77 82 72 80 82 72 80 82 72 80 82 72 80 82 72 80 82 72 80 82 72 80 82 72 81 82 70 82 82 70 84 82 70 84 82 70 84 82 70 84 82 70 84 82 70 84 82 70 84 73 61 75 73 61 75 73 61 75 73 61 75 73 61 75 73 61 75 73 61 75 72 61 75 65 59 71 61 58 69 59 56 67 56 53 64 52 49 60 49 46 57 47 44 55 45 42 53 44 41 52 44 41 52 44 41 52 44 41 52 44 41 52 44 41 52 44 41 52 42 42 54 29 32 47 26 33 49 26 33 49 26 33 49 26 33 49 26 33 49 26 33 49 26 33 49 22 29 45 22 29 45
50 61 91 50 61 91 50 61 91 50 61 91 50 61 91 54 61 90 54 61 90 54 61 90 54 61 90 54 61 90 54 61 90 54 61 90 54 61 90 56 63 92 56 63 92 56 63 92 56 63 92 56 63 92 56 63 92 56 63 92 57 62 91 58 62 89 60 62 87 60 62 87 60 62 87 60 62 87 60 62 87 60 62 87 60 62 87 64 66 91 64 66 91 64 66 91 64 66 91 64 66 91 64 66 91 64 66 91 64 66 89 73 71 92 73 72 90 73 72 90 73 72 90 73 72 90 73 72 90 73 72 90 73 72 90 76 75 93 74 73 91 72 71 89 69 68 86 65 64 82 62 61 79 60 59 77 58 57 73 59 57 71 61 59 72 63 61 74 66 64 77 70 68 81 73 71 84 75 73 86 77 75 88 72 70 83 72 70 83 72 70 83 72 70 83 72 70 83 72 70 83 72 70 83 75 69 83 76 64 78 79 62 78 79 62 78 79 62 78 79 62 78 79 62 78 79 62 78 79 62 78 77 60 76 77 60 76 77 60 76 77 60 76 77 60 76 77 60 76 77 60 76 77 60 76 73 59 72 73 59 72 73 59 72 73 59 72 73 59 72 73 59 72 73 59 72 73 59 72 72 58 71 72 58 71 72 58 71 72 58 71 72 58 71 72 58 71 72 58 71 72 58 71 69 55 70 69 55 70 69 55 70 69 55 70 69 55 70 69 55 70 69 55 70 69 55 70 68 54 69 68 54 69 68 54 69 68 54 69 68 54 69 68 54 69 68 54 69 68 54 69 68 54 69 68 54 69 68 54 69 68 54 69 68 54 69 68 54 69 68 54 69 68 54 69 69 55 70 69 55 70 69 55 70 69 55 70 69 55 70 69 55 70 69 55 70 68 56 68 67 57 68 65 58 66 65 58 66 65 58 66 65 58 66 65 58 66 65 58 66 65 58 66 64 57 65 64 57 65 64 57 65 64 57 65 64 57 65 64 57 65 64 57 65 64 57 65 76 66 74 76 66 74 76 66 74 76 66 74 76 66 74 76 66 74 76 66 74 76 66 74 79 69 77 79 69 77 79 69 77 79 69 77 79 69 77 79 69 77 79 69 77 79 69 78 79 67 79 79 67 81 79 67 81 79 67 81 79 67 81 79 67 81 79 67 81 79 67 81 73 61 75 73 61 75 73 61 75 73 61 75 73 61 75 73 61 75 73 61 75 72 61 75 65 59 71 61 58 69 59 56 67 56 53 64 52 49 60 49 46 57 47 44 55 45 42 53 44 41 52 44 41 52 44 41 52 44 41 52 44 41 52 44 41 52 44 41 52 42 42 54 29 32 47 26 33 49 26 33 49 26 33 49 26 33 49 26 33 49 26 33 49 26 33 49 22 29 45 22 29 45
50 61 91 50 61 91 50 61 91 50 61 91 50 61 91 54 61 90 54 61 90 54 61 90 54 61 90 54 61 90 54 61 90 54 61 90 54 61 90 56 63 92 56 63 92 56 63 92 56 63 92 56 63 92 56 63 92 56 63 92 57 62 91 58 62 89 60 62 87 60 62 87 60 62 87 60 62 87 60 62 87 60 62 87 60 62 87 64 66 91 64 66 91 64 66 91 64 66 91 64 66 91 64 66 91 64 66 91 64 66 89 73 71 92 73 72 90 73 72 90 73 72 90 73 72 90 73 72 90 73 72 90 73 72 90 76 75 93 74 73 91 72 71 89 69 68 86 65 64 82 62 61 79 60 59 77 58 57 73 59 57 71 61 59 72 63 61 74 66 64 77 70 68 81 73 71 84 75 73 86 77 75 88 72 70 83 72 70 83 72 70 83 72 70 83 72 70 83 72 70 83 72 70 83 75 69 83 76 64 78 79 62 78 79 62 78 79 62 78 79 62 78 79 62 78 79 62 78 79 62 78 77 60 76 77 60 76 77 60 76 77 60 76 77 60 76 77 60 76 77 60 76 77 60 76 73 59 72 73 59 72 73 59 72 73 59 72 73 59 72 73 59 72 73 59 72 73 59 72 72 58 71 72 58 71 72 58 71 72 58 71 72 58 71 72 58 71 72 58 71 72 58 71 73 59 74 73 59 74 73 59 74 73 59 74 73 59 74 73 59 74 73 59 74 73 59 74 72 58 73 72 58 73 72 58 73 72 58 73 72 58 73 72 58 73 72 58 73 72 58 73 68 54 69 68 54 69 68 54 69 68 54 69 68 54 69 68 54 69 68 54 69 68 54 69 69 55 70 69 55 70 69 55 70 69 55 70 69 55 70 69 55 70 69 55 70 68 56 68 63 53 64 61 54 62 61 54 62 61 54 62 61 54 62 61 54 62 61 54 62 61 54 62 60 53 61 60 53 61 60 53 61 60 53 61 60 53 61 60 53 61 60 53 61 60 53 61 72 62 70 72 62 70 72 62 70 72 62 70 72 62 70 72 62 70 72 62 70 72 62 70 75 65 73 75 65 73 75 65 73 75 65 73 75 65 73 75 65 73 75 65 73 75 65 74 75 63 75 75 63 77 75 63 77 75 63 77 75 63 77 75 63 77 75 63 77 75 63 77 73 61 75 73 61 75 73 61 75 73 61 75 73 61 75 73 61 75 73 61 75 72 61 75 65 59 71 61 58 69 59 56 67 56 53 64 52 49 60 49 46 57 47 44 55 45 42 53 44 41 52 44 41 52 44 41 52 44 41 52 44 41 52 44 41 52 44 41 52 42 42 54 29 32 47 26 33 49 26 33 49 26 33 49 26 33 49 26 33 49 26 33 49 26 33 49 22 29 45 22 29 45
50 61 91 50 61 91 50 61 91 50 61 91 50 61 91 54 61 90 54 61 90 54 61 90 54 61 90 54 61 90 54 61 90 54 61 90 54 61 90 56 63 92 56 63 92 56 63 92 56 63 92 56 63 92 56 63 92 56 63 92 57 62 91 58 62 89 60 62 87 60 62 87 60 62 87 60 62 87 60 62 87 60 62 87 60 62 87 64 66 91 64 66 91 64 66 91 64 66 91 64 66 91 64 66 91 64 66 91 64 66 89 73 71 92 73 72 90 73 72 90 73 72 90 73 72 90 73 72 90 73 72 90 73 72 90 76 75 93 74 73 91 72 71 89 69 68 86 65 64 82 62 61 79 60 59 77 58 57 73 59 57 71 61 59 72 63 61 74 66 64 77 70 68 81 73 71 84 75 73 86 77 75 88 72 70 83 72 70 83 72 70 83 72 70 83 72 70 83 72 70 83 72 70 83 75 69 83 76 64 78 79 62 78 79 62 78 79 62 78 79 62 78 79 62 78 79 62 78 79 62 78 77 60 76 77 60 76 77 60 76 77 60 76 77 60 76 77 60 76 77 60 76 77 60 76 73 59 72 73 59 72 73 59 72 73 59 72 73 59 72 73 59 72 73 59 72 73 59 72 72 58 71 72 58 71 72 58 71 72 58 71 72 58 71 72 58 71 72 58 71 72 58 71 76 62 77 76 62 77 76 62 77 76 62 77 76 62 77 76 62 77 76 62 77 76 62 77 75 61 76 75 61 76 75 61 76 75 61 76 75 61 76 75 61 76 75 61 76 75 61 76 68 54 69 68 54 69 68 54 69 68 54 69 68 54 69 68 54 69 68 54 69 68 54 69 69 55 70 69 55 70 69 55 70 69 55 70 69 55 70 69 55 70 69 55 70 68 56 68 60 50 61 58 51 59 58 51 59 58 51 59 58 51 59 58 51 59 58 51 59 58 51 59 57 50 58 57 50 58 57 50 58 57 50 58 57 50 58 57 50 58 57 50 58 57 50 58 69 59 67 69 59 67 69 59 67 69 59 67 69 59 67 69 59 67 69 59 67 69 59 67 72 62 70 72 62 70 72 62 70 72 62 70 72 62 70 72 62 70 72 62 70 72 62 71 72 60 72 72 60 74 72 60 74 72 60 74 72 60 74 72 60 74 72 60 74 72 60 74 73 61 75 73 61 75 73 61 75 73 61 75 73 61 75 73 61 75 73 61 75 72 61 75 65 59 71 61 58 69 59 56 67 56 53 64 52 49 60 49 46 57 47 44 55 45 42 53 44 41 52 44 41 52 44 41 52 44 41 52 44 41 52 44 41 52 44 41 52 42 42 54 29 32 47 26 33 49 26 33 49 26 33 49 26 33 49 26 33 49 26 33 49 26 33 49 22 29 45 22 29 45
50 61 91 50 61 91 50 61 91 50 61 91 50 61 91 54 61 90 54 61 90 54 61 90 54 61 90 54 61 90 54 61 90 54 61 90 54 61 90 56 63 92 56 63 92 56 63 92 56 63 92 56 63 92 56 63 92 56 63 92 57 62 91 58 62 89 60 62 87 60 62 87 60 62 87 60 62 87 60 62 87 60 62 87 60 62 87 64 66 91 64 66 91 64 66 91 64 66 91 64 66 91 64 66 91 64 66 91 64 66 89 73 71 92 73 72 90 73 72 90 73 72 90 73 72 90 73 72 90 73 72 90 73 72 90 76 75 93 74 73 91 72 71 89 69 68 86 65 64 82 62 61 79 60 59 77 58 57 73 59 57 71 61 59 72 63 61 74 66 64 77 70 68 81 73 71 84 75 73 86 77 75 88 72 70 83 72 70 83 72 70 83 72 70 83 72 70 83 72 70 83 72 70 83 75 69 83 76 64 78 79 62 78 79 62 78 79 62 78 79 62 78 79 62 78 79 62 78 79 62 78 77 60 76 77 60 76 77 60 76 77 60 76 77 60 76 77 60 76 77 60 76 77 60 76 73 59 72 73 59 72 73 59 72 73 59 72 73 59 72 73 59 72 73 59 72 73 59 72 72 58 71 72 58 71 72 58 71 72 58 71 72 58 71 72 58 71 72 58 71 72 58 71 78 64 79 78 64 79 78 64 79 78 64 79 78 64 79 78 64 79 78 64 79 78 64 79 77 63 78 77 63 78 77 63 78 77 63 78 77 63 78 77 63 78 77 63 78 77 63 78 68 54 69 68 54 69 68 54 69 68 54 69 68 54 69 68 54 69 68 54 69 68 54 69 69 55 70 69 55 70 69 55 70 69 55 70 69 55 70 69 55 70 69 55 70 68 56 68 58 48 59 56 49 57 56 49 57 56 49 57 56 49 57 56 49 57 56 49 57 56 49 57 55 48 56 55 48 56 55 48 56 55 48 56 55 48 56 55 48 56 55 48 56 55 48 56 67 57 65 67 57 65 67 57 65 67 57 65 67 57 65 67 57 65 67 57 65 67 57 65 70 60 68 70 60 68 70 60 68 70 60 68 70 60 68 70 60 68 70 60 68 70 60 69 70 58 70 70 58 72 70 58 72 70 58 72 70 58 72 70 58 72 70 58 72 70 58 72 73 61 75 73 61 75 73 61 75 73 61 75 73 61 75 73 61 75 73 61 75 72 61 75 65 59 71 61 58 69 59 56 67 56 53 64 52 49 60 49 46 57 47 44 55 45 42 53 44 41 52 44 41 52 44 41 52 44 41 52 44 41 52 44 41 52 44 41 52 42 42 54 29 32 47 26 33 49 26 33 49 26 33 49 26 33 49 26 33 49 26 33 49 26 33 49 22 29 45 22 29 45
50 61 91 50 61 91 50 61 91 50 61 91 50 61 91 54 61 90 54 61 90 54 61 90 54 61 90 54 61 90 54 61 90 54 61 90 54 61 90 56 63 92 56 63 92 56 63 92 56 63 92 56 63 92 56 63 92 56 63 92 57 62 91 58 62 89 60 62 87 60 62 87 60 62 87 60 62 87 60 62 87 60 62 87 60 62 87 64 66 91 64 66 91 64 66 91 64 66 91 64 66 91 64 66 91 64 66 91 64 66 89 73 71 92 73 72 90 73 72 90 73 72 90 73 72 90 73 72 90 73 72 90 73 72 90 76 75 93 74 73 91 72 71 89 69 68 86 65 64 82 62 61 79 60 59 77 58 57 73 59 57 71 61 59 72 63 61 74 66 64 77 70 68 81 73 71 84 75 73 86 77 75 88 72 70 83 72 70 83 72 70 83 72 70 83 72 70 83 72 70 83 72 70 83 75 69 83 76 64 78 79 62 78 79 62 78 79 62 78 79 62 78 79 62 78 79 62 78 79 62 78 77 60 76 77 60 76 77 60 76 77 60 76 77 60 76 77 60 76 77 60 76 77 60 76 73 59 72 73 59 72 73 59 72 73 59 72 73 59 72 73 59 72 73 59 72 73 59 72 72 58 71 72 58 71 72 58 71 72 58 71 72 58 71 72 58 71 72 58 71 72 58 71 80 66 81 80 66 81 80 66 81 80 66 81 80 66 81 80 66 81 80 66 81 80 66 81 79 65 80 79 65 80 79 65 80 79 65 80 79 65 80 79 65 80 79 65 80 79 65 80 68 54 69 68 54 69 68 54 69 68 54 69 68 54 69 68 54 69 68 54 69 68 54 69 69 55 70 69 55 70 69 55 70 69 55 70 69 55 70 69 55 70 69 55 70 68 56 68 56 46 57 54 47 55 54 47 55 54 47 55 54 47 55 54 47 55 54 47 55 54 47 55 53 46 54 53 46 54 53 46 54 53 46 54 53 46 54 53 46 54 53 46 54 53 46 54 65 55 63 65 55 63 65 55 63 65 55 63 65 55 63 65 55 63 65 55 63 65 55 63 68 58 66 68 58 66 68 58 66 68 58 66 68 58 66 68 58 66 68 58 66 68 58 67 68 56 68 68 56 70 68 56 70 68 56 70 68 56 70 68 56 70 68 56 70 68 56 70 73 61 75 73 61 75 73 61 75 73 61 75 73 61 75 73 61 75 73 61 75 72 61 75 65 59 71 61 58 69 59 56 67 56 53 64 52 49 60 49 46 57 47 44 55 45 42 53 44 41 52 44 41 52 44 41 52 44 41 52 44 41 52 44 41 52 44 41 52 42 42 54 29 32 47 26 33 49 26 33 49 26 33 49 26 33 49 26 33 49 26 33 49 26 33 49 22 29 45 22 29 45
55 66 96 55 66 96 55 66 96 55 66 96 55 66 96 56 63 92 56 63 92 56 63 92 56 63 92 56 63 92 56 63 92 56 63 92 56 63 92 55 62 91 55 62 91 55 62 91 55 62 91 55 62 91 55 62 91 55 62 91 56 61 90 57 61 88 59 61 86 59 61 86 59 61 86 59 61 86 59 61 86 59 61 86 59 61 86 58 60 85 58 60 85 58 60 85 58 60 85 58 60 85 58 60 85 58 60 85 58 60 83 74 72 93 74 73 91 74 73 91 74 73 91 74 73 91 74 73 91 74 73 91 74 73 91 63 62 80 63 62 80 63 62 80 63 62 80 63 62 80 63 62 80 63 62 80 63 62 78 70 68 82 70 68 81 70 68 81 70 68 81 70 68 81 70 68 81 70 68 81 70 68 81 70 68 81 70 68 81 70 68 81 70 68 81 70 68 81 70 68 81 70 68 81 73 67 81 77 65 79 80 63 79 80 63 79 80 63 79 80 63 79 80 63 79 80 63 79 80 63 79 71 54 70 71 54 70 71 54 70 71 54 70 71 54 70 71 54 70 71 54 70 71 54 70 64 50 63 64 50 63 64 50 63 64 50 63 64 50 63 64 50 63 64 50 63 64 50 63 64 50 63 64 50 63 64 50 63 64 50 63 64 50 63 64 50 63 64 50 63 64 50 63 66 52 67 66 52 67 66 52 67 66 52 67 66 52 67 66 52 67 66 52 67 66 52 67 69 55 70 69 55 70 69 55 70 69 55 70 69 55 70 69 55 70 69 55 70 69 55 70 70 56 71 70 56 71 70 56 71 70 56 71 70 56 71 70 56 71 70 56 71 70 56 71 74 60 75 74 60 75 74 60 75 74 60 75 74 60 75 74 60 75 74 60 75 73 61 73 72 62 73 70 63 71 70 63 71 70 63 71 70 63 71 70 63 71 70 63 71 70 63 71 71 64 72 71 64 72 71 64 72 71 64 72 71 64 72 71 64 72 71 64 72 71 64 72 63 53 61 63 53 61 63 53 61 63 53 61 63 53 61 63 53 61 63 53 61 63 53 61 60 50 58 60 50 58 60 50 58 60 50 58 60 50 58 60 50 58 60 50 58 60 50 59 59 47 59 59 47 61 59 47 61 59 47 61 59 47 61 59 47 61 59 47 61 59 47 61 56 44 58 56 44 58 56 44 58 56 44 58 56 44 58 56 44 58 56 44 58 55 44 58 55 49 61 53 50 61 53 50 61 53 50 61 53 50 61 53 50 61 53 50 61 53 50 61 48 45 56 48 45 56 48 45 56 48 45 56 48 45 56 48 45 56 48 45 56 46 46 58 34 37 52 31 38 54 31 38 54 31 38 54 31 38 54 31 38 54 31 38 54 31 38 54 27 34 50 27 34 50
55 66 96 55 66 96 55 66 96 55 66 96 55 66 96 56 63 92 56 63 92 56 63 92 56 63 92 56 63 92 56 63 92 56 63 92 56 63 92 55 62 91 55 62 91 55 62 91 55 62 91 55 62 91 55 62 91 55 62 91 56 61 90 57 61 88 59 61 86 59 61 86 59 61 86 59 61 86 59 61 86 59 61 86 59 61 86 58 60 85 58 60 85 58 60 85 58 60 85 58 60 85 58 60 85 58 60 85 58 60 83 72 70 91 72 71 89 72 71 89 72 71 89 72 71 89 72 71 89 72 71 89 72 71 89 63 62 80 63 62 80 63 62 80 63 62 80 63 62 80 63 62 80 63 62 80 63 62 78 70 68 82 70 68 81 70 68 81 70 68 81 70 68 81 70 68 81 70 68 81 70 68 81 70 68 81 70 68 81 70 68 81 70 68 81 70 68 81 70 68 81 70 68 81 73 67 81 77 65 79 80 63 79 80 63 79 80 63 79 80 63 79 80 63 79 80 63 79 80 63 79 71 54 70 71 54 70 71 54 70 71 54 70 71 54 70 71 54 70 71 54 70 71 54 70 64 50 63 64 50 63 64 50 63 64 50 63 64 50 63 64 50 63 64 50 63 64 50 63 64 50 63 64 50 63 64 50 63 64 50 63 64 50 63 64 50 63 64 50 63 64 50 63 66 52 67 66 52 67 66 52 67 66 52 67 66 52 67 66 52 67 66 52 67 66 52 67 69 55 70 69 55 70 69 55 70 69 55 70 69 55 70 69 55 70 69 55 70 69 55 70 70 56 71 70 56 71 70 56 71 70 56 71 70 56 71 70 56 71 70 56 71 70 56 71 74 60 75 74 60 75 74 60 75 74 60 75 74 60 75 74 60 75 74 60 75 73 61 73 72 62 73 70 63 71 70 63 71 70 63 71 70 63 71 70 63 71 70 63 71 70 63 71 71 64 72 71 64 72 71 64 72 71 64 72 71 64 72 71 64 72 71 64 72 71 64 72 65 55 63 65 55 63 65 55 63 65 55 63 65 55 63 65 55 63 65 55 63 65 55 63 62 52 60 62 52 60 62 52 60 62 52 60 62 52 60 62 52 60 62 52 60 62 52 61 61 49 61 61 49 63 61 49 63 61 49 63 61 49 63 61 49 63 61 49 63 61 49 63 58 46 60 58 46 60 58 46 60 58 46 60 58 46 60 58 46 60 58 46 60 57 46 60 55 49 61 53 50 61 53 50 61 53 50 61 53 50 61 53 50 61 53 50 61 53 50 61 48 45 56 48 45 56 48 45 56 48 45 56 48 45 56 48 45 56 48 45 56 46 46 58 34 37 52 31 38 54 31 38 54 31 38 54 31 38 54 31 38 54 31 38 54 31 38 54 27 34 50 27 34 50
55 66 96 55 66 96 55 66 96 55 66 96 55 66 96 56 63 92 56 63 92 56 63 92 56 63 92 56 63 92 56 63 92 56 63 92 56 63 92 55 62 91 55 62 91 55 62 91 55 62 91 55 62 91 55 62 91 55 62 91 56 61 90 57 61 88 59 61 86 59 61 86 59 61 86 59 61 86 59 61 86 59 61 86 59 61 86 58 60 85 58 60 85 58 60 85 58 60 85 58 60 85 58 60 85 58 60 85 58 60 83 70 68 89 70 69 87 70 69 87 70 69 87 70 69 87 70 69 87 70 69 87 70 69 87 63 62 80 63 62 80 63 62 80 63 62 80 63 62 80 63 62 80 63 62 80 63 62 78 70 68 82 70 68 81 70 68 81 70 68 81 70 68 81 70 68 81 70 68 81 70 68 81 70 68 81 70 68 81 70 68 81 70 68 81 70 68 81 70 68 81 70 68 81 73 67 81 77 65 79 80 63 79 80 63 79 80 63 79 80 63 79 80 63 79 80 63 79 80 63 79 71 54 70 71 54 70 71 54 70 71 54 70 71 54 70 71 54 70 71 54 70 71 54 70 64 50 63 64 50 63 64 50 63 64 50 63 64 50 63 64 50 63 64 50 63 64 50 63 64 50 63 64 50 63 64 50 63 64 50 63 64 50 63 64 50 63 64 50 63 64 50 63 66 52 67 66 52 67 66 52 67 66 52 67 66 52 67 66 52 67 66 52 67 66 52 67 69 55 70 69 55 70 69 55 70 69 55 70 69 55 70 69 55 70 69 55 70 69 55 70 70 56 71 70 56 71 70 56 71 70 56 71 70 56 71 70 56 71 70 56 71 70 56 71 74 60 75 74 60 75 74 60 75 74 60 75 74 60 75 74 60 75 74 60 75 73 61 73 72 62 73 70 63 71 70 63 71 70 63 71 70 63 71 70 63 71 70 63 71 70 63 71 71 64 72 71 64 72 71 64 72 71 64 72 71 64 72 71 64 72 71 64 72 71 64 72 67 57 65 67 57 65 67 57 65 67 57 65 67 57 65 67 57 65 67 57 65 67 57 65 64 54 62 64 54 62 64 54 62 64 54 62 64 54 62 64 54 62 64 54 62 64 54 63 63 51 63 63 51 65 63 51 65 63 51 65 63 51 65 63 51 65 63 51 65 63 51 65 60 48 62 60 48 62 60 48 62 60 48 62 60 48 62 60 48 62 60 48 62 59 48 62 55 49 61 53 50 61 53 50 61 53 50 61 53 50 61 53 50 61 53 50 61 53 50 61 48 45 56 48 45 56 48 45 56 48 45 56 48 45 56 48 45 56 48 45 56 46 46 58 34 37 52 31 38 54 31 38 54 31 38 54 31 38 54 31 38 54 31 38 54 31 38 54 27 34 50 27 34 50
55 66 96 55 66 96 55 66 96 55 66 96 55 66 96 56 63 92 56 63 92 56 63 92 56 63 92 56 63 92 56 63 92 56 63 92 56 63 92 55 62 91 55 62 91 55 62 91 55 62 91 55 62 91 55 62 91 55 62 91 56 61 90 57 61 88 59 61 86 59 61 86 59 61 86 59 61 86 59 61 86 59 61 86 59 61 86 58 60 85 58 60 85 58 60 85 58 60 85 58 60 85 58 60 85 58 60 85 58 60 83 67 65 86 67 66 84 67 66 84 67 66 84 67 66 84 67 66 84 67 66 84 67 66 84 63 62 80 63 62 80 63 62 80 63 62 80 63 62 80 63 62 80 63 62 80 63 62 78 70 68 82 70 68 81 70 68 81 70 68 81 70 68 81 70 68 81 70 68 81 70 68 81 70 68 81 70 68 81 70 68 81 70 68 81 70 68 81 70 68 81 70 68 81 73 67 81 77 65 79 80 63 79 80 63 79 80 63 79 80 63 79 80 63 79 80 63 79 80 63 79 71 54 70 71 54 70 71 54 70 71 54 70 71 54 70 71 54 70 71 54 70 71 54 70 64 50 63 64 50 63 64 50 63 64 50 63 64 50 63 64 50 63 64 50 63 64 50 63 64 50 63 64 50 63 64 50 63 64 50 63 64 50 63 64 50 63 64 50 63 64 50 63 66 52 67 66 52 67 66 52 67 66 52 67 66 52 67 66 52 67 66 52 67 66 52 67 69 55 70 69 55 70 69 55 70 69 55 70 69 55 70 69 55 70 69 55 70 69 55 70 70 56 71 70 56 71 70 56 71 70 56 71 70 56 71 70 56 71 70 56 71 70 56 71 74 60 75 74 60 75 74 60 75 74 60 75 74 60 75 74 60 75 74 60 75 73 61 73 72 62 73 70 63 71 70 63 71 70 63 71 70 63 71 70 63 71 70 63 71 70 63 71 71 64 72 71 64 72 71 64 72 71 64 72 71 64 72 71 64 72 71 64 72 71 64 72 70 60 68 70 60 68 70 60 68 70 60 68 70 60 68 70 60 68 70 60 68 70 60 68 67 57 65 67 57 65 67 57 65 67 57 65 67 57 65 67 57 65 67 57 65 67 57 66 66 54 66 66 54 68 66 54 68 66 54 68 66 54 68 66 54 68 66 54 68 66 54 68 63 51 65 63 51 65 63 51 65 63 51 65 63 51 65 63 51 65 63 51 65 62 51 65 55 49 61 53 50 61 53 50 61 53 50 61 53 50 61 53 50 61 53 50 61 53 50 61 48 45 56 48 45 56 48 45 56 48 45 56 48 45 56 48 45 56 48 45 56 46 46 58 34 37 52 31 38 54 31 38 54 31 38 54 31 38 54 31 38 54 31 38 54 31 38 54 27 34 50 27 34 50
55 66 96 55 66 96 55 66 96 55 66 96 55 66 96 56 63 92 56 63 92 56 63 92 56 63 92 56 63 92 56 63 92 56 63 92 56 63 92 55 62 91 55 62 91 55 62 91 55 62 91 55 62 91 55 62 91 55 62 91 56 61 90 57 61 88 59 61 86 59 61 86 59 61 86 59 61 86 59 61 86 59 61 86 59 61 86 58 60 85 58 60 85 58 60 85 58 60 85 58 60 85 58 60 85 58 60 85 58 60 83 63 61 82 63 62 80 63 62 80 63 62 80 63 62 80 63 62 80 63 62 80 63 62 80 63 62 80 63 62 80 63 62 80 63 62 80 63 62 80 63 62 80 63 62 80 63 62 78 70 68 82 70 68 81 70 68 81 70 68 81 70 68 81 70 68 81 70 68 81 70 68 81 70 68 81 70 68 81 70 68 81 70 68 81 70 68 81 70 68 81 70 68 81 73 67 81 77 65 79 80 63 79 80 63 79 80 63 79 80 63 79 80 63 79 80 63 79 80 63 79 71 54 70 71 54 70 71 54 70 71 54 70 71 54 70 71 54 70 71 54 70 71 54 70 64 50 63 64 50 63 64 50 63 64 50 63 64 50 63 64 50 63 64 50 63 64 50 63 64 50 63 64 50 63 64 50 63 64 50 63 64 50 63 64 50 63 64 50 63 64 50 63 66 52 67 66 52 67 66 52 67 66 52 67 66 52 67 66 52 67 66 52 67 66 52 67 69 55 70 69 55 70 69 55 70 69 55 70 69 55 70 69 55 70 69 55 70 69 55 70 70 56 71 70 56 71 70 56 71 70 56 71 70 56 71 70 56 71 70 56 71 70 56 71 74 60 75 74 60 75 74 60 75 74 60 75 74 60 75 74 60 75 74 60 75 73 61 73 72 62 73 70 63 71 70 63 71 70 63 71 70 63 71 70 63 71 70 63 71 70 63 71 71 64 72 71 64 72 71 64 72 71 64 72 71 64 72 71 64 72 71 64 72 71 64 72 74 64 72 74 64 72 74 64 72 74 64 72 74 64 72 74 64 72 74 64 72 74 64 72 71 61 69 71 61 69 71 61 69 71 61 69 71 61 69 71 61 69 71 61 69 71 61 70 70 58 70 70 58 72 70 58 72 70 58 72 70 58 72 70 58 72 70 58 72 70 58 72 67 55 69 67 55 69 67 55 69 67 55 69 67 55 69 67 55 69 67 55 69 66 55 69 55 49 61 53 50 61 53 50 61 53 50 61 53 50 61 53 50 61 53 50 61 53 50 61 48 45 56 48 45 56 48 45 56 48 45 56 48 45 56 48 45 56 48 45 56 46 46 58 34 37 52 31 38 54 31 38 54 31 38 54 31 38 54 31 38 54 31 38 54 31 38 54 27 34 50 27 34 50
55 66 96 55 66 96 55 66 96 55 66 96 55 66 96 56 63 92 56 63 92 56 63 92 56 63 92 56 63 92 56 63 92 56 63 92 56 63 92 55 62 91 55 62 91 55 62 91 55 62 91 55 62 91 55 62 91 55 62 91 56 61 90 57 61 88 59 61 86 59 61 86 59 61 86 59 61 86 59 61 86 59 61 86 59 61 86 58 60 85 58 60 85 58 60 85 58 60 85 58 60 85 58 60 85 58 60 85 58 60 83 60 58 79 60 59 77 60 59 77 60 59 77 60 59 77 60 59 77 60 59 77 60 59 77 63 62 80 63 62 80 63 62 80 63 62 80 63 62 80 63 62 80 63 62 80 63 62 78 70 68 82 70 68 81 70 68 81 70 68 81 70 68 81 70 68 81 70 68 81 70 68 81 70 68 81 70 68 81 70 68 81 70 68 81 70 68 81 70 68 81 70 68 81 73 67 81 77 65 79 80 63 79 80 63 79 80 63 79 80 63 79 80 63 79 80 63 79 80 63 79 71 54 70 71 54 70 71 54 70 71 54 70 71 54 70 71 54 70 71 54 70 71 54 70 64 50 63 64 50 63 64 50 63 64 50 63 64 50 63 64 50 63 64 50 63 64 50 63 64 50 63 64 50 63 64 50 63 64 50 63 64 50 63 64 50 63 64 50 63 64 50 63 66 52 67 66 52 67 66 52 67 66 52 67 66 52 67 66 52 67 66 52 67 66 52 67 69 55 70 69 55 70 69 55 70 69 55 70 69 55 70 69 55 70 69 55 70 69 55 70 70 56 71 70 56 71 70 56 71 70 56 71 70 56 71 70 56 71 70 56 71 70 56 71 74 60 75 74 60 75 74 60 75 74 60 75 74 60 75 74 60 75 74 60 75 73 61 73 72 62 73 70 63 71 70 63 71 70 63 71 70 63 71 70 63 71 70 63 71 70 63 71 71 64 72 71 64 72 71 64 72 71 64 72 71 64 72 71 64 72 71 64 72 71 64 72 77 67 75 77 67 75 77 67 75 77 67 75 77 67 75 77 67 75 77 67 75 77 67 75 74 64 72 74 64 72 74 64 72 74 64 72 74 64 72 74 64 72 74 64 72 74 64 73 73 61 73 73 61 75 73 61 75 73 61 75 73 61 75 73 61 75 73 61 75 73 61 75 70 58 72 70 58 72 70 58 72 70 58 72 70 58 72 70 58 72 70 58 72 69 58 72 55 49 61 53 50 61 53 50 61 53 50 61 53 50 61 53 50 61 53 50 61 53 50 61 48 45 56 48 45 56 48 45 56 48 45 56 48 45 56 48 45 56 48 45 56 46 46 58 34 37 52 31 38 54 31 38 54 31 38 54 31 38 54 31 38 54 31 38 54 31 38 54 27 34 50 27 34 50
55 66 96 55 66 96 55 66 96 55 66 96 55 66 96 56 63 92 56 63 92 56 63 92 56 63 92 56 63 92 56 63 92 56 63 92 56 63 92 55 62 91 55 62 91 55 62 91 55 62 91 55 62 91 55 62 91 55 62 91 56 61 90 57 61 88 59 61 86 59 61 86 59 61 86 59 61 86 59 61 86 59 61 86 59 61 86 58 60 85 58 60 85 58 60 85 58 60 85 58 60 85 58 60 85 58 60 85 58 60 83 58 56 77 58 57 75 58 57 75 58 57 75 58 57 75 58 57 75 58 57 75 58 57 75 63 62 80 63 62 80 63 62 80 63 62 80 63 62 80 63 62 80 63 62 80 63 62 78 70 68 82 70 68 81 70 68 81 70 68 81 70 68 81 70 68 81 70 68 81 70 68 81 70 68 81 70 68 81 70 68 81 70 68 81 70 68 81 70 68 81 70 68 81 73 67 81 77 65 79 80 63 79 80 63 79 80 63 79 80 63 79 80 63 79 80 63 79 80 63 79 71 54 70 71 54 70 71 54 70 71 54 70 71 54 70 71 54 70 71 54 70 71 54 70 64 50 63 64 50 63 64 50 63 64 50 63 64 50 63 64 50 63 64 50 63 64 50 63 64 50 63 64 50 63 64 50 63 64 50 63 64 50 63 64 50 63 64 50 63 64 50 63 66 52 67 66 52 67 66 52 67 66 52 67 66 52 67 66 52 67 66 52 67 66 52 67 69 55 70 69 55 70 69 55 70 69 55 70 69 55 70 69 55 70 69 55 70 69 55 70 70 56 71 70 56 71 70 56 71 70 56 71 70 56 71 70 56 71 70 56 71 70 56 71 74 60 75 74 60 75 74 60 75 74 60 75 74 60 75 74 60 75 74 60 75 73 61 73 72 62 73 70 63 71 70 63 71 70 63 71 70 63 71 70 63 71 70 63 71 70 63 71 71 64 72 71 64 72 71 64 72 71 64 72 71 64 72 71 64 72 71 64 72 71 64 72 79 69 77 79 69 77 79 69 77 79 69 77 79 69 77 79 69 77 79 69 77 79 69 77 76 66 74 76 66 74 76 66 74 76 66 74 76 66 74 76 66 74 76 66 74 76 66 75 75 63 75 75 63 77 75 63 77 75 63 77 75 63 77 75 63 77 75 63 77 75 63 77 72 60 74 72 60 74 72 60 74 72 60 74 72 60 74 72 60 74 72 60 74 71 60 74 55 49 61 53 50 61 53 50 61 53 50 61 53 50 61 53 50 61 53 50 61 53 50 61 48 45 56 48 45 56 48 45 56 48 45 56 48 45 56 48 45 56 48 45 56 46 46 58 34 37 52 31 38 54 31 38 54 31 38 54 31 38 54 31 38 54 31 38 54 31 38 54 27 34 50 27 34 50
52 67 100 52 67 100 52 67 100 52 67 100 53 66 100 53 64 96 53 64 94 53 64 96 53 64 94 53 64 96 53 64 94 53 64 96 53 64 94 52 63 95 52 63 93 52 63 95 52 63 93 52 63 95 52 63 93 52 63 95 53 62 93 55 62 91 56 61 90 56 61 90 56 61 90 56 61 90 56 61 90 56 61 90 56 61 90 55 60 89 55 60 89 55 60 89 55 60 89 55 60 89 55 60 89 55 60 89 55 61 87 51 56 78 51 56 76 53 55 78 51 56 76 53 55 78 51 56 76 53 55 78 51 56 76 60 62 85 58 63 83 60 62 85 58 63 83 60 62 85 58 63 83 60 62 85 60 62 83 67 68 86 67 68 86 67 68 86 67 68 86 67 68 86 67 68 86 67 68 86 67 68 86 67 68 86 67 68 86 67 68 86 67 68 86 67 68 86 67 68 86 67 68 86 70 67 84 76 64 84 78 63 82 80 62 84 78 63 82 80 62 84 78 63 82 80 62 84 78 63 82 71 53 75 69 54 73 71 53 75 69 54 73 71 53 75 69 54 73 71 53 75 69 54 73 63 50 68 62 51 68 62 51 68 62 51 68 62 51 68 62 51 68 62 51 68 62 51 68 62 51 68 62 51 68 62 51 68 62 51 68 62 51 68 62 51 68 62 51 68 62 51 68 65 52 70 65 52 70 65 52 70 65 52 70 65 52 70 65 52 70 65 52 70 65 52 70 68 55 73 68 55 73 68 55 73 68 55 73 68 55 73 68 55 73 68 55 73 68 55 72 69 56 73 69 56 73 69 56 73 69 56 73 69 56 73 69 56 73 69 56 73 69 56 73 73 60 77 73 60 77 73 60 77 73 60 77 73 60 77 73 60 77 73 60 77 73 61 75 73 61 73 72 62 71 72 62 73 72 62 71 72 62 73 72 62 71 72 62 73 72 62 71 73 63 74 73 63 72 73 63 74 73 63 72 73 63 74 73 63 72 73 63 74 73 63 72 81 71 80 81 71 80 82 70 80 81 71 80 82 70 80 81 71 80 82 70 80 81 71 80 79 67 77 78 68 77 79 67 77 78 68 77 79 67 77 78 68 77 79 67 77 79 67 77 77 65 77 78 64 79 78 64 79 78 64 79 78 64 79 78 64 79 78 64 79 78 64 79 75 61 76 75 61 76 75 61 76 75 61 76 75 61 76 75 61 76 75 61 76 74 62 76 58 47 61 56 48 61 56 48 61 56 48 61 56 48 61 56 48 61 56 48 61 56 48 61 51 43 56 51 43 56 51 43 56 51 43 56 51 43 56 51 43 56 51 43 56 50 44 58 37 36 50 35 37 52 35 37 52 35 37 52 35 37 52 35 37 52 35 37 52 35 37 52 31 33 48 31 33 48
73 92 132 73 92 132 73 92 132 73 92 132 73 93 130 57 75 111 57 76 109 57 75 111 57 76 109 57 75 111 57 76 109 57 75 111 57 76 109 47 65 101 47 66 99 47 65 101 47 66 99 47 65 101 47 66 99 47 65 101 49 65 99 49 63 98 49 63 98 49 63 98 49 63 98 49 63 98 49 63 98 49 63 98 49 63 98 53 67 102 53 67 102 53 67 102 53 67 102 53 67 102 53 67 102 53 67 102 54 67 101 50 64 93 50 64 91 52 63 93 50 64 91 52 63 93 50 64 91 52 63 93 50 64 91 51 62 92 49 63 90 51 62 92 49 63 90 51 62 92 49 63 90 51 62 92 51 62 90 52 62 89 54 61 87 54 61 87 54 61 87 54 61 87 54 61 87 54 61 87 54 61 87 52 59 85 52 59 85 52 59 85 52 59 85 52 59 85 52 59 85 52 59 85 56 57 85 66 55 85 69 54 83 70 53 85 69 54 83 70 53 85 69 54 83 70 53 85 69 54 83 67 50 82 66 51 80 67 50 82 66 51 80 67 50 82 66 51 80 67 50 82 65 52 80 62 53 80 60 54 80 60 54 80 60 54 80 60 54 80 60 54 80 60 54 80 60 54 80 59 53 79 59 53 79 59 53 79 59 53 79 59 53 79 59 53 79 59 53 79 59 53 79 62 54 78 63 53 77 63 53 77 63 53 77 63 53 77 63 53 77 63 53 77 63 53 77 64 54 78 64 54 78 64 54 78 64 54 78 64 54 78 64 54 78 64 54 78 64 55 76 67 55 75 67 56 73 67 56 73 67 56 73 67 56 73 67 56 73 67 56 73 67 56 73 70 59 76 70 59 76 70 59 76 70 59 76 70 59 76 70 59 76 70 59 76 70 59 76 73 59 74 75 59 72 75 58 74 75 59 72 75 58 74 75 59 72 75 58 74 75 59 72 75 58 74 75 59 72 75 58 74 75 59 72 75 58 74 75 59 72 75 58 74 73 59 72 73 59 72 72 60 72 73 59 72 72 60 72 73 59 72 72 60 72 73 59 72 72 60 72 72 58 71 71 59 71 72 58 71 71 59 71 72 58 71 71 59 71 72 58 71 72 58 71 75 58 74 75 58 74 75 58 74 75 58 74 75 58 74 75 58 74 75 58 74 75 58 74 76 59 75 76 59 75 76 59 75 76 59 75 76 59 75 76 59 75 76 59 75 76 59 75 78 62 75 78 62 75 78 62 75 78 62 75 78 62 75 78 62 75 78 62 75 78 62 75 78 62 75 78 62 75 78 62 75 78 62 75 78 62 75 78 62 75 78 62 75 76 62 77 63 50 67 62 51 67 62 51 67 62 51 67 62 51 67 62 51 67 62 51 67 62 51 67 51 40 56 51 40 56
72 95 136 72 95 137 72 95 136 72 95 137 72 95 136 56 78 117 56 78 115 56 78 115 56 78 115 56 78 115 56 78 115 56 78 115 56 78 115 46 68 105 46 68 105 46 68 105 46 68 105 46 68 105 46 68 105 46 68 105 46 68 105 48 66 104 48 66 104 48 66 104 48 66 104 48 66 104 48 66 104 48 66 104 48 66 104 50 68 106 50 68 106 50 68 106 50 68 106 50 68 106 50 68 106 50 68 106 50 68 104 48 64 98 48 64 97 48 64 97 48 64 97 48 64 97 48 64 97 48 64 97 48 64 97 47 63 96 47 63 96 47 63 96 47 63 96 47 63 96 47 63 96 47 63 96 48 63 94 49 62 94 51 62 92 51 62 92 51 62 92 51 62 92 51 62 92 51 62 92 51 62 92 49 60 90 49 60 90 49 60 90 49 60 90 49 60 90 49 60 90 49 60 90 53 58 88 63 56 90 68 54 89 69 53 89 68 54 89 69 53 89 68 54 89 69 53 89 68 54 89 66 50 86 65 51 86 66 50 86 65 51 86 66 50 86 65 51 86 66 50 86 63 52 86 59 54 86 58 55 86 58 55 86 58 55 86 58 55 86 58 55 86 58 55 86 58 55 86 57 54 85 57 54 85 57 54 85 57 54 85 57 54 85 57 54 85 57 54 85 58 53 83 60 54 82 62 53 80 62 53 80 62 53 80 62 53 80 62 53 80 62 53 80 62 53 80 63 54 81 63 54 81 63 54 81 63 54 81 63 54 81 63 54 81 63 54 81 63 55 79 65 56 77 65 56 75 65 56 75 65 56 75 65 56 75 65 56 75 65 56 75 65 56 75 68 59 78 68 59 78 68 59 78 68 59 78 68 59 78 68 59 78 68 59 78 70 59 76 75 58 76 76 58 74 76 58 74 76 58 74 76 58 74 76 58 74 76 58 74 76 58 74 76 58 74 76 58 74 76 58 74 76 58 74 76 58 74 76 58 74 76 58 74 75 58 74 75 58 74 73 59 74 73 59 74 73 59 74 73 59 74 73 59 74 73 59 74 73 59 74 72 58 73 72 58 73 72 58 73 72 58 73 72 58 73 72 58 73 72 58 73 72 58 73 76 58 74 76 58 74 76 58 74 76 58 74 76 58 74 76 58 74 76 58 74 76 58 74 77 59 75 77 59 75 77 59 75 77 59 75 77 59 75 77 59 75 77 59 75 77 59 75 81 60 75 81 60 75 81 60 75 81 60 75 81 60 75 81 60 75 81 60 75 81 60 75 81 60 75 81 60 75 81 60 75 81 60 75 81 60 75 81 60 75 81 60 75 79 61 75 73 55 71 72 55 71 72 55 71 72 55 71 72 55 71 72 55 71 72 55 71 72 55 71 62 45 61 62 45 61
74 98 136 74 97 138 74 98 136 74 97 138 74 98 136 61 83 120 61 83 120 61 83 120 61 83 120 61 83 120 61 83 120 61 83 120 61 83 120 51 73 110 51 73 110 51 73 110 51 73 110 51 73 110 51 73 110 51 73 110 51 73 110 50 68 106 50 68 106 50 68 106 50 68 106 50 68 106 50 68 106 50 68 106 50 68 106 50 68 106 50 68 106 50 68 106 50 68 106 50 68 106 50 68 106 50 68 106 50 68 104 48 64 98 48 64 97 48 64 97 48 64 97 48 64 97 48 64 97 48 64 97 48 64 97 47 63 96 47 63 96 47 63 96 47 63 96 47 63 96 47 63 96 47 63 96 48 63 94 49 62 94 51 62 92 51 62 92 51 62 92 51 62 92 51 62 92 51 62 92 51 62 92 49 60 90 49 60 90 49 60 90 49 60 90 49 60 90 49 60 90 49 60 90 53 58 88 63 56 90 66 55 89 68 54 89 66 55 89 68 54 89 66 55 89 68 54 89 66 55 89 65 51 86 63 52 86 65 51 86 63 52 86 65 51 86 63 52 86 65 51 86 62 52 86 59 54 86 58 55 86 58 55 86 58 55 86 58 55 86 58 55 86 58 55 86 58 55 86 57 54 85 57 54 85 57 54 85 57 54 85 57 54 85 57 54 85 57 54 85 58 53 83 60 54 82 62 53 80 62 53 80 62 53 80 62 53 80 62 53 80 62 53 80 62 53 80 63 54 81 63 54 81 63 54 81 63 54 81 63 54 81 63 54 81 63 54 81 63 55 79 65 56 77 65 56 75 65 56 75 65 56 75 65 56 75 65 56 75 65 56 75 65 56 75 68 59 78 68 59 78 68 59 78 68 59 78 68 59 78 68 59 78 68 59 78 70 59 76 75 58 76 76 58 74 76 58 74 76 58 74 76 58 74 76 58 74 76 58 74 76 58 74 76 58 74 76 58 74 76 58 74 76 58 74 76 58 74 76 58 74 76 58 74 75 58 74 75 58 74 73 59 74 73 59 74 73 59 74 73 59 74 73 59 74 73 59 74 73 59 74 72 58 73 72 58 73 72 58 73 72 58 73 72 58 73 72 58 73 72 58 73 72 58 73 76 58 74 76 58 74 76 58 74 76 58 74 76 58 74 76 58 74 76 58 74 76 58 74 77 59 75 77 59 75 77 59 75 77 59 75 77 59 75 77 59 75 77 59 75 77 59 75 81 60 75 81 60 75 81 60 75 81 60 75 81 60 75 81 60 75 81 60 75 81 60 75 81 60 75 81 60 75 81 60 75 81 60 75 81 60 75 81 60 75 81 60 75 79 61 75 81 63 79 80 63 79 80 63 79 80 63 79 80 63 79 80 63 79 80 63 79 80 63 79 72 55 71 72 55 71
77 101 137 77 101 139 77 101 137 77 101 139 77 101 137 68 90 127 68 90 127 68 90 127 68 90 127 68 90 127 68 90 127 68 90 127 68 90 127 58 80 117 58 80 117 58 80 117 58 80 117 58 80 117 58 80 117 58 80 117 58 80 117 53 71 109 53 71 109 53 71 109 53 71 109 53 71 109 53 71 109 53 71 109 53 71 109 50 68 106 50 68 106 50 68 106 50 68 106 50 68 106 50 68 106 50 68 106 50 68 104 48 64 98 48 64 97 48 64 97 48 64 97 48 64 97 48 64 97 48 64 97 48 64 97 47 63 96 47 63 96 47 63 96 47 63 96 47 63 96 47 63 96 47 63 96 48 63 94 49 62 94 51 62 92 51 62 92 51 62 92 51 62 92 51 62 92 51 62 92 51 62 92 49 60 90 49 60 90 49 60 90 49 60 90 49 60 90 49 60 90 49 60 90 53 58 88 62 56 90 65 55 89 66 55 89 65 55 89 66 55 89 65 55 89 66 55 89 65 55 89 63 52 86 62 52 86 63 52 86 62 52 86 63 52 86 62 52 86 63 52 86 62 52 86 59 54 86 58 55 86 58 55 86 58 55 86 58 55 86 58 55 86 58 55 86 58 55 86 57 54 85 57 54 85 57 54 85 57 54 85 57 54 85 57 54 85 57 54 85 58 53 83 60 54 82 62 53 80 62 53 80 62 53 80 62 53 80 62 53 80 62 53 80 62 53 80 63 54 81 63 54 81 63 54 81 63 54 81 63 54 81 63 54 81 63 54 81 63 55 79 65 56 77 65 56 75 65 56 75 65 56 75 65 56 75 65 56 75 65 56 75 65 56 75 68 59 78 68 59 78 68 59 78 68 59 78 68 59 78 68 59 78 68 59 78 70 59 76 75 58 76 76 58 74 76 58 74 76 58 74 76 58 74 76 58 74 76 58 74 76 58 74 76 58 74 76 58 74 76 58 74 76 58 74 76 58 74 76 58 74 76 58 74 75 58 74 75 58 74 73 59 74 73 59 74 73 59 74 73 59 74 73 59 74 73 59 74 73 59 74 72 58 73 72 58 73 72 58 73 72 58 73 72 58 73 72 58 73 72 58 73 72 58 73 76 58 74 76 58 74 76 58 74 76 58 74 76 58 74 76 58 74 76 58 74 76 58 74 77 59 75 77 59 75 77 59 75 77 59 75 77 59 75 77 59 75 77 59 75 77 59 75 81 60 75 81 60 75 81 60 75 81 60 75 81 60 75 81 60 75 81 60 75 81 60 75 81 60 75 81 60 75 81 60 75 81 60 75 81 60 75 81 60 75 81 60 75 79 61 75 87 69 85 86 69 85 86 69 85 86 69 85 86 69 85 86 69 85 86 69 85 86 69 85 81 64 80 81 64 80
81 105 139 81 105 141 81 105 139 81 105 141 81 105 141 74 96 133 74 96 133 74 96 133 74 96 133 74 96 133 74 96 133 74 96 133 74 96 133 64 86 123 64 86 123 64 86 123 64 86 123 64 86 123 64 86 123 64 86 123 64 86 123 57 75 113 57 75 113 57 75 113 57 75 113 57 75 113 57 75 113 57 75 113 57 75 113 50 68 106 50 68 106 50 68 106 50 68 106 50 68 106 50 68 106 50 68 106 50 68 104 48 64 98 48 64 97 48 64 97 48 64 97 48 64 97 48 64 97 48 64 97 48 64 97 47 63 96 47 63 96 47 63 96 47 63 96 47 63 96 47 63 96 47 63 96 48 63 94 49 62 94 51 62 92 51 62 92 51 62 92 51 62 92 51 62 92 51 62 92 51 62 92 49 60 90 49 60 90 49 60 90 49 60 90 49 60 90 49 60 90 49 60 90 52 59 88 61 57 90 63 56 89 65 55 89 63 56 89 65 55 89 63 56 89 65 55 89 63 56 89 62 52 86 60 53 86 62 52 86 60 53 86 62 52 86 60 53 86 62 52 86 60 53 86 59 54 86 58 55 86 58 55 86 58 55 86 58 55 86 58 55 86 58 55 86 58 55 86 57 54 85 57 54 85 57 54 85 57 54 85 57 54 85 57 54 85 57 54 85 58 53 83 60 54 82 62 53 80 62 53 80 62 53 80 62 53 80 62 53 80 62 53 80 62 53 80 63 54 81 63 54 81 63 54 81 63 54 81 63 54 81 63 54 81 63 54 81 63 55 79 65 56 77 65 56 75 65 56 75 65 56 75 65 56 75 65 56 75 65 56 75 65 56 75 68 59 78 68 59 78 68 59 78 68 59 78 68 59 78 68 59 78 68 59 78 70 59 76 75 58 76 76 58 74 76 58 74 76 58 74 76 58 74 76 58 74 76 58 74 76 58 74 76 58 74 76 58 74 76 58 74 76 58 74 76 58 74 76 58 74 76 58 74 75 58 74 75 58 74 73 59 74 73 59 74 73 59 74 73 59 74 73 59 74 73 59 74 73 59 74 72 58 73 72 58 73 72 58 73 72 58 73 72 58 73 72 58 73 72 58 73 72 58 73 76 58 74 76 58 74 76 58 74 76 58 74 76 58 74 76 58 74 76 58 74 76 58 74 77 59 75 77 59 75 77 59 75 77 59 75 77 59 75 77 59 75 77 59 75 77 59 75 81 60 75 81 60 75 81 60 75 81 60 75 81 60 75 81 60 75 81 60 75 81 60 75 81 60 75 81 60 75 81 60 75 81 60 75 81 60 75 81 60 75 81 60 75 79 61 75 87 69 85 86 69 85 86 69 85 86 69 85 86 69 85 86 69 85 86 69 85 86 69 85 84 67 83 84 67 83
84 109 140 84 109 140 84 109 140 84 109 140 84 108 142 81 103 140 81 103 140 81 103 140 81 103 140 81 103 140 81 103 140 81 103 140 81 103 140 71 93 130 71 93 130 71 93 130 71 93 130 71 93 130 71 93 130 71 93 130 71 93 130 60 78 116 60 78 116 60 78 116 60 78 116 60 78 116 60 78 116 60 78 116 60 78 116 50 68 106 50 68 106 50 68 106 50 68 106 50 68 106 50 68 106 50 68 106 50 68 104 48 64 98 48 64 97 48 64 97 48 64 97 48 64 97 48 64 97 48 64 97 48 64 97 47 63 96 47 63 96 47 63 96 47 63 96 47 63 96 47 63 96 47 63 96 48 63 94 49 62 94 51 62 92 51 62 92 51 62 92 51 62 92 51 62 92 51 62 92 51 62 92 49 60 90 49 60 90 49 60 90 49 60 90 49 60 90 49 60 90 49 60 90 52 59 88 59 58 90 62 57 89 62 57 89 62 57 89 62 57 89 62 57 89 62 57 89 62 57 89 59 54 86 59 54 86 59 54 86 59 54 86 59 54 86 59 54 86 59 54 86 59 54 86 58 55 86 58 55 86 58 55 86 58 55 86 58 55 86 58 55 86 58 55 86 58 55 86 57 54 85 57 54 85 57 54 85 57 54 85 57 54 85 57 54 85 57 54 85 58 53 83 60 54 82 62 53 80 62 53 80 62 53 80 62 53 80 62 53 80 62 53 80 62 53 80 63 54 81 63 54 81 63 54 81 63 54 81 63 54 81 63 54 81 63 54 81 63 55 79 65 56 77 65 56 75 65 56 75 65 56 75 65 56 75 65 56 75 65 56 75 65 56 75 68 59 78 68 59 78 68 59 78 68 59 78 68 59 78 68 59 78 68 59 78 70 59 76 75 58 76 76 58 74 76 58 74 76 58 74 76 58 74 76 58 74 76 58 74 76 58 74 76 58 74 76 58 74 76 58 74 76 58 74 76 58 74 76 58 74 76 58 74 75 58 74 75 58 74 73 59 74 73 59 74 73 59 74 73 59 74 73 59 74 73 59 74 73 59 74 72 58 73 72 58 73 72 58 73 72 58 73 72 58 73 72 58 73 72 58 73 72 58 73 76 58 74 76 58 74 76 58 74 76 58 74 76 58 74 76 58 74 76 58 74 76 58 74 77 59 75 77 59 75 77 59 75 77 59 75 77 59 75 77 59 75 77 59 75 77 59 75 81 60 75 81 60 75 81 60 75 81 60 75 81 60 75 81 60 75 81 60 75 81 60 75 81 60 75 81 60 75 81 60 75 81 60 75 81 60 75 81 60 75 81 60 75 79 61 75 81 63 79 80 63 79 80 63 79 80 63 79 80 63 79 80 63 79 80 63 79 80 63 79 82 65 81 82 65 81
86 111 141 86 111 141 86 111 141 86 111 141 86 111 142 86 109 143 86 108 145 86 108 145 86 108 145 86 108 145 86 108 145 86 108 145 86 108 145 76 98 135 76 98 135 76 98 135 76 98 135 76 98 135 76 98 135 76 98 135 76 98 135 62 80 118 62 80 118 62 80 118 62 80 118 62 80 118 62 80 118 62 80 118 62 80 118 50 68 106 50 68 106 50 68 106 50 68 106 50 68 106 50 68 106 50 68 106 50 68 104 48 64 98 48 64 97 48 64 97 48 64 97 48 64 97 48 64 97 48 64 97 48 64 97 47 63 96 47 63 96 47 63 96 47 63 96 47 63 96 47 63 96 47 63 96 48 63 94 49 62 94 51 62 92 51 62 92 51 62 92 51 62 92 51 62 92 51 62 92 51 62 92 49 60 90 49 60 90 49 60 90 49 60 90 49 60 90 49 60 90 49 60 90 52 59 88 58 59 90 61 58 89 61 58 89 61 58 89 61 58 89 61 58 89 61 58 89 61 58 89 58 55 86 58 55 86 58 55 86 58 55 86 58 55 86 58 55 86 58 55 86 58 55 86 58 55 86 58 55 86 58 55 86 58 55 86 58 55 86 58 55 86 58 55 86 58 55 86 57 54 85 57 54 85 57 54 85 57 54 85 57 54 85 57 54 85 57 54 85 58 53 83 60 54 82 62 53 80 62 53 80 62 53 80 62 53 80 62 53 80 62 53 80 62 53 80 63 54 81 63 54 81 63 54 81 63 54 81 63 54 81 63 54 81 63 54 81 63 55 79 65 56 77 65 56 75 65 56 75 65 56 75 65 56 75 65 56 75 65 56 75 65 56 75 68 59 78 68 59 78 68 59 78 68 59 78 68 59 78 68 59 78 68 59 78 70 59 76 75 58 76 76 58 74 76 58 74 76 58 74 76 58 74 76 58 74 76 58 74 76 58 74 76 58 74 76 58 74 76 58 74 76 58 74 76 58 74 76 58 74 76 58 74 75 58 74 75 58 74 73 59 74 73 59 74 73 59 74 73 59 74 73 59 74 73 59 74 73 59 74 72 58 73 72 58 73 72 58 73 72 58 73 72 58 73 72 58 73 72 58 73 72 58 73 76 58 74 76 58 74 76 58 74 76 58 74 76 58 74 76 58 74 76 58 74 76 58 74 77 59 75 77 59 75 77 59 75 77 59 75 77 59 75 77 59 75 77 59 75 77 59 75 81 60 75 81 60 75 81 60 75 81 60 75 81 60 75 81 60 75 81 60 75 81 60 75 81 60 75 81 60 75 81 60 75 81 60 75 81 60 75 81 60 75 81 60 75 79 61 75 73 55 71 72 55 71 72 55 71 72 55 71 72 55 71 72 55 71 72 55 71 72 55 71 76 59 75 76 59 75
88 114 139 88 114 139 88 114 139 88 114 139 88 114 141 88 111 145 88 110 147 88 110 147 88 110 147 88 110 147 88 110 147 88 110 147 88 110 147 78 100 137 78 100 137 78 100 137 78 100 137 78 100 137 78 100 137 78 100 137 78 100 137 64 82 120 64 82 120 64 82 120 64 82 120 64 82 120 64 82 120 64 82 120 64 82 120 50 68 106 50 68 106 50 68 106 50 68 106 50 68 106 50 68 106 50 68 106 50 68 104 48 64 98 48 64 97 48 64 97 48 64 97 48 64 97 48 64 97 48 64 97 48 64 97 47 63 96 47 63 96 47 63 96 47 63 96 47 63 96 47 63 96 47 63 96 48 63 94 49 62 94 51 62 92 51 62 92 51 62 92 51 62 92 51 62 92 51 62 92 51 62 92 49 60 90 49 60 90 49 60 90 49 60 90 49 60 90 49 60 90 49 60 90 50 59 88 56 59 90 58 59 89 58 59 89 58 59 89 58 59 89 58 59 89 58 59 89 58 59 89 55 56 86 55 56 86 55 56 86 55 56 86 55 56 86 55 56 86 55 56 86 55 56 86 58 55 86 58 55 86 58 55 86 58 55 86 58 55 86 58 55 86 58 55 86 58 55 86 57 54 85 57 54 85 57 54 85 57 54 85 57 54 85 57 54 85 57 54 85 58 53 83 60 54 82 62 53 80 62 53 80 62 53 80 62 53 80 62 53 80 62 53 80 62 53 80 63 54 81 63 54 81 63 54 81 63 54 81 63 54 81 63 54 81 63 54 81 63 55 79 65 56 77 65 56 75 65 56 75 65 56 75 65 56 75 65 56 75 65 56 75 65 56 75 68 59 78 68 59 78 68 59 78 68 59 78 68 59 78 68 59 78 68 59 78 70 59 76 75 58 76 76 58 74 76 58 74 76 58 74 76 58 74 76 58 74 76 58 74 76 58 74 76 58 74 76 58 74 76 58 74 76 58 74 76 58 74 76 58 74 76 58 74 75 58 74 75 58 74 73 59 74 73 59 74 73 59 74 73 59 74 73 59 74 73 59 74 73 59 74 72 58 73 72 58 73 72 58 73 72 58 73 72 58 73 72 58 73 72 58 73 72 58 73 76 58 74 76 58 74 76 58 74 76 58 74 76 58 74 76 58 74 76 58 74 76 58 74 77 59 75 77 59 75 77 59 75 77 59 75 77 59 75 77 59 75 77 59 75 77 59 75 81 60 75 81 60 75 81 60 75 81 60 75 81 60 75 81 60 75 81 60 75 81 60 75 81 60 75 81 60 75 81 60 75 81 60 75 81 60 75 81 60 75 81 60 75 79 61 75 67 49 65 66 49 65 66 49 65 66 49 65 66 49 65 66 49 65 66 49 65 66 49 65 72 55 71 72 55 71
