P3
172 37
255
135 120 149 135 121 147 135 120 149 135 121 147 134 119 148 134 120 146 134 119 148 134 120 146 134 119 148 134 120 146 134 119 148 134 119 148 134 119 148 134 119 148 134 119 150 134 119 148 134 119 150 134 119 148 134 119 150 134 119 148 135 120 151 135 120 149 135 120 151 135 120 149 135 120 151 135 120 149 135 120 151 135 120 149 138 122 151 138 122 149 138 122 151 138 122 149 138 122 151 138 122 149 138 122 151 138 122 149 132 116 145 132 116 143 132 116 145 132 116 143 132 116 145 132 116 143 132 116 145 132 117 140 112 98 111 109 96 105 104 91 100 98 85 94 91 78 87 85 72 81 80 67 76 77 64 73 64 51 60 63 50 59 61 48 57 57 44 53 54 41 50 51 38 47 48 35 44 46 34 46 33 21 41 29 19 43 27 17 42 24 14 38 20 10 35 17 7 31 15 5 30 13 3 27 25 15 40 24 14 38 21 11 36 18 8 32 15 5 30 11 1 25 9 0 24 5 1 18 12 17 21 9 19 18 9 19 18 9 19 18 9 19 18 9 19 18 9 19 18 9 19 18 7 17 16 7 17 16 7 17 16 7 17 16 7 17 16 7 17 16 7 17 16 7 17 16 7 19 15 7 19 15 7 19 15 7 19 15 7 19 15 7 19 15 7 19 15 7 19 15 12 24 20 10 22 18 8 20 16 5 17 13 1 13 9 0 10 6 0 8 4 0 6 2 5 16 10 5 16 10 5 16 10 5 16 10 5 16 10 5 16 10 5 16 10 5 16 10 10 21 15 12 23 17 17 28 22 24 35 29 30 41 35 37 48 42 42 53 47 44 55 49 44 57 48 47 60 51 52 65 56 58 71 62 65 78 69 71 84 75 76 89 80 79 92 83 89 102 93 90 103 94 93 106 97 96 109 100 99 112 103 103 116 107 105 118 109 104 120 110 83 103 92 72 94 82 57 79 67 42 64 52 31 53 41 27 49 37 28 50 38 30 52 40 28 50 38 28 50 38 28 50 38 28 50 38 28 50 38 28 50 38 28 50 38 28 50 38 25 47 35 25 47 35 25 47 35 25 47 35 25 47 35 25 47 35 25 47 35 25 47 35 28 50 38 28 50 38 28 50 38 28 50 38 28 50 38 28 50 38 28 50 38 28 50 38
135 121 147 135 121 147 135 121 147 135 121 147 134 120 146 134 120 146 134 120 146 134 120 146 134 120 146 134 120 146 134 120 146 134 120 146 134 119 148 134 119 148 134 119 148 134 119 148 134 119 148 134 119 148 134 119 148 134 119 148 135 120 149 135 120 149 135 120 149 135 120 149 135 120 149 135 120 149 135 120 149 135 120 149 136 123 149 134 124 149 136 123 149 134 124 149 136 123 149 134 124 149 136 123 149 134 124 149 130 117 143 128 118 143 130 117 143 128 118 143 130 117 143 128 118 143 130 117 143 130 118 140 109 98 112 106 96 105 102 90 100 95 85 94 89 77 87 82 72 81 78 66 76 74 64 73 62 50 60 60 50 59 58 46 56 54 44 53 52 40 50 47 37 46 46 34 44 44 33 47 26 19 37 22 17 39 22 14 37 17 12 34 15 7 30 10 5 27 10 2 25 6 1 23 27 19 42 24 19 41 23 15 38 18 13 35 17 9 32 11 6 28 11 3 26 7 4 21 12 17 23 9 19 20 9 19 20 9 19 20 9 19 20 9 19 20 9 19 20 9 19 20 7 17 18 7 17 18 7 17 18 7 17 18 7 17 18 7 17 18 7 17 18 7 17 18 8 18 17 8 18 17 8 18 17 8 18 17 8 18 17 8 18 17 8 18 17 8 18 17 13 23 22 11 21 20 9 19 18 6 16 15 2 12 11 0 9 8 0 7 6 0 5 4 5 16 12 5 16 12 6 15 12 5 16 12 6 15 12 5 16 12 6 15 12 5 16 12 11 20 17 12 23 19 18 27 24 24 35 31 31 40 37 37 48 44 43 52 49 44 55 49 44 55 49 47 58 50 52 63 57 58 69 61 65 76 70 71 82 74 76 87 81 79 90 82 89 100 94 90 101 93 92 103 97 96 107 99 99 110 104 102 113 105 105 116 110 105 118 109 85 102 92 72 94 82 58 78 67 42 64 52 32 52 41 27 49 37 29 49 38 30 52 40 29 49 38 28 50 38 29 49 38 28 50 38 29 49 38 28 50 38 29 49 38 28 50 38 26 46 35 25 47 35 26 46 37 25 47 35 26 46 37 25 47 35 26 46 37 25 47 35 29 49 40 28 50 38 29 49 40 28 50 38 29 49 40 28 50 38 29 49 40 28 50 38
132 119 139 132 119 139 132 119 139 132 119 139 135 122 142 135 122 142 135 122 142 135 122 142 135 122 142 135 122 142 135 122 142 135 121 144 139 123 149 139 123 149 139 123 149 139 123 149 139 123 149 139 123 149 139 123 149 139 123 149 138 122 148 138 122 148 138 122 148 138 122 148 138 122 148 138 122 148 138 122 148 137 123 148 134 120 143 133 121 141 134 121 141 133 121 141 134 121 141 133 121 141 134 121 141 133 121 141 134 121 141 134 122 142 135 122 142 136 124 144 138 125 145 138 126 146 140 127 147 140 129 146 103 97 111 97 94 105 92 86 98 80 77 88 72 66 78 60 57 68 55 49 61 49 46 57 16 10 22 14 11 22 16 10 22 14 11 22 16 10 22 14 11 22 16 10 22 14 10 24 11 10 24 9 11 24 11 10 24 9 11 24 11 10 24 9 11 24 11 10 24 9 11 24 11 10 24 9 11 24 11 10 24 9 11 24 11 10 24 9 11 24 11 10 24 9 11 23 7 14 20 7 15 18 7 15 18 7 15 18 7 15 18 7 15 18 7 15 18 7 15 18 11 19 22 11 19 22 11 19 22 11 19 22 11 19 22 11 19 22 11 19 22 11 19 22 14 22 25 14 22 25 14 22 25 14 22 25 14 22 25 14 22 25 14 22 25 14 22 25 31 39 42 29 37 40 24 32 35 17 25 28 11 19 22 4 12 15 0 7 10 0 5 8 3 11 13 3 12 11 5 11 11 3 12 11 5 11 11 3 12 11 5 11 11 3 12 11 9 15 15 9 18 17 16 22 22 21 30 29 29 35 35 34 43 42 41 47 47 43 49 49 52 58 56 54 60 56 56 62 60 59 65 61 63 69 67 66 72 68 68 74 72 70 76 72 84 90 88 85 91 87 88 94 92 91 97 93 94 100 98 98 104 100 100 106 104 101 107 103 90 96 92 80 86 82 66 71 67 50 56 52 40 45 41 35 41 37 37 42 38 38 44 40 38 43 39 37 43 39 38 43 39 37 43 39 38 43 39 37 43 39 38 43 39 37 43 39 37 42 38 36 42 38 37 41 40 36 42 38 37 41 40 36 42 38 37 41 40 36 42 38 34 38 37 33 39 35 34 38 37 33 39 35 34 38 37 33 39 35 34 38 37 33 39 35
132 119 137 132 119 137 132 119 137 132 119 137 135 122 140 135 122 140 135 122 140 135 122 140 135 122 140 135 122 140 135 122 140 135 122 140 139 124 147 139 124 147 139 124 147 139 124 147 139 124 147 139 124 147 139 124 147 139 124 147 138 123 146 138 123 146 138 123 146 138 123 146 138 123 146 138 123 146 138 123 146 138 123 144 134 121 141 134 121 139 134 121 139 134 121 139 134 121 139 134 121 139 134 121 139 134 121 139 133 120 138 133 120 138 134 121 139 134 121 139 135 122 140 136 123 141 136 123 141 135 124 141 97 93 107 92 90 103 85 83 96 75 73 86 65 63 76 55 53 66 48 46 59 44 42 55 13 11 24 13 11 24 13 11 24 13 11 24 13 11 24 13 11 24 13 11 24 12 12 24 9 11 23 8 12 23 8 12 23 8 12 23 8 12 23 8 12 23 8 12 23 8 12 23 8 12 23 8 12 23 8 12 23 8 12 23 8 12 23 8 12 23 8 12 23 8 12 21 7 14 22 7 14 20 7 14 20 7 14 20 7 14 20 7 14 20 7 14 20 7 14 20 11 18 24 11 18 24 11 18 24 11 18 24 11 18 24 11 18 24 11 18 24 11 18 24 16 21 27 16 21 27 16 21 27 16 21 27 16 21 27 16 21 27 16 21 27 16 21 27 33 38 44 31 36 42 26 31 37 19 24 30 13 18 24 6 11 17 1 6 12 0 4 8 5 10 14 5 10 13 5 10 13 5 10 13 5 10 13 5 10 13 5 10 13 5 10 13 9 14 17 11 16 19 16 21 24 23 28 31 29 34 37 36 41 44 41 46 49 43 49 49 53 57 58 55 59 58 57 61 60 60 64 63 64 68 67 67 71 70 69 73 72 71 75 74 84 88 87 85 89 88 87 91 90 91 95 94 94 98 97 97 101 100 100 104 103 103 105 104 94 94 92 85 84 82 70 69 67 55 54 52 44 43 41 40 39 37 41 40 38 43 42 40 42 41 39 42 41 39 42 41 39 42 41 39 42 41 39 42 41 39 42 41 39 42 41 39 41 39 40 41 39 40 41 39 40 41 39 40 41 39 40 41 39 40 41 39 40 41 39 40 38 36 37 38 36 37 38 36 37 38 36 37 38 36 37 38 36 37 38 36 37 38 36 37
132 119 137 132 119 137 132 119 137 132 119 137 135 122 140 135 122 140 135 122 140 135 122 140 135 122 140 135 122 140 135 122 140 135 122 140 139 124 147 139 124 147 139 124 147 139 124 147 139 124 147 139 124 147 139 124 147 139 124 147 138 123 146 138 123 146 138 123 146 138 123 146 138 123 146 138 123 146 138 123 146 138 123 144 134 121 141 134 121 139 134 121 139 134 121 139 134 121 139 134 121 139 134 121 139 134 121 139 132 119 137 131 118 136 131 118 136 130 117 135 129 116 134 129 116 134 128 115 133 127 116 133 90 86 100 85 83 96 77 75 88 68 66 79 58 56 69 48 46 59 41 39 52 37 35 48 13 11 24 13 11 24 13 11 24 13 11 24 13 11 24 13 11 24 13 11 24 12 12 24 9 11 23 8 12 23 8 12 23 8 12 23 8 12 23 8 12 23 8 12 23 8 12 23 8 12 23 8 12 23 8 12 23 8 12 23 8 12 23 8 12 23 8 12 23 8 12 21 7 14 22 7 14 20 7 14 20 7 14 20 7 14 20 7 14 20 7 14 20 7 14 20 11 18 24 11 18 24 11 18 24 11 18 24 11 18 24 11 18 24 11 18 24 11 18 24 16 21 27 16 21 27 16 21 27 16 21 27 16 21 27 16 21 27 16 21 27 16 21 27 33 38 44 31 36 42 26 31 37 19 24 30 13 18 24 6 11 17 1 6 12 0 4 8 5 10 14 5 10 13 5 10 13 5 10 13 5 10 13 5 10 13 5 10 13 5 10 13 9 14 17 11 16 19 16 21 24 23 28 31 29 34 37 36 41 44 41 46 49 43 49 49 53 57 58 55 59 58 57 61 60 60 64 63 64 68 67 67 71 70 69 73 72 71 75 74 81 85 84 83 87 86 85 89 88 88 92 91 92 96 95 95 99 98 97 101 100 101 103 102 94 94 92 85 84 82 70 69 67 55 54 52 44 43 41 40 39 37 41 40 38 43 42 40 42 41 39 42 41 39 42 41 39 42 41 39 42 41 39 42 41 39 42 41 39 42 41 39 41 39 40 41 39 40 41 39 40 41 39 40 41 39 40 41 39 40 41 39 40 41 39 40 38 36 37 38 36 37 38 36 37 38 36 37 38 36 37 38 36 37 38 36 37 38 36 37
132 119 137 132 119 137 132 119 137 132 119 137 135 122 140 135 122 140 135 122 140 135 122 140 135 122 140 135 122 140 135 122 140 135 122 140 139 124 147 139 124 147 139 124 147 139 124 147 139 124 147 139 124 147 139 124 147 139 124 147 138 123 146 138 123 146 138 123 146 138 123 146 138 123 146 138 123 146 138 123 146 138 123 144 134 121 141 134 121 139 134 121 139 134 121 139 134 121 139 134 121 139 134 121 139 134 121 139 130 117 135 129 116 134 127 114 132 125 112 130 122 109 127 120 107 125 118 105 123 116 105 122 80 76 90 75 73 86 68 66 79 58 56 69 48 46 59 38 36 49 31 29 42 27 25 38 13 11 24 13 11 24 13 11 24 13 11 24 13 11 24 13 11 24 13 11 24 12 12 24 9 11 23 8 12 23 8 12 23 8 12 23 8 12 23 8 12 23 8 12 23 8 12 23 8 12 23 8 12 23 8 12 23 8 12 23 8 12 23 8 12 23 8 12 23 8 12 21 7 14 22 7 14 20 7 14 20 7 14 20 7 14 20 7 14 20 7 14 20 7 14 20 11 18 24 11 18 24 11 18 24 11 18 24 11 18 24 11 18 24 11 18 24 11 18 24 16 21 27 16 21 27 16 21 27 16 21 27 16 21 27 16 21 27 16 21 27 16 21 27 33 38 44 31 36 42 26 31 37 19 24 30 13 18 24 6 11 17 1 6 12 0 4 8 5 10 14 5 10 13 5 10 13 5 10 13 5 10 13 5 10 13 5 10 13 5 10 13 9 14 17 11 16 19 16 21 24 23 28 31 29 34 37 36 41 44 41 46 49 43 49 49 53 57 58 55 59 58 57 61 60 60 64 63 64 68 67 67 71 70 69 73 72 71 75 74 78 82 81 79 83 82 82 86 85 85 89 88 88 92 91 92 96 95 94 98 97 97 99 98 94 94 92 85 84 82 70 69 67 55 54 52 44 43 41 40 39 37 41 40 38 43 42 40 42 41 39 42 41 39 42 41 39 42 41 39 42 41 39 42 41 39 42 41 39 42 41 39 41 39 40 41 39 40 41 39 40 41 39 40 41 39 40 41 39 40 41 39 40 41 39 40 38 36 37 38 36 37 38 36 37 38 36 37 38 36 37 38 36 37 38 36 37 38 36 37
132 119 137 132 119 137 132 119 137 132 119 137 135 122 140 135 122 140 135 122 140 135 122 140 135 122 140 135 122 140 135 122 140 135 122 140 139 124 147 139 124 147 139 124 147 139 124 147 139 124 147 139 124 147 139 124 147 139 124 147 138 123 146 138 123 146 138 123 146 138 123 146 138 123 146 138 123 146 138 123 146 138 123 144 134 121 141 134 121 139 134 121 139 134 121 139 134 121 139 134 121 139 134 121 139 134 121 139 128 115 133 126 113 131 123 110 128 119 106 124 114 101 119 110 97 115 107 94 112 105 94 111 70 66 80 65 63 76 58 56 69 48 46 59 38 36 49 28 26 39 21 19 32 17 15 28 13 11 24 13 11 24 13 11 24 13 11 24 13 11 24 13 11 24 13 11 24 12 12 24 9 11 23 8 12 23 8 12 23 8 12 23 8 12 23 8 12 23 8 12 23 8 12 23 8 12 23 8 12 23 8 12 23 8 12 23 8 12 23 8 12 23 8 12 23 8 12 21 7 14 22 7 14 20 7 14 20 7 14 20 7 14 20 7 14 20 7 14 20 7 14 20 11 18 24 11 18 24 11 18 24 11 18 24 11 18 24 11 18 24 11 18 24 11 18 24 16 21 27 16 21 27 16 21 27 16 21 27 16 21 27 16 21 27 16 21 27 16 21 27 33 38 44 31 36 42 26 31 37 19 24 30 13 18 24 6 11 17 1 6 12 0 4 8 5 10 14 5 10 13 5 10 13 5 10 13 5 10 13 5 10 13 5 10 13 5 10 13 9 14 17 11 16 19 16 21 24 23 28 31 29 34 37 36 41 44 41 46 49 43 49 49 53 57 58 55 59 58 57 61 60 60 64 63 64 68 67 67 71 70 69 73 72 71 75 74 75 79 78 76 80 79 78 82 81 82 86 85 85 89 88 88 92 91 91 95 94 94 96 95 94 94 92 85 84 82 70 69 67 55 54 52 44 43 41 40 39 37 41 40 38 43 42 40 42 41 39 42 41 39 42 41 39 42 41 39 42 41 39 42 41 39 42 41 39 42 41 39 41 39 40 41 39 40 41 39 40 41 39 40 41 39 40 41 39 40 41 39 40 41 39 40 38 36 37 38 36 37 38 36 37 38 36 37 38 36 37 38 36 37 38 36 37 38 36 37
132 119 137 132 119 137 132 119 137 132 119 137 135 122 140 135 122 140 135 122 140 135 122 140 135 122 140 135 122 140 135 122 140 135 122 140 139 124 147 139 124 147 139 124 147 139 124 147 139 124 147 139 124 147 139 124 147 139 124 147 138 123 146 138 123 146 138 123 146 138 123 146 138 123 146 138 123 146 138 123 146 138 123 144 134 121 141 134 121 139 134 121 139 134 121 139 134 121 139 134 121 139 134 121 139 134 121 139 126 113 131 123 110 128 119 106 124 113 100 118 107 94 112 101 88 106 97 84 102 94 83 100 60 56 70 55 53 66 48 46 59 38 36 49 28 26 39 19 17 30 11 9 22 7 5 18 13 11 24 13 11 24 13 11 24 13 11 24 13 11 24 13 11 24 13 11 24 12 12 24 9 11 23 8 12 23 8 12 23 8 12 23 8 12 23 8 12 23 8 12 23 8 12 23 8 12 23 8 12 23 8 12 23 8 12 23 8 12 23 8 12 23 8 12 23 8 12 21 7 14 22 7 14 20 7 14 20 7 14 20 7 14 20 7 14 20 7 14 20 7 14 20 11 18 24 11 18 24 11 18 24 11 18 24 11 18 24 11 18 24 11 18 24 11 18 24 16 21 27 16 21 27 16 21 27 16 21 27 16 21 27 16 21 27 16 21 27 16 21 27 33 38 44 31 36 42 26 31 37 19 24 30 13 18 24 6 11 17 1 6 12 0 4 8 5 10 14 5 10 13 5 10 13 5 10 13 5 10 13 5 10 13 5 10 13 5 10 13 9 14 17 11 16 19 16 21 24 23 28 31 29 34 37 36 41 44 41 46 49 43 49 49 53 57 58 55 59 58 57 61 60 60 64 63 64 68 67 67 71 70 69 73 72 71 75 74 71 75 74 73 77 76 75 79 78 78 82 81 82 86 85 85 89 88 87 91 90 91 93 92 94 94 92 85 84 82 70 69 67 55 54 52 44 43 41 40 39 37 41 40 38 43 42 40 42 41 39 42 41 39 42 41 39 42 41 39 42 41 39 42 41 39 42 41 39 42 41 39 41 39 40 41 39 40 41 39 40 41 39 40 41 39 40 41 39 40 41 39 40 41 39 40 38 36 37 38 36 37 38 36 37 38 36 37 38 36 37 38 36 37 38 36 37 38 36 37
132 119 137 132 119 137 132 119 137 132 119 137 135 122 140 135 122 140 135 122 140 135 122 140 135 122 140 135 122 140 135 122 140 135 122 140 139 124 147 139 124 147 139 124 147 139 124 147 139 124 147 139 124 147 139 124 147 139 124 147 138 123 146 138 123 146 138 123 146 138 123 146 138 123 146 138 123 146 138 123 146 138 123 144 134 121 141 134 121 139 134 121 139 134 121 139 134 121 139 134 121 139 134 121 139 134 121 139 124 111 129 121 108 126 116 103 121 109 96 114 102 89 107 95 82 100 89 76 94 85 74 91 53 49 63 48 46 59 41 39 52 31 29 42 21 19 32 11 9 22 4 2 15 0 0 11 13 11 24 13 11 24 13 11 24 13 11 24 13 11 24 13 11 24 13 11 24 12 12 24 9 11 23 8 12 23 8 12 23 8 12 23 8 12 23 8 12 23 8 12 23 8 12 23 8 12 23 8 12 23 8 12 23 8 12 23 8 12 23 8 12 23 8 12 23 8 12 21 7 14 22 7 14 20 7 14 20 7 14 20 7 14 20 7 14 20 7 14 20 7 14 20 11 18 24 11 18 24 11 18 24 11 18 24 11 18 24 11 18 24 11 18 24 11 18 24 16 21 27 16 21 27 16 21 27 16 21 27 16 21 27 16 21 27 16 21 27 16 21 27 33 38 44 31 36 42 26 31 37 19 24 30 13 18 24 6 11 17 1 6 12 0 4 8 5 10 14 5 10 13 5 10 13 5 10 13 5 10 13 5 10 13 5 10 13 5 10 13 9 14 17 11 16 19 16 21 24 23 28 31 29 34 37 36 41 44 41 46 49 43 49 49 53 57 58 55 59 58 57 61 60 60 64 63 64 68 67 67 71 70 69 73 72 71 75 74 69 73 72 70 74 73 73 77 76 76 80 79 79 83 82 83 87 86 85 89 88 88 90 89 94 94 92 85 84 82 70 69 67 55 54 52 44 43 41 40 39 37 41 40 38 43 42 40 42 41 39 42 41 39 42 41 39 42 41 39 42 41 39 42 41 39 42 41 39 42 41 39 41 39 40 41 39 40 41 39 40 41 39 40 41 39 40 41 39 40 41 39 40 41 39 40 38 36 37 38 36 37 38 36 37 38 36 37 38 36 37 38 36 37 38 36 37 38 36 37
132 119 137 132 119 137 132 119 137 132 119 137 135 122 140 135 122 140 135 122 140 135 122 140 135 122 140 135 122 140 135 122 140 135 122 140 139 124 147 139 124 147 139 124 147 139 124 147 139 124 147 139 124 147 139 124 147 139 124 147 138 123 146 138 123 146 138 123 146 138 123 146 138 123 146 138 123 146 138 123 146 138 123 144 134 121 141 134 121 139 134 121 139 134 121 139 134 121 139 134 121 139 134 121 139 134 121 139 123 110 128 120 107 125 114 101 119 107 94 112 99 86 104 91 78 96 85 72 90 81 70 87 49 45 59 44 42 55 37 35 48 27 25 38 17 15 28 7 5 18 0 0 11 0 0 11 13 11 24 13 11 24 13 11 24 13 11 24 13 11 24 13 11 24 13 11 24 12 12 24 9 11 23 8 12 23 8 12 23 8 12 23 8 12 23 8 12 23 8 12 23 8 12 23 8 12 23 8 12 23 8 12 23 8 12 23 8 12 23 8 12 23 8 12 23 8 12 21 7 14 22 7 14 20 7 14 20 7 14 20 7 14 20 7 14 20 7 14 20 7 14 20 11 18 24 11 18 24 11 18 24 11 18 24 11 18 24 11 18 24 11 18 24 11 18 24 16 21 27 16 21 27 16 21 27 16 21 27 16 21 27 16 21 27 16 21 27 16 21 27 33 38 44 31 36 42 26 31 37 19 24 30 13 18 24 6 11 17 1 6 12 0 4 8 5 10 14 5 10 13 5 10 13 5 10 13 5 10 13 5 10 13 5 10 13 5 10 13 9 14 17 11 16 19 16 21 24 23 28 31 29 34 37 36 41 44 41 46 49 43 49 49 53 57 58 55 59 58 57 61 60 60 64 63 64 68 67 67 71 70 69 73 72 71 75 74 68 72 71 69 73 72 71 75 74 75 79 78 78 82 81 81 85 84 84 88 87 87 89 88 94 94 92 85 84 82 70 69 67 55 54 52 44 43 41 40 39 37 41 40 38 43 42 40 42 41 39 42 41 39 42 41 39 42 41 39 42 41 39 42 41 39 42 41 39 42 41 39 41 39 40 41 39 40 41 39 40 41 39 40 41 39 40 41 39 40 41 39 40 41 39 40 38 36 37 38 36 37 38 36 37 38 36 37 38 36 37 38 36 37 38 36 37 38 36 37
124 111 129 122 109 127 120 107 125 119 106 124 135 122 140 135 122 140 134 121 139 133 120 138 131 118 136 130 117 135 129 116 134 129 116 134 125 110 133 125 110 133 125 110 133 125 110 133 125 110 133 125 110 133 125 110 133 125 110 133 121 106 129 121 106 129 121 106 129 121 106 129 121 106 129 121 106 129 121 106 129 121 106 127 125 112 132 126 113 131 126 113 131 128 115 133 129 116 134 130 117 135 131 118 136 132 119 137 128 115 133 122 109 127 111 98 116 97 84 102 82 69 87 68 55 73 57 44 62 51 40 57 14 10 24 13 11 24 13 11 24 13 11 24 13 11 24 13 11 24 13 11 24 13 11 24 12 10 23 12 10 23 12 10 23 12 10 23 12 10 23 12 10 23 12 10 23 11 11 23 8 10 22 7 11 22 7 11 22 7 11 22 7 11 22 7 11 22 7 11 22 7 11 22 7 11 22 7 11 22 7 11 22 7 11 22 7 11 22 7 11 22 7 11 22 7 11 20 9 16 24 9 16 22 9 16 22 9 16 22 9 16 22 9 16 22 9 16 22 9 16 22 9 16 22 10 17 23 12 19 25 16 23 29 19 26 32 22 29 35 25 32 38 26 33 39 41 46 52 39 44 50 37 42 48 34 39 45 30 35 41 27 32 38 25 30 36 23 28 34 19 24 30 17 22 28 15 20 26 12 17 23 8 13 19 5 10 16 3 8 14 1 6 10 3 8 12 3 8 11 3 8 11 3 8 11 3 8 11 3 8 11 3 8 11 3 8 11 12 17 20 14 19 22 16 21 24 19 24 27 23 28 31 26 31 34 28 33 36 30 36 36 50 54 55 51 55 54 54 58 57 57 61 60 60 64 63 64 68 67 66 70 69 67 71 70 74 78 77 74 78 77 74 78 77 74 78 77 74 78 77 74 78 77 74 78 77 76 78 77 68 68 66 67 66 64 62 61 59 55 54 52 49 48 46 42 41 39 37 36 34 35 34 32 35 34 32 35 34 32 35 34 32 35 34 32 35 34 32 35 34 32 35 34 32 35 34 32 36 34 35 36 34 35 36 34 35 36 34 35 36 34 35 36 34 35 36 34 35 36 34 35 38 36 37 38 36 37 38 36 37 38 36 37 38 36 37 38 36 37 38 36 37 38 36 37
117 104 122 118 105 123 118 105 123 119 106 124 122 109 127 121 108 126 121 108 126 120 107 125 120 107 125 119 106 124 119 106 124 119 106 124 123 108 131 123 108 131 123 108 131 123 108 131 123 108 131 123 108 131 123 108 131 123 108 131 121 106 129 121 106 129 121 106 129 121 106 129 121 106 129 121 106 129 121 106 129 121 106 127 124 111 131 124 111 129 125 112 130 125 112 130 126 113 131 127 114 132 127 114 132 127 114 132 121 108 126 115 102 120 105 92 110 92 79 97 77 64 82 64 51 69 54 41 59 47 36 53 14 10 24 13 11 24 13 11 24 13 11 24 13 11 24 13 11 24 13 11 24 13 11 24 12 10 23 12 10 23 12 10 23 12 10 23 12 10 23 12 10 23 12 10 23 11 11 23 8 10 22 7 11 22 7 11 22 7 11 22 7 11 22 7 11 22 7 11 22 7 11 22 7 11 22 7 11 22 7 11 22 7 11 22 7 11 22 7 11 22 7 11 22 7 11 20 9 16 24 9 16 22 9 16 22 9 16 22 9 16 22 9 16 22 9 16 22 9 16 22 10 17 23 11 18 24 14 21 27 17 24 30 20 27 33 24 31 37 26 33 39 27 34 40 41 46 52 39 44 50 37 42 48 34 39 45 30 35 41 27 32 38 25 30 36 23 28 34 19 24 30 17 22 28 15 20 26 12 17 23 8 13 19 5 10 16 3 8 14 1 6 10 3 8 12 3 8 11 3 8 11 3 8 11 3 8 11 3 8 11 3 8 11 3 8 11 12 17 20 14 19 22 16 21 24 19 24 27 23 28 31 26 31 34 28 33 36 30 36 36 49 53 54 50 54 53 52 56 55 56 60 59 59 63 62 62 66 65 65 69 68 66 70 69 72 76 75 72 76 75 72 76 75 72 76 75 72 76 75 72 76 75 72 76 75 74 76 75 68 68 66 67 66 64 62 61 59 55 54 52 49 48 46 42 41 39 37 36 34 35 34 32 35 34 32 35 34 32 35 34 32 35 34 32 35 34 32 35 34 32 35 34 32 35 34 32 36 34 35 36 34 35 36 34 35 36 34 35 36 34 35 36 34 35 36 34 35 36 34 35 38 36 37 38 36 37 38 36 37 38 36 37 38 36 37 38 36 37 38 36 37 38 36 37
102 89 107 108 95 113 112 99 117 114 101 119 107 94 112 107 94 112 108 95 113 108 95 113 109 96 114 110 97 115 110 97 115 111 98 116 121 106 129 121 106 129 121 106 129 121 106 129 121 106 129 121 106 129 121 106 129 121 106 129 121 106 129 121 106 129 121 106 129 121 106 129 121 106 129 121 106 129 121 106 129 121 106 127 123 110 130 122 109 127 122 109 127 121 108 126 120 107 125 120 107 125 119 106 124 119 106 124 107 94 112 102 89 107 93 80 98 81 68 86 68 55 73 56 43 61 47 34 52 41 30 47 14 10 24 13 11 24 13 11 24 13 11 24 13 11 24 13 11 24 13 11 24 13 11 24 12 10 23 12 10 23 12 10 23 12 10 23 12 10 23 12 10 23 12 10 23 11 11 23 8 10 22 7 11 22 7 11 22 7 11 22 7 11 22 7 11 22 7 11 22 7 11 22 7 11 22 7 11 22 7 11 22 7 11 22 7 11 22 7 11 22 7 11 22 7 11 20 9 16 24 9 16 22 9 16 22 9 16 22 9 16 22 9 16 22 9 16 22 9 16 22 12 19 25 14 21 27 16 23 29 19 26 32 23 30 36 26 33 39 28 35 41 30 37 43 41 46 52 39 44 50 37 42 48 34 39 45 30 35 41 27 32 38 25 30 36 23 28 34 19 24 30 17 22 28 15 20 26 12 17 23 8 13 19 5 10 16 3 8 14 1 6 10 3 8 12 3 8 11 3 8 11 3 8 11 3 8 11 3 8 11 3 8 11 3 8 11 12 17 20 14 19 22 16 21 24 19 24 27 23 28 31 26 31 34 28 33 36 30 36 36 46 50 51 48 52 51 50 54 53 53 57 56 57 61 60 60 64 63 62 66 65 64 68 67 70 74 73 70 74 73 70 74 73 70 74 73 70 74 73 70 74 73 70 74 73 72 74 73 68 68 66 67 66 64 62 61 59 55 54 52 49 48 46 42 41 39 37 36 34 35 34 32 35 34 32 35 34 32 35 34 32 35 34 32 35 34 32 35 34 32 35 34 32 35 34 32 36 34 35 36 34 35 36 34 35 36 34 35 36 34 35 36 34 35 36 34 35 36 34 35 38 36 37 38 36 37 38 36 37 38 36 37 38 36 37 38 36 37 38 36 37 38 36 37
82 69 87 91 78 96 97 84 102 101 88 106 101 88 106 102 89 107 103 90 108 106 93 111 108 95 113 110 97 115 112 99 117 113 100 118 118 103 126 118 103 126 118 103 126 118 103 126 118 103 126 118 103 126 118 103 126 118 103 126 121 106 129 121 106 129 121 106 129 121 106 129 121 106 129 121 106 129 121 106 129 121 106 127 121 108 128 120 107 125 118 105 123 116 103 121 113 100 118 111 98 116 109 96 114 108 95 113 90 77 95 86 73 91 78 65 83 68 55 73 56 43 61 46 33 51 38 25 43 33 22 39 14 10 24 13 11 24 13 11 24 13 11 24 13 11 24 13 11 24 13 11 24 13 11 24 12 10 23 12 10 23 12 10 23 12 10 23 12 10 23 12 10 23 12 10 23 11 11 23 8 10 22 7 11 22 7 11 22 7 11 22 7 11 22 7 11 22 7 11 22 7 11 22 7 11 22 7 11 22 7 11 22 7 11 22 7 11 22 7 11 22 7 11 22 7 11 20 9 16 24 9 16 22 9 16 22 9 16 22 9 16 22 9 16 22 9 16 22 9 16 22 16 23 29 17 24 30 19 26 32 23 30 36 26 33 39 29 36 42 32 39 45 33 40 46 41 46 52 39 44 50 37 42 48 34 39 45 30 35 41 27 32 38 25 30 36 23 28 34 19 24 30 17 22 28 15 20 26 12 17 23 8 13 19 5 10 16 3 8 14 1 6 10 3 8 12 3 8 11 3 8 11 3 8 11 3 8 11 3 8 11 3 8 11 3 8 11 12 17 20 14 19 22 16 21 24 19 24 27 23 28 31 26 31 34 28 33 36 30 36 36 43 47 48 44 48 47 47 51 50 50 54 53 53 57 56 57 61 60 59 63 62 60 64 63 67 71 70 67 71 70 67 71 70 67 71 70 67 71 70 67 71 70 67 71 70 69 71 70 68 68 66 67 66 64 62 61 59 55 54 52 49 48 46 42 41 39 37 36 34 35 34 32 35 34 32 35 34 32 35 34 32 35 34 32 35 34 32 35 34 32 35 34 32 35 34 32 36 34 35 36 34 35 36 34 35 36 34 35 36 34 35 36 34 35 36 34 35 36 34 35 38 36 37 38 36 37 38 36 37 38 36 37 38 36 37 38 36 37 38 36 37 38 36 37
58 45 63 67 54 72 73 60 78 77 64 82 95 82 100 97 84 102 100 87 105 104 91 109 109 96 114 113 100 118 116 103 121 117 104 122 114 99 122 114 99 122 114 99 122 114 99 122 114 99 122 114 99 122 114 99 122 114 99 122 121 106 129 121 106 129 121 106 129 121 106 129 121 106 129 121 106 129 121 106 129 121 106 127 119 106 126 117 104 122 114 101 119 110 97 115 105 92 110 101 88 106 98 85 103 97 84 102 72 59 77 68 55 73 61 48 66 53 40 58 43 30 48 35 22 40 28 15 33 23 12 29 14 10 24 13 11 24 13 11 24 13 11 24 13 11 24 13 11 24 13 11 24 13 11 24 12 10 23 12 10 23 12 10 23 12 10 23 12 10 23 12 10 23 12 10 23 11 11 23 8 10 22 7 11 22 7 11 22 7 11 22 7 11 22 7 11 22 7 11 22 7 11 22 7 11 22 7 11 22 7 11 22 7 11 22 7 11 22 7 11 22 7 11 22 7 11 20 9 16 24 9 16 22 9 16 22 9 16 22 9 16 22 9 16 22 9 16 22 9 16 22 19 26 32 20 27 33 23 30 36 26 33 39 29 36 42 33 40 46 35 42 48 36 43 49 41 46 52 39 44 50 37 42 48 34 39 45 30 35 41 27 32 38 25 30 36 23 28 34 19 24 30 17 22 28 15 20 26 12 17 23 8 13 19 5 10 16 3 8 14 1 6 10 3 8 12 3 8 11 3 8 11 3 8 11 3 8 11 3 8 11 3 8 11 3 8 11 12 17 20 14 19 22 16 21 24 19 24 27 23 28 31 26 31 34 28 33 36 30 36 36 40 44 45 41 45 44 43 47 46 47 51 50 50 54 53 53 57 56 56 60 59 57 61 60 63 67 66 63 67 66 63 67 66 63 67 66 63 67 66 63 67 66 63 67 66 65 67 66 68 68 66 67 66 64 62 61 59 55 54 52 49 48 46 42 41 39 37 36 34 35 34 32 35 34 32 35 34 32 35 34 32 35 34 32 35 34 32 35 34 32 35 34 32 35 34 32 36 34 35 36 34 35 36 34 35 36 34 35 36 34 35 36 34 35 36 34 35 36 34 35 38 36 37 38 36 37 38 36 37 38 36 37 38 36 37 38 36 37 38 36 37 38 36 37
34 21 39 39 26 44 43 30 48 46 33 51 78 65 83 80 67 85 84 71 89 90 77 95 96 83 101 102 89 107 106 93 111 109 96 114 111 96 119 111 96 119 111 96 119 111 96 119 111 96 119 111 96 119 111 96 119 111 96 119 121 106 129 121 106 129 121 106 129 121 106 129 121 106 129 121 106 129 121 106 129 121 106 127 117 104 124 114 101 119 110 97 115 104 91 109 98 85 103 92 79 97 88 75 93 86 73 91 55 42 60 52 39 57 46 33 51 39 26 44 32 19 37 24 11 29 19 6 24 15 4 21 14 10 24 13 11 24 13 11 24 13 11 24 13 11 24 13 11 24 13 11 24 13 11 24 12 10 23 12 10 23 12 10 23 12 10 23 12 10 23 12 10 23 12 10 23 11 11 23 8 10 22 7 11 22 7 11 22 7 11 22 7 11 22 7 11 22 7 11 22 7 11 22 7 11 22 7 11 22 7 11 22 7 11 22 7 11 22 7 11 22 7 11 22 7 11 20 9 16 24 9 16 22 9 16 22 9 16 22 9 16 22 9 16 22 9 16 22 9 16 22 22 29 35 24 31 37 26 33 39 29 36 42 33 40 46 36 43 49 38 45 51 40 47 53 41 46 52 39 44 50 37 42 48 34 39 45 30 35 41 27 32 38 25 30 36 23 28 34 19 24 30 17 22 28 15 20 26 12 17 23 8 13 19 5 10 16 3 8 14 1 6 10 3 8 12 3 8 11 3 8 11 3 8 11 3 8 11 3 8 11 3 8 11 3 8 11 12 17 20 14 19 22 16 21 24 19 24 27 23 28 31 26 31 34 28 33 36 30 36 36 36 40 41 38 42 41 40 44 43 43 47 46 47 51 50 50 54 53 52 56 55 54 58 57 60 64 63 60 64 63 60 64 63 60 64 63 60 64 63 60 64 63 60 64 63 62 64 63 68 68 66 67 66 64 62 61 59 55 54 52 49 48 46 42 41 39 37 36 34 35 34 32 35 34 32 35 34 32 35 34 32 35 34 32 35 34 32 35 34 32 35 34 32 35 34 32 36 34 35 36 34 35 36 34 35 36 34 35 36 34 35 36 34 35 36 34 35 36 34 35 38 36 37 38 36 37 38 36 37 38 36 37 38 36 37 38 36 37 38 36 37 38 36 37
14 1 19 15 2 20 16 3 21 16 3 21 47 34 52 50 37 55 55 42 60 62 49 67 70 57 75 77 64 82 82 69 87 85 72 90 109 94 117 109 94 117 109 94 117 109 94 117 109 94 117 109 94 117 109 94 117 109 94 117 121 106 129 121 106 129 121 106 129 121 106 129 121 106 129 121 106 129 121 106 129 121 106 127 115 102 122 112 99 117 107 94 112 100 87 105 93 80 98 86 73 91 80 67 85 77 64 82 41 28 46 39 26 44 35 22 40 29 16 34 22 9 27 17 4 22 12 0 17 9 0 15 14 10 24 13 11 24 13 11 24 13 11 24 13 11 24 13 11 24 13 11 24 13 11 24 12 10 23 12 10 23 12 10 23 12 10 23 12 10 23 12 10 23 12 10 23 11 11 23 8 10 22 7 11 22 7 11 22 7 11 22 7 11 22 7 11 22 7 11 22 7 11 22 7 11 22 7 11 22 7 11 22 7 11 22 7 11 22 7 11 22 7 11 22 7 11 20 9 16 24 9 16 22 9 16 22 9 16 22 9 16 22 9 16 22 9 16 22 9 16 22 25 32 38 26 33 39 28 35 41 32 39 45 35 42 48 38 45 51 41 48 54 42 49 55 41 46 52 39 44 50 37 42 48 34 39 45 30 35 41 27 32 38 25 30 36 23 28 34 19 24 30 17 22 28 15 20 26 12 17 23 8 13 19 5 10 16 3 8 14 1 6 10 3 8 12 3 8 11 3 8 11 3 8 11 3 8 11 3 8 11 3 8 11 3 8 11 12 17 20 14 19 22 16 21 24 19 24 27 23 28 31 26 31 34 28 33 36 30 36 36 34 38 39 35 39 38 38 42 41 41 45 44 44 48 47 48 52 51 50 54 53 51 55 54 58 62 61 58 62 61 58 62 61 58 62 61 58 62 61 58 62 61 58 62 61 60 62 61 68 68 66 67 66 64 62 61 59 55 54 52 49 48 46 42 41 39 37 36 34 35 34 32 35 34 32 35 34 32 35 34 32 35 34 32 35 34 32 35 34 32 35 34 32 35 34 32 36 34 35 36 34 35 36 34 35 36 34 35 36 34 35 36 34 35 36 34 35 36 34 35 38 36 37 38 36 37 38 36 37 38 36 37 38 36 37 38 36 37 38 36 37 38 36 37
6 0 12 6 0 12 6 0 12 6 0 12 21 10 27 24 13 30 30 19 36 38 27 44 46 35 52 53 42 59 59 48 65 62 50 70 106 92 115 106 92 115 106 92 115 106 92 115 106 92 115 106 92 115 106 92 115 106 92 115 120 106 129 120 106 129 120 106 129 120 106 129 120 106 129 120 106 129 120 106 129 119 107 129 113 101 121 108 99 116 104 93 110 95 86 103 89 78 95 79 70 87 75 64 81 70 61 78 33 22 39 29 20 37 27 16 33 20 11 28 17 6 23 9 0 17 7 0 13 3 0 12 13 11 24 12 12 24 12 12 24 12 12 24 12 12 24 12 12 24 12 12 24 12 12 24 11 11 23 11 11 23 11 11 23 11 11 23 11 11 23 11 11 23 11 11 23 11 11 23 7 11 22 7 11 20 7 11 22 7 11 20 7 11 22 7 11 20 7 11 22 7 11 20 7 11 22 7 11 20 7 11 22 7 11 20 7 11 22 7 11 20 7 11 22 7 11 20 9 16 22 9 16 22 9 16 22 9 16 22 9 16 22 9 16 22 9 16 22 9 16 22 26 33 39 27 34 40 30 37 43 33 40 46 36 43 49 40 47 53 42 49 55 43 50 56 41 46 52 39 44 50 37 42 48 34 39 45 30 35 41 27 32 38 25 30 36 23 28 34 19 24 30 17 22 28 15 20 26 12 17 23 8 13 19 5 10 16 3 8 14 1 6 10 3 8 12 3 8 11 3 8 11 3 8 11 3 8 11 3 8 11 3 8 11 3 8 11 12 17 20 14 19 22 16 21 24 19 24 27 23 28 31 26 31 34 28 33 36 30 35 38 33 37 38 34 38 37 36 40 39 40 44 43 43 47 46 46 50 49 49 53 52 50 54 53 56 60 59 56 60 59 56 60 59 56 60 59 56 60 59 56 60 59 56 60 59 58 60 59 68 68 66 67 66 64 62 61 59 55 54 52 49 48 46 42 41 39 37 36 34 35 34 32 35 34 32 35 34 32 35 34 32 35 34 32 35 34 32 35 34 32 35 34 32 35 34 32 36 35 33 36 35 33 38 34 35 36 35 33 38 34 35 36 35 33 38 34 35 36 35 33 40 36 37 38 37 35 40 36 37 38 37 35 40 36 37 38 37 35 40 36 37 38 37 35
6 2 19 6 2 19 6 2 19 6 2 19 7 3 20 7 3 20 7 3 20 7 3 20 7 3 20 7 3 20 7 3 20 7 3 20 34 26 47 37 29 50 43 35 56 51 43 64 59 51 72 67 59 80 72 64 85 76 68 89 98 90 111 98 90 111 98 90 111 98 90 111 98 90 111 98 90 111 98 90 111 98 90 111 71 67 84 66 63 80 62 58 75 53 50 67 46 42 59 37 34 51 32 28 45 28 25 42 10 6 23 9 6 23 10 6 23 9 6 23 10 6 23 9 6 23 10 6 23 9 7 21 5 7 19 5 8 17 5 8 17 5 8 17 5 8 17 5 8 17 5 8 17 5 8 17 9 12 21 9 12 21 9 12 21 9 12 21 9 12 21 9 12 21 9 12 21 8 12 21 8 12 21 6 13 19 6 13 21 6 13 19 6 13 21 6 13 19 6 13 21 6 13 19 7 14 22 7 14 20 7 14 22 7 14 20 7 14 22 7 14 20 7 14 22 7 14 20 0 3 9 0 6 12 4 11 17 10 17 23 17 24 30 23 30 36 28 35 41 31 38 44 63 70 76 61 68 74 59 66 72 56 63 69 52 59 65 49 56 62 47 54 60 45 52 58 46 54 57 44 52 55 42 50 53 39 47 50 35 43 46 32 40 43 30 38 41 28 36 39 18 26 29 16 24 27 14 22 25 11 19 22 7 15 18 4 12 15 2 10 13 0 8 11 5 13 16 5 13 16 5 13 16 5 13 16 5 13 16 5 13 16 5 13 16 5 13 16 10 18 21 12 20 23 14 22 25 17 25 28 21 29 32 24 32 35 26 34 37 28 36 38 30 36 36 32 38 36 34 40 38 37 43 41 41 47 45 44 50 48 46 52 50 48 54 52 56 62 60 56 62 60 56 62 60 56 62 60 56 62 60 56 62 60 56 62 60 57 61 60 52 52 50 51 50 48 49 48 46 46 45 43 42 41 39 39 38 36 37 36 34 35 34 32 34 33 31 34 33 31 34 33 31 34 33 31 34 33 31 34 33 31 34 33 31 34 33 31 36 32 31 36 32 29 37 31 31 36 32 29 37 31 31 36 32 29 37 31 31 36 32 29 39 33 33 38 34 31 39 33 33 38 34 31 39 33 33 38 34 31 39 33 33 38 34 31
5 2 19 5 2 19 5 2 19 5 2 19 6 3 20 6 3 20 6 3 20 6 3 20 6 3 20 6 3 20 6 3 20 6 3 20 13 8 28 16 11 31 22 17 37 29 24 44 36 31 51 43 38 58 48 43 63 51 46 66 67 62 82 67 62 82 67 62 82 67 62 82 67 62 82 67 62 82 67 62 82 66 63 82 60 57 74 56 55 71 50 49 65 43 42 58 36 35 51 29 28 44 24 23 39 21 20 36 8 7 23 8 7 23 8 7 23 8 7 23 8 7 23 8 7 23 8 7 23 6 8 21 5 7 19 4 8 17 4 8 17 4 8 17 4 8 17 4 8 17 4 8 17 4 8 17 8 12 21 8 12 21 8 12 21 8 12 21 8 12 21 8 12 21 8 12 21 8 12 21 6 13 19 6 13 19 6 13 19 6 13 19 6 13 19 6 13 19 6 13 19 6 13 19 7 14 20 7 14 20 7 14 20 7 14 20 7 14 20 7 14 20 7 14 20 7 14 20 0 6 12 2 9 15 6 13 19 13 20 26 20 27 33 26 33 39 31 38 44 34 41 47 63 70 76 61 68 74 59 66 72 56 63 69 52 59 65 49 56 62 47 54 60 45 52 58 46 54 57 44 52 55 42 50 53 39 47 50 35 43 46 32 40 43 30 38 41 28 36 39 18 26 29 16 24 27 14 22 25 11 19 22 7 15 18 4 12 15 2 10 13 0 8 11 5 13 16 5 13 16 5 13 16 5 13 16 5 13 16 5 13 16 5 13 16 5 13 16 10 18 21 12 20 23 14 22 25 17 25 28 21 29 32 24 32 35 26 34 37 28 36 38 30 36 36 32 38 36 34 40 38 37 43 41 41 47 45 44 50 48 46 52 50 48 54 52 54 60 58 54 60 58 54 60 58 54 60 58 54 60 58 54 60 58 54 60 58 55 59 58 52 52 50 51 50 48 49 48 46 46 45 43 42 41 39 39 38 36 37 36 34 35 34 32 34 33 31 34 33 31 34 33 31 34 33 31 34 33 31 34 33 31 34 33 31 34 33 31 37 32 29 37 32 29 37 32 29 37 32 29 37 32 29 37 32 29 37 32 29 37 32 29 39 34 31 39 34 31 39 34 31 39 34 31 39 34 31 39 34 31 39 34 31 39 34 31
5 2 19 5 2 19 5 2 19 5 2 19 6 3 20 6 3 20 6 3 20 6 3 20 6 3 20 6 3 20 6 3 20 6 3 20 1 0 16 1 0 16 1 0 16 7 2 22 13 8 28 19 14 34 23 18 38 26 21 41 32 27 47 32 27 47 32 27 47 32 27 47 32 27 47 32 27 47 32 27 47 31 28 47 43 40 57 40 39 55 36 35 51 30 29 45 24 23 39 18 17 33 14 13 29 11 10 26 8 7 23 8 7 23 8 7 23 8 7 23 8 7 23 8 7 23 8 7 23 6 8 21 5 7 19 4 8 17 4 8 17 4 8 17 4 8 17 4 8 17 4 8 17 4 8 17 8 12 21 8 12 21 8 12 21 8 12 21 8 12 21 8 12 21 8 12 21 8 12 21 6 13 19 6 13 19 6 13 19 6 13 19 6 13 19 6 13 19 6 13 19 6 13 19 7 14 20 7 14 20 7 14 20 7 14 20 7 14 20 7 14 20 7 14 20 7 14 20 4 11 17 6 13 19 11 18 24 18 25 31 25 32 38 31 38 44 36 43 49 39 46 52 63 70 76 61 68 74 59 66 72 56 63 69 52 59 65 49 56 62 47 54 60 45 52 58 46 54 57 44 52 55 42 50 53 39 47 50 35 43 46 32 40 43 30 38 41 28 36 39 18 26 29 16 24 27 14 22 25 11 19 22 7 15 18 4 12 15 2 10 13 0 8 11 5 13 16 5 13 16 5 13 16 5 13 16 5 13 16 5 13 16 5 13 16 5 13 16 10 18 21 12 20 23 14 22 25 17 25 28 21 29 32 24 32 35 26 34 37 28 36 38 30 36 36 32 38 36 34 40 38 37 43 41 41 47 45 44 50 48 46 52 50 48 54 52 52 58 56 52 58 56 52 58 56 52 58 56 52 58 56 52 58 56 52 58 56 53 57 56 52 52 50 51 50 48 49 48 46 46 45 43 42 41 39 39 38 36 37 36 34 35 34 32 34 33 31 34 33 31 34 33 31 34 33 31 34 33 31 34 33 31 34 33 31 34 33 31 37 32 29 37 32 29 37 32 29 37 32 29 37 32 29 37 32 29 37 32 29 37 32 29 39 34 31 39 34 31 39 34 31 39 34 31 39 34 31 39 34 31 39 34 31 39 34 31
5 2 19 5 2 19 5 2 19 5 2 19 6 3 20 6 3 20 6 3 20 6 3 20 6 3 20 6 3 20 6 3 20 6 3 20 1 0 16 1 0 16 1 0 16 1 0 16 5 0 20 9 4 24 12 7 27 14 9 29 13 8 28 13 8 28 13 8 28 13 8 28 13 8 28 13 8 28 13 8 28 12 9 28 27 24 41 24 23 39 21 20 36 17 16 32 13 12 28 9 8 24 5 4 20 4 3 19 8 7 23 8 7 23 8 7 23 8 7 23 8 7 23 8 7 23 8 7 23 6 8 21 5 7 19 4 8 17 4 8 17 4 8 17 4 8 17 4 8 17 4 8 17 4 8 17 8 12 21 8 12 21 8 12 21 8 12 21 8 12 21 8 12 21 8 12 21 8 12 21 6 13 19 6 13 19 6 13 19 6 13 19 6 13 19 6 13 19 6 13 19 6 13 19 7 14 20 7 14 20 7 14 20 7 14 20 7 14 20 7 14 20 7 14 20 7 14 20 10 17 23 13 20 26 18 25 31 24 31 37 31 38 44 37 44 50 42 49 55 45 52 58 63 70 76 61 68 74 59 66 72 56 63 69 52 59 65 49 56 62 47 54 60 45 52 58 46 54 57 44 52 55 42 50 53 39 47 50 35 43 46 32 40 43 30 38 41 28 36 39 18 26 29 16 24 27 14 22 25 11 19 22 7 15 18 4 12 15 2 10 13 0 8 11 5 13 16 5 13 16 5 13 16 5 13 16 5 13 16 5 13 16 5 13 16 5 13 16 10 18 21 12 20 23 14 22 25 17 25 28 21 29 32 24 32 35 26 34 37 28 36 38 30 36 36 32 38 36 34 40 38 37 43 41 41 47 45 44 50 48 46 52 50 48 54 52 49 55 53 49 55 53 49 55 53 49 55 53 49 55 53 49 55 53 49 55 53 50 54 53 52 52 50 51 50 48 49 48 46 46 45 43 42 41 39 39 38 36 37 36 34 35 34 32 34 33 31 34 33 31 34 33 31 34 33 31 34 33 31 34 33 31 34 33 31 34 33 31 37 32 29 37 32 29 37 32 29 37 32 29 37 32 29 37 32 29 37 32 29 37 32 29 39 34 31 39 34 31 39 34 31 39 34 31 39 34 31 39 34 31 39 34 31 39 34 31
5 2 19 5 2 19 5 2 19 5 2 19 6 3 20 6 3 20 6 3 20 6 3 20 6 3 20 6 3 20 6 3 20 6 3 20 3 0 18 4 0 19 6 1 21 8 3 23 11 6 26 13 8 28 15 10 30 16 11 31 13 8 28 13 8 28 13 8 28 13 8 28 13 8 28 13 8 28 13 8 28 12 9 28 15 12 29 13 12 28 11 10 26 9 8 24 7 6 22 4 3 19 3 2 18 2 1 17 8 7 23 8 7 23 8 7 23 8 7 23 8 7 23 8 7 23 8 7 23 6 8 21 5 7 19 4 8 17 4 8 17 4 8 17 4 8 17 4 8 17 4 8 17 4 8 17 8 12 21 8 12 21 8 12 21 8 12 21 8 12 21 8 12 21 8 12 21 8 12 21 6 13 19 6 13 19 6 13 19 6 13 19 6 13 19 6 13 19 6 13 19 6 13 19 7 14 20 7 14 20 7 14 20 7 14 20 7 14 20 7 14 20 7 14 20 7 14 20 17 24 30 20 27 33 25 32 38 31 38 44 38 45 51 44 51 57 49 56 62 52 59 65 63 70 76 61 68 74 59 66 72 56 63 69 52 59 65 49 56 62 47 54 60 45 52 58 46 54 57 44 52 55 42 50 53 39 47 50 35 43 46 32 40 43 30 38 41 28 36 39 18 26 29 16 24 27 14 22 25 11 19 22 7 15 18 4 12 15 2 10 13 0 8 11 5 13 16 5 13 16 5 13 16 5 13 16 5 13 16 5 13 16 5 13 16 5 13 16 10 18 21 12 20 23 14 22 25 17 25 28 21 29 32 24 32 35 26 34 37 28 36 38 30 36 36 32 38 36 34 40 38 37 43 41 41 47 45 44 50 48 46 52 50 48 54 52 45 51 49 45 51 49 45 51 49 45 51 49 45 51 49 45 51 49 45 51 49 46 50 49 52 52 50 51 50 48 49 48 46 46 45 43 42 41 39 39 38 36 37 36 34 35 34 32 34 33 31 34 33 31 34 33 31 34 33 31 34 33 31 34 33 31 34 33 31 34 33 31 37 32 29 37 32 29 37 32 29 37 32 29 37 32 29 37 32 29 37 32 29 37 32 29 39 34 31 39 34 31 39 34 31 39 34 31 39 34 31 39 34 31 39 34 31 39 34 31
5 2 19 5 2 19 5 2 19 5 2 19 6 3 20 6 3 20 6 3 20 6 3 20 6 3 20 6 3 20 6 3 20 6 3 20 12 7 27 12 7 27 13 8 28 14 9 29 14 9 29 15 10 30 16 11 31 16 11 31 16 11 31 16 11 31 16 11 31 16 11 31 16 11 31 16 11 31 16 11 31 15 12 31 10 7 24 9 8 24 8 7 23 8 7 23 7 6 22 6 5 21 6 5 21 5 4 20 8 7 23 8 7 23 8 7 23 8 7 23 8 7 23 8 7 23 8 7 23 6 8 21 5 7 19 4 8 17 4 8 17 4 8 17 4 8 17 4 8 17 4 8 17 4 8 17 8 12 21 8 12 21 8 12 21 8 12 21 8 12 21 8 12 21 8 12 21 8 12 21 6 13 19 6 13 19 6 13 19 6 13 19 6 13 19 6 13 19 6 13 19 6 13 19 7 14 20 7 14 20 7 14 20 7 14 20 7 14 20 7 14 20 7 14 20 7 14 20 23 30 36 26 33 39 31 38 44 37 44 50 44 51 57 51 58 64 56 63 69 58 65 71 63 70 76 61 68 74 59 66 72 56 63 69 52 59 65 49 56 62 47 54 60 45 52 58 46 54 57 44 52 55 42 50 53 39 47 50 35 43 46 32 40 43 30 38 41 28 36 39 18 26 29 16 24 27 14 22 25 11 19 22 7 15 18 4 12 15 2 10 13 0 8 11 5 13 16 5 13 16 5 13 16 5 13 16 5 13 16 5 13 16 5 13 16 5 13 16 10 18 21 12 20 23 14 22 25 17 25 28 21 29 32 24 32 35 26 34 37 28 36 38 30 36 36 32 38 36 34 40 38 37 43 41 41 47 45 44 50 48 46 52 50 48 54 52 42 48 46 42 48 46 42 48 46 42 48 46 42 48 46 42 48 46 42 48 46 43 47 46 52 52 50 51 50 48 49 48 46 46 45 43 42 41 39 39 38 36 37 36 34 35 34 32 34 33 31 34 33 31 34 33 31 34 33 31 34 33 31 34 33 31 34 33 31 34 33 31 37 32 29 37 32 29 37 32 29 37 32 29 37 32 29 37 32 29 37 32 29 37 32 29 39 34 31 39 34 31 39 34 31 39 34 31 39 34 31 39 34 31 39 34 31 39 34 31
5 2 19 5 2 19 5 2 19 5 2 19 6 3 20 6 3 20 6 3 20 6 3 20 6 3 20 6 3 20 6 3 20 6 3 20 9 4 24 9 4 24 8 3 23 8 3 23 7 2 22 7 2 22 6 1 21 6 1 21 13 8 28 13 8 28 13 8 28 13 8 28 13 8 28 13 8 28 13 8 28 12 9 28 10 7 24 9 8 24 9 8 24 10 9 25 11 10 26 11 10 26 12 11 27 12 11 27 8 7 23 8 7 23 8 7 23 8 7 23 8 7 23 8 7 23 8 7 23 6 8 21 5 7 19 4 8 17 4 8 17 4 8 17 4 8 17 4 8 17 4 8 17 4 8 17 8 12 21 8 12 21 8 12 21 8 12 21 8 12 21 8 12 21 8 12 21 8 12 21 6 13 19 6 13 19 6 13 19 6 13 19 6 13 19 6 13 19 6 13 19 6 13 19 7 14 20 7 14 20 7 14 20 7 14 20 7 14 20 7 14 20 7 14 20 7 14 20 28 35 41 31 38 44 36 43 49 42 49 55 49 56 62 56 63 69 60 67 73 63 70 76 63 70 76 61 68 74 59 66 72 56 63 69 52 59 65 49 56 62 47 54 60 45 52 58 46 54 57 44 52 55 42 50 53 39 47 50 35 43 46 32 40 43 30 38 41 28 36 39 18 26 29 16 24 27 14 22 25 11 19 22 7 15 18 4 12 15 2 10 13 0 8 11 5 13 16 5 13 16 5 13 16 5 13 16 5 13 16 5 13 16 5 13 16 5 13 16 10 18 21 12 20 23 14 22 25 17 25 28 21 29 32 24 32 35 26 34 37 28 36 38 30 36 36 32 38 36 34 40 38 37 43 41 41 47 45 44 50 48 46 52 50 48 54 52 40 46 44 40 46 44 40 46 44 40 46 44 40 46 44 40 46 44 40 46 44 41 45 44 52 52 50 51 50 48 49 48 46 46 45 43 42 41 39 39 38 36 37 36 34 35 34 32 34 33 31 34 33 31 34 33 31 34 33 31 34 33 31 34 33 31 34 33 31 34 33 31 37 32 29 37 32 29 37 32 29 37 32 29 37 32 29 37 32 29 37 32 29 37 32 29 39 34 31 39 34 31 39 34 31 39 34 31 39 34 31 39 34 31 39 34 31 39 34 31
5 2 19 5 2 19 5 2 19 5 2 19 6 3 20 6 3 20 6 3 20 6 3 20 6 3 20 6 3 20 6 3 20 6 3 20 2 0 17 1 0 16 1 0 16 1 0 16 1 0 16 1 0 16 1 0 16 1 0 16 7 2 22 7 2 22 7 2 22 7 2 22 7 2 22 7 2 22 7 2 22 6 3 22 11 8 25 10 9 25 11 10 26 13 12 28 14 13 29 15 14 30 16 15 31 17 16 32 8 7 23 8 7 23 8 7 23 8 7 23 8 7 23 8 7 23 8 7 23 6 8 21 5 7 19 4 8 17 4 8 17 4 8 17 4 8 17 4 8 17 4 8 17 4 8 17 8 12 21 8 12 21 8 12 21 8 12 21 8 12 21 8 12 21 8 12 21 8 12 21 6 13 19 6 13 19 6 13 19 6 13 19 6 13 19 6 13 19 6 13 19 6 13 19 7 14 20 7 14 20 7 14 20 7 14 20 7 14 20 7 14 20 7 14 20 7 14 20 31 38 44 34 41 47 39 46 52 45 52 58 52 59 65 58 65 71 63 70 76 66 73 79 63 70 76 61 68 74 59 66 72 56 63 69 52 59 65 49 56 62 47 54 60 45 52 58 46 54 57 44 52 55 42 50 53 39 47 50 35 43 46 32 40 43 30 38 41 28 36 39 18 26 29 16 24 27 14 22 25 11 19 22 7 15 18 4 12 15 2 10 13 0 8 11 5 13 16 5 13 16 5 13 16 5 13 16 5 13 16 5 13 16 5 13 16 5 13 16 10 18 21 12 20 23 14 22 25 17 25 28 21 29 32 24 32 35 26 34 37 28 36 38 30 36 36 32 38 36 34 40 38 37 43 41 41 47 45 44 50 48 46 52 50 48 54 52 38 44 42 38 44 42 38 44 42 38 44 42 38 44 42 38 44 42 38 44 42 39 43 42 52 52 50 51 50 48 49 48 46 46 45 43 42 41 39 39 38 36 37 36 34 35 34 32 34 33 31 34 33 31 34 33 31 34 33 31 34 33 31 34 33 31 34 33 31 34 33 31 37 32 29 37 32 29 37 32 29 37 32 29 37 32 29 37 32 29 37 32 29 37 32 29 39 34 31 39 34 31 39 34 31 39 34 31 39 34 31 39 34 31 39 34 31 39 34 31
5 2 19 5 2 19 5 2 19 5 2 19 5 2 19 5 2 19 5 2 19 5 2 19 5 2 19 5 2 19 5 2 19 5 2 19 6 1 21 6 1 21 6 1 21 6 1 21 6 1 21 6 1 21 6 1 21 6 1 21 8 3 23 8 3 23 8 3 23 8 3 23 8 3 23 8 3 23 8 3 23 7 4 23 7 4 21 6 5 21 6 5 21 6 5 21 6 5 21 6 5 21 6 5 21 6 5 21 6 5 21 6 5 21 6 5 21 6 5 21 6 5 21 6 5 21 6 5 21 4 6 19 7 9 21 6 10 19 6 10 19 6 10 19 6 10 19 6 10 19 6 10 19 6 10 19 7 11 20 7 11 20 7 11 20 7 11 20 7 11 20 7 11 20 7 11 20 7 11 20 8 15 21 8 15 21 8 15 21 8 15 21 8 15 21 8 15 21 8 15 21 8 15 21 24 31 37 23 30 36 21 28 34 19 26 32 16 23 29 14 21 27 12 19 25 11 18 24 59 66 72 59 66 72 59 66 72 59 66 72 59 66 72 59 66 72 59 66 72 59 66 72 68 75 81 66 73 79 64 71 77 61 68 74 57 64 70 54 61 67 52 59 65 50 57 63 47 55 58 45 53 56 43 51 54 40 48 51 36 44 47 33 41 44 31 39 42 29 37 40 20 28 31 18 26 29 16 24 27 13 21 24 9 17 20 6 14 17 4 12 15 2 10 13 6 14 17 6 14 17 6 14 17 6 14 17 6 14 17 6 14 17 6 14 17 6 14 17 10 18 21 12 20 23 14 22 25 17 25 28 21 29 32 24 32 35 26 34 37 28 36 38 30 36 36 30 36 34 30 36 34 30 36 34 30 36 34 30 36 34 30 36 34 30 36 34 33 39 37 33 39 37 33 39 37 33 39 37 33 39 37 33 39 37 33 39 37 34 38 37 32 32 30 33 32 30 33 32 30 33 32 30 33 32 30 33 32 30 33 32 30 33 32 30 33 32 30 33 32 30 33 32 30 33 32 30 33 32 30 33 32 30 33 32 30 33 32 30 37 32 29 37 32 29 37 32 29 37 32 29 37 32 29 37 32 29 37 32 29 37 32 29 38 33 30 38 33 30 38 33 30 38 33 30 38 33 30 38 33 30 38 33 30 38 33 30
5 2 19 5 2 19 5 2 19 5 2 19 5 2 19 5 2 19 5 2 19 5 2 19 5 2 19 5 2 19 5 2 19 5 2 19 6 1 21 6 1 21 6 1 21 6 1 21 6 1 21 6 1 21 6 1 21 6 1 21 8 3 23 8 3 23 8 3 23 8 3 23 8 3 23 8 3 23 8 3 23 7 4 23 7 4 21 6 5 21 6 5 21 6 5 21 6 5 21 6 5 21 6 5 21 6 5 21 6 5 21 6 5 21 6 5 21 6 5 21 6 5 21 6 5 21 6 5 21 4 6 19 7 9 21 6 10 19 6 10 19 6 10 19 6 10 19 6 10 19 6 10 19 6 10 19 7 11 20 7 11 20 7 11 20 7 11 20 7 11 20 7 11 20 7 11 20 7 11 20 8 15 21 8 15 21 8 15 21 8 15 21 8 15 21 8 15 21 8 15 21 8 15 21 18 25 31 18 25 31 19 26 32 20 27 33 21 28 34 22 29 35 22 29 35 23 30 36 59 66 72 59 66 72 59 66 72 59 66 72 59 66 72 59 66 72 59 66 72 59 66 72 68 75 81 66 73 79 64 71 77 61 68 74 57 64 70 54 61 67 52 59 65 50 57 63 47 55 58 45 53 56 43 51 54 40 48 51 36 44 47 33 41 44 31 39 42 29 37 40 20 28 31 18 26 29 16 24 27 13 21 24 9 17 20 6 14 17 4 12 15 2 10 13 6 14 17 6 14 17 6 14 17 6 14 17 6 14 17 6 14 17 6 14 17 6 14 17 10 18 21 12 20 23 14 22 25 17 25 28 21 29 32 24 32 35 26 34 37 28 36 38 30 36 36 30 36 34 30 36 34 30 36 34 30 36 34 30 36 34 30 36 34 30 36 34 33 39 37 33 39 37 33 39 37 33 39 37 33 39 37 33 39 37 33 39 37 34 38 37 32 32 30 33 32 30 33 32 30 33 32 30 33 32 30 33 32 30 33 32 30 33 32 30 33 32 30 33 32 30 33 32 30 33 32 30 33 32 30 33 32 30 33 32 30 33 32 30 37 32 29 37 32 29 37 32 29 37 32 29 37 32 29 37 32 29 37 32 29 37 32 29 38 33 30 38 33 30 38 33 30 38 33 30 38 33 30 38 33 30 38 33 30 38 33 30
5 2 19 5 2 19 5 2 19 5 2 19 5 2 19 5 2 19 5 2 19 5 2 19 5 2 19 5 2 19 5 2 19 5 2 19 6 1 21 6 1 21 6 1 21 6 1 21 6 1 21 6 1 21 6 1 21 6 1 21 8 3 23 8 3 23 8 3 23 8 3 23 8 3 23 8 3 23 8 3 23 7 4 23 7 4 21 6 5 21 6 5 21 6 5 21 6 5 21 6 5 21 6 5 21 6 5 21 6 5 21 6 5 21 6 5 21 6 5 21 6 5 21 6 5 21 6 5 21 4 6 19 7 9 21 6 10 19 6 10 19 6 10 19 6 10 19 6 10 19 6 10 19 6 10 19 7 11 20 7 11 20 7 11 20 7 11 20 7 11 20 7 11 20 7 11 20 7 11 20 8 15 21 8 15 21 8 15 21 8 15 21 8 15 21 8 15 21 8 15 21 8 15 21 10 17 23 12 19 25 17 24 30 22 29 35 28 35 41 34 41 47 38 45 51 40 47 53 59 66 72 59 66 72 59 66 72 59 66 72 59 66 72 59 66 72 59 66 72 59 66 72 68 75 81 66 73 79 64 71 77 61 68 74 57 64 70 54 61 67 52 59 65 50 57 63 47 55 58 45 53 56 43 51 54 40 48 51 36 44 47 33 41 44 31 39 42 29 37 40 20 28 31 18 26 29 16 24 27 13 21 24 9 17 20 6 14 17 4 12 15 2 10 13 6 14 17 6 14 17 6 14 17 6 14 17 6 14 17 6 14 17 6 14 17 6 14 17 10 18 21 12 20 23 14 22 25 17 25 28 21 29 32 24 32 35 26 34 37 28 36 38 30 36 36 30 36 34 30 36 34 30 36 34 30 36 34 30 36 34 30 36 34 30 36 34 33 39 37 33 39 37 33 39 37 33 39 37 33 39 37 33 39 37 33 39 37 34 38 37 32 32 30 33 32 30 33 32 30 33 32 30 33 32 30 33 32 30 33 32 30 33 32 30 33 32 30 33 32 30 33 32 30 33 32 30 33 32 30 33 32 30 33 32 30 33 32 30 37 32 29 37 32 29 37 32 29 37 32 29 37 32 29 37 32 29 37 32 29 37 32 29 38 33 30 38 33 30 38 33 30 38 33 30 38 33 30 38 33 30 38 33 30 38 33 30
5 2 19 5 2 19 5 2 19 5 2 19 5 2 19 5 2 19 5 2 19 5 2 19 5 2 19 5 2 19 5 2 19 5 2 19 6 1 21 6 1 21 6 1 21 6 1 21 6 1 21 6 1 21 6 1 21 6 1 21 8 3 23 8 3 23 8 3 23 8 3 23 8 3 23 8 3 23 8 3 23 7 4 23 7 4 21 6 5 21 6 5 21 6 5 21 6 5 21 6 5 21 6 5 21 6 5 21 6 5 21 6 5 21 6 5 21 6 5 21 6 5 21 6 5 21 6 5 21 4 6 19 7 9 21 6 10 19 6 10 19 6 10 19 6 10 19 6 10 19 6 10 19 6 10 19 7 11 20 7 11 20 7 11 20 7 11 20 7 11 20 7 11 20 7 11 20 7 11 20 8 15 21 8 15 21 8 15 21 8 15 21 8 15 21 8 15 21 8 15 21 8 15 21 8 15 21 11 18 24 18 25 31 27 34 40 36 43 49 45 52 58 52 59 65 56 63 69 59 66 72 59 66 72 59 66 72 59 66 72 59 66 72 59 66 72 59 66 72 59 66 72 68 75 81 66 73 79 64 71 77 61 68 74 57 64 70 54 61 67 52 59 65 50 57 63 47 55 58 45 53 56 43 51 54 40 48 51 36 44 47 33 41 44 31 39 42 29 37 40 20 28 31 18 26 29 16 24 27 13 21 24 9 17 20 6 14 17 4 12 15 2 10 13 6 14 17 6 14 17 6 14 17 6 14 17 6 14 17 6 14 17 6 14 17 6 14 17 10 18 21 12 20 23 14 22 25 17 25 28 21 29 32 24 32 35 26 34 37 28 36 38 30 36 36 30 36 34 30 36 34 30 36 34 30 36 34 30 36 34 30 36 34 30 36 34 33 39 37 33 39 37 33 39 37 33 39 37 33 39 37 33 39 37 33 39 37 34 38 37 32 32 30 33 32 30 33 32 30 33 32 30 33 32 30 33 32 30 33 32 30 33 32 30 33 32 30 33 32 30 33 32 30 33 32 30 33 32 30 33 32 30 33 32 30 33 32 30 37 32 29 37 32 29 37 32 29 37 32 29 37 32 29 37 32 29 37 32 29 37 32 29 38 33 30 38 33 30 38 33 30 38 33 30 38 33 30 38 33 30 38 33 30 38 33 30
5 2 19 5 2 19 5 2 19 5 2 19 5 2 19 5 2 19 5 2 19 5 2 19 5 2 19 5 2 19 5 2 19 5 2 19 6 1 21 6 1 21 6 1 21 6 1 21 6 1 21 6 1 21 6 1 21 6 1 21 8 3 23 8 3 23 8 3 23 8 3 23 8 3 23 8 3 23 8 3 23 7 4 23 7 4 21 6 5 21 6 5 21 6 5 21 6 5 21 6 5 21 6 5 21 6 5 21 6 5 21 6 5 21 6 5 21 6 5 21 6 5 21 6 5 21 6 5 21 4 6 19 7 9 21 6 10 19 6 10 19 6 10 19 6 10 19 6 10 19 6 10 19 6 10 19 7 11 20 7 11 20 7 11 20 7 11 20 7 11 20 7 11 20 7 11 20 7 11 20 8 15 21 8 15 21 8 15 21 8 15 21 8 15 21 8 15 21 8 15 21 8 15 21 14 21 27 18 25 31 25 32 38 34 41 47 43 50 56 52 59 65 59 66 72 62 69 75 59 66 72 59 66 72 59 66 72 59 66 72 59 66 72 59 66 72 59 66 72 59 66 72 68 75 81 66 73 79 64 71 77 61 68 74 57 64 70 54 61 67 52 59 65 50 57 63 47 55 58 45 53 56 43 51 54 40 48 51 36 44 47 33 41 44 31 39 42 29 37 40 20 28 31 18 26 29 16 24 27 13 21 24 9 17 20 6 14 17 4 12 15 2 10 13 6 14 17 6 14 17 6 14 17 6 14 17 6 14 17 6 14 17 6 14 17 6 14 17 10 18 21 12 20 23 14 22 25 17 25 28 21 29 32 24 32 35 26 34 37 28 36 38 30 36 36 30 36 34 30 36 34 30 36 34 30 36 34 30 36 34 30 36 34 30 36 34 33 39 37 33 39 37 33 39 37 33 39 37 33 39 37 33 39 37 33 39 37 34 38 37 32 32 30 33 32 30 33 32 30 33 32 30 33 32 30 33 32 30 33 32 30 33 32 30 33 32 30 33 32 30 33 32 30 33 32 30 33 32 30 33 32 30 33 32 30 33 32 30 37 32 29 37 32 29 37 32 29 37 32 29 37 32 29 37 32 29 37 32 29 37 32 29 38 33 30 38 33 30 38 33 30 38 33 30 38 33 30 38 33 30 38 33 30 38 33 30
5 2 19 5 2 19 5 2 19 5 2 19 5 2 19 5 2 19 5 2 19 5 2 19 5 2 19 5 2 19 5 2 19 5 2 19 6 1 21 6 1 21 6 1 21 6 1 21 6 1 21 6 1 21 6 1 21 6 1 21 8 3 23 8 3 23 8 3 23 8 3 23 8 3 23 8 3 23 8 3 23 7 4 23 7 4 21 6 5 21 6 5 21 6 5 21 6 5 21 6 5 21 6 5 21 6 5 21 6 5 21 6 5 21 6 5 21 6 5 21 6 5 21 6 5 21 6 5 21 4 6 19 7 9 21 6 10 19 6 10 19 6 10 19 6 10 19 6 10 19 6 10 19 6 10 19 7 11 20 7 11 20 7 11 20 7 11 20 7 11 20 7 11 20 7 11 20 7 11 20 8 15 21 8 15 21 8 15 21 8 15 21 8 15 21 8 15 21 8 15 21 8 15 21 30 37 43 32 39 45 36 43 49 42 49 55 48 55 61 53 60 66 58 65 71 60 67 73 59 66 72 59 66 72 59 66 72 59 66 72 59 66 72 59 66 72 59 66 72 59 66 72 68 75 81 66 73 79 64 71 77 61 68 74 57 64 70 54 61 67 52 59 65 50 57 63 47 55 58 45 53 56 43 51 54 40 48 51 36 44 47 33 41 44 31 39 42 29 37 40 20 28 31 18 26 29 16 24 27 13 21 24 9 17 20 6 14 17 4 12 15 2 10 13 6 14 17 6 14 17 6 14 17 6 14 17 6 14 17 6 14 17 6 14 17 6 14 17 10 18 21 12 20 23 14 22 25 17 25 28 21 29 32 24 32 35 26 34 37 28 36 38 30 36 36 30 36 34 30 36 34 30 36 34 30 36 34 30 36 34 30 36 34 30 36 34 33 39 37 33 39 37 33 39 37 33 39 37 33 39 37 33 39 37 33 39 37 34 38 37 32 32 30 33 32 30 33 32 30 33 32 30 33 32 30 33 32 30 33 32 30 33 32 30 33 32 30 33 32 30 33 32 30 33 32 30 33 32 30 33 32 30 33 32 30 33 32 30 37 32 29 37 32 29 37 32 29 37 32 29 37 32 29 37 32 29 37 32 29 37 32 29 38 33 30 38 33 30 38 33 30 38 33 30 38 33 30 38 33 30 38 33 30 38 33 30
5 2 19 5 2 19 5 2 19 5 2 19 5 2 19 5 2 19 5 2 19 5 2 19 5 2 19 5 2 19 5 2 19 5 2 19 6 1 21 6 1 21 6 1 21 6 1 21 6 1 21 6 1 21 6 1 21 6 1 21 8 3 23 8 3 23 8 3 23 8 3 23 8 3 23 8 3 23 8 3 23 7 4 23 7 4 21 6 5 21 6 5 21 6 5 21 6 5 21 6 5 21 6 5 21 6 5 21 6 5 21 6 5 21 6 5 21 6 5 21 6 5 21 6 5 21 6 5 21 4 6 19 7 9 21 6 10 19 6 10 19 6 10 19 6 10 19 6 10 19 6 10 19 6 10 19 7 11 20 7 11 20 7 11 20 7 11 20 7 11 20 7 11 20 7 11 20 7 11 20 8 15 21 8 15 21 8 15 21 8 15 21 8 15 21 8 15 21 8 15 21 8 15 21 47 54 60 48 55 61 48 55 61 49 56 62 50 57 63 51 58 64 52 59 65 52 59 65 59 66 72 59 66 72 59 66 72 59 66 72 59 66 72 59 66 72 59 66 72 59 66 72 68 75 81 66 73 79 64 71 77 61 68 74 57 64 70 54 61 67 52 59 65 50 57 63 47 55 58 45 53 56 43 51 54 40 48 51 36 44 47 33 41 44 31 39 42 29 37 40 20 28 31 18 26 29 16 24 27 13 21 24 9 17 20 6 14 17 4 12 15 2 10 13 6 14 17 6 14 17 6 14 17 6 14 17 6 14 17 6 14 17 6 14 17 6 14 17 10 18 21 12 20 23 14 22 25 17 25 28 21 29 32 24 32 35 26 34 37 28 36 38 30 36 36 30 36 34 30 36 34 30 36 34 30 36 34 30 36 34 30 36 34 30 36 34 33 39 37 33 39 37 33 39 37 33 39 37 33 39 37 33 39 37 33 39 37 34 38 37 32 32 30 33 32 30 33 32 30 33 32 30 33 32 30 33 32 30 33 32 30 33 32 30 33 32 30 33 32 30 33 32 30 33 32 30 33 32 30 33 32 30 33 32 30 33 32 30 37 32 29 37 32 29 37 32 29 37 32 29 37 32 29 37 32 29 37 32 29 37 32 29 38 33 30 38 33 30 38 33 30 38 33 30 38 33 30 38 33 30 38 33 30 38 33 30
5 3 17 5 3 17 5 3 17 5 3 17 5 3 17 5 3 17 5 3 17 5 3 17 5 3 17 5 3 17 5 3 17 5 3 17 6 2 19 6 2 19 6 2 19 6 2 19 6 2 19 6 2 19 6 2 19 6 2 19 8 4 21 8 4 21 8 4 21 8 4 21 8 4 21 8 4 21 8 4 21 7 4 21 6 5 21 6 5 19 6 5 21 6 5 19 6 5 21 6 5 19 6 5 21 6 5 19 6 5 21 6 5 19 6 5 21 6 5 19 6 5 21 6 5 19 6 5 21 4 6 19 6 10 21 6 10 19 6 10 19 6 10 19 6 10 19 6 10 19 6 10 19 6 10 19 7 11 20 7 11 20 7 11 20 7 11 20 7 11 20 7 11 20 7 11 20 7 11 20 8 15 21 8 15 21 8 15 21 8 15 21 8 15 21 8 15 21 8 15 21 8 15 21 59 66 72 58 65 71 56 63 69 54 61 67 51 58 64 49 56 62 47 54 60 46 53 59 59 66 72 59 67 70 59 66 72 59 67 70 59 66 72 59 67 70 59 66 72 59 67 70 68 75 81 66 74 77 64 71 77 61 69 72 57 64 70 54 62 65 52 59 65 50 58 61 47 55 58 45 53 56 43 51 54 40 48 51 36 44 47 33 41 44 31 39 42 29 37 40 20 28 31 18 26 29 16 24 27 13 21 24 9 17 20 6 14 17 4 12 15 2 10 13 6 14 17 6 14 17 6 14 17 6 14 17 6 14 17 6 14 17 6 14 17 6 14 17 10 18 21 12 20 23 14 22 25 17 25 28 21 29 32 24 32 35 26 34 37 28 36 38 30 36 36 30 36 34 30 36 36 30 36 34 30 36 36 30 36 34 30 36 36 30 36 34 33 39 39 33 39 37 33 39 39 33 39 37 33 39 39 33 39 37 33 39 39 34 38 37 32 32 30 33 32 30 33 32 30 33 32 30 33 32 30 33 32 30 33 32 30 33 32 30 33 32 30 33 32 30 33 32 30 33 32 30 33 32 30 33 32 30 33 32 30 35 31 28 37 32 29 37 32 29 37 32 29 37 32 29 37 32 29 37 32 29 37 32 29 37 32 29 38 33 30 38 33 30 38 33 30 38 33 30 38 33 30 38 33 30 38 33 30 38 33 30
3 1 14 3 1 14 3 1 14 3 1 14 5 3 16 5 3 16 5 3 16 5 3 16 5 3 16 5 3 16 5 3 16 5 3 16 6 4 17 6 4 17 6 4 17 6 4 17 6 4 17 6 4 17 6 4 17 6 4 17 4 2 15 4 2 15 4 2 15 4 2 15 4 2 15 4 2 15 4 2 15 4 2 15 5 5 17 3 5 17 3 5 18 3 5 17 3 5 18 3 5 17 3 5 18 3 5 17 4 6 19 4 6 18 4 6 19 4 6 18 4 6 19 4 6 18 4 6 19 4 6 18 5 9 18 5 9 18 5 9 18 5 9 18 5 9 18 5 9 18 5 9 18 5 9 18 0 0 9 0 0 9 0 2 11 2 6 15 5 9 18 8 12 21 11 15 24 12 16 25 7 14 20 10 18 21 16 24 27 23 31 34 31 39 42 39 47 50 45 53 56 48 56 59 55 63 66 55 63 66 55 63 66 55 63 66 55 63 66 55 63 66 55 63 66 55 63 66 64 72 75 64 72 74 64 72 75 64 72 74 64 72 75 64 72 74 64 72 75 64 72 74 58 66 69 59 67 69 61 69 72 65 73 75 68 76 79 71 79 81 74 82 85 75 83 86 70 78 81 69 77 80 66 74 77 63 71 74 60 68 71 56 64 67 54 62 65 53 61 64 12 20 23 15 23 26 20 28 31 23 31 34 23 31 34 20 28 31 15 23 26 12 20 23 5 15 17 5 15 17 5 15 17 5 15 17 5 15 17 5 15 17 5 15 17 5 15 17 7 17 19 9 19 21 11 21 23 14 24 26 18 28 30 21 31 33 23 33 35 26 34 37 26 31 34 26 32 32 26 31 34 26 32 32 26 31 34 26 32 32 26 31 34 26 32 32 24 29 32 24 30 30 24 29 32 24 30 30 24 29 32 24 30 30 24 29 32 25 29 30 29 28 26 31 27 24 31 27 24 31 27 24 31 27 24 31 27 24 31 27 24 31 27 24 35 31 28 35 31 28 35 31 28 35 31 28 35 31 28 35 31 28 35 31 28 35 31 28 36 31 28 38 30 27 38 30 27 38 30 27 38 30 27 38 30 27 38 30 27 38 30 27 39 31 28 39 31 28 39 31 28 39 31 28 39 31 28 39 31 28 39 31 28 39 31 28
3 1 12 3 1 12 3 1 12 3 1 12 5 3 14 5 3 14 5 3 14 5 3 14 5 3 14 5 3 14 5 3 14 5 3 14 6 4 15 6 4 15 6 4 15 6 4 15 6 4 15 6 4 15 6 4 15 6 4 15 4 2 13 4 2 13 4 2 13 4 2 13 4 2 13 4 2 13 4 2 13 3 3 13 5 5 17 3 5 17 3 5 17 3 5 17 3 5 17 3 5 17 3 5 17 3 5 17 4 6 18 4 6 18 4 6 18 4 6 18 4 6 18 4 6 18 4 6 18 4 6 18 5 9 18 5 9 18 5 9 18 5 9 18 5 9 18 5 9 18 5 9 18 5 9 18 0 0 9 0 1 10 0 4 13 3 7 16 6 10 19 10 14 23 12 16 25 13 18 24 10 17 23 13 21 24 18 26 29 25 33 36 32 40 43 39 47 50 45 53 56 48 56 59 55 63 66 55 63 66 55 63 66 55 63 66 55 63 66 55 63 66 55 63 66 55 63 66 64 72 74 64 72 74 64 72 74 64 72 74 64 72 74 64 72 74 64 72 74 64 72 74 59 67 69 60 68 70 63 71 73 66 74 76 69 77 79 73 81 83 75 83 85 76 84 86 71 79 82 70 78 81 68 76 79 64 72 75 61 69 72 58 66 69 55 63 66 54 62 65 15 23 26 17 25 28 20 28 31 22 30 33 22 30 33 20 28 31 17 25 28 15 23 26 7 17 19 7 17 19 7 17 19 7 17 19 7 17 19 7 17 19 7 17 19 7 17 19 7 17 19 9 19 21 11 21 23 14 24 26 18 28 30 21 31 33 23 33 35 25 35 37 26 31 34 26 31 34 26 31 34 26 31 34 26 31 34 26 31 34 26 31 34 26 31 34 24 29 32 24 29 32 24 29 32 24 29 32 24 29 32 24 29 32 24 29 32 25 29 30 29 28 26 31 27 24 31 27 24 31 27 24 31 27 24 31 27 24 31 27 24 31 27 24 35 31 28 35 31 28 35 31 28 35 31 28 35 31 28 35 31 28 35 31 28 35 31 28 38 30 27 38 30 27 38 30 27 38 30 27 38 30 27 38 30 27 38 30 27 38 30 27 39 31 28 39 31 28 39 31 28 39 31 28 39 31 28 39 31 28 39 31 28 39 31 28
3 1 12 3 1 12 3 1 12 3 1 12 5 3 14 5 3 14 5 3 14 5 3 14 5 3 14 5 3 14 5 3 14 5 3 14 6 4 15 6 4 15 6 4 15 6 4 15 6 4 15 6 4 15 6 4 15 6 4 15 4 2 13 4 2 13 4 2 13 4 2 13 4 2 13 4 2 13 4 2 13 3 3 13 5 5 17 3 5 17 3 5 17 3 5 17 3 5 17 3 5 17 3 5 17 3 5 17 4 6 18 4 6 18 4 6 18 4 6 18 4 6 18 4 6 18 4 6 18 4 6 18 5 9 18 5 9 18 5 9 18 5 9 18 5 9 18 5 9 18 5 9 18 5 9 18 0 2 11 0 4 13 2 6 15 5 9 18 9 13 22 12 16 25 14 18 27 16 21 27 16 23 29 18 26 29 22 30 33 28 36 39 34 42 45 40 48 51 44 52 55 47 55 58 55 63 66 55 63 66 55 63 66 55 63 66 55 63 66 55 63 66 55 63 66 55 63 66 64 72 74 64 72 74 64 72 74 64 72 74 64 72 74 64 72 74 64 72 74 64 72 74 61 69 71 63 71 73 65 73 75 68 76 78 72 80 82 75 83 85 77 85 87 79 87 89 74 82 85 72 80 83 70 78 81 67 75 78 63 71 74 60 68 71 58 66 69 56 64 67 22 30 33 21 29 32 21 29 32 20 28 31 20 28 31 21 29 32 21 29 32 22 30 33 9 19 21 9 19 21 9 19 21 9 19 21 9 19 21 9 19 21 9 19 21 9 19 21 7 17 19 9 19 21 11 21 23 14 24 26 18 28 30 21 31 33 23 33 35 25 35 37 26 31 34 26 31 34 26 31 34 26 31 34 26 31 34 26 31 34 26 31 34 26 31 34 24 29 32 24 29 32 24 29 32 24 29 32 24 29 32 24 29 32 24 29 32 25 29 30 29 28 26 31 27 24 31 27 24 31 27 24 31 27 24 31 27 24 31 27 24 31 27 24 35 31 28 35 31 28 35 31 28 35 31 28 35 31 28 35 31 28 35 31 28 35 31 28 38 30 27 38 30 27 38 30 27 38 30 27 38 30 27 38 30 27 38 30 27 38 30 27 39 31 28 39 31 28 39 31 28 39 31 28 39 31 28 39 31 28 39 31 28 39 31 28
