P3
172 37
255
92 79 96 92 79 96 92 79 96 92 79 96 66 53 70 62 49 66 54 41 58 44 31 48 33 20 37 23 10 27 15 2 19 10 0 15 7 0 12 6 0 12 6 0 12 7 1 13 8 2 14 8 2 14 9 3 15 9 3 15 8 2 14 8 2 14 8 2 14 8 2 14 8 2 14 8 2 14 8 2 14 6 3 14 6 4 15 5 5 15 5 5 15 5 5 15 5 5 15 5 5 15 5 5 15 5 5 15 6 6 16 6 6 16 6 6 16 6 6 16 6 6 16 6 6 16 6 6 16 6 6 16 3 6 13 3 6 13 3 6 13 3 6 13 3 6 13 3 6 13 3 6 13 3 6 13 6 9 16 6 9 16 6 9 16 6 9 16 6 9 16 6 9 16 6 9 16 6 9 16 6 9 16 6 9 16 6 9 16 6 9 16 6 9 16 6 9 16 6 9 16 6 9 16 6 9 16 6 9 16 6 9 16 6 9 16 6 9 16 6 9 16 6 9 16 6 9 16 8 13 17 8 13 17 8 13 17 8 13 17 8 13 17 8 13 17 8 13 17 8 13 17 9 14 18 9 14 18 9 14 18 9 14 18 9 14 18 9 14 18 9 14 18 9 14 18 0 1 4 0 3 6 4 8 11 11 15 18 19 23 26 26 30 33 31 35 38 34 38 41 4 8 11 4 8 11 4 8 11 4 8 11 4 8 11 4 8 11 4 8 11 4 8 11 1 5 6 3 7 8 5 9 10 8 12 13 12 16 17 15 19 20 17 21 22 19 23 24 24 28 29 26 30 31 31 35 36 38 42 43 44 48 49 51 55 56 56 60 61 58 62 63 64 68 67 65 69 68 68 72 71 71 75 74 74 78 77 78 82 81 80 84 83 81 85 84 103 107 106 103 107 106 103 107 106 103 107 106 103 107 106 103 107 106 103 107 106 105 107 106 80 80 80 73 71 72 60 58 59 48 46 47 41 39 40 40 38 39 43 41 42 46 44 45 42 40 41 42 40 41 42 40 41 42 40 41 42 40 41 42 40 41 42 40 41 42 40 41 40 38 39 40 38 39 40 38 39 40 38 39 40 38 39 40 38 39 40 38 39 40 38 39 43 41 42 43 41 42 43 41 42 43 41 42 43 41 42 43 41 42 43 41 42 43 41 42
89 78 94 89 78 94 89 78 94 89 78 94 62 51 67 57 46 62 49 38 54 38 27 43 26 15 31 16 5 21 7 0 12 4 0 11 7 1 15 7 1 13 8 2 16 10 4 16 11 5 19 12 6 18 13 7 21 14 8 20 8 2 16 8 2 14 8 2 16 8 2 14 8 2 16 8 2 14 8 2 16 6 3 14 6 4 17 5 5 15 5 5 17 5 5 15 5 5 17 5 5 15 5 5 17 5 5 15 6 6 18 6 6 16 6 6 18 6 6 16 6 6 18 6 6 16 6 6 18 4 7 16 3 6 15 3 6 13 3 6 13 3 6 13 3 6 13 3 6 13 3 6 13 3 6 13 6 9 16 6 9 16 6 9 16 6 9 16 6 9 16 6 9 16 6 9 16 6 9 16 6 9 16 5 10 16 6 9 16 5 10 16 6 9 16 5 10 16 6 9 16 5 10 16 6 9 16 5 10 16 6 9 16 5 10 16 6 9 16 5 10 16 6 9 16 5 10 16 8 13 19 8 13 17 8 13 17 8 13 17 8 13 17 8 13 17 8 13 17 8 13 17 9 14 18 9 14 18 9 14 18 9 14 18 9 14 18 9 14 18 9 14 18 9 14 18 0 1 5 0 1 4 3 7 10 10 15 18 19 23 26 26 31 34 33 37 40 35 40 43 4 8 11 3 8 11 4 8 11 3 8 11 4 8 11 3 8 11 4 8 11 4 8 11 1 5 8 3 7 8 5 9 10 8 12 13 12 16 17 15 19 20 17 21 22 19 23 24 24 28 29 26 30 31 31 35 36 38 42 43 44 48 49 51 55 56 56 60 61 58 62 63 63 67 66 64 68 67 66 70 69 70 74 73 73 77 76 76 80 79 79 83 82 80 84 83 101 105 104 101 105 104 101 105 104 101 105 104 101 105 104 101 105 104 101 105 104 103 105 104 80 80 80 73 72 70 60 58 59 48 47 45 41 39 40 40 39 37 43 41 42 46 45 43 42 40 41 42 41 39 42 40 41 42 41 39 42 40 41 42 41 39 42 40 41 42 40 41 40 38 39 40 38 39 40 38 39 40 38 39 40 38 39 40 38 39 40 38 39 40 38 39 43 41 42 43 41 42 43 41 42 43 41 42 43 41 42 43 41 42 43 41 42 43 41 42
59 52 68 51 44 60 45 38 54 42 35 51 7 0 16 7 0 16 7 0 16 7 0 16 7 0 16 7 0 16 7 0 16 7 0 16 6 2 17 6 2 16 6 2 17 6 2 16 6 2 17 6 2 16 6 2 17 6 2 16 6 2 17 6 2 16 6 2 17 6 2 16 6 2 17 6 2 16 6 2 17 5 3 16 5 4 18 3 5 17 3 5 18 3 5 17 3 5 18 3 5 17 3 5 18 3 5 17 7 9 22 7 9 21 7 9 22 7 9 21 7 9 22 7 9 21 7 9 22 7 9 21 6 9 18 5 9 18 5 9 18 5 9 18 5 9 18 5 9 18 5 9 18 5 9 18 7 11 20 7 11 20 7 11 20 7 11 20 7 11 20 7 11 20 7 11 20 7 11 20 7 11 20 5 12 20 7 11 20 5 12 20 7 11 20 5 12 20 7 11 20 5 12 20 8 12 21 6 13 21 8 12 21 6 13 21 8 12 21 6 13 21 8 12 21 8 13 19 9 14 20 9 14 20 9 14 20 9 14 20 9 14 20 9 14 20 9 14 20 9 14 20 12 17 23 12 17 23 12 17 23 12 17 23 12 17 23 12 17 23 12 17 23 12 17 21 8 13 17 8 16 19 13 18 22 16 24 27 22 27 31 25 33 36 30 35 39 30 38 41 29 34 38 20 28 31 12 17 21 1 9 12 0 5 9 0 8 11 8 13 17 12 17 20 6 11 14 6 11 14 6 11 14 6 11 14 6 11 14 6 11 14 6 11 14 6 11 14 17 22 25 19 24 27 24 29 32 31 36 39 37 42 45 44 49 52 49 54 57 51 57 57 55 61 59 57 63 61 59 65 63 62 68 66 66 72 70 69 75 73 71 77 75 73 79 77 85 91 89 86 92 90 89 95 93 92 98 96 95 101 99 99 105 103 101 107 105 103 107 106 79 79 77 72 71 67 59 58 56 47 46 42 40 39 37 39 38 34 42 41 39 45 44 40 41 40 38 41 40 36 41 40 38 41 40 36 41 40 38 41 40 36 41 40 38 41 40 38 39 37 38 39 37 38 39 37 38 39 37 38 39 37 38 39 37 38 39 37 38 39 37 38 39 37 38 39 37 38 39 37 38 39 37 38 39 37 38 39 37 38 39 37 38 39 37 38
47 43 58 40 36 51 35 31 46 32 28 43 5 1 16 5 1 16 5 1 16 5 1 16 5 1 16 5 1 16 5 1 16 5 1 16 6 2 17 6 2 17 6 2 17 6 2 17 6 2 17 6 2 17 6 2 17 6 2 17 6 2 17 6 2 17 6 2 17 6 2 17 6 2 17 6 2 17 6 2 17 5 3 17 5 4 18 3 5 18 3 5 18 3 5 18 3 5 18 3 5 18 3 5 18 3 5 18 7 9 22 7 9 22 7 9 22 7 9 22 7 9 22 7 9 22 7 9 22 7 9 21 5 9 20 5 9 18 5 9 18 5 9 18 5 9 18 5 9 18 5 9 18 5 9 18 7 11 20 7 11 20 7 11 20 7 11 20 7 11 20 7 11 20 7 11 20 7 11 20 5 12 20 5 12 20 5 12 20 5 12 20 5 12 20 5 12 20 5 12 20 5 12 20 6 13 21 6 13 21 6 13 21 6 13 21 6 13 21 6 13 21 6 13 21 6 13 21 9 14 20 9 14 20 9 14 20 9 14 20 9 14 20 9 14 20 9 14 20 9 14 20 12 17 23 12 17 23 12 17 23 12 17 23 12 17 23 12 17 23 12 17 23 12 17 23 8 16 19 9 17 20 12 20 23 16 24 27 20 28 31 24 32 35 27 35 38 28 36 39 27 35 38 20 28 31 10 18 21 1 9 12 0 6 9 0 8 11 6 14 17 10 18 21 6 11 14 6 11 14 6 11 14 6 11 14 6 11 14 6 11 14 6 11 14 6 11 14 17 22 25 19 24 27 24 29 32 31 36 39 37 42 45 44 49 52 49 54 57 51 57 57 55 61 61 57 63 61 59 65 63 62 68 66 66 72 70 69 75 73 71 77 75 73 79 77 84 90 88 85 91 89 87 93 91 91 97 95 94 100 98 97 103 101 100 106 104 102 107 103 79 79 77 72 71 67 59 58 54 47 46 42 40 39 35 39 38 34 42 41 37 45 44 40 41 40 36 41 40 36 41 40 36 41 40 36 41 40 36 41 40 36 41 40 36 41 40 36 39 37 38 39 37 38 39 37 38 39 37 38 39 37 38 39 37 38 39 37 38 39 37 38 39 37 38 39 37 38 39 37 38 39 37 38 39 37 38 39 37 38 39 37 38 39 38 36
33 29 44 27 23 38 23 19 34 20 16 31 5 1 16 5 1 16 5 1 16 5 1 16 5 1 16 5 1 16 5 1 16 5 1 16 6 2 17 6 2 17 6 2 17 6 2 17 6 2 17 6 2 17 6 2 17 6 2 17 6 2 17 6 2 17 6 2 17 6 2 17 6 2 17 6 2 17 6 2 17 5 3 17 5 4 18 3 5 18 3 5 18 3 5 18 3 5 18 3 5 18 3 5 18 3 5 18 7 9 22 7 9 22 7 9 22 7 9 22 7 9 22 7 9 22 7 9 22 7 9 21 5 9 20 5 9 18 5 9 18 5 9 18 5 9 18 5 9 18 5 9 18 5 9 18 7 11 20 7 11 20 7 11 20 7 11 20 7 11 20 7 11 20 7 11 20 7 11 20 5 12 20 5 12 20 5 12 20 5 12 20 5 12 20 5 12 20 5 12 20 5 12 20 6 13 21 6 13 21 6 13 21 6 13 21 6 13 21 6 13 21 6 13 21 6 13 21 9 14 20 9 14 20 9 14 20 9 14 20 9 14 20 9 14 20 9 14 20 9 14 20 12 17 23 12 17 23 12 17 23 12 17 23 12 17 23 12 17 23 12 17 23 12 17 23 11 19 22 12 20 23 14 22 25 17 25 28 19 27 30 22 30 33 24 32 35 25 33 36 27 35 38 20 28 31 10 18 21 1 9 12 0 6 9 0 8 11 6 14 17 10 18 21 6 11 14 6 11 14 6 11 14 6 11 14 6 11 14 6 11 14 6 11 14 6 11 14 17 22 25 19 24 27 24 29 32 31 36 39 37 42 45 44 49 52 49 54 57 51 57 57 55 61 61 57 63 61 59 65 63 62 68 66 66 72 70 69 75 73 71 77 75 73 79 77 81 87 85 83 89 87 85 91 89 88 94 92 92 98 96 95 101 99 97 103 101 100 105 101 79 79 77 72 71 67 59 58 54 47 46 42 40 39 35 39 38 34 42 41 37 45 44 40 41 40 36 41 40 36 41 40 36 41 40 36 41 40 36 41 40 36 41 40 36 41 40 36 39 37 38 39 37 38 39 37 38 39 37 38 39 37 38 39 37 38 39 37 38 39 37 38 39 37 38 39 37 38 39 37 38 39 37 38 39 37 38 39 37 38 39 37 38 39 38 36
18 14 29 14 10 25 11 7 22 9 5 20 5 1 16 5 1 16 5 1 16 5 1 16 5 1 16 5 1 16 5 1 16 5 1 16 6 2 17 6 2 17 6 2 17 6 2 17 6 2 17 6 2 17 6 2 17 6 2 17 6 2 17 6 2 17 6 2 17 6 2 17 6 2 17 6 2 17 6 2 17 5 3 17 5 4 18 3 5 18 3 5 18 3 5 18 3 5 18 3 5 18 3 5 18 3 5 18 7 9 22 7 9 22 7 9 22 7 9 22 7 9 22 7 9 22 7 9 22 7 9 21 5 9 20 5 9 18 5 9 18 5 9 18 5 9 18 5 9 18 5 9 18 5 9 18 7 11 20 7 11 20 7 11 20 7 11 20 7 11 20 7 11 20 7 11 20 7 11 20 5 12 20 5 12 20 5 12 20 5 12 20 5 12 20 5 12 20 5 12 20 5 12 20 6 13 21 6 13 21 6 13 21 6 13 21 6 13 21 6 13 21 6 13 21 6 13 21 9 14 20 9 14 20 9 14 20 9 14 20 9 14 20 9 14 20 9 14 20 9 14 20 12 17 23 12 17 23 12 17 23 12 17 23 12 17 23 12 17 23 12 17 23 12 17 23 16 24 27 16 24 27 17 25 28 18 26 29 18 26 29 19 27 30 20 28 31 20 28 31 27 35 38 20 28 31 10 18 21 1 9 12 0 6 9 0 8 11 6 14 17 10 18 21 6 11 14 6 11 14 6 11 14 6 11 14 6 11 14 6 11 14 6 11 14 6 11 14 17 22 25 19 24 27 24 29 32 31 36 39 37 42 45 44 49 52 49 54 57 51 57 57 55 61 61 57 63 61 59 65 63 62 68 66 66 72 70 69 75 73 71 77 75 73 79 77 78 84 82 79 85 83 82 88 86 85 91 89 88 94 92 92 98 96 94 100 98 96 101 97 79 79 77 72 71 67 59 58 54 47 46 42 40 39 35 39 38 34 42 41 37 45 44 40 41 40 36 41 40 36 41 40 36 41 40 36 41 40 36 41 40 36 41 40 36 41 40 36 39 37 38 39 37 38 39 37 38 39 37 38 39 37 38 39 37 38 39 37 38 39 37 38 39 37 38 39 37 38 39 37 38 39 37 38 39 37 38 39 37 38 39 37 38 39 38 36
9 5 20 7 3 18 5 1 16 4 0 15 5 1 16 5 1 16 5 1 16 5 1 16 5 1 16 5 1 16 5 1 16 5 1 16 6 2 17 6 2 17 6 2 17 6 2 17 6 2 17 6 2 17 6 2 17 6 2 17 6 2 17 6 2 17 6 2 17 6 2 17 6 2 17 6 2 17 6 2 17 5 3 17 5 4 18 3 5 18 3 5 18 3 5 18 3 5 18 3 5 18 3 5 18 3 5 18 7 9 22 7 9 22 7 9 22 7 9 22 7 9 22 7 9 22 7 9 22 7 9 21 5 9 20 5 9 18 5 9 18 5 9 18 5 9 18 5 9 18 5 9 18 5 9 18 7 11 20 7 11 20 7 11 20 7 11 20 7 11 20 7 11 20 7 11 20 7 11 20 5 12 20 5 12 20 5 12 20 5 12 20 5 12 20 5 12 20 5 12 20 5 12 20 6 13 21 6 13 21 6 13 21 6 13 21 6 13 21 6 13 21 6 13 21 6 13 21 9 14 20 9 14 20 9 14 20 9 14 20 9 14 20 9 14 20 9 14 20 9 14 20 12 17 23 12 17 23 12 17 23 12 17 23 12 17 23 12 17 23 12 17 23 12 17 23 20 28 31 20 28 31 19 27 30 18 26 29 18 26 29 17 25 28 16 24 27 16 24 27 27 35 38 20 28 31 10 18 21 1 9 12 0 6 9 0 8 11 6 14 17 10 18 21 6 11 14 6 11 14 6 11 14 6 11 14 6 11 14 6 11 14 6 11 14 6 11 14 17 22 25 19 24 27 24 29 32 31 36 39 37 42 45 44 49 52 49 54 57 51 57 57 55 61 61 57 63 61 59 65 63 62 68 66 66 72 70 69 75 73 71 77 75 73 79 77 75 81 79 76 82 80 78 84 82 82 88 86 85 91 89 88 94 92 91 97 95 93 98 94 79 79 77 72 71 67 59 58 54 47 46 42 40 39 35 39 38 34 42 41 37 45 44 40 41 40 36 41 40 36 41 40 36 41 40 36 41 40 36 41 40 36 41 40 36 41 40 36 39 37 38 39 37 38 39 37 38 39 37 38 39 37 38 39 37 38 39 37 38 39 37 38 39 37 38 39 37 38 39 37 38 39 37 38 39 37 38 39 37 38 39 37 38 39 38 36
6 2 17 5 1 16 5 1 16 4 0 15 5 1 16 5 1 16 5 1 16 5 1 16 5 1 16 5 1 16 5 1 16 5 1 16 6 2 17 6 2 17 6 2 17 6 2 17 6 2 17 6 2 17 6 2 17 6 2 17 6 2 17 6 2 17 6 2 17 6 2 17 6 2 17 6 2 17 6 2 17 5 3 17 5 4 18 3 5 18 3 5 18 3 5 18 3 5 18 3 5 18 3 5 18 3 5 18 7 9 22 7 9 22 7 9 22 7 9 22 7 9 22 7 9 22 7 9 22 7 9 21 5 9 20 5 9 18 5 9 18 5 9 18 5 9 18 5 9 18 5 9 18 5 9 18 7 11 20 7 11 20 7 11 20 7 11 20 7 11 20 7 11 20 7 11 20 7 11 20 5 12 20 5 12 20 5 12 20 5 12 20 5 12 20 5 12 20 5 12 20 5 12 20 6 13 21 6 13 21 6 13 21 6 13 21 6 13 21 6 13 21 6 13 21 6 13 21 9 14 20 9 14 20 9 14 20 9 14 20 9 14 20 9 14 20 9 14 20 9 14 20 12 17 23 12 17 23 12 17 23 12 17 23 12 17 23 12 17 23 12 17 23 12 17 23 25 33 36 24 32 35 22 30 33 19 27 30 17 25 28 14 22 25 12 20 23 11 19 22 27 35 38 20 28 31 10 18 21 1 9 12 0 6 9 0 8 11 6 14 17 10 18 21 6 11 14 6 11 14 6 11 14 6 11 14 6 11 14 6 11 14 6 11 14 6 11 14 17 22 25 19 24 27 24 29 32 31 36 39 37 42 45 44 49 52 49 54 57 51 57 57 55 61 61 57 63 61 59 65 63 62 68 66 66 72 70 69 75 73 71 77 75 73 79 77 71 77 75 73 79 77 75 81 79 78 84 82 82 88 86 85 91 89 87 93 91 90 95 91 79 79 77 72 71 67 59 58 54 47 46 42 40 39 35 39 38 34 42 41 37 45 44 40 41 40 36 41 40 36 41 40 36 41 40 36 41 40 36 41 40 36 41 40 36 41 40 36 39 37 38 39 37 38 39 37 38 39 37 38 39 37 38 39 37 38 39 37 38 39 37 38 39 37 38 39 37 38 39 37 38 39 37 38 39 37 38 39 37 38 39 37 38 39 38 36
7 3 18 8 4 19 8 4 19 8 4 19 5 1 16 5 1 16 5 1 16 5 1 16 5 1 16 5 1 16 5 1 16 5 1 16 6 2 17 6 2 17 6 2 17 6 2 17 6 2 17 6 2 17 6 2 17 6 2 17 6 2 17 6 2 17 6 2 17 6 2 17 6 2 17 6 2 17 6 2 17 5 3 17 5 4 18 3 5 18 3 5 18 3 5 18 3 5 18 3 5 18 3 5 18 3 5 18 7 9 22 7 9 22 7 9 22 7 9 22 7 9 22 7 9 22 7 9 22 7 9 21 5 9 20 5 9 18 5 9 18 5 9 18 5 9 18 5 9 18 5 9 18 5 9 18 7 11 20 7 11 20 7 11 20 7 11 20 7 11 20 7 11 20 7 11 20 7 11 20 5 12 20 5 12 20 5 12 20 5 12 20 5 12 20 5 12 20 5 12 20 5 12 20 6 13 21 6 13 21 6 13 21 6 13 21 6 13 21 6 13 21 6 13 21 6 13 21 9 14 20 9 14 20 9 14 20 9 14 20 9 14 20 9 14 20 9 14 20 9 14 20 12 17 23 12 17 23 12 17 23 12 17 23 12 17 23 12 17 23 12 17 23 12 17 23 28 36 39 27 35 38 24 32 35 20 28 31 16 24 27 12 20 23 9 17 20 8 16 19 27 35 38 20 28 31 10 18 21 1 9 12 0 6 9 0 8 11 6 14 17 10 18 21 6 11 14 6 11 14 6 11 14 6 11 14 6 11 14 6 11 14 6 11 14 6 11 14 17 22 25 19 24 27 24 29 32 31 36 39 37 42 45 44 49 52 49 54 57 51 57 57 55 61 61 57 63 61 59 65 63 62 68 66 66 72 70 69 75 73 71 77 75 73 79 77 69 75 73 70 76 74 73 79 77 76 82 80 79 85 83 83 89 87 85 91 89 87 92 88 79 79 77 72 71 67 59 58 54 47 46 42 40 39 35 39 38 34 42 41 37 45 44 40 41 40 36 41 40 36 41 40 36 41 40 36 41 40 36 41 40 36 41 40 36 41 40 36 39 37 38 39 37 38 39 37 38 39 37 38 39 37 38 39 37 38 39 37 38 39 37 38 39 37 38 39 37 38 39 37 38 39 37 38 39 37 38 39 37 38 39 37 38 39 38 36
9 5 20 11 7 22 11 7 22 12 8 23 5 1 16 5 1 16 5 1 16 5 1 16 5 1 16 5 1 16 5 1 16 5 1 16 6 2 17 6 2 17 6 2 17 6 2 17 6 2 17 6 2 17 6 2 17 6 2 17 6 2 17 6 2 17 6 2 17 6 2 17 6 2 17 6 2 17 6 2 17 5 3 17 5 4 18 3 5 18 3 5 18 3 5 18 3 5 18 3 5 18 3 5 18 3 5 18 7 9 22 7 9 22 7 9 22 7 9 22 7 9 22 7 9 22 7 9 22 7 9 21 5 9 20 5 9 18 5 9 18 5 9 18 5 9 18 5 9 18 5 9 18 5 9 18 7 11 20 7 11 20 7 11 20 7 11 20 7 11 20 7 11 20 7 11 20 7 11 20 5 12 20 5 12 20 5 12 20 5 12 20 5 12 20 5 12 20 5 12 20 5 12 20 6 13 21 6 13 21 6 13 21 6 13 21 6 13 21 6 13 21 6 13 21 6 13 21 9 14 20 9 14 20 9 14 20 9 14 20 9 14 20 9 14 20 9 14 20 9 14 20 12 17 23 12 17 23 12 17 23 12 17 23 12 17 23 12 17 23 12 17 23 12 17 23 30 38 41 28 36 39 25 33 36 20 28 31 16 24 27 11 19 22 8 16 19 6 14 17 27 35 38 20 28 31 10 18 21 1 9 12 0 6 9 0 8 11 6 14 17 10 18 21 6 11 14 6 11 14 6 11 14 6 11 14 6 11 14 6 11 14 6 11 14 6 11 14 17 22 25 19 24 27 24 29 32 31 36 39 37 42 45 44 49 52 49 54 57 51 57 57 55 61 61 57 63 61 59 65 63 62 68 66 66 72 70 69 75 73 71 77 75 73 79 77 68 74 72 69 75 73 71 77 75 75 81 79 78 84 82 81 87 85 84 90 88 86 91 87 79 79 77 72 71 67 59 58 54 47 46 42 40 39 35 39 38 34 42 41 37 45 44 40 41 40 36 41 40 36 41 40 36 41 40 36 41 40 36 41 40 36 41 40 36 41 40 36 39 37 38 39 37 38 39 37 38 39 37 38 39 37 38 39 37 38 39 37 38 39 37 38 39 37 38 39 37 38 39 37 38 39 37 38 39 37 38 39 37 38 39 37 38 39 38 36
5 1 16 5 1 16 5 1 16 5 1 16 5 1 16 5 1 16 5 1 16 5 1 16 5 1 16 5 1 16 5 1 16 5 1 16 6 2 17 6 2 17 6 2 17 6 2 17 6 2 17 6 2 17 6 2 17 6 2 17 6 2 17 6 2 17 6 2 17 6 2 17 6 2 17 6 2 17 6 2 17 5 3 17 5 4 18 3 5 18 3 5 18 3 5 18 3 5 18 3 5 18 3 5 18 3 5 18 4 6 19 4 6 19 4 6 19 4 6 19 4 6 19 4 6 19 4 6 19 4 6 18 5 9 20 5 9 18 5 9 18 5 9 18 5 9 18 5 9 18 5 9 18 5 9 18 5 9 18 5 9 18 5 9 18 5 9 18 5 9 18 5 9 18 5 9 18 5 9 18 2 9 17 2 9 17 2 9 17 2 9 17 2 9 17 2 9 17 2 9 17 2 9 17 6 13 21 6 13 21 6 13 21 6 13 21 6 13 21 6 13 21 6 13 21 6 13 21 12 17 23 11 16 22 10 15 21 9 14 20 8 13 19 6 11 17 6 11 17 5 10 16 19 24 30 21 26 32 25 30 36 29 34 40 34 39 45 38 43 49 42 47 53 43 48 54 37 45 48 35 43 46 33 41 44 30 38 41 26 34 37 23 31 34 21 29 32 19 27 30 5 13 16 5 13 16 5 13 16 5 13 16 5 13 16 5 13 16 5 13 16 5 13 16 4 9 12 4 9 12 4 9 12 4 9 12 4 9 12 4 9 12 4 9 12 4 9 12 17 22 25 19 24 27 21 26 29 24 29 32 28 33 36 31 36 39 33 38 41 35 41 41 42 48 48 44 50 48 46 52 50 49 55 53 53 59 57 56 62 60 58 64 62 60 66 64 71 77 75 71 77 75 71 77 75 71 77 75 71 77 75 71 77 75 71 77 75 72 77 73 64 64 62 63 62 58 58 57 53 51 50 46 45 44 40 38 37 33 33 32 28 31 30 26 36 35 31 36 35 31 36 35 31 36 35 31 36 35 31 36 35 31 36 35 31 36 35 31 34 32 33 34 32 33 34 32 33 34 32 33 34 32 33 34 32 33 34 32 33 34 32 33 38 36 37 38 36 37 38 36 37 38 36 37 38 36 37 38 36 37 38 36 37 38 37 35
5 1 16 5 1 16 5 1 16 5 1 16 5 1 16 5 1 16 5 1 16 5 1 16 5 1 16 5 1 16 5 1 16 5 1 16 6 2 17 6 2 17 6 2 17 6 2 17 6 2 17 6 2 17 6 2 17 6 2 17 6 2 17 6 2 17 6 2 17 6 2 17 6 2 17 6 2 17 6 2 17 5 3 17 5 4 18 3 5 18 3 5 18 3 5 18 3 5 18 3 5 18 3 5 18 3 5 18 4 6 19 4 6 19 4 6 19 4 6 19 4 6 19 4 6 19 4 6 19 4 6 18 5 9 20 5 9 18 5 9 18 5 9 18 5 9 18 5 9 18 5 9 18 5 9 18 5 9 18 5 9 18 5 9 18 5 9 18 5 9 18 5 9 18 5 9 18 5 9 18 2 9 17 2 9 17 2 9 17 2 9 17 2 9 17 2 9 17 2 9 17 2 9 17 6 13 21 6 13 21 6 13 21 6 13 21 6 13 21 6 13 21 6 13 21 6 13 21 11 16 22 11 16 22 11 16 22 10 15 21 9 14 20 9 14 20 8 13 19 8 13 19 22 27 33 24 29 35 27 32 38 31 36 42 35 40 46 38 43 49 41 46 52 43 48 54 37 45 48 35 43 46 33 41 44 30 38 41 26 34 37 23 31 34 21 29 32 19 27 30 5 13 16 5 13 16 5 13 16 5 13 16 5 13 16 5 13 16 5 13 16 5 13 16 4 9 12 4 9 12 4 9 12 4 9 12 4 9 12 4 9 12 4 9 12 4 9 12 17 22 25 19 24 27 21 26 29 24 29 32 28 33 36 31 36 39 33 38 41 35 41 41 42 48 48 44 50 48 46 52 50 49 55 53 53 59 57 56 62 60 58 64 62 60 66 64 69 75 73 69 75 73 69 75 73 69 75 73 69 75 73 69 75 73 69 75 73 70 75 71 64 64 62 63 62 58 58 57 53 51 50 46 45 44 40 38 37 33 33 32 28 31 30 26 36 35 31 36 35 31 36 35 31 36 35 31 36 35 31 36 35 31 36 35 31 36 35 31 34 32 33 34 32 33 34 32 33 34 32 33 34 32 33 34 32 33 34 32 33 34 32 33 38 36 37 38 36 37 38 36 37 38 36 37 38 36 37 38 36 37 38 36 37 38 37 35
5 1 16 5 1 16 5 1 16 5 1 16 5 1 16 5 1 16 5 1 16 5 1 16 5 1 16 5 1 16 5 1 16 5 1 16 6 2 17 6 2 17 6 2 17 6 2 17 6 2 17 6 2 17 6 2 17 6 2 17 6 2 17 6 2 17 6 2 17 6 2 17 6 2 17 6 2 17 6 2 17 5 3 17 5 4 18 3 5 18 3 5 18 3 5 18 3 5 18 3 5 18 3 5 18 3 5 18 4 6 19 4 6 19 4 6 19 4 6 19 4 6 19 4 6 19 4 6 19 4 6 18 5 9 20 5 9 18 5 9 18 5 9 18 5 9 18 5 9 18 5 9 18 5 9 18 5 9 18 5 9 18 5 9 18 5 9 18 5 9 18 5 9 18 5 9 18 5 9 18 2 9 17 2 9 17 2 9 17 2 9 17 2 9 17 2 9 17 2 9 17 2 9 17 6 13 21 6 13 21 6 13 21 6 13 21 6 13 21 6 13 21 6 13 21 6 13 21 10 15 21 11 16 22 11 16 22 12 17 23 12 17 23 13 18 24 14 19 25 14 19 25 28 33 39 29 34 40 31 36 42 34 39 45 36 41 47 39 44 50 41 46 52 42 47 53 37 45 48 35 43 46 33 41 44 30 38 41 26 34 37 23 31 34 21 29 32 19 27 30 5 13 16 5 13 16 5 13 16 5 13 16 5 13 16 5 13 16 5 13 16 5 13 16 4 9 12 4 9 12 4 9 12 4 9 12 4 9 12 4 9 12 4 9 12 4 9 12 17 22 25 19 24 27 21 26 29 24 29 32 28 33 36 31 36 39 33 38 41 35 41 41 42 48 48 44 50 48 46 52 50 49 55 53 53 59 57 56 62 60 58 64 62 60 66 64 67 73 71 67 73 71 67 73 71 67 73 71 67 73 71 67 73 71 67 73 71 68 73 69 64 64 62 63 62 58 58 57 53 51 50 46 45 44 40 38 37 33 33 32 28 31 30 26 36 35 31 36 35 31 36 35 31 36 35 31 36 35 31 36 35 31 36 35 31 36 35 31 34 32 33 34 32 33 34 32 33 34 32 33 34 32 33 34 32 33 34 32 33 34 32 33 38 36 37 38 36 37 38 36 37 38 36 37 38 36 37 38 36 37 38 36 37 38 37 35
5 1 16 5 1 16 5 1 16 5 1 16 5 1 16 5 1 16 5 1 16 5 1 16 5 1 16 5 1 16 5 1 16 5 1 16 6 2 17 6 2 17 6 2 17 6 2 17 6 2 17 6 2 17 6 2 17 6 2 17 6 2 17 6 2 17 6 2 17 6 2 17 6 2 17 6 2 17 6 2 17 5 3 17 5 4 18 3 5 18 3 5 18 3 5 18 3 5 18 3 5 18 3 5 18 3 5 18 4 6 19 4 6 19 4 6 19 4 6 19 4 6 19 4 6 19 4 6 19 4 6 18 5 9 20 5 9 18 5 9 18 5 9 18 5 9 18 5 9 18 5 9 18 5 9 18 5 9 18 5 9 18 5 9 18 5 9 18 5 9 18 5 9 18 5 9 18 5 9 18 2 9 17 2 9 17 2 9 17 2 9 17 2 9 17 2 9 17 2 9 17 2 9 17 6 13 21 6 13 21 6 13 21 6 13 21 6 13 21 6 13 21 6 13 21 6 13 21 9 14 20 10 15 21 12 17 23 14 19 25 17 22 28 19 24 30 21 26 32 22 27 33 36 41 47 36 41 47 37 42 48 38 43 49 39 44 50 40 45 51 40 45 51 41 46 52 37 45 48 35 43 46 33 41 44 30 38 41 26 34 37 23 31 34 21 29 32 19 27 30 5 13 16 5 13 16 5 13 16 5 13 16 5 13 16 5 13 16 5 13 16 5 13 16 4 9 12 4 9 12 4 9 12 4 9 12 4 9 12 4 9 12 4 9 12 4 9 12 17 22 25 19 24 27 21 26 29 24 29 32 28 33 36 31 36 39 33 38 41 35 41 41 42 48 48 44 50 48 46 52 50 49 55 53 53 59 57 56 62 60 58 64 62 60 66 64 64 70 68 64 70 68 64 70 68 64 70 68 64 70 68 64 70 68 64 70 68 65 70 66 64 64 62 63 62 58 58 57 53 51 50 46 45 44 40 38 37 33 33 32 28 31 30 26 36 35 31 36 35 31 36 35 31 36 35 31 36 35 31 36 35 31 36 35 31 36 35 31 34 32 33 34 32 33 34 32 33 34 32 33 34 32 33 34 32 33 34 32 33 34 32 33 38 36 37 38 36 37 38 36 37 38 36 37 38 36 37 38 36 37 38 36 37 38 37 35
5 1 16 5 1 16 5 1 16 5 1 16 5 1 16 5 1 16 5 1 16 5 1 16 5 1 16 5 1 16 5 1 16 5 1 16 6 2 17 6 2 17 6 2 17 6 2 17 6 2 17 6 2 17 6 2 17 6 2 17 6 2 17 6 2 17 6 2 17 6 2 17 6 2 17 6 2 17 6 2 17 5 3 17 5 4 18 3 5 18 3 5 18 3 5 18 3 5 18 3 5 18 3 5 18 3 5 18 4 6 19 4 6 19 4 6 19 4 6 19 4 6 19 4 6 19 4 6 19 4 6 18 5 9 20 5 9 18 5 9 18 5 9 18 5 9 18 5 9 18 5 9 18 5 9 18 5 9 18 5 9 18 5 9 18 5 9 18 5 9 18 5 9 18 5 9 18 5 9 18 2 9 17 2 9 17 2 9 17 2 9 17 2 9 17 2 9 17 2 9 17 2 9 17 6 13 21 6 13 21 6 13 21 6 13 21 6 13 21 6 13 21 6 13 21 6 13 21 8 13 19 9 14 20 12 17 23 17 22 28 21 26 32 25 30 36 28 33 39 30 35 41 44 49 55 44 49 55 43 48 54 42 47 53 41 46 52 40 45 51 40 45 51 39 44 50 37 45 48 35 43 46 33 41 44 30 38 41 26 34 37 23 31 34 21 29 32 19 27 30 5 13 16 5 13 16 5 13 16 5 13 16 5 13 16 5 13 16 5 13 16 5 13 16 4 9 12 4 9 12 4 9 12 4 9 12 4 9 12 4 9 12 4 9 12 4 9 12 17 22 25 19 24 27 21 26 29 24 29 32 28 33 36 31 36 39 33 38 41 35 41 41 42 48 48 44 50 48 46 52 50 49 55 53 53 59 57 56 62 60 58 64 62 60 66 64 60 66 64 60 66 64 60 66 64 60 66 64 60 66 64 60 66 64 60 66 64 61 66 62 64 64 62 63 62 58 58 57 53 51 50 46 45 44 40 38 37 33 33 32 28 31 30 26 36 35 31 36 35 31 36 35 31 36 35 31 36 35 31 36 35 31 36 35 31 36 35 31 34 32 33 34 32 33 34 32 33 34 32 33 34 32 33 34 32 33 34 32 33 34 32 33 38 36 37 38 36 37 38 36 37 38 36 37 38 36 37 38 36 37 38 36 37 38 37 35
5 1 16 5 1 16 5 1 16 5 1 16 5 1 16 5 1 16 5 1 16 5 1 16 5 1 16 5 1 16 5 1 16 5 1 16 6 2 17 6 2 17 6 2 17 6 2 17 6 2 17 6 2 17 6 2 17 6 2 17 6 2 17 6 2 17 6 2 17 6 2 17 6 2 17 6 2 17 6 2 17 5 3 17 5 4 18 3 5 18 3 5 18 3 5 18 3 5 18 3 5 18 3 5 18 3 5 18 4 6 19 4 6 19 4 6 19 4 6 19 4 6 19 4 6 19 4 6 19 4 6 18 5 9 20 5 9 18 5 9 18 5 9 18 5 9 18 5 9 18 5 9 18 5 9 18 5 9 18 5 9 18 5 9 18 5 9 18 5 9 18 5 9 18 5 9 18 5 9 18 2 9 17 2 9 17 2 9 17 2 9 17 2 9 17 2 9 17 2 9 17 2 9 17 6 13 21 6 13 21 6 13 21 6 13 21 6 13 21 6 13 21 6 13 21 6 13 21 6 11 17 9 14 20 13 18 24 19 24 30 25 30 36 31 36 42 35 40 46 37 42 48 52 57 63 51 56 62 49 54 60 46 51 57 44 49 55 41 46 52 39 44 50 38 43 49 37 45 48 35 43 46 33 41 44 30 38 41 26 34 37 23 31 34 21 29 32 19 27 30 5 13 16 5 13 16 5 13 16 5 13 16 5 13 16 5 13 16 5 13 16 5 13 16 4 9 12 4 9 12 4 9 12 4 9 12 4 9 12 4 9 12 4 9 12 4 9 12 17 22 25 19 24 27 21 26 29 24 29 32 28 33 36 31 36 39 33 38 41 35 41 41 42 48 48 44 50 48 46 52 50 49 55 53 53 59 57 56 62 60 58 64 62 60 66 64 57 63 61 57 63 61 57 63 61 57 63 61 57 63 61 57 63 61 57 63 61 58 63 59 64 64 62 63 62 58 58 57 53 51 50 46 45 44 40 38 37 33 33 32 28 31 30 26 36 35 31 36 35 31 36 35 31 36 35 31 36 35 31 36 35 31 36 35 31 36 35 31 34 32 33 34 32 33 34 32 33 34 32 33 34 32 33 34 32 33 34 32 33 34 32 33 38 36 37 38 36 37 38 36 37 38 36 37 38 36 37 38 36 37 38 36 37 38 37 35
5 1 16 5 1 16 5 1 16 5 1 16 5 1 16 5 1 16 5 1 16 5 1 16 5 1 16 5 1 16 5 1 16 5 1 16 6 2 17 6 2 17 6 2 17 6 2 17 6 2 17 6 2 17 6 2 17 6 2 17 6 2 17 6 2 17 6 2 17 6 2 17 6 2 17 6 2 17 6 2 17 5 3 17 5 4 18 3 5 18 3 5 18 3 5 18 3 5 18 3 5 18 3 5 18 3 5 18 4 6 19 4 6 19 4 6 19 4 6 19 4 6 19 4 6 19 4 6 19 4 6 18 5 9 20 5 9 18 5 9 18 5 9 18 5 9 18 5 9 18 5 9 18 5 9 18 5 9 18 5 9 18 5 9 18 5 9 18 5 9 18 5 9 18 5 9 18 5 9 18 2 9 17 2 9 17 2 9 17 2 9 17 2 9 17 2 9 17 2 9 17 2 9 17 6 13 21 6 13 21 6 13 21 6 13 21 6 13 21 6 13 21 6 13 21 6 13 21 5 10 16 8 13 19 14 19 25 21 26 32 28 33 39 35 40 46 40 45 51 43 48 54 58 63 69 56 61 67 53 58 64 49 54 60 45 50 56 42 47 53 39 44 50 37 42 48 37 45 48 35 43 46 33 41 44 30 38 41 26 34 37 23 31 34 21 29 32 19 27 30 5 13 16 5 13 16 5 13 16 5 13 16 5 13 16 5 13 16 5 13 16 5 13 16 4 9 12 4 9 12 4 9 12 4 9 12 4 9 12 4 9 12 4 9 12 4 9 12 17 22 25 19 24 27 21 26 29 24 29 32 28 33 36 31 36 39 33 38 41 35 41 41 42 48 48 44 50 48 46 52 50 49 55 53 53 59 57 56 62 60 58 64 62 60 66 64 55 61 59 55 61 59 55 61 59 55 61 59 55 61 59 55 61 59 55 61 59 56 61 57 64 64 62 63 62 58 58 57 53 51 50 46 45 44 40 38 37 33 33 32 28 31 30 26 36 35 31 36 35 31 36 35 31 36 35 31 36 35 31 36 35 31 36 35 31 36 35 31 34 32 33 34 32 33 34 32 33 34 32 33 34 32 33 34 32 33 34 32 33 34 32 33 38 36 37 38 36 37 38 36 37 38 36 37 38 36 37 38 36 37 38 36 37 38 37 35
5 1 16 5 1 15 5 1 16 5 1 15 5 1 16 5 1 15 5 1 16 5 1 15 5 1 16 5 1 15 5 1 16 5 1 16 6 2 17 6 2 17 6 2 17 6 2 17 6 2 17 6 2 17 6 2 17 6 2 17 6 2 17 6 2 17 6 2 17 6 2 17 6 2 17 6 2 17 6 2 17 5 3 17 5 4 18 3 5 18 5 4 18 3 5 18 5 4 18 3 5 18 5 4 18 3 5 18 6 5 19 4 6 19 6 5 19 4 6 19 6 5 19 4 6 19 6 5 19 4 6 19 6 8 20 5 9 18 5 9 18 5 9 18 5 9 18 5 9 18 5 9 18 5 9 18 5 9 18 5 9 18 5 9 18 5 9 18 5 9 18 5 9 18 5 9 18 5 9 18 2 9 17 2 9 17 2 9 17 2 9 17 2 9 17 2 9 17 2 9 17 2 9 17 6 13 21 6 13 21 6 13 21 6 13 21 6 13 21 6 13 21 6 13 21 6 13 19 5 10 16 8 13 19 14 19 25 22 27 33 30 35 41 37 42 48 43 48 54 46 51 57 61 66 72 59 64 70 55 60 66 51 56 62 46 51 57 42 47 53 38 43 49 37 42 46 37 45 48 35 43 46 33 41 44 30 38 41 26 34 37 23 31 34 21 29 32 19 27 30 5 13 16 5 13 16 5 13 16 5 13 16 5 13 16 5 13 16 5 13 16 5 13 16 4 9 12 4 9 12 4 9 12 4 9 12 4 9 12 4 9 12 4 9 12 4 9 12 17 22 25 19 24 27 21 26 29 24 29 32 28 33 36 31 36 39 33 38 41 35 40 43 42 48 48 44 50 48 46 52 50 49 55 53 53 59 57 56 62 60 58 64 62 60 66 64 53 59 57 53 59 57 53 59 57 53 59 57 53 59 57 53 59 57 53 59 57 54 58 57 64 64 62 63 62 58 58 57 53 51 50 46 45 44 40 38 37 33 33 32 28 31 30 26 36 35 31 36 35 31 36 35 31 36 35 31 36 35 31 36 35 31 36 35 31 36 35 31 34 33 31 34 32 33 36 32 33 34 32 33 36 32 33 34 32 33 36 32 33 34 32 33 40 36 37 38 36 37 40 36 37 38 36 37 40 36 37 38 36 37 40 36 37 38 37 35
3 1 14 3 1 12 3 1 14 3 1 12 3 1 14 3 1 12 3 1 14 3 1 12 3 1 14 3 1 12 3 1 14 3 1 14 5 3 17 5 3 17 5 3 17 5 3 17 5 3 17 5 3 17 5 3 17 5 3 17 5 3 17 5 3 17 5 3 17 5 3 17 5 3 17 5 3 17 5 3 17 5 3 17 6 3 20 5 4 20 6 3 20 5 4 20 6 3 20 5 4 20 6 3 20 5 4 20 6 3 20 5 4 20 6 3 20 5 4 20 6 3 20 5 4 20 6 3 20 5 4 18 3 5 17 3 5 17 3 5 17 3 5 17 3 5 17 3 5 17 3 5 17 3 5 17 4 6 18 4 6 18 4 6 18 4 6 18 4 6 18 4 6 18 4 6 18 3 7 16 3 10 18 3 10 16 3 10 16 3 10 16 3 10 16 3 10 16 3 10 16 3 10 16 9 16 22 8 15 21 7 14 20 6 13 19 5 12 18 3 10 16 3 10 16 2 9 15 9 16 22 14 22 25 22 30 33 33 41 44 44 52 55 55 63 66 64 72 75 68 76 79 77 85 88 75 83 86 70 78 81 63 71 74 57 65 68 50 58 61 45 53 56 43 51 54 44 52 55 42 50 52 40 48 50 37 45 47 33 41 43 30 38 40 28 36 38 26 34 36 6 14 16 6 14 16 6 14 16 6 14 16 6 14 16 6 14 16 6 14 16 6 14 16 4 12 14 4 12 14 4 12 14 4 12 14 4 12 14 4 12 14 4 12 14 4 12 14 11 19 21 13 21 23 15 23 25 18 26 28 22 30 32 25 33 35 27 35 37 29 37 39 38 44 44 38 44 44 38 44 44 38 44 44 38 44 44 38 44 44 38 44 44 38 44 44 52 58 58 52 58 58 52 58 58 52 58 58 52 58 58 52 58 58 52 58 58 53 57 56 47 47 45 46 45 41 44 43 39 41 40 36 37 36 32 34 33 29 32 31 27 30 29 25 33 32 28 33 32 28 33 32 28 33 32 28 33 32 28 33 32 28 33 32 28 33 32 28 36 32 31 36 32 31 37 31 31 36 32 31 37 31 31 36 32 31 37 31 31 36 32 31 39 33 33 38 34 33 39 33 33 38 34 33 39 33 33 38 34 33 39 33 33 38 34 33
3 1 12 3 1 12 3 1 12 3 1 12 3 1 12 3 1 12 3 1 12 3 1 12 3 1 12 3 1 12 3 1 12 3 1 12 5 3 17 5 3 17 5 3 17 5 3 17 5 3 17 5 3 17 5 3 17 5 3 17 5 3 17 5 3 17 5 3 17 5 3 17 5 3 17 5 3 17 5 3 17 5 3 17 6 3 20 6 3 20 6 3 20 6 3 20 6 3 20 6 3 20 6 3 20 6 3 20 6 3 20 6 3 20 6 3 20 6 3 20 6 3 20 6 3 20 6 3 20 5 4 18 5 4 18 3 5 17 3 5 17 3 5 17 3 5 17 3 5 17 3 5 17 3 5 17 4 6 18 4 6 18 4 6 18 4 6 18 4 6 18 4 6 18 4 6 18 3 7 16 5 9 18 3 10 16 3 10 16 3 10 16 3 10 16 3 10 16 3 10 16 3 10 16 8 15 21 8 15 21 8 15 21 7 14 20 6 13 19 6 13 19 5 12 18 5 12 18 14 22 25 18 26 29 26 34 37 36 44 47 47 55 58 57 65 68 65 73 76 69 77 80 77 85 88 75 83 86 70 78 81 63 71 74 57 65 68 50 58 61 45 53 56 43 51 54 44 52 54 42 50 52 40 48 50 37 45 47 33 41 43 30 38 40 28 36 38 26 34 36 6 14 16 6 14 16 6 14 16 6 14 16 6 14 16 6 14 16 6 14 16 6 14 16 4 12 14 4 12 14 4 12 14 4 12 14 4 12 14 4 12 14 4 12 14 4 12 14 11 19 21 13 21 23 15 23 25 18 26 28 22 30 32 25 33 35 27 35 37 29 37 39 38 44 44 38 44 44 38 44 44 38 44 44 38 44 44 38 44 44 38 44 44 38 44 44 50 56 56 50 56 56 50 56 56 50 56 56 50 56 56 50 56 56 50 56 56 51 55 54 47 47 45 46 45 41 44 43 39 41 40 36 37 36 32 34 33 29 32 31 27 30 29 25 33 32 28 33 32 28 33 32 28 33 32 28 33 32 28 33 32 28 33 32 28 33 32 28 37 31 31 37 31 31 37 31 31 37 31 31 37 31 31 37 31 31 37 31 31 37 31 31 39 33 33 39 33 33 39 33 33 39 33 33 39 33 33 39 33 33 39 33 33 39 33 33
3 1 12 3 1 12 3 1 12 3 1 12 3 1 12 3 1 12 3 1 12 3 1 12 3 1 12 3 1 12 3 1 12 3 1 12 5 3 17 5 3 17 5 3 17 5 3 17 5 3 17 5 3 17 5 3 17 5 3 17 5 3 17 5 3 17 5 3 17 5 3 17 5 3 17 5 3 17 5 3 17 5 3 17 6 3 20 6 3 20 6 3 20 6 3 20 6 3 20 6 3 20 6 3 20 6 3 20 6 3 20 6 3 20 6 3 20 6 3 20 6 3 20 6 3 20 6 3 20 5 4 18 5 4 18 3 5 17 3 5 17 3 5 17 3 5 17 3 5 17 3 5 17 3 5 17 4 6 18 4 6 18 4 6 18 4 6 18 4 6 18 4 6 18 4 6 18 3 7 16 5 9 18 3 10 16 3 10 16 3 10 16 3 10 16 3 10 16 3 10 16 3 10 16 7 14 20 8 15 21 8 15 21 9 16 22 9 16 22 10 17 23 11 18 24 11 18 24 22 30 33 26 34 37 33 41 44 41 49 52 51 59 62 60 68 71 67 75 78 70 78 81 77 85 88 75 83 86 70 78 81 63 71 74 57 65 68 50 58 61 45 53 56 43 51 54 44 52 54 42 50 52 40 48 50 37 45 47 33 41 43 30 38 40 28 36 38 26 34 36 6 14 16 6 14 16 6 14 16 6 14 16 6 14 16 6 14 16 6 14 16 6 14 16 4 12 14 4 12 14 4 12 14 4 12 14 4 12 14 4 12 14 4 12 14 4 12 14 11 19 21 13 21 23 15 23 25 18 26 28 22 30 32 25 33 35 27 35 37 29 37 39 38 44 44 38 44 44 38 44 44 38 44 44 38 44 44 38 44 44 38 44 44 38 44 44 48 54 54 48 54 54 48 54 54 48 54 54 48 54 54 48 54 54 48 54 54 49 53 52 47 47 45 46 45 41 44 43 39 41 40 36 37 36 32 34 33 29 32 31 27 30 29 25 33 32 28 33 32 28 33 32 28 33 32 28 33 32 28 33 32 28 33 32 28 33 32 28 37 31 31 37 31 31 37 31 31 37 31 31 37 31 31 37 31 31 37 31 31 37 31 31 39 33 33 39 33 33 39 33 33 39 33 33 39 33 33 39 33 33 39 33 33 39 33 33
3 1 12 3 1 12 3 1 12 3 1 12 3 1 12 3 1 12 3 1 12 3 1 12 3 1 12 3 1 12 3 1 12 3 1 12 5 3 17 5 3 17 5 3 17 5 3 17 5 3 17 5 3 17 5 3 17 5 3 17 5 3 17 5 3 17 5 3 17 5 3 17 5 3 17 5 3 17 5 3 17 5 3 17 6 3 20 6 3 20 6 3 20 6 3 20 6 3 20 6 3 20 6 3 20 6 3 20 6 3 20 6 3 20 6 3 20 6 3 20 6 3 20 6 3 20 6 3 20 5 4 18 5 4 18 3 5 17 3 5 17 3 5 17 3 5 17 3 5 17 3 5 17 3 5 17 4 6 18 4 6 18 4 6 18 4 6 18 4 6 18 4 6 18 4 6 18 3 7 16 5 9 18 3 10 16 3 10 16 3 10 16 3 10 16 3 10 16 3 10 16 3 10 16 6 13 19 7 14 20 9 16 22 11 18 24 14 21 27 16 23 29 18 25 31 19 26 32 33 41 44 36 44 47 41 49 52 49 57 60 56 64 67 64 72 75 69 77 80 72 80 83 77 85 88 75 83 86 70 78 81 63 71 74 57 65 68 50 58 61 45 53 56 43 51 54 44 52 54 42 50 52 40 48 50 37 45 47 33 41 43 30 38 40 28 36 38 26 34 36 6 14 16 6 14 16 6 14 16 6 14 16 6 14 16 6 14 16 6 14 16 6 14 16 4 12 14 4 12 14 4 12 14 4 12 14 4 12 14 4 12 14 4 12 14 4 12 14 11 19 21 13 21 23 15 23 25 18 26 28 22 30 32 25 33 35 27 35 37 29 37 39 38 44 44 38 44 44 38 44 44 38 44 44 38 44 44 38 44 44 38 44 44 38 44 44 45 51 51 45 51 51 45 51 51 45 51 51 45 51 51 45 51 51 45 51 51 46 50 49 47 47 45 46 45 41 44 43 39 41 40 36 37 36 32 34 33 29 32 31 27 30 29 25 33 32 28 33 32 28 33 32 28 33 32 28 33 32 28 33 32 28 33 32 28 33 32 28 37 31 31 37 31 31 37 31 31 37 31 31 37 31 31 37 31 31 37 31 31 37 31 31 39 33 33 39 33 33 39 33 33 39 33 33 39 33 33 39 33 33 39 33 33 39 33 33
3 1 12 3 1 12 3 1 12 3 1 12 3 1 12 3 1 12 3 1 12 3 1 12 3 1 12 3 1 12 3 1 12 3 1 12 5 3 17 5 3 17 5 3 17 5 3 17 5 3 17 5 3 17 5 3 17 5 3 17 5 3 17 5 3 17 5 3 17 5 3 17 5 3 17 5 3 17 5 3 17 5 3 17 6 3 20 6 3 20 6 3 20 6 3 20 6 3 20 6 3 20 6 3 20 6 3 20 6 3 20 6 3 20 6 3 20 6 3 20 6 3 20 6 3 20 6 3 20 5 4 18 5 4 18 3 5 17 3 5 17 3 5 17 3 5 17 3 5 17 3 5 17 3 5 17 4 6 18 4 6 18 4 6 18 4 6 18 4 6 18 4 6 18 4 6 18 3 7 16 5 9 18 3 10 16 3 10 16 3 10 16 3 10 16 3 10 16 3 10 16 3 10 16 5 12 18 6 13 19 9 16 22 14 21 27 18 25 31 22 29 35 25 32 38 27 34 40 44 52 55 47 55 58 51 59 62 56 64 67 62 70 73 68 76 79 72 80 83 74 82 85 77 85 88 75 83 86 70 78 81 63 71 74 57 65 68 50 58 61 45 53 56 43 51 54 44 52 54 42 50 52 40 48 50 37 45 47 33 41 43 30 38 40 28 36 38 26 34 36 6 14 16 6 14 16 6 14 16 6 14 16 6 14 16 6 14 16 6 14 16 6 14 16 4 12 14 4 12 14 4 12 14 4 12 14 4 12 14 4 12 14 4 12 14 4 12 14 11 19 21 13 21 23 15 23 25 18 26 28 22 30 32 25 33 35 27 35 37 29 37 39 38 44 44 38 44 44 38 44 44 38 44 44 38 44 44 38 44 44 38 44 44 38 44 44 41 47 47 41 47 47 41 47 47 41 47 47 41 47 47 41 47 47 41 47 47 42 46 45 47 47 45 46 45 41 44 43 39 41 40 36 37 36 32 34 33 29 32 31 27 30 29 25 33 32 28 33 32 28 33 32 28 33 32 28 33 32 28 33 32 28 33 32 28 33 32 28 37 31 31 37 31 31 37 31 31 37 31 31 37 31 31 37 31 31 37 31 31 37 31 31 39 33 33 39 33 33 39 33 33 39 33 33 39 33 33 39 33 33 39 33 33 39 33 33
3 1 12 3 1 12 3 1 12 3 1 12 3 1 12 3 1 12 3 1 12 3 1 12 3 1 12 3 1 12 3 1 12 3 1 12 5 3 17 5 3 17 5 3 17 5 3 17 5 3 17 5 3 17 5 3 17 5 3 17 5 3 17 5 3 17 5 3 17 5 3 17 5 3 17 5 3 17 5 3 17 5 3 17 6 3 20 6 3 20 6 3 20 6 3 20 6 3 20 6 3 20 6 3 20 6 3 20 6 3 20 6 3 20 6 3 20 6 3 20 6 3 20 6 3 20 6 3 20 5 4 18 5 4 18 3 5 17 3 5 17 3 5 17 3 5 17 3 5 17 3 5 17 3 5 17 4 6 18 4 6 18 4 6 18 4 6 18 4 6 18 4 6 18 4 6 18 3 7 16 5 9 18 3 10 16 3 10 16 3 10 16 3 10 16 3 10 16 3 10 16 3 10 16 3 10 16 6 13 19 10 17 23 16 23 29 22 29 35 28 35 41 32 39 45 34 41 47 55 63 66 57 65 68 60 68 71 64 72 75 68 76 79 72 80 83 75 83 86 76 84 87 77 85 88 75 83 86 70 78 81 63 71 74 57 65 68 50 58 61 45 53 56 43 51 54 44 52 54 42 50 52 40 48 50 37 45 47 33 41 43 30 38 40 28 36 38 26 34 36 6 14 16 6 14 16 6 14 16 6 14 16 6 14 16 6 14 16 6 14 16 6 14 16 4 12 14 4 12 14 4 12 14 4 12 14 4 12 14 4 12 14 4 12 14 4 12 14 11 19 21 13 21 23 15 23 25 18 26 28 22 30 32 25 33 35 27 35 37 29 37 39 38 44 44 38 44 44 38 44 44 38 44 44 38 44 44 38 44 44 38 44 44 38 44 44 38 44 44 38 44 44 38 44 44 38 44 44 38 44 44 38 44 44 38 44 44 39 43 42 47 47 45 46 45 41 44 43 39 41 40 36 37 36 32 34 33 29 32 31 27 30 29 25 33 32 28 33 32 28 33 32 28 33 32 28 33 32 28 33 32 28 33 32 28 33 32 28 37 31 31 37 31 31 37 31 31 37 31 31 37 31 31 37 31 31 37 31 31 37 31 31 39 33 33 39 33 33 39 33 33 39 33 33 39 33 33 39 33 33 39 33 33 39 33 33
3 1 12 3 1 12 3 1 12 3 1 12 3 1 12 3 1 12 3 1 12 3 1 12 3 1 12 3 1 12 3 1 12 3 1 12 5 3 17 5 3 17 5 3 17 5 3 17 5 3 17 5 3 17 5 3 17 5 3 17 5 3 17 5 3 17 5 3 17 5 3 17 5 3 17 5 3 17 5 3 17 5 3 17 6 3 20 6 3 20 6 3 20 6 3 20 6 3 20 6 3 20 6 3 20 6 3 20 6 3 20 6 3 20 6 3 20 6 3 20 6 3 20 6 3 20 6 3 20 5 4 18 5 4 18 3 5 17 3 5 17 3 5 17 3 5 17 3 5 17 3 5 17 3 5 17 4 6 18 4 6 18 4 6 18 4 6 18 4 6 18 4 6 18 4 6 18 3 7 16 5 9 18 3 10 16 3 10 16 3 10 16 3 10 16 3 10 16 3 10 16 3 10 16 2 9 15 5 12 18 11 18 24 18 25 31 25 32 38 32 39 45 37 44 50 40 47 53 64 72 75 65 73 76 67 75 78 69 77 80 72 80 83 75 83 86 77 85 88 78 86 89 77 85 88 75 83 86 70 78 81 63 71 74 57 65 68 50 58 61 45 53 56 43 51 54 44 52 54 42 50 52 40 48 50 37 45 47 33 41 43 30 38 40 28 36 38 26 34 36 6 14 16 6 14 16 6 14 16 6 14 16 6 14 16 6 14 16 6 14 16 6 14 16 4 12 14 4 12 14 4 12 14 4 12 14 4 12 14 4 12 14 4 12 14 4 12 14 11 19 21 13 21 23 15 23 25 18 26 28 22 30 32 25 33 35 27 35 37 29 37 39 38 44 44 38 44 44 38 44 44 38 44 44 38 44 44 38 44 44 38 44 44 38 44 44 36 42 42 36 42 42 36 42 42 36 42 42 36 42 42 36 42 42 36 42 42 37 41 40 47 47 45 46 45 41 44 43 39 41 40 36 37 36 32 34 33 29 32 31 27 30 29 25 33 32 28 33 32 28 33 32 28 33 32 28 33 32 28 33 32 28 33 32 28 33 32 28 37 31 31 37 31 31 37 31 31 37 31 31 37 31 31 37 31 31 37 31 31 37 31 31 39 33 33 39 33 33 39 33 33 39 33 33 39 33 33 39 33 33 39 33 33 39 33 33
3 1 12 3 1 12 3 1 12 3 1 12 3 1 12 3 1 12 3 1 12 3 1 12 3 1 12 3 1 12 3 1 12 3 1 12 5 3 17 5 3 17 5 3 17 5 3 17 5 3 17 5 3 17 5 3 17 5 3 17 5 3 17 5 3 17 5 3 17 5 3 17 5 3 17 5 3 17 5 3 17 5 3 17 6 3 20 6 3 20 6 3 20 6 3 20 6 3 20 6 3 20 6 3 20 6 3 20 6 3 20 6 3 20 6 3 20 6 3 20 6 3 20 6 3 20 6 3 20 5 4 18 5 4 18 3 5 17 3 5 17 3 5 17 3 5 17 3 5 17 3 5 17 3 5 17 4 6 18 4 6 18 4 6 18 4 6 18 4 6 18 4 6 18 4 6 18 3 7 16 5 9 18 3 10 16 3 10 16 3 10 16 3 10 16 3 10 16 3 10 16 3 10 16 2 9 15 5 12 18 11 18 24 19 26 32 27 34 40 34 41 47 40 47 53 43 50 56 68 76 79 69 77 80 70 78 81 72 80 83 74 82 85 76 84 87 78 86 89 79 87 90 77 85 88 75 83 86 70 78 81 63 71 74 57 65 68 50 58 61 45 53 56 43 51 54 44 52 54 42 50 52 40 48 50 37 45 47 33 41 43 30 38 40 28 36 38 26 34 36 6 14 16 6 14 16 6 14 16 6 14 16 6 14 16 6 14 16 6 14 16 6 14 16 4 12 14 4 12 14 4 12 14 4 12 14 4 12 14 4 12 14 4 12 14 4 12 14 11 19 21 13 21 23 15 23 25 18 26 28 22 30 32 25 33 35 27 35 37 29 37 39 38 44 44 38 44 44 38 44 44 38 44 44 38 44 44 38 44 44 38 44 44 38 44 44 34 40 40 34 40 40 34 40 40 34 40 40 34 40 40 34 40 40 34 40 40 35 39 38 47 47 45 46 45 41 44 43 39 41 40 36 37 36 32 34 33 29 32 31 27 30 29 25 33 32 28 33 32 28 33 32 28 33 32 28 33 32 28 33 32 28 33 32 28 33 32 28 37 31 31 37 31 31 37 31 31 37 31 31 37 31 31 37 31 31 37 31 31 37 31 31 39 33 33 39 33 33 39 33 33 39 33 33 39 33 33 39 33 33 39 33 33 39 33 33
3 1 12 3 1 12 3 1 12 3 1 12 3 1 12 3 1 12 3 1 12 3 1 12 3 1 12 3 1 12 3 1 12 3 1 12 3 1 15 3 1 15 3 1 15 3 1 15 3 1 15 3 1 15 3 1 15 3 1 15 5 3 17 5 3 17 5 3 17 5 3 17 5 3 17 5 3 17 5 3 17 5 3 17 6 3 20 6 3 20 6 3 20 6 3 20 6 3 20 6 3 20 6 3 20 6 3 20 7 4 21 7 4 21 7 4 21 7 4 21 7 4 21 7 4 21 7 4 21 6 5 19 5 4 18 3 5 17 3 5 17 3 5 17 3 5 17 3 5 17 3 5 17 3 5 17 4 6 18 4 6 18 4 6 18 4 6 18 4 6 18 4 6 18 4 6 18 3 7 16 0 4 13 0 6 12 1 8 14 3 10 16 5 12 18 7 14 20 8 15 21 9 16 22 25 32 38 28 35 41 34 41 47 41 48 54 49 56 62 57 64 70 63 70 76 66 73 79 62 70 73 64 72 75 66 74 77 69 77 80 73 81 84 76 84 87 78 86 89 80 88 91 80 88 91 77 85 88 72 80 83 66 74 77 59 67 70 53 61 64 48 56 59 45 53 56 37 45 47 36 44 46 33 41 43 30 38 40 27 35 37 23 31 33 21 29 31 20 28 30 17 25 27 15 23 25 13 21 23 10 18 20 6 14 16 3 11 13 1 9 11 0 7 9 7 15 17 7 15 17 7 15 17 7 15 17 7 15 17 7 15 17 7 15 17 7 15 17 20 28 30 20 28 30 20 28 30 20 28 30 20 28 30 20 28 30 20 28 30 20 28 30 29 35 35 29 35 35 29 35 35 29 35 35 29 35 35 29 35 35 29 35 35 29 35 35 30 36 36 30 36 36 30 36 36 30 36 36 30 36 36 30 36 36 30 36 36 31 35 34 30 30 28 31 30 26 31 30 26 31 30 26 31 30 26 31 30 26 31 30 26 31 30 26 32 31 27 32 31 27 32 31 27 32 31 27 32 31 27 32 31 27 32 31 27 32 31 27 36 30 30 36 30 30 36 30 30 36 30 30 36 30 30 36 30 30 36 30 30 36 30 30 37 31 31 37 31 31 37 31 31 37 31 31 37 31 31 37 31 31 37 31 31 37 31 31
3 1 12 3 1 12 3 1 12 3 1 12 3 1 12 3 1 12 3 1 12 3 1 12 3 1 12 3 1 12 3 1 12 3 1 12 3 1 15 3 1 15 3 1 15 3 1 15 3 1 15 3 1 15 3 1 15 3 1 15 5 3 17 5 3 17 5 3 17 5 3 17 5 3 17 5 3 17 5 3 17 5 3 17 6 3 20 6 3 20 6 3 20 6 3 20 6 3 20 6 3 20 6 3 20 6 3 20 7 4 21 7 4 21 7 4 21 7 4 21 7 4 21 7 4 21 7 4 21 6 5 19 5 4 18 3 5 17 3 5 17 3 5 17 3 5 17 3 5 17 3 5 17 3 5 17 4 6 18 4 6 18 4 6 18 4 6 18 4 6 18 4 6 18 4 6 18 3 7 16 1 5 14 0 7 13 2 9 15 5 12 18 8 15 21 10 17 23 12 19 25 13 20 26 28 35 41 31 38 44 36 43 49 43 50 56 50 57 63 57 64 70 63 70 76 66 73 79 62 70 73 64 72 75 66 74 77 69 77 80 73 81 84 76 84 87 78 86 89 80 88 91 81 89 92 78 86 89 73 81 84 67 75 78 60 68 71 54 62 65 49 57 60 46 54 57 38 46 48 37 45 47 35 43 45 31 39 41 28 36 38 25 33 35 22 30 32 21 29 31 17 25 27 15 23 25 13 21 23 10 18 20 6 14 16 3 11 13 1 9 11 0 7 9 7 15 17 7 15 17 7 15 17 7 15 17 7 15 17 7 15 17 7 15 17 7 15 17 20 28 30 20 28 30 20 28 30 20 28 30 20 28 30 20 28 30 20 28 30 20 28 30 29 35 35 29 35 35 29 35 35 29 35 35 29 35 35 29 35 35 29 35 35 29 35 35 30 36 36 30 36 36 30 36 36 30 36 36 30 36 36 30 36 36 30 36 36 31 35 34 30 30 28 31 30 26 31 30 26 31 30 26 31 30 26 31 30 26 31 30 26 31 30 26 32 31 27 32 31 27 32 31 27 32 31 27 32 31 27 32 31 27 32 31 27 32 31 27 36 30 30 36 30 30 36 30 30 36 30 30 36 30 30 36 30 30 36 30 30 36 30 30 37 31 31 37 31 31 37 31 31 37 31 31 37 31 31 37 31 31 37 31 31 37 31 31
3 1 12 3 1 12 3 1 12 3 1 12 3 1 12 3 1 12 3 1 12 3 1 12 3 1 12 3 1 12 3 1 12 3 1 12 3 1 15 3 1 15 3 1 15 3 1 15 3 1 15 3 1 15 3 1 15 3 1 15 5 3 17 5 3 17 5 3 17 5 3 17 5 3 17 5 3 17 5 3 17 5 3 17 6 3 20 6 3 20 6 3 20 6 3 20 6 3 20 6 3 20 6 3 20 6 3 20 7 4 21 7 4 21 7 4 21 7 4 21 7 4 21 7 4 21 7 4 21 6 5 19 5 4 18 3 5 17 3 5 17 3 5 17 3 5 17 3 5 17 3 5 17 3 5 17 4 6 18 4 6 18 4 6 18 4 6 18 4 6 18 4 6 18 4 6 18 3 7 16 3 7 16 2 9 15 5 12 18 9 16 22 13 20 26 17 24 30 20 27 33 22 29 35 34 41 47 36 43 49 40 47 53 46 53 59 52 59 65 58 65 71 62 69 75 65 72 78 62 70 73 64 72 75 66 74 77 69 77 80 73 81 84 76 84 87 78 86 89 80 88 91 83 91 94 81 89 92 76 84 87 70 78 81 63 71 74 56 64 67 51 59 62 49 57 60 41 49 51 39 47 49 37 45 47 34 42 44 30 38 40 27 35 37 25 33 35 23 31 33 17 25 27 15 23 25 13 21 23 10 18 20 6 14 16 3 11 13 1 9 11 0 7 9 7 15 17 7 15 17 7 15 17 7 15 17 7 15 17 7 15 17 7 15 17 7 15 17 20 28 30 20 28 30 20 28 30 20 28 30 20 28 30 20 28 30 20 28 30 20 28 30 29 35 35 29 35 35 29 35 35 29 35 35 29 35 35 29 35 35 29 35 35 29 35 35 30 36 36 30 36 36 30 36 36 30 36 36 30 36 36 30 36 36 30 36 36 31 35 34 30 30 28 31 30 26 31 30 26 31 30 26 31 30 26 31 30 26 31 30 26 31 30 26 32 31 27 32 31 27 32 31 27 32 31 27 32 31 27 32 31 27 32 31 27 32 31 27 36 30 30 36 30 30 36 30 30 36 30 30 36 30 30 36 30 30 36 30 30 36 30 30 37 31 31 37 31 31 37 31 31 37 31 31 37 31 31 37 31 31 37 31 31 37 31 31
3 1 12 3 1 12 3 1 12 3 1 12 3 1 12 3 1 12 3 1 12 3 1 12 3 1 12 3 1 12 3 1 12 3 1 12 3 1 15 3 1 15 3 1 15 3 1 15 3 1 15 3 1 15 3 1 15 3 1 15 5 3 17 5 3 17 5 3 17 5 3 17 5 3 17 5 3 17 5 3 17 5 3 17 6 3 20 6 3 20 6 3 20 6 3 20 6 3 20 6 3 20 6 3 20 6 3 20 7 4 21 7 4 21 7 4 21 7 4 21 7 4 21 7 4 21 7 4 21 6 5 19 5 4 18 3 5 17 3 5 17 3 5 17 3 5 17 3 5 17 3 5 17 3 5 17 4 6 18 4 6 18 4 6 18 4 6 18 4 6 18 4 6 18 4 6 18 3 7 16 5 9 18 5 12 18 9 16 22 15 22 28 21 28 34 26 33 39 30 37 43 33 40 46 41 48 54 43 50 56 46 53 59 50 57 63 54 61 67 59 66 72 62 69 75 63 70 76 62 70 73 64 72 75 66 74 77 69 77 80 73 81 84 76 84 87 78 86 89 80 88 91 87 95 98 84 92 95 79 87 90 73 81 84 66 74 77 59 67 70 55 63 66 52 60 63 44 52 54 43 51 53 40 48 50 37 45 47 34 42 44 30 38 40 28 36 38 27 35 37 17 25 27 15 23 25 13 21 23 10 18 20 6 14 16 3 11 13 1 9 11 0 7 9 7 15 17 7 15 17 7 15 17 7 15 17 7 15 17 7 15 17 7 15 17 7 15 17 20 28 30 20 28 30 20 28 30 20 28 30 20 28 30 20 28 30 20 28 30 20 28 30 29 35 35 29 35 35 29 35 35 29 35 35 29 35 35 29 35 35 29 35 35 29 35 35 30 36 36 30 36 36 30 36 36 30 36 36 30 36 36 30 36 36 30 36 36 31 35 34 30 30 28 31 30 26 31 30 26 31 30 26 31 30 26 31 30 26 31 30 26 31 30 26 32 31 27 32 31 27 32 31 27 32 31 27 32 31 27 32 31 27 32 31 27 32 31 27 36 30 30 36 30 30 36 30 30 36 30 30 36 30 30 36 30 30 36 30 30 36 30 30 37 31 31 37 31 31 37 31 31 37 31 31 37 31 31 37 31 31 37 31 31 37 31 31
3 1 12 3 1 12 3 1 12 3 1 12 3 1 12 3 1 12 3 1 12 3 1 12 3 1 12 3 1 12 3 1 12 3 1 12 3 1 15 3 1 15 3 1 15 3 1 15 3 1 15 3 1 15 3 1 15 3 1 15 5 3 17 5 3 17 5 3 17 5 3 17 5 3 17 5 3 17 5 3 17 5 3 17 6 3 20 6 3 20 6 3 20 6 3 20 6 3 20 6 3 20 6 3 20 6 3 20 7 4 21 7 4 21 7 4 21 7 4 21 7 4 21 7 4 21 7 4 21 6 5 19 5 4 18 3 5 17 3 5 17 3 5 17 3 5 17 3 5 17 3 5 17 3 5 17 4 6 18 4 6 18 4 6 18 4 6 18 4 6 18 4 6 18 4 6 18 3 7 16 7 11 20 8 15 21 13 20 26 21 28 34 28 35 41 36 43 49 41 48 54 44 51 57 49 56 62 50 57 63 52 59 65 54 61 67 57 64 70 59 66 72 61 68 74 62 69 75 62 70 73 64 72 75 66 74 77 69 77 80 73 81 84 76 84 87 78 86 89 80 88 91 90 98 101 87 95 98 83 91 94 76 84 87 69 77 80 63 71 74 58 66 69 55 63 66 47 55 57 46 54 56 44 52 54 40 48 50 37 45 47 34 42 44 31 39 41 30 38 40 17 25 27 15 23 25 13 21 23 10 18 20 6 14 16 3 11 13 1 9 11 0 7 9 7 15 17 7 15 17 7 15 17 7 15 17 7 15 17 7 15 17 7 15 17 7 15 17 20 28 30 20 28 30 20 28 30 20 28 30 20 28 30 20 28 30 20 28 30 20 28 30 29 35 35 29 35 35 29 35 35 29 35 35 29 35 35 29 35 35 29 35 35 29 35 35 30 36 36 30 36 36 30 36 36 30 36 36 30 36 36 30 36 36 30 36 36 31 35 34 30 30 28 31 30 26 31 30 26 31 30 26 31 30 26 31 30 26 31 30 26 31 30 26 32 31 27 32 31 27 32 31 27 32 31 27 32 31 27 32 31 27 32 31 27 32 31 27 36 30 30 36 30 30 36 30 30 36 30 30 36 30 30 36 30 30 36 30 30 36 30 30 37 31 31 37 31 31 37 31 31 37 31 31 37 31 31 37 31 31 37 31 31 37 31 31
3 1 12 3 1 12 3 1 12 3 1 12 3 1 12 3 1 12 3 1 12 3 1 12 3 1 12 3 1 12 3 1 12 3 1 12 3 1 15 3 1 15 3 1 15 3 1 15 3 1 15 3 1 15 3 1 15 3 1 15 5 3 17 5 3 17 5 3 17 5 3 17 5 3 17 5 3 17 5 3 17 5 3 17 6 3 20 6 3 20 6 3 20 6 3 20 6 3 20 6 3 20 6 3 20 6 3 20 7 4 21 7 4 21 7 4 21 7 4 21 7 4 21 7 4 21 7 4 21 6 5 19 5 4 18 3 5 17 3 5 17 3 5 17 3 5 17 3 5 17 3 5 17 3 5 17 4 6 18 4 6 18 4 6 18 4 6 18 4 6 18 4 6 18 4 6 18 3 7 16 9 13 22 10 17 23 17 24 30 26 33 39 36 43 49 44 51 57 51 58 64 55 62 68 57 64 70 57 64 70 58 65 71 59 66 72 59 66 72 60 67 73 60 67 73 61 68 74 62 70 73 64 72 75 66 74 77 69 77 80 73 81 84 76 84 87 78 86 89 80 88 91 93 101 104 91 99 102 86 94 97 79 87 90 72 80 83 66 74 77 61 69 72 59 67 70 51 59 61 49 57 59 47 55 57 44 52 54 40 48 50 37 45 47 35 43 45 33 41 43 17 25 27 15 23 25 13 21 23 10 18 20 6 14 16 3 11 13 1 9 11 0 7 9 7 15 17 7 15 17 7 15 17 7 15 17 7 15 17 7 15 17 7 15 17 7 15 17 20 28 30 20 28 30 20 28 30 20 28 30 20 28 30 20 28 30 20 28 30 20 28 30 29 35 35 29 35 35 29 35 35 29 35 35 29 35 35 29 35 35 29 35 35 29 35 35 30 36 36 30 36 36 30 36 36 30 36 36 30 36 36 30 36 36 30 36 36 31 35 34 30 30 28 31 30 26 31 30 26 31 30 26 31 30 26 31 30 26 31 30 26 31 30 26 32 31 27 32 31 27 32 31 27 32 31 27 32 31 27 32 31 27 32 31 27 32 31 27 36 30 30 36 30 30 36 30 30 36 30 30 36 30 30 36 30 30 36 30 30 36 30 30 37 31 31 37 31 31 37 31 31 37 31 31 37 31 31 37 31 31 37 31 31 37 31 31
3 1 12 3 1 12 3 1 12 3 1 12 3 1 12 3 1 12 3 1 12 3 1 12 3 1 12 3 1 12 3 1 12 3 1 12 3 1 15 3 1 15 3 1 15 3 1 15 3 1 15 3 1 15 3 1 15 3 1 15 5 3 17 5 3 17 5 3 17 5 3 17 5 3 17 5 3 17 5 3 17 5 3 17 6 3 20 6 3 20 6 3 20 6 3 20 6 3 20 6 3 20 6 3 20 6 3 20 7 4 21 7 4 21 7 4 21 7 4 21 7 4 21 7 4 21 7 4 21 6 5 19 5 4 18 3 5 17 3 5 17 3 5 17 3 5 17 3 5 17 3 5 17 3 5 17 4 6 18 4 6 18 4 6 18 4 6 18 4 6 18 4 6 18 4 6 18 3 7 16 10 14 23 12 19 25 20 27 33 30 37 43 41 48 54 51 58 64 59 66 72 63 70 76 63 70 76 63 70 76 62 69 75 62 69 75 61 68 74 60 67 73 60 67 73 60 67 73 62 70 73 64 72 75 66 74 77 69 77 80 73 81 84 76 84 87 78 86 89 80 88 91 96 104 107 93 101 104 88 96 99 82 90 93 75 83 86 69 77 80 64 72 75 61 69 72 53 61 63 52 60 62 49 57 59 46 54 56 43 51 53 39 47 49 37 45 47 36 44 46 17 25 27 15 23 25 13 21 23 10 18 20 6 14 16 3 11 13 1 9 11 0 7 9 7 15 17 7 15 17 7 15 17 7 15 17 7 15 17 7 15 17 7 15 17 7 15 17 20 28 30 20 28 30 20 28 30 20 28 30 20 28 30 20 28 30 20 28 30 20 28 30 29 35 35 29 35 35 29 35 35 29 35 35 29 35 35 29 35 35 29 35 35 29 35 35 30 36 36 30 36 36 30 36 36 30 36 36 30 36 36 30 36 36 30 36 36 31 35 34 30 30 28 31 30 26 31 30 26 31 30 26 31 30 26 31 30 26 31 30 26 31 30 26 32 31 27 32 31 27 32 31 27 32 31 27 32 31 27 32 31 27 32 31 27 32 31 27 36 30 30 36 30 30 36 30 30 36 30 30 36 30 30 36 30 30 36 30 30 36 30 30 37 31 31 37 31 31 37 31 31 37 31 31 37 31 31 37 31 31 37 31 31 37 31 31
3 1 12 3 1 12 3 1 12 3 1 12 3 1 12 3 1 12 3 1 12 3 1 12 3 1 12 3 1 12 3 1 12 3 1 12 3 1 14 3 1 14 3 1 14 3 1 14 3 1 14 3 1 14 3 1 14 3 1 14 5 3 16 5 3 16 5 3 16 5 3 16 5 3 16 5 3 16 5 3 16 5 3 16 6 4 18 5 4 18 6 4 18 5 4 18 6 4 18 5 4 18 6 4 18 5 4 18 7 5 19 6 5 19 7 5 19 6 5 19 7 5 19 6 5 19 7 5 19 6 5 19 3 5 17 2 6 17 3 5 17 2 6 17 3 5 17 2 6 17 3 5 17 2 6 17 4 6 18 3 7 18 4 6 18 3 7 18 4 6 18 3 7 18 4 6 18 3 7 16 9 16 22 13 20 26 22 29 35 33 40 46 44 51 57 55 62 68 63 70 76 68 75 81 66 73 79 65 72 78 65 72 78 63 70 76 62 69 75 61 68 74 60 67 73 59 66 72 62 70 73 64 72 75 66 74 77 69 77 80 73 81 84 76 84 87 78 86 89 80 88 91 97 105 108 94 102 105 89 97 100 83 91 94 76 84 87 70 78 81 65 73 76 62 70 73 54 62 64 53 61 63 51 59 61 47 55 57 44 52 54 41 49 51 38 46 48 37 45 47 17 25 27 15 23 25 13 21 23 10 18 20 6 14 16 3 11 13 1 9 11 0 7 9 7 15 17 7 15 17 7 15 17 7 15 17 7 15 17 7 15 17 7 15 17 7 15 17 20 28 30 20 28 30 20 28 30 20 28 30 20 28 30 20 28 30 20 28 30 20 28 30 29 34 37 29 35 35 29 35 35 29 35 35 29 35 35 29 35 35 29 35 35 29 35 35 30 36 36 30 36 36 30 36 36 30 36 36 30 36 36 30 36 36 30 36 36 31 35 34 30 30 28 31 30 26 33 29 26 31 30 26 33 29 26 31 30 26 33 29 26 31 30 26 34 30 27 32 31 27 34 30 27 32 31 27 34 30 27 32 31 27 34 30 27 34 30 27 36 30 30 36 30 30 38 29 30 36 30 30 38 29 30 36 30 30 38 29 30 36 30 30 39 30 31 37 31 31 39 30 31 37 31 31 39 30 31 37 31 31 39 30 31 37 31 31
3 2 10 3 2 10 3 2 10 3 2 10 2 1 9 2 1 9 2 1 9 2 1 9 2 1 9 2 1 9 2 1 9 2 1 9 2 1 9 2 1 9 2 1 9 2 1 9 2 1 9 2 1 9 2 1 9 2 1 9 2 1 9 2 1 9 2 1 9 2 1 9 2 1 9 2 1 9 2 1 9 2 1 9 3 3 13 1 4 13 3 3 13 1 4 13 3 3 13 1 4 13 3 3 13 1 4 13 5 5 15 3 6 15 5 5 15 3 6 15 5 5 15 3 6 15 5 5 15 3 6 15 6 10 19 4 11 19 6 10 19 4 11 19 6 10 19 4 11 19 6 10 19 4 11 19 5 9 18 4 11 19 9 13 22 10 17 25 15 19 28 17 24 32 21 25 34 20 27 35 45 52 58 47 54 60 49 56 62 52 59 65 56 63 69 59 66 72 61 68 74 63 70 76 65 72 78 65 72 78 65 72 78 65 72 78 65 72 78 65 72 78 65 72 78 65 72 78 76 81 85 76 81 84 76 81 84 76 81 84 76 81 84 76 81 84 76 81 84 76 81 84 90 95 98 92 97 100 94 99 102 97 102 105 101 106 109 104 109 112 106 111 114 108 113 116 77 85 88 74 82 85 69 77 80 63 71 74 56 64 67 50 58 61 45 53 56 42 50 53 0 7 10 9 17 20 26 34 37 39 47 50 44 52 55 39 47 50 30 38 41 23 31 34 7 15 18 7 15 18 7 15 18 7 15 18 7 15 18 7 15 18 7 15 18 7 15 18 15 23 26 15 23 26 15 23 26 15 23 26 15 23 26 15 23 26 15 23 26 15 23 25 32 37 40 32 37 40 32 37 40 32 37 40 32 37 40 32 37 40 32 37 40 32 37 40 29 34 37 29 34 37 29 34 37 29 34 37 29 34 37 29 34 37 29 34 37 30 34 35 30 28 29 32 28 27 33 27 27 32 28 27 33 27 27 32 28 27 33 27 27 32 28 27 35 29 29 34 30 29 35 29 29 34 30 29 35 29 29 34 30 29 35 29 29 35 29 29 38 30 28 38 30 28 39 29 28 38 30 28 39 29 28 38 30 28 39 29 28 38 30 28 39 29 28 38 30 28 39 29 28 38 30 28 39 29 28 38 30 28 39 29 28 38 30 28
3 2 10 3 2 10 3 2 10 3 2 10 2 1 9 2 1 9 2 1 9 2 1 9 2 1 9 2 1 9 2 1 9 2 1 9 2 1 7 2 1 7 2 1 7 2 1 7 2 1 7 2 1 7 2 1 7 2 1 7 2 1 7 2 1 7 2 1 7 2 1 7 2 1 7 2 1 7 2 1 7 1 2 7 3 3 11 1 4 11 1 4 11 1 4 11 1 4 11 1 4 11 1 4 11 1 4 11 3 6 13 3 6 13 3 6 13 3 6 13 3 6 13 3 6 13 3 6 13 2 7 13 6 10 19 4 11 19 4 11 19 4 11 19 4 11 19 4 11 19 4 11 19 4 11 19 6 13 21 7 14 22 9 16 24 13 20 28 16 23 31 19 26 34 22 29 37 23 30 38 45 52 58 47 54 60 49 56 62 52 59 65 56 63 69 59 66 72 61 68 74 63 70 76 65 72 78 65 72 78 65 72 78 65 72 78 65 72 78 65 72 78 65 72 78 65 73 76 76 81 85 76 81 84 76 81 84 76 81 84 76 81 84 76 81 84 76 81 84 76 81 84 90 95 98 92 97 100 94 99 102 97 102 105 101 106 109 104 109 112 106 111 114 108 113 116 80 88 91 77 85 88 72 80 83 66 74 77 59 67 70 52 60 63 48 56 59 45 53 56 3 11 14 12 20 23 26 34 37 37 45 48 41 49 52 37 45 48 29 37 40 23 31 34 9 17 20 9 17 20 9 17 20 9 17 20 9 17 20 9 17 20 9 17 20 9 17 20 15 23 26 15 23 26 15 23 26 15 23 26 15 23 26 15 23 26 15 23 26 15 23 26 30 35 38 30 35 38 30 35 38 30 35 38 30 35 38 30 35 38 30 35 38 30 35 38 27 32 35 27 32 35 27 32 35 27 32 35 27 32 35 27 32 35 27 32 35 28 32 33 32 28 29 33 27 27 33 27 27 33 27 27 33 27 27 33 27 27 33 27 27 33 27 27 35 29 29 35 29 29 35 29 29 35 29 29 35 29 29 35 29 29 35 29 29 35 29 29 39 29 28 39 29 28 39 29 28 39 29 28 39 29 28 39 29 28 39 29 28 39 29 28 39 29 28 39 29 28 39 29 28 39 29 28 39 29 28 39 29 28 39 29 28 39 29 28
3 2 10 3 2 10 3 2 10 3 2 10 2 1 9 2 1 9 2 1 9 2 1 9 2 1 9 2 1 9 2 1 9 2 1 9 2 1 7 2 1 7 2 1 7 2 1 7 2 1 7 2 1 7 2 1 7 2 1 7 2 1 7 2 1 7 2 1 7 2 1 7 2 1 7 2 1 7 2 1 7 1 2 7 3 3 11 1 4 11 1 4 11 1 4 11 1 4 11 1 4 11 1 4 11 1 4 11 3 6 13 3 6 13 3 6 13 3 6 13 3 6 13 3 6 13 3 6 13 2 7 13 6 10 19 4 11 19 4 11 19 4 11 19 4 11 19 4 11 19 4 11 19 4 11 19 11 18 26 12 19 27 14 21 29 17 24 32 21 28 36 24 31 39 27 34 42 28 35 43 45 52 58 47 54 60 49 56 62 52 59 65 56 63 69 59 66 72 61 68 74 63 70 76 65 72 78 65 72 78 65 72 78 65 72 78 65 72 78 65 72 78 65 72 78 65 73 76 76 81 85 76 81 84 76 81 84 76 81 84 76 81 84 76 81 84 76 81 84 76 81 84 90 95 98 92 97 100 94 99 102 97 102 105 101 106 109 104 109 112 106 111 114 108 113 116 85 93 96 82 90 93 77 85 88 71 79 82 64 72 75 57 65 68 52 60 63 50 58 61 10 18 21 17 25 28 26 34 37 33 41 44 36 44 47 33 41 44 28 36 39 24 32 35 11 19 22 11 19 22 11 19 22 11 19 22 11 19 22 11 19 22 11 19 22 11 19 22 15 23 26 15 23 26 15 23 26 15 23 26 15 23 26 15 23 26 15 23 26 15 23 26 28 33 36 28 33 36 28 33 36 28 33 36 28 33 36 28 33 36 28 33 36 28 33 36 25 30 33 25 30 33 25 30 33 25 30 33 25 30 33 25 30 33 25 30 33 26 30 31 32 28 29 33 27 27 33 27 27 33 27 27 33 27 27 33 27 27 33 27 27 33 27 27 35 29 29 35 29 29 35 29 29 35 29 29 35 29 29 35 29 29 35 29 29 35 29 29 39 29 28 39 29 28 39 29 28 39 29 28 39 29 28 39 29 28 39 29 28 39 29 28 39 29 28 39 29 28 39 29 28 39 29 28 39 29 28 39 29 28 39 29 28 39 29 28
