P3
172 37
255
128 115 132 128 115 132 128 115 132 128 115 132 124 111 128 124 111 128 124 111 128 124 111 128 124 111 128 124 111 128 124 111 128 124 111 128 124 112 126 124 112 126 124 112 126 124 112 126 124 112 126 124 112 126 124 112 126 124 112 126 125 113 127 125 113 127 125 113 127 125 113 127 125 113 127 125 113 127 125 113 127 125 113 127 132 115 131 132 115 131 132 115 131 132 115 131 132 115 131 132 115 131 132 115 131 132 115 131 135 118 134 135 118 134 135 118 134 135 118 134 135 118 134 135 118 134 135 118 134 133 119 134 86 78 89 58 52 62 26 20 30 11 5 15 14 8 18 22 16 26 21 15 25 16 10 20 13 7 17 13 7 17 13 7 17 13 7 17 13 7 17 13 7 17 13 7 17 11 8 17 7 8 13 5 8 13 5 8 13 5 8 13 5 8 13 5 8 13 5 8 13 5 8 13 7 10 15 7 10 15 7 10 15 7 10 15 7 10 15 7 10 15 7 10 15 7 10 15 6 11 15 6 11 15 6 11 15 6 11 15 6 11 15 6 11 15 6 11 15 6 11 15 7 12 16 7 12 16 7 12 16 7 12 16 7 12 16 7 12 16 7 12 16 7 12 15 8 12 15 8 12 13 8 12 13 8 12 13 8 12 13 8 12 13 8 12 13 8 12 13 0 3 4 0 3 4 0 3 4 0 3 4 0 3 4 0 3 4 0 3 4 0 3 4 7 13 13 7 13 13 7 13 13 7 13 13 7 13 13 7 13 13 7 13 13 7 13 13 16 22 22 18 24 24 20 26 26 23 29 29 27 33 33 30 36 36 32 38 38 34 40 40 60 62 61 64 66 65 71 73 72 81 83 82 91 93 92 101 103 102 108 110 109 112 114 113 117 119 118 121 123 122 127 129 128 129 131 130 126 128 127 117 119 118 107 109 108 100 102 101 54 52 53 52 50 51 50 48 49 47 45 46 43 41 42 40 38 39 38 36 37 36 34 35 43 41 42 43 41 42 43 41 42 43 41 42 43 41 42 43 41 42 43 41 42 43 41 42 40 38 39 40 38 39 40 38 39 40 38 39 40 38 39 40 38 39 40 38 39 40 38 39 43 41 42 43 41 42 43 41 42 43 41 42 43 41 42 43 41 42 43 41 42 43 41 42
128 115 132 128 115 132 128 115 132 128 115 132 124 111 128 124 111 128 124 111 128 124 111 128 124 111 128 124 111 128 124 111 128 124 111 128 124 111 128 124 112 126 125 111 128 124 112 126 125 111 128 124 112 126 125 111 128 124 112 126 126 112 129 125 113 127 126 112 129 125 113 127 126 112 129 125 113 127 126 112 129 126 112 127 130 116 131 130 116 131 130 116 131 130 116 131 130 116 131 130 116 131 130 116 131 130 116 131 135 121 136 135 121 136 135 121 136 135 121 136 135 121 136 135 121 136 135 121 136 134 122 136 82 76 88 53 50 59 21 18 27 7 4 13 11 8 17 19 16 25 19 16 25 15 12 21 11 8 17 11 8 17 11 8 17 11 8 17 11 8 17 11 8 17 11 8 17 10 9 17 5 8 13 4 9 13 4 9 13 4 9 13 4 9 13 4 9 13 4 9 13 4 9 13 6 11 15 6 11 15 6 11 15 6 11 15 6 11 15 6 11 15 6 11 15 6 11 15 6 11 15 4 12 15 6 11 15 4 12 15 6 11 15 4 12 15 6 11 15 4 12 15 7 12 16 5 13 16 7 12 16 5 13 16 7 12 16 5 13 16 7 12 16 7 12 15 8 12 15 8 12 13 8 12 13 8 12 13 8 12 13 8 12 13 8 12 13 8 12 13 0 3 4 0 3 4 0 3 4 0 3 4 0 3 4 0 3 4 0 3 4 0 3 4 7 13 13 7 13 13 7 13 13 7 13 13 7 13 13 7 13 13 7 13 13 7 13 13 16 22 22 18 24 24 20 26 26 23 29 29 27 33 33 30 36 36 32 38 38 34 40 40 58 62 61 62 66 65 71 73 72 79 83 82 91 93 92 99 103 102 108 110 109 110 114 113 117 119 118 119 123 122 127 129 128 127 131 130 126 128 127 115 119 118 107 109 108 100 102 101 53 53 53 52 50 51 50 48 49 47 45 46 43 41 42 40 38 39 38 36 37 36 34 35 43 41 42 43 41 42 43 41 42 43 41 42 43 41 42 43 41 42 43 41 42 43 41 42 40 38 39 40 38 39 40 38 39 40 38 39 40 38 39 40 38 39 40 38 39 40 38 39 43 41 42 43 41 42 43 41 42 43 41 42 43 41 42 43 41 42 43 41 42 43 41 42
122 109 127 122 109 127 122 109 127 122 109 127 122 109 127 122 109 127 122 109 127 122 109 127 122 109 127 122 109 127 122 109 127 122 109 127 122 107 126 122 108 125 124 107 126 122 108 125 124 107 126 122 108 125 124 107 126 122 108 125 121 104 123 119 105 122 121 104 123 119 105 122 121 104 123 119 105 122 121 104 123 119 105 122 126 113 130 126 113 130 126 113 130 126 113 130 126 113 130 126 113 130 126 113 130 126 113 130 120 107 124 127 114 131 137 124 141 142 129 146 138 125 142 125 112 129 109 96 113 95 87 100 13 11 22 10 13 22 10 13 22 10 13 22 10 13 22 10 13 22 10 13 22 10 13 22 7 10 19 7 10 19 7 10 19 7 10 19 7 10 19 7 10 19 7 10 19 7 10 17 5 13 16 5 13 16 5 13 16 5 13 16 5 13 16 5 13 16 5 13 16 5 13 16 6 14 17 6 14 17 6 14 17 6 14 17 6 14 17 6 14 17 6 14 17 6 14 17 6 14 16 5 15 16 6 14 16 5 15 16 6 14 16 5 15 16 6 14 16 5 15 16 6 14 16 5 15 16 6 14 16 5 15 16 6 14 16 5 15 16 6 14 16 6 14 16 5 10 13 6 10 13 6 10 13 6 10 13 6 10 13 6 10 13 6 10 13 6 10 13 0 3 6 0 3 6 0 3 6 0 3 6 0 3 6 0 3 6 0 3 6 0 3 6 0 2 2 0 2 2 0 4 4 1 7 7 5 11 11 8 14 14 10 16 16 12 18 18 14 20 20 16 22 22 21 27 27 28 34 34 34 40 40 41 47 47 46 52 52 48 54 54 56 62 60 58 64 60 64 69 65 70 76 72 77 82 78 83 89 85 89 94 90 90 96 92 97 102 98 102 108 104 111 116 112 115 121 117 116 121 117 110 116 112 103 108 104 97 102 98 54 54 52 53 52 50 51 50 48 48 47 45 44 43 41 41 40 38 39 38 36 37 36 34 41 40 38 41 40 38 41 40 38 41 40 38 41 40 38 41 40 38 41 40 38 41 40 38 40 38 39 40 38 39 40 38 39 40 38 39 40 38 39 40 38 39 40 38 39 40 38 39 38 36 37 38 36 37 38 36 37 38 36 37 38 36 37 38 36 37 38 36 37 38 36 37
122 109 127 122 109 127 122 109 127 122 109 127 122 109 127 122 109 127 122 109 127 122 109 127 122 109 127 122 109 127 122 109 127 122 109 127 124 107 126 124 107 126 124 107 126 124 107 126 124 107 126 124 107 126 124 107 126 124 107 126 121 104 123 121 104 123 121 104 123 121 104 123 121 104 123 121 104 123 121 104 123 119 104 123 124 111 128 123 112 128 123 112 128 123 112 128 123 112 128 123 112 128 123 112 128 123 112 128 128 117 133 132 121 137 138 127 143 138 127 143 130 119 135 115 104 120 99 88 104 85 79 93 12 12 22 9 13 22 9 13 22 9 13 22 9 13 22 9 13 22 9 13 22 9 13 22 6 10 19 6 10 19 6 10 19 6 10 19 6 10 19 6 10 19 6 10 19 4 11 17 5 12 18 4 14 16 4 14 16 4 14 16 4 14 16 4 14 16 4 14 16 4 14 16 5 15 17 5 15 17 5 15 17 5 15 17 5 15 17 5 15 17 5 15 17 5 15 17 5 15 16 5 15 16 5 15 16 5 15 16 5 15 16 5 15 16 5 15 16 5 15 16 5 15 16 5 15 16 5 15 16 5 15 16 5 15 16 5 15 16 5 15 16 6 14 16 5 10 13 6 10 13 6 10 13 6 10 13 6 10 13 6 10 13 6 10 13 6 10 13 0 3 6 0 3 6 0 3 6 0 3 6 0 3 6 0 3 6 0 3 6 0 3 6 0 2 2 0 2 2 0 4 4 1 7 7 5 11 11 8 14 14 10 16 16 12 18 18 14 20 20 16 22 22 21 27 27 28 34 34 34 40 40 41 47 47 46 52 52 48 54 52 56 62 60 58 64 60 63 69 65 70 76 72 76 82 78 83 89 85 88 94 90 90 96 92 95 101 97 100 106 102 108 114 110 114 120 116 114 120 116 108 114 110 100 106 102 96 101 97 54 54 52 53 52 50 51 50 48 48 47 45 44 43 41 41 40 38 39 38 36 37 36 34 41 40 38 41 40 38 41 40 38 41 40 38 41 40 38 41 40 38 41 40 38 41 40 38 40 38 39 40 38 39 40 38 39 40 38 39 40 38 39 40 38 39 40 38 39 40 38 39 38 36 37 38 36 37 38 36 37 38 36 37 38 36 37 38 36 37 38 36 37 38 36 37
122 109 127 122 109 127 122 109 127 122 109 127 122 109 127 122 109 127 122 109 127 122 109 127 122 109 127 122 109 127 122 109 127 122 109 127 124 107 126 124 107 126 124 107 126 124 107 126 124 107 126 124 107 126 124 107 126 124 107 126 121 104 123 121 104 123 121 104 123 121 104 123 121 104 123 121 104 123 121 104 123 119 104 123 122 109 126 121 110 126 121 110 126 121 110 126 121 110 126 121 110 126 121 110 126 121 110 126 138 127 143 138 127 143 136 125 141 130 119 135 117 106 122 100 89 105 83 72 88 70 64 78 12 12 22 9 13 22 9 13 22 9 13 22 9 13 22 9 13 22 9 13 22 9 13 22 6 10 19 6 10 19 6 10 19 6 10 19 6 10 19 6 10 19 6 10 19 4 11 17 5 12 18 4 14 16 4 14 16 4 14 16 4 14 16 4 14 16 4 14 16 4 14 16 5 15 17 5 15 17 5 15 17 5 15 17 5 15 17 5 15 17 5 15 17 5 15 17 5 15 16 5 15 16 5 15 16 5 15 16 5 15 16 5 15 16 5 15 16 5 15 16 5 15 16 5 15 16 5 15 16 5 15 16 5 15 16 5 15 16 5 15 16 6 14 16 5 10 13 6 10 13 6 10 13 6 10 13 6 10 13 6 10 13 6 10 13 6 10 13 0 3 6 0 3 6 0 3 6 0 3 6 0 3 6 0 3 6 0 3 6 0 3 6 0 2 2 0 2 2 0 4 4 1 7 7 5 11 11 8 14 14 10 16 16 12 18 18 14 20 20 16 22 22 21 27 27 28 34 34 34 40 40 41 47 47 46 52 52 48 54 52 56 62 60 58 64 60 63 69 65 70 76 72 76 82 78 83 89 85 88 94 90 90 96 92 92 98 94 98 104 100 106 112 108 112 118 114 112 118 114 106 112 108 98 104 100 93 98 94 54 54 52 53 52 50 51 50 48 48 47 45 44 43 41 41 40 38 39 38 36 37 36 34 41 40 38 41 40 38 41 40 38 41 40 38 41 40 38 41 40 38 41 40 38 41 40 38 40 38 39 40 38 39 40 38 39 40 38 39 40 38 39 40 38 39 40 38 39 40 38 39 38 36 37 38 36 37 38 36 37 38 36 37 38 36 37 38 36 37 38 36 37 38 36 37
122 109 127 122 109 127 122 109 127 122 109 127 122 109 127 122 109 127 122 109 127 122 109 127 122 109 127 122 109 127 122 109 127 122 109 127 124 107 126 124 107 126 124 107 126 124 107 126 124 107 126 124 107 126 124 107 126 124 107 126 121 104 123 121 104 123 121 104 123 121 104 123 121 104 123 121 104 123 121 104 123 119 104 123 119 106 123 118 107 123 118 107 123 118 107 123 118 107 123 118 107 123 118 107 123 118 107 123 139 128 144 135 124 140 126 115 131 112 101 117 96 85 101 79 68 84 65 54 70 54 48 62 12 12 22 9 13 22 9 13 22 9 13 22 9 13 22 9 13 22 9 13 22 9 13 22 6 10 19 6 10 19 6 10 19 6 10 19 6 10 19 6 10 19 6 10 19 4 11 17 5 12 18 4 14 16 4 14 16 4 14 16 4 14 16 4 14 16 4 14 16 4 14 16 5 15 17 5 15 17 5 15 17 5 15 17 5 15 17 5 15 17 5 15 17 5 15 17 5 15 16 5 15 16 5 15 16 5 15 16 5 15 16 5 15 16 5 15 16 5 15 16 5 15 16 5 15 16 5 15 16 5 15 16 5 15 16 5 15 16 5 15 16 6 14 16 5 10 13 6 10 13 6 10 13 6 10 13 6 10 13 6 10 13 6 10 13 6 10 13 0 3 6 0 3 6 0 3 6 0 3 6 0 3 6 0 3 6 0 3 6 0 3 6 0 2 2 0 2 2 0 4 4 1 7 7 5 11 11 8 14 14 10 16 16 12 18 18 14 20 20 16 22 22 21 27 27 28 34 34 34 40 40 41 47 47 46 52 52 48 54 52 56 62 60 58 64 60 63 69 65 70 76 72 76 82 78 83 89 85 88 94 90 90 96 92 89 95 91 95 101 97 103 109 105 108 114 110 108 114 110 103 109 105 95 101 97 90 95 91 54 54 52 53 52 50 51 50 48 48 47 45 44 43 41 41 40 38 39 38 36 37 36 34 41 40 38 41 40 38 41 40 38 41 40 38 41 40 38 41 40 38 41 40 38 41 40 38 40 38 39 40 38 39 40 38 39 40 38 39 40 38 39 40 38 39 40 38 39 40 38 39 38 36 37 38 36 37 38 36 37 38 36 37 38 36 37 38 36 37 38 36 37 38 36 37
122 109 127 122 109 127 122 109 127 122 109 127 122 109 127 122 109 127 122 109 127 122 109 127 122 109 127 122 109 127 122 109 127 122 109 127 124 107 126 124 107 126 124 107 126 124 107 126 124 107 126 124 107 126 124 107 126 124 107 126 121 104 123 121 104 123 121 104 123 121 104 123 121 104 123 121 104 123 121 104 123 119 104 123 115 102 119 114 103 119 114 103 119 114 103 119 114 103 119 114 103 119 114 103 119 114 103 119 125 114 130 117 106 122 102 91 107 85 74 90 69 58 74 56 45 61 46 35 51 39 33 47 12 12 22 9 13 22 9 13 22 9 13 22 9 13 22 9 13 22 9 13 22 9 13 22 6 10 19 6 10 19 6 10 19 6 10 19 6 10 19 6 10 19 6 10 19 4 11 17 5 12 18 4 14 16 4 14 16 4 14 16 4 14 16 4 14 16 4 14 16 4 14 16 5 15 17 5 15 17 5 15 17 5 15 17 5 15 17 5 15 17 5 15 17 5 15 17 5 15 16 5 15 16 5 15 16 5 15 16 5 15 16 5 15 16 5 15 16 5 15 16 5 15 16 5 15 16 5 15 16 5 15 16 5 15 16 5 15 16 5 15 16 6 14 16 5 10 13 6 10 13 6 10 13 6 10 13 6 10 13 6 10 13 6 10 13 6 10 13 0 3 6 0 3 6 0 3 6 0 3 6 0 3 6 0 3 6 0 3 6 0 3 6 0 2 2 0 2 2 0 4 4 1 7 7 5 11 11 8 14 14 10 16 16 12 18 18 14 20 20 16 22 22 21 27 27 28 34 34 34 40 40 41 47 47 46 52 52 48 54 52 56 62 60 58 64 60 63 69 65 70 76 72 76 82 78 83 89 85 88 94 90 90 96 92 86 92 88 91 97 93 99 105 101 105 111 107 105 111 107 99 105 101 91 97 93 87 92 88 54 54 52 53 52 50 51 50 48 48 47 45 44 43 41 41 40 38 39 38 36 37 36 34 41 40 38 41 40 38 41 40 38 41 40 38 41 40 38 41 40 38 41 40 38 41 40 38 40 38 39 40 38 39 40 38 39 40 38 39 40 38 39 40 38 39 40 38 39 40 38 39 38 36 37 38 36 37 38 36 37 38 36 37 38 36 37 38 36 37 38 36 37 38 36 37
122 109 127 122 109 127 122 109 127 122 109 127 122 109 127 122 109 127 122 109 127 122 109 127 122 109 127 122 109 127 122 109 127 122 109 127 124 107 126 124 107 126 124 107 126 124 107 126 124 107 126 124 107 126 124 107 126 124 107 126 121 104 123 121 104 123 121 104 123 121 104 123 121 104 123 121 104 123 121 104 123 119 104 123 112 99 116 111 100 116 111 100 116 111 100 116 111 100 116 111 100 116 111 100 116 111 100 116 97 86 102 87 76 92 70 59 75 53 42 58 40 29 45 34 23 39 32 21 37 29 23 37 12 12 22 9 13 22 9 13 22 9 13 22 9 13 22 9 13 22 9 13 22 9 13 22 6 10 19 6 10 19 6 10 19 6 10 19 6 10 19 6 10 19 6 10 19 4 11 17 5 12 18 4 14 16 4 14 16 4 14 16 4 14 16 4 14 16 4 14 16 4 14 16 5 15 17 5 15 17 5 15 17 5 15 17 5 15 17 5 15 17 5 15 17 5 15 17 5 15 16 5 15 16 5 15 16 5 15 16 5 15 16 5 15 16 5 15 16 5 15 16 5 15 16 5 15 16 5 15 16 5 15 16 5 15 16 5 15 16 5 15 16 6 14 16 5 10 13 6 10 13 6 10 13 6 10 13 6 10 13 6 10 13 6 10 13 6 10 13 0 3 6 0 3 6 0 3 6 0 3 6 0 3 6 0 3 6 0 3 6 0 3 6 0 2 2 0 2 2 0 4 4 1 7 7 5 11 11 8 14 14 10 16 16 12 18 18 14 20 20 16 22 22 21 27 27 28 34 34 34 40 40 41 47 47 46 52 52 48 54 52 56 62 60 58 64 60 63 69 65 70 76 72 76 82 78 83 89 85 88 94 90 90 96 92 82 88 84 88 94 90 96 102 98 102 108 104 102 108 104 96 102 98 88 94 90 83 88 84 54 54 52 53 52 50 51 50 48 48 47 45 44 43 41 41 40 38 39 38 36 37 36 34 41 40 38 41 40 38 41 40 38 41 40 38 41 40 38 41 40 38 41 40 38 41 40 38 40 38 39 40 38 39 40 38 39 40 38 39 40 38 39 40 38 39 40 38 39 40 38 39 38 36 37 38 36 37 38 36 37 38 36 37 38 36 37 38 36 37 38 36 37 38 36 37
122 109 127 122 109 127 122 109 127 122 109 127 122 109 127 122 109 127 122 109 127 122 109 127 122 109 127 122 109 127 122 109 127 122 109 127 124 107 126 124 107 126 124 107 126 124 107 126 124 107 126 124 107 126 124 107 126 124 107 126 121 104 123 121 104 123 121 104 123 121 104 123 121 104 123 121 104 123 121 104 123 119 104 123 110 97 114 109 98 114 109 98 114 109 98 114 109 98 114 109 98 114 109 98 114 109 98 114 66 55 71 55 44 60 39 28 44 24 13 29 16 5 21 16 5 21 22 11 27 23 17 31 12 12 22 9 13 22 9 13 22 9 13 22 9 13 22 9 13 22 9 13 22 9 13 22 6 10 19 6 10 19 6 10 19 6 10 19 6 10 19 6 10 19 6 10 19 4 11 17 5 12 18 4 14 16 4 14 16 4 14 16 4 14 16 4 14 16 4 14 16 4 14 16 5 15 17 5 15 17 5 15 17 5 15 17 5 15 17 5 15 17 5 15 17 5 15 17 5 15 16 5 15 16 5 15 16 5 15 16 5 15 16 5 15 16 5 15 16 5 15 16 5 15 16 5 15 16 5 15 16 5 15 16 5 15 16 5 15 16 5 15 16 6 14 16 5 10 13 6 10 13 6 10 13 6 10 13 6 10 13 6 10 13 6 10 13 6 10 13 0 3 6 0 3 6 0 3 6 0 3 6 0 3 6 0 3 6 0 3 6 0 3 6 0 2 2 0 2 2 0 4 4 1 7 7 5 11 11 8 14 14 10 16 16 12 18 18 14 20 20 16 22 22 21 27 27 28 34 34 34 40 40 41 47 47 46 52 52 48 54 52 56 62 60 58 64 60 63 69 65 70 76 72 76 82 78 83 89 85 88 94 90 90 96 92 80 86 82 86 92 88 94 100 96 99 105 101 99 105 101 94 100 96 86 92 88 81 86 82 54 54 52 53 52 50 51 50 48 48 47 45 44 43 41 41 40 38 39 38 36 37 36 34 41 40 38 41 40 38 41 40 38 41 40 38 41 40 38 41 40 38 41 40 38 41 40 38 40 38 39 40 38 39 40 38 39 40 38 39 40 38 39 40 38 39 40 38 39 40 38 39 38 36 37 38 36 37 38 36 37 38 36 37 38 36 37 38 36 37 38 36 37 38 36 37
122 109 127 122 109 127 122 109 127 122 109 127 122 109 127 122 109 127 122 109 127 122 109 127 122 109 127 122 109 127 122 109 127 122 109 127 124 107 126 124 107 126 124 107 126 124 107 126 124 107 126 124 107 126 124 107 126 124 107 126 121 104 123 121 104 123 121 104 123 121 104 123 121 104 123 121 104 123 121 104 123 119 104 123 108 95 112 107 96 112 107 96 112 107 96 112 107 96 112 107 96 112 107 96 112 107 96 112 45 34 50 35 24 40 19 8 24 6 0 11 6 0 11 7 0 12 17 6 22 21 15 29 12 12 22 9 13 22 9 13 22 9 13 22 9 13 22 9 13 22 9 13 22 9 13 22 6 10 19 6 10 19 6 10 19 6 10 19 6 10 19 6 10 19 6 10 19 4 11 17 5 12 18 4 14 16 4 14 16 4 14 16 4 14 16 4 14 16 4 14 16 4 14 16 5 15 17 5 15 17 5 15 17 5 15 17 5 15 17 5 15 17 5 15 17 5 15 17 5 15 16 5 15 16 5 15 16 5 15 16 5 15 16 5 15 16 5 15 16 5 15 16 5 15 16 5 15 16 5 15 16 5 15 16 5 15 16 5 15 16 5 15 16 6 14 16 5 10 13 6 10 13 6 10 13 6 10 13 6 10 13 6 10 13 6 10 13 6 10 13 0 3 6 0 3 6 0 3 6 0 3 6 0 3 6 0 3 6 0 3 6 0 3 6 0 2 2 0 2 2 0 4 4 1 7 7 5 11 11 8 14 14 10 16 16 12 18 18 14 20 20 16 22 22 21 27 27 28 34 34 34 40 40 41 47 47 46 52 52 48 54 52 56 62 60 58 64 60 63 69 65 70 76 72 76 82 78 83 89 85 88 94 90 90 96 92 79 85 81 84 90 86 92 98 94 98 104 100 98 104 100 92 98 94 84 90 86 80 85 81 54 54 52 53 52 50 51 50 48 48 47 45 44 43 41 41 40 38 39 38 36 37 36 34 41 40 38 41 40 38 41 40 38 41 40 38 41 40 38 41 40 38 41 40 38 41 40 38 40 38 39 40 38 39 40 38 39 40 38 39 40 38 39 40 38 39 40 38 39 40 38 39 38 36 37 38 36 37 38 36 37 38 36 37 38 36 37 38 36 37 38 36 37 38 36 37
120 107 125 123 110 128 126 113 131 127 114 132 125 112 130 125 112 130 125 112 130 125 112 130 125 112 130 125 112 130 125 112 130 125 112 130 127 110 129 127 110 129 127 110 129 127 110 129 127 110 129 127 110 129 127 110 129 127 110 129 125 108 127 124 107 126 121 104 123 118 101 120 115 98 117 111 94 113 109 92 111 106 91 110 130 117 134 125 114 130 117 106 122 106 95 111 94 83 99 83 72 88 75 64 80 71 60 76 16 5 21 16 5 21 16 5 21 16 5 21 16 5 21 16 5 21 16 5 21 13 7 21 8 8 18 5 9 18 5 9 18 5 9 18 5 9 18 5 9 18 5 9 18 5 9 18 4 8 17 4 8 17 4 8 17 4 8 17 4 8 17 4 8 17 4 8 17 2 9 15 6 13 19 5 15 17 5 15 17 5 15 17 5 15 17 5 15 17 5 15 17 5 15 17 6 16 18 6 16 18 6 16 18 6 16 18 6 16 18 6 16 18 6 16 18 6 16 18 6 16 17 6 16 17 6 16 17 6 16 17 6 16 17 6 16 17 6 16 17 6 16 17 5 15 16 5 15 16 5 15 16 5 15 16 5 15 16 5 15 16 5 15 16 6 14 16 2 7 10 3 7 10 3 7 10 3 7 10 3 7 10 3 7 10 3 7 10 3 7 10 0 4 7 0 4 7 0 4 7 0 4 7 0 4 7 0 4 7 0 4 7 0 4 7 0 2 2 0 3 3 0 5 5 2 8 8 6 12 12 9 15 15 11 17 17 13 19 19 24 30 30 26 32 32 28 34 34 31 37 37 35 41 41 38 44 44 40 46 46 42 48 46 52 58 56 54 60 56 56 62 58 59 65 61 63 69 65 66 72 68 68 74 70 70 76 72 85 91 87 85 91 87 85 91 87 85 91 87 85 91 87 85 91 87 85 91 87 86 91 87 49 49 47 48 47 45 46 45 43 43 42 40 39 38 36 36 35 33 34 33 31 32 31 29 35 34 32 35 34 32 35 34 32 35 34 32 35 34 32 35 34 32 35 34 32 35 34 32 35 33 34 35 33 34 35 33 34 35 33 34 35 33 34 35 33 34 35 33 34 35 33 34 37 35 36 37 35 36 37 35 36 37 35 36 37 35 36 37 35 36 37 35 36 37 35 36
118 105 123 121 108 126 123 110 128 125 112 130 123 110 128 123 110 128 123 110 128 123 110 128 123 110 128 123 110 128 123 110 128 123 110 128 125 108 127 125 108 127 125 108 127 125 108 127 125 108 127 125 108 127 125 108 127 125 108 127 123 106 125 121 104 123 119 102 121 116 99 118 112 95 114 109 92 111 107 90 109 103 88 107 116 103 120 111 100 116 103 92 108 93 82 98 82 71 87 72 61 77 64 53 69 60 49 65 16 5 21 16 5 21 16 5 21 16 5 21 16 5 21 16 5 21 16 5 21 13 7 21 8 8 18 5 9 18 5 9 18 5 9 18 5 9 18 5 9 18 5 9 18 5 9 18 4 8 17 4 8 17 4 8 17 4 8 17 4 8 17 4 8 17 4 8 17 2 9 15 6 13 19 5 15 17 5 15 17 5 15 17 5 15 17 5 15 17 5 15 17 5 15 17 6 16 18 6 16 18 6 16 18 6 16 18 6 16 18 6 16 18 6 16 18 6 16 18 6 16 17 6 16 17 6 16 17 6 16 17 6 16 17 6 16 17 6 16 17 6 16 17 5 15 16 5 15 16 5 15 16 5 15 16 5 15 16 5 15 16 5 15 16 6 14 16 4 9 12 5 9 12 5 9 12 5 9 12 5 9 12 5 9 12 5 9 12 5 9 12 0 4 7 0 4 7 0 4 7 0 4 7 0 4 7 0 4 7 0 4 7 0 4 7 0 2 2 0 3 3 0 5 5 2 8 8 6 12 12 9 15 15 11 17 17 13 19 19 24 30 30 26 32 32 28 34 34 31 37 37 35 41 41 38 44 44 40 46 46 42 48 46 52 58 56 54 60 56 56 62 58 59 65 61 63 69 65 66 72 68 68 74 70 70 76 72 83 89 85 83 89 85 83 89 85 83 89 85 83 89 85 83 89 85 83 89 85 84 89 85 49 49 47 48 47 45 46 45 43 43 42 40 39 38 36 36 35 33 34 33 31 32 31 29 35 34 32 35 34 32 35 34 32 35 34 32 35 34 32 35 34 32 35 34 32 35 34 32 35 33 34 35 33 34 35 33 34 35 33 34 35 33 34 35 33 34 35 33 34 35 33 34 37 35 36 37 35 36 37 35 36 37 35 36 37 35 36 37 35 36 37 35 36 37 35 36
111 98 116 114 101 119 117 104 122 118 105 123 116 103 121 116 103 121 116 103 121 116 103 121 116 103 121 116 103 121 116 103 121 116 103 121 118 101 120 118 101 120 118 101 120 118 101 120 118 101 120 118 101 120 118 101 120 118 101 120 116 99 118 115 98 117 112 95 114 109 92 111 106 89 108 103 86 105 100 83 102 97 82 101 93 80 97 88 77 93 81 70 86 72 61 77 63 52 68 54 43 59 47 36 52 43 32 48 16 5 21 16 5 21 16 5 21 16 5 21 16 5 21 16 5 21 16 5 21 13 7 21 8 8 18 5 9 18 5 9 18 5 9 18 5 9 18 5 9 18 5 9 18 5 9 18 4 8 17 4 8 17 4 8 17 4 8 17 4 8 17 4 8 17 4 8 17 2 9 15 6 13 19 5 15 17 5 15 17 5 15 17 5 15 17 5 15 17 5 15 17 5 15 17 6 16 18 6 16 18 6 16 18 6 16 18 6 16 18 6 16 18 6 16 18 6 16 18 6 16 17 6 16 17 6 16 17 6 16 17 6 16 17 6 16 17 6 16 17 6 16 17 5 15 16 5 15 16 5 15 16 5 15 16 5 15 16 5 15 16 5 15 16 6 14 16 6 11 14 7 11 14 7 11 14 7 11 14 7 11 14 7 11 14 7 11 14 7 11 14 0 4 7 0 4 7 0 4 7 0 4 7 0 4 7 0 4 7 0 4 7 0 4 7 0 2 2 0 3 3 0 5 5 2 8 8 6 12 12 9 15 15 11 17 17 13 19 19 24 30 30 26 32 32 28 34 34 31 37 37 35 41 41 38 44 44 40 46 46 42 48 46 52 58 56 54 60 56 56 62 58 59 65 61 63 69 65 66 72 68 68 74 70 70 76 72 81 87 83 81 87 83 81 87 83 81 87 83 81 87 83 81 87 83 81 87 83 82 87 83 49 49 47 48 47 45 46 45 43 43 42 40 39 38 36 36 35 33 34 33 31 32 31 29 35 34 32 35 34 32 35 34 32 35 34 32 35 34 32 35 34 32 35 34 32 35 34 32 35 33 34 35 33 34 35 33 34 35 33 34 35 33 34 35 33 34 35 33 34 35 33 34 37 35 36 37 35 36 37 35 36 37 35 36 37 35 36 37 35 36 37 35 36 37 35 36
98 85 103 101 88 106 103 90 108 105 92 110 103 90 108 103 90 108 103 90 108 103 90 108 103 90 108 103 90 108 103 90 108 103 90 108 105 88 107 105 88 107 105 88 107 105 88 107 105 88 107 105 88 107 105 88 107 105 88 107 103 86 105 101 84 103 99 82 101 96 79 98 92 75 94 89 72 91 87 70 89 83 68 87 67 54 71 63 52 68 57 46 62 50 39 55 42 31 47 35 24 40 29 18 34 26 15 31 16 5 21 16 5 21 16 5 21 16 5 21 16 5 21 16 5 21 16 5 21 13 7 21 8 8 18 5 9 18 5 9 18 5 9 18 5 9 18 5 9 18 5 9 18 5 9 18 4 8 17 4 8 17 4 8 17 4 8 17 4 8 17 4 8 17 4 8 17 2 9 15 6 13 19 5 15 17 5 15 17 5 15 17 5 15 17 5 15 17 5 15 17 5 15 17 6 16 18 6 16 18 6 16 18 6 16 18 6 16 18 6 16 18 6 16 18 6 16 18 6 16 17 6 16 17 6 16 17 6 16 17 6 16 17 6 16 17 6 16 17 6 16 17 5 15 16 5 15 16 5 15 16 5 15 16 5 15 16 5 15 16 5 15 16 6 14 16 9 14 17 10 14 17 10 14 17 10 14 17 10 14 17 10 14 17 10 14 17 10 14 17 0 4 7 0 4 7 0 4 7 0 4 7 0 4 7 0 4 7 0 4 7 0 4 7 0 2 2 0 3 3 0 5 5 2 8 8 6 12 12 9 15 15 11 17 17 13 19 19 24 30 30 26 32 32 28 34 34 31 37 37 35 41 41 38 44 44 40 46 46 42 48 46 52 58 56 54 60 56 56 62 58 59 65 61 63 69 65 66 72 68 68 74 70 70 76 72 78 84 80 78 84 80 78 84 80 78 84 80 78 84 80 78 84 80 78 84 80 79 84 80 49 49 47 48 47 45 46 45 43 43 42 40 39 38 36 36 35 33 34 33 31 32 31 29 35 34 32 35 34 32 35 34 32 35 34 32 35 34 32 35 34 32 35 34 32 35 34 32 35 33 34 35 33 34 35 33 34 35 33 34 35 33 34 35 33 34 35 33 34 35 33 34 37 35 36 37 35 36 37 35 36 37 35 36 37 35 36 37 35 36 37 35 36 37 35 36
77 64 82 80 67 85 83 70 88 84 71 89 82 69 87 82 69 87 82 69 87 82 69 87 82 69 87 82 69 87 82 69 87 82 69 87 84 67 86 84 67 86 84 67 86 84 67 86 84 67 86 84 67 86 84 67 86 84 67 86 82 65 84 81 64 83 78 61 80 75 58 77 72 55 74 68 51 70 66 49 68 63 48 67 45 32 49 41 30 46 37 26 42 32 21 37 26 15 31 20 9 25 16 5 21 14 3 19 16 5 21 16 5 21 16 5 21 16 5 21 16 5 21 16 5 21 16 5 21 13 7 21 8 8 18 5 9 18 5 9 18 5 9 18 5 9 18 5 9 18 5 9 18 5 9 18 4 8 17 4 8 17 4 8 17 4 8 17 4 8 17 4 8 17 4 8 17 2 9 15 6 13 19 5 15 17 5 15 17 5 15 17 5 15 17 5 15 17 5 15 17 5 15 17 6 16 18 6 16 18 6 16 18 6 16 18 6 16 18 6 16 18 6 16 18 6 16 18 6 16 17 6 16 17 6 16 17 6 16 17 6 16 17 6 16 17 6 16 17 6 16 17 5 15 16 5 15 16 5 15 16 5 15 16 5 15 16 5 15 16 5 15 16 6 14 16 13 18 21 14 18 21 14 18 21 14 18 21 14 18 21 14 18 21 14 18 21 14 18 21 0 4 7 0 4 7 0 4 7 0 4 7 0 4 7 0 4 7 0 4 7 0 4 7 0 2 2 0 3 3 0 5 5 2 8 8 6 12 12 9 15 15 11 17 17 13 19 19 24 30 30 26 32 32 28 34 34 31 37 37 35 41 41 38 44 44 40 46 46 42 48 46 52 58 56 54 60 56 56 62 58 59 65 61 63 69 65 66 72 68 68 74 70 70 76 72 74 80 76 74 80 76 74 80 76 74 80 76 74 80 76 74 80 76 74 80 76 75 80 76 49 49 47 48 47 45 46 45 43 43 42 40 39 38 36 36 35 33 34 33 31 32 31 29 35 34 32 35 34 32 35 34 32 35 34 32 35 34 32 35 34 32 35 34 32 35 34 32 35 33 34 35 33 34 35 33 34 35 33 34 35 33 34 35 33 34 35 33 34 35 33 34 37 35 36 37 35 36 37 35 36 37 35 36 37 35 36 37 35 36 37 35 36 37 35 36
52 39 57 55 42 60 58 45 63 59 46 64 58 45 63 58 45 63 58 45 63 58 45 63 58 45 63 58 45 63 58 45 63 58 45 63 60 43 62 60 43 62 60 43 62 60 43 62 60 43 62 60 43 62 60 43 62 60 43 62 57 40 59 56 39 58 53 36 55 50 33 52 47 30 49 44 27 46 41 24 43 38 23 42 30 17 34 27 16 32 24 13 29 21 10 26 16 5 21 13 2 18 10 0 15 8 0 13 16 5 21 16 5 21 16 5 21 16 5 21 16 5 21 16 5 21 16 5 21 13 7 21 8 8 18 5 9 18 5 9 18 5 9 18 5 9 18 5 9 18 5 9 18 5 9 18 4 8 17 4 8 17 4 8 17 4 8 17 4 8 17 4 8 17 4 8 17 2 9 15 6 13 19 5 15 17 5 15 17 5 15 17 5 15 17 5 15 17 5 15 17 5 15 17 6 16 18 6 16 18 6 16 18 6 16 18 6 16 18 6 16 18 6 16 18 6 16 18 6 16 17 6 16 17 6 16 17 6 16 17 6 16 17 6 16 17 6 16 17 6 16 17 5 15 16 5 15 16 5 15 16 5 15 16 5 15 16 5 15 16 5 15 16 6 14 16 16 21 24 17 21 24 17 21 24 17 21 24 17 21 24 17 21 24 17 21 24 17 21 24 0 4 7 0 4 7 0 4 7 0 4 7 0 4 7 0 4 7 0 4 7 0 4 7 0 2 2 0 3 3 0 5 5 2 8 8 6 12 12 9 15 15 11 17 17 13 19 19 24 30 30 26 32 32 28 34 34 31 37 37 35 41 41 38 44 44 40 46 46 42 48 46 52 58 56 54 60 56 56 62 58 59 65 61 63 69 65 66 72 68 68 74 70 70 76 72 71 77 73 71 77 73 71 77 73 71 77 73 71 77 73 71 77 73 71 77 73 72 77 73 49 49 47 48 47 45 46 45 43 43 42 40 39 38 36 36 35 33 34 33 31 32 31 29 35 34 32 35 34 32 35 34 32 35 34 32 35 34 32 35 34 32 35 34 32 35 34 32 35 33 34 35 33 34 35 33 34 35 33 34 35 33 34 35 33 34 35 33 34 35 33 34 37 35 36 37 35 36 37 35 36 37 35 36 37 35 36 37 35 36 37 35 36 37 35 36
30 17 35 33 20 38 35 22 40 37 24 42 35 22 40 35 22 40 35 22 40 35 22 40 35 22 40 35 22 40 35 22 40 35 22 40 37 20 39 37 20 39 37 20 39 37 20 39 37 20 39 37 20 39 37 20 39 37 20 39 35 18 37 33 16 35 31 14 33 28 11 30 24 7 26 21 4 23 19 2 21 15 0 19 22 9 26 20 9 25 18 7 23 16 5 21 13 2 18 10 0 15 8 0 13 7 0 12 16 5 21 16 5 21 16 5 21 16 5 21 16 5 21 16 5 21 16 5 21 13 7 21 8 8 18 5 9 18 5 9 18 5 9 18 5 9 18 5 9 18 5 9 18 5 9 18 4 8 17 4 8 17 4 8 17 4 8 17 4 8 17 4 8 17 4 8 17 2 9 15 6 13 19 5 15 17 5 15 17 5 15 17 5 15 17 5 15 17 5 15 17 5 15 17 6 16 18 6 16 18 6 16 18 6 16 18 6 16 18 6 16 18 6 16 18 6 16 18 6 16 17 6 16 17 6 16 17 6 16 17 6 16 17 6 16 17 6 16 17 6 16 17 5 15 16 5 15 16 5 15 16 5 15 16 5 15 16 5 15 16 5 15 16 6 14 16 18 23 26 19 23 26 19 23 26 19 23 26 19 23 26 19 23 26 19 23 26 19 23 26 0 4 7 0 4 7 0 4 7 0 4 7 0 4 7 0 4 7 0 4 7 0 4 7 0 2 2 0 3 3 0 5 5 2 8 8 6 12 12 9 15 15 11 17 17 13 19 19 24 30 30 26 32 32 28 34 34 31 37 37 35 41 41 38 44 44 40 46 46 42 48 46 52 58 56 54 60 56 56 62 58 59 65 61 63 69 65 66 72 68 68 74 70 70 76 72 69 75 71 69 75 71 69 75 71 69 75 71 69 75 71 69 75 71 69 75 71 70 75 71 49 49 47 48 47 45 46 45 43 43 42 40 39 38 36 36 35 33 34 33 31 32 31 29 35 34 32 35 34 32 35 34 32 35 34 32 35 34 32 35 34 32 35 34 32 35 34 32 35 33 34 35 33 34 35 33 34 35 33 34 35 33 34 35 33 34 35 33 34 35 33 34 37 35 36 37 35 36 37 35 36 37 35 36 37 35 36 37 35 36 37 35 36 37 35 36
15 4 21 18 7 24 21 10 27 22 11 28 20 9 26 20 9 26 20 9 26 20 9 26 20 9 26 20 9 26 20 9 26 20 9 26 20 7 25 20 7 25 20 7 25 20 7 25 20 7 25 20 7 25 20 7 25 20 7 25 18 5 23 17 4 22 14 1 19 11 0 16 8 0 13 7 0 12 7 0 12 7 0 12 17 9 24 16 8 23 14 6 21 12 4 19 10 2 17 8 0 15 7 0 14 6 0 13 14 6 21 14 6 21 14 6 21 14 6 21 14 6 21 14 6 21 14 6 21 11 7 21 8 8 18 5 9 18 5 9 18 5 9 18 5 9 18 5 9 18 5 9 18 5 9 18 4 8 17 4 8 17 4 8 17 4 8 17 4 8 17 4 8 17 4 8 17 4 9 15 6 13 19 5 15 17 6 14 17 5 15 17 6 14 17 5 15 17 6 14 17 5 15 17 7 15 18 6 16 18 7 15 18 6 16 18 7 15 18 6 16 18 7 15 18 6 16 18 6 16 18 6 16 17 6 16 17 6 16 17 6 16 17 6 16 17 6 16 17 6 16 17 5 15 16 5 15 16 5 15 16 5 15 16 5 15 16 5 15 16 5 15 16 6 14 16 20 25 28 21 25 28 21 25 28 21 25 28 21 25 28 21 25 28 21 25 28 21 25 28 0 4 7 0 4 7 0 4 7 0 4 7 0 4 7 0 4 7 0 4 7 0 4 7 0 2 2 0 3 3 0 5 5 2 8 8 6 12 12 9 15 15 11 17 17 13 19 19 24 30 30 26 32 32 28 34 34 31 37 37 35 41 41 38 44 44 40 46 46 42 48 48 52 58 56 54 60 56 56 62 60 59 65 61 63 69 67 66 72 68 68 74 72 70 76 72 67 73 71 67 73 69 67 73 71 67 73 69 67 73 71 67 73 69 67 73 71 68 73 69 49 49 47 48 47 45 46 45 43 43 42 40 39 38 36 36 35 33 34 33 31 32 31 29 35 34 32 35 34 32 35 34 32 35 34 32 35 34 32 35 34 32 35 34 32 35 34 32 35 34 32 35 34 32 37 33 32 35 34 32 37 33 32 35 34 32 37 33 32 35 34 32 39 35 34 37 36 34 39 35 34 37 36 34 39 35 34 37 36 34 39 35 34 37 36 34
5 1 15 5 1 15 5 1 15 5 1 15 5 1 15 5 1 15 5 1 15 5 1 15 5 1 15 5 1 15 5 1 15 5 1 15 7 0 16 7 0 16 7 0 16 7 0 16 7 0 16 7 0 16 7 0 16 7 0 16 8 1 17 8 1 17 8 1 17 8 1 17 8 1 17 8 1 17 8 1 17 6 2 17 7 3 17 6 4 17 6 4 17 6 4 17 6 4 17 6 4 17 6 4 17 6 4 17 6 4 17 6 4 17 6 4 17 6 4 17 6 4 17 6 4 17 6 4 17 6 4 17 4 7 16 4 7 14 4 7 14 4 7 14 4 7 14 4 7 14 4 7 14 4 7 14 7 10 17 7 10 17 7 10 17 7 10 17 7 10 17 7 10 17 7 10 17 6 11 17 6 11 17 4 11 17 6 11 17 4 11 17 6 11 17 4 11 17 6 11 17 4 11 17 9 14 20 7 14 20 9 14 20 7 14 20 9 14 20 7 14 20 9 14 20 7 15 18 9 17 20 9 17 20 9 17 20 9 17 20 9 17 20 9 17 20 9 17 20 9 17 20 1 9 12 4 12 15 10 18 21 17 25 28 25 33 36 33 41 44 39 47 50 42 50 53 32 37 40 32 37 40 32 37 40 32 37 40 32 37 40 32 37 40 32 37 40 32 37 40 3 8 11 3 8 11 3 8 11 3 8 11 3 8 11 3 8 11 3 8 11 3 8 11 0 2 2 0 5 4 0 7 6 1 10 9 5 14 13 8 17 16 10 19 18 12 21 20 19 28 27 21 30 29 23 32 31 26 35 34 30 39 38 33 42 41 35 44 43 37 46 45 57 63 63 57 63 61 57 63 63 57 63 61 57 63 63 57 63 61 57 63 63 57 63 61 64 70 70 64 70 68 64 70 70 64 70 68 64 70 70 64 70 68 64 70 70 65 69 68 45 44 42 45 41 38 43 39 36 40 36 33 36 32 29 33 29 26 31 27 24 29 25 22 35 31 28 35 31 28 35 31 28 35 31 28 35 31 28 35 31 28 35 31 28 35 31 28 36 32 29 36 32 29 37 32 29 36 32 29 37 32 29 36 32 29 37 32 29 36 32 29 38 33 30 37 33 30 38 33 30 37 33 30 38 33 30 37 33 30 38 33 30 37 33 30
4 2 15 4 2 15 4 2 15 4 2 15 4 2 15 4 2 15 4 2 15 4 2 15 4 2 15 4 2 15 4 2 15 4 2 15 4 2 16 4 2 16 4 2 16 4 2 16 4 2 16 4 2 16 4 2 16 4 2 16 5 3 17 5 3 17 5 3 17 5 3 17 5 3 17 5 3 17 5 3 17 5 3 17 5 5 17 5 5 17 5 5 17 5 5 17 5 5 17 5 5 17 5 5 17 5 5 17 5 5 17 5 5 17 5 5 17 5 5 17 5 5 17 5 5 17 5 5 17 5 5 15 4 7 16 4 7 14 4 7 14 4 7 14 4 7 14 4 7 14 4 7 14 4 7 14 7 10 17 7 10 17 7 10 17 7 10 17 7 10 17 7 10 17 7 10 17 7 10 17 6 11 17 6 11 17 6 11 17 6 11 17 6 11 17 6 11 17 6 11 17 6 11 17 9 14 20 9 14 20 9 14 20 9 14 20 9 14 20 9 14 20 9 14 20 9 14 20 9 17 20 9 17 20 9 17 20 9 17 20 9 17 20 9 17 20 9 17 20 9 17 20 4 12 15 7 15 18 12 20 23 19 27 30 26 34 37 33 41 44 39 47 50 42 50 53 32 37 40 32 37 40 32 37 40 32 37 40 32 37 40 32 37 40 32 37 40 32 37 40 3 8 11 3 8 11 3 8 11 3 8 11 3 8 11 3 8 11 3 8 11 3 8 11 0 3 2 0 5 4 0 7 6 1 10 9 5 14 13 8 17 16 10 19 18 12 21 20 19 28 27 21 30 29 23 32 31 26 35 34 30 39 38 33 42 41 35 44 43 37 46 45 55 61 61 55 61 61 55 61 61 55 61 61 55 61 61 55 61 61 55 61 61 55 61 61 62 68 68 62 68 68 62 68 68 62 68 68 62 68 68 62 68 68 62 68 68 63 67 66 45 44 42 45 41 38 43 39 36 40 36 33 36 32 29 33 29 26 31 27 24 29 25 22 35 31 28 35 31 28 35 31 28 35 31 28 35 31 28 35 31 28 35 31 28 35 31 28 37 32 28 37 32 28 37 32 28 37 32 28 37 32 28 37 32 28 37 32 28 37 32 28 38 33 29 38 33 29 38 33 29 38 33 29 38 33 29 38 33 29 38 33 29 38 33 29
4 2 15 4 2 15 4 2 15 4 2 15 4 2 15 4 2 15 4 2 15 4 2 15 4 2 15 4 2 15 4 2 15 4 2 15 4 2 16 4 2 16 4 2 16 4 2 16 4 2 16 4 2 16 4 2 16 4 2 16 5 3 17 5 3 17 5 3 17 5 3 17 5 3 17 5 3 17 5 3 17 5 3 17 5 5 17 5 5 17 5 5 17 5 5 17 5 5 17 5 5 17 5 5 17 5 5 17 5 5 17 5 5 17 5 5 17 5 5 17 5 5 17 5 5 17 5 5 17 5 5 15 4 7 16 4 7 14 4 7 14 4 7 14 4 7 14 4 7 14 4 7 14 4 7 14 7 10 17 7 10 17 7 10 17 7 10 17 7 10 17 7 10 17 7 10 17 7 10 17 6 11 17 6 11 17 6 11 17 6 11 17 6 11 17 6 11 17 6 11 17 6 11 17 9 14 20 9 14 20 9 14 20 9 14 20 9 14 20 9 14 20 9 14 20 9 14 20 9 17 20 9 17 20 9 17 20 9 17 20 9 17 20 9 17 20 9 17 20 9 17 20 10 18 21 12 20 23 16 24 27 22 30 33 28 36 39 34 42 45 38 46 49 41 49 52 32 37 40 32 37 40 32 37 40 32 37 40 32 37 40 32 37 40 32 37 40 32 37 40 3 8 11 3 8 11 3 8 11 3 8 11 3 8 11 3 8 11 3 8 11 3 8 11 0 3 2 0 5 4 0 7 6 1 10 9 5 14 13 8 17 16 10 19 18 12 21 20 19 28 27 21 30 29 23 32 31 26 35 34 30 39 38 33 42 41 35 44 43 37 46 45 53 59 59 53 59 59 53 59 59 53 59 59 53 59 59 53 59 59 53 59 59 53 59 59 60 66 66 60 66 66 60 66 66 60 66 66 60 66 66 60 66 66 60 66 66 61 65 64 45 44 42 45 41 38 43 39 36 40 36 33 36 32 29 33 29 26 31 27 24 29 25 22 35 31 28 35 31 28 35 31 28 35 31 28 35 31 28 35 31 28 35 31 28 35 31 28 37 32 28 37 32 28 37 32 28 37 32 28 37 32 28 37 32 28 37 32 28 37 32 28 38 33 29 38 33 29 38 33 29 38 33 29 38 33 29 38 33 29 38 33 29 38 33 29
4 2 15 4 2 15 4 2 15 4 2 15 4 2 15 4 2 15 4 2 15 4 2 15 4 2 15 4 2 15 4 2 15 4 2 15 4 2 16 4 2 16 4 2 16 4 2 16 4 2 16 4 2 16 4 2 16 4 2 16 5 3 17 5 3 17 5 3 17 5 3 17 5 3 17 5 3 17 5 3 17 5 3 17 5 5 17 5 5 17 5 5 17 5 5 17 5 5 17 5 5 17 5 5 17 5 5 17 5 5 17 5 5 17 5 5 17 5 5 17 5 5 17 5 5 17 5 5 17 5 5 15 4 7 16 4 7 14 4 7 14 4 7 14 4 7 14 4 7 14 4 7 14 4 7 14 7 10 17 7 10 17 7 10 17 7 10 17 7 10 17 7 10 17 7 10 17 7 10 17 6 11 17 6 11 17 6 11 17 6 11 17 6 11 17 6 11 17 6 11 17 6 11 17 9 14 20 9 14 20 9 14 20 9 14 20 9 14 20 9 14 20 9 14 20 9 14 20 9 17 20 9 17 20 9 17 20 9 17 20 9 17 20 9 17 20 9 17 20 9 17 20 17 25 28 19 27 30 22 30 33 26 34 37 30 38 41 35 43 46 38 46 49 39 47 50 32 37 40 32 37 40 32 37 40 32 37 40 32 37 40 32 37 40 32 37 40 32 37 40 3 8 11 3 8 11 3 8 11 3 8 11 3 8 11 3 8 11 3 8 11 3 8 11 0 3 2 0 5 4 0 7 6 1 10 9 5 14 13 8 17 16 10 19 18 12 21 20 19 28 27 21 30 29 23 32 31 26 35 34 30 39 38 33 42 41 35 44 43 37 46 45 50 56 56 50 56 56 50 56 56 50 56 56 50 56 56 50 56 56 50 56 56 50 56 56 57 63 63 57 63 63 57 63 63 57 63 63 57 63 63 57 63 63 57 63 63 58 62 61 45 44 42 45 41 38 43 39 36 40 36 33 36 32 29 33 29 26 31 27 24 29 25 22 35 31 28 35 31 28 35 31 28 35 31 28 35 31 28 35 31 28 35 31 28 35 31 28 37 32 28 37 32 28 37 32 28 37 32 28 37 32 28 37 32 28 37 32 28 37 32 28 38 33 29 38 33 29 38 33 29 38 33 29 38 33 29 38 33 29 38 33 29 38 33 29
4 2 15 4 2 15 4 2 15 4 2 15 4 2 15 4 2 15 4 2 15 4 2 15 4 2 15 4 2 15 4 2 15 4 2 15 4 2 16 4 2 16 4 2 16 4 2 16 4 2 16 4 2 16 4 2 16 4 2 16 5 3 17 5 3 17 5 3 17 5 3 17 5 3 17 5 3 17 5 3 17 5 3 17 5 5 17 5 5 17 5 5 17 5 5 17 5 5 17 5 5 17 5 5 17 5 5 17 5 5 17 5 5 17 5 5 17 5 5 17 5 5 17 5 5 17 5 5 17 5 5 15 4 7 16 4 7 14 4 7 14 4 7 14 4 7 14 4 7 14 4 7 14 4 7 14 7 10 17 7 10 17 7 10 17 7 10 17 7 10 17 7 10 17 7 10 17 7 10 17 6 11 17 6 11 17 6 11 17 6 11 17 6 11 17 6 11 17 6 11 17 6 11 17 9 14 20 9 14 20 9 14 20 9 14 20 9 14 20 9 14 20 9 14 20 9 14 20 9 17 20 9 17 20 9 17 20 9 17 20 9 17 20 9 17 20 9 17 20 9 17 20 25 33 36 26 34 37 28 36 39 30 38 41 33 41 44 35 43 46 37 45 48 38 46 49 32 37 40 32 37 40 32 37 40 32 37 40 32 37 40 32 37 40 32 37 40 32 37 40 3 8 11 3 8 11 3 8 11 3 8 11 3 8 11 3 8 11 3 8 11 3 8 11 0 3 2 0 5 4 0 7 6 1 10 9 5 14 13 8 17 16 10 19 18 12 21 20 19 28 27 21 30 29 23 32 31 26 35 34 30 39 38 33 42 41 35 44 43 37 46 45 46 52 52 46 52 52 46 52 52 46 52 52 46 52 52 46 52 52 46 52 52 46 52 52 53 59 59 53 59 59 53 59 59 53 59 59 53 59 59 53 59 59 53 59 59 54 58 57 45 44 42 45 41 38 43 39 36 40 36 33 36 32 29 33 29 26 31 27 24 29 25 22 35 31 28 35 31 28 35 31 28 35 31 28 35 31 28 35 31 28 35 31 28 35 31 28 37 32 28 37 32 28 37 32 28 37 32 28 37 32 28 37 32 28 37 32 28 37 32 28 38 33 29 38 33 29 38 33 29 38 33 29 38 33 29 38 33 29 38 33 29 38 33 29
4 2 15 4 2 15 4 2 15 4 2 15 4 2 15 4 2 15 4 2 15 4 2 15 4 2 15 4 2 15 4 2 15 4 2 15 4 2 16 4 2 16 4 2 16 4 2 16 4 2 16 4 2 16 4 2 16 4 2 16 5 3 17 5 3 17 5 3 17 5 3 17 5 3 17 5 3 17 5 3 17 5 3 17 5 5 17 5 5 17 5 5 17 5 5 17 5 5 17 5 5 17 5 5 17 5 5 17 5 5 17 5 5 17 5 5 17 5 5 17 5 5 17 5 5 17 5 5 17 5 5 15 4 7 16 4 7 14 4 7 14 4 7 14 4 7 14 4 7 14 4 7 14 4 7 14 7 10 17 7 10 17 7 10 17 7 10 17 7 10 17 7 10 17 7 10 17 7 10 17 6 11 17 6 11 17 6 11 17 6 11 17 6 11 17 6 11 17 6 11 17 6 11 17 9 14 20 9 14 20 9 14 20 9 14 20 9 14 20 9 14 20 9 14 20 9 14 20 9 17 20 9 17 20 9 17 20 9 17 20 9 17 20 9 17 20 9 17 20 9 17 20 33 41 44 33 41 44 34 42 45 35 43 46 35 43 46 36 44 47 36 44 47 37 45 48 32 37 40 32 37 40 32 37 40 32 37 40 32 37 40 32 37 40 32 37 40 32 37 40 3 8 11 3 8 11 3 8 11 3 8 11 3 8 11 3 8 11 3 8 11 3 8 11 0 3 2 0 5 4 0 7 6 1 10 9 5 14 13 8 17 16 10 19 18 12 21 20 19 28 27 21 30 29 23 32 31 26 35 34 30 39 38 33 42 41 35 44 43 37 46 45 43 49 49 43 49 49 43 49 49 43 49 49 43 49 49 43 49 49 43 49 49 43 49 49 50 56 56 50 56 56 50 56 56 50 56 56 50 56 56 50 56 56 50 56 56 51 55 54 45 44 42 45 41 38 43 39 36 40 36 33 36 32 29 33 29 26 31 27 24 29 25 22 35 31 28 35 31 28 35 31 28 35 31 28 35 31 28 35 31 28 35 31 28 35 31 28 37 32 28 37 32 28 37 32 28 37 32 28 37 32 28 37 32 28 37 32 28 37 32 28 38 33 29 38 33 29 38 33 29 38 33 29 38 33 29 38 33 29 38 33 29 38 33 29
4 2 15 4 2 15 4 2 15 4 2 15 4 2 15 4 2 15 4 2 15 4 2 15 4 2 15 4 2 15 4 2 15 4 2 15 4 2 16 4 2 16 4 2 16 4 2 16 4 2 16 4 2 16 4 2 16 4 2 16 5 3 17 5 3 17 5 3 17 5 3 17 5 3 17 5 3 17 5 3 17 5 3 17 5 5 17 5 5 17 5 5 17 5 5 17 5 5 17 5 5 17 5 5 17 5 5 17 5 5 17 5 5 17 5 5 17 5 5 17 5 5 17 5 5 17 5 5 17 5 5 15 4 7 16 4 7 14 4 7 14 4 7 14 4 7 14 4 7 14 4 7 14 4 7 14 7 10 17 7 10 17 7 10 17 7 10 17 7 10 17 7 10 17 7 10 17 7 10 17 6 11 17 6 11 17 6 11 17 6 11 17 6 11 17 6 11 17 6 11 17 6 11 17 9 14 20 9 14 20 9 14 20 9 14 20 9 14 20 9 14 20 9 14 20 9 14 20 9 17 20 9 17 20 9 17 20 9 17 20 9 17 20 9 17 20 9 17 20 9 17 20 39 47 50 39 47 50 38 46 49 38 46 49 37 45 48 36 44 47 36 44 47 36 44 47 32 37 40 32 37 40 32 37 40 32 37 40 32 37 40 32 37 40 32 37 40 32 37 40 3 8 11 3 8 11 3 8 11 3 8 11 3 8 11 3 8 11 3 8 11 3 8 11 0 3 2 0 5 4 0 7 6 1 10 9 5 14 13 8 17 16 10 19 18 12 21 20 19 28 27 21 30 29 23 32 31 26 35 34 30 39 38 33 42 41 35 44 43 37 46 45 41 47 47 41 47 47 41 47 47 41 47 47 41 47 47 41 47 47 41 47 47 41 47 47 48 54 54 48 54 54 48 54 54 48 54 54 48 54 54 48 54 54 48 54 54 49 53 52 45 44 42 45 41 38 43 39 36 40 36 33 36 32 29 33 29 26 31 27 24 29 25 22 35 31 28 35 31 28 35 31 28 35 31 28 35 31 28 35 31 28 35 31 28 35 31 28 37 32 28 37 32 28 37 32 28 37 32 28 37 32 28 37 32 28 37 32 28 37 32 28 38 33 29 38 33 29 38 33 29 38 33 29 38 33 29 38 33 29 38 33 29 38 33 29
4 2 15 4 2 15 4 2 15 4 2 15 4 2 15 4 2 15 4 2 15 4 2 15 4 2 15 4 2 15 4 2 15 4 2 15 4 2 16 4 2 16 4 2 16 4 2 16 4 2 16 4 2 16 4 2 16 4 2 16 5 3 17 5 3 17 5 3 17 5 3 17 5 3 17 5 3 17 5 3 17 5 3 17 5 5 17 5 5 17 5 5 17 5 5 17 5 5 17 5 5 17 5 5 17 5 5 17 5 5 17 5 5 17 5 5 17 5 5 17 5 5 17 5 5 17 5 5 17 5 5 15 4 7 16 4 7 14 4 7 14 4 7 14 4 7 14 4 7 14 4 7 14 4 7 14 7 10 17 7 10 17 7 10 17 7 10 17 7 10 17 7 10 17 7 10 17 7 10 17 6 11 17 6 11 17 6 11 17 6 11 17 6 11 17 6 11 17 6 11 17 6 11 17 9 14 20 9 14 20 9 14 20 9 14 20 9 14 20 9 14 20 9 14 20 9 14 20 9 17 20 9 17 20 9 17 20 9 17 20 9 17 20 9 17 20 9 17 20 9 17 20 42 50 53 41 49 52 41 49 52 39 47 50 38 46 49 37 45 48 36 44 47 35 43 46 32 37 40 32 37 40 32 37 40 32 37 40 32 37 40 32 37 40 32 37 40 32 37 40 3 8 11 3 8 11 3 8 11 3 8 11 3 8 11 3 8 11 3 8 11 3 8 11 0 3 2 0 5 4 0 7 6 1 10 9 5 14 13 8 17 16 10 19 18 12 21 20 19 28 27 21 30 29 23 32 31 26 35 34 30 39 38 33 42 41 35 44 43 37 46 45 39 45 45 39 45 45 39 45 45 39 45 45 39 45 45 39 45 45 39 45 45 39 45 45 46 52 52 46 52 52 46 52 52 46 52 52 46 52 52 46 52 52 46 52 52 47 51 50 45 44 42 45 41 38 43 39 36 40 36 33 36 32 29 33 29 26 31 27 24 29 25 22 35 31 28 35 31 28 35 31 28 35 31 28 35 31 28 35 31 28 35 31 28 35 31 28 37 32 28 37 32 28 37 32 28 37 32 28 37 32 28 37 32 28 37 32 28 37 32 28 38 33 29 38 33 29 38 33 29 38 33 29 38 33 29 38 33 29 38 33 29 38 33 29
3 1 14 3 1 14 3 1 14 3 1 14 3 1 14 3 1 14 3 1 14 3 1 14 3 1 14 3 1 14 3 1 14 3 1 14 3 1 15 3 1 15 3 1 15 3 1 15 3 1 15 3 1 15 3 1 15 3 1 15 4 2 16 4 2 16 4 2 16 4 2 16 4 2 16 4 2 16 4 2 16 4 2 16 4 4 16 4 4 16 4 4 16 4 4 16 4 4 16 4 4 16 4 4 16 4 4 16 4 4 16 4 4 16 4 4 16 4 4 16 4 4 16 4 4 16 4 4 16 4 4 14 3 6 15 3 6 13 3 6 13 3 6 13 3 6 13 3 6 13 3 6 13 3 6 13 6 9 16 6 9 16 6 9 16 6 9 16 6 9 16 6 9 16 6 9 16 6 9 16 6 11 17 6 11 17 6 11 17 6 11 17 6 11 17 6 11 17 6 11 17 6 11 17 12 17 23 11 16 22 10 15 21 9 14 20 8 13 19 6 11 17 6 11 17 5 10 16 19 27 30 20 28 31 23 31 34 26 34 37 29 37 40 33 41 44 35 43 46 36 44 47 49 57 60 49 57 60 49 57 60 49 57 60 49 57 60 49 57 60 49 57 60 49 57 60 50 55 58 48 53 56 46 51 54 43 48 51 39 44 47 36 41 44 34 39 42 32 37 40 6 11 14 6 11 14 6 11 14 6 11 14 6 11 14 6 11 14 6 11 14 6 11 14 0 7 6 0 9 8 2 11 10 5 14 13 9 18 17 12 21 20 14 23 22 16 25 24 24 33 32 24 33 32 24 33 32 24 33 32 24 33 32 24 33 32 24 33 32 24 33 32 35 41 41 35 41 41 35 41 41 35 41 41 35 41 41 35 41 41 35 41 41 35 41 41 46 52 52 46 52 52 46 52 52 46 52 52 46 52 52 46 52 52 46 52 52 47 51 50 31 30 28 33 29 26 33 29 26 33 29 26 33 29 26 33 29 26 33 29 26 33 29 26 34 30 27 34 30 27 34 30 27 34 30 27 34 30 27 34 30 27 34 30 27 34 30 27 37 32 28 37 32 28 37 32 28 37 32 28 37 32 28 37 32 28 37 32 28 37 32 28 37 32 28 37 32 28 37 32 28 37 32 28 37 32 28 37 32 28 37 32 28 37 32 28
3 1 14 3 1 14 3 1 14 3 1 14 3 1 14 3 1 14 3 1 14 3 1 14 3 1 14 3 1 14 3 1 14 3 1 14 3 1 15 3 1 15 3 1 15 3 1 15 3 1 15 3 1 15 3 1 15 3 1 15 4 2 16 4 2 16 4 2 16 4 2 16 4 2 16 4 2 16 4 2 16 4 2 16 4 4 16 4 4 16 4 4 16 4 4 16 4 4 16 4 4 16 4 4 16 4 4 16 4 4 16 4 4 16 4 4 16 4 4 16 4 4 16 4 4 16 4 4 16 4 4 14 3 6 15 3 6 13 3 6 13 3 6 13 3 6 13 3 6 13 3 6 13 3 6 13 6 9 16 6 9 16 6 9 16 6 9 16 6 9 16 6 9 16 6 9 16 6 9 16 6 11 17 6 11 17 6 11 17 6 11 17 6 11 17 6 11 17 6 11 17 6 11 17 11 16 22 11 16 22 11 16 22 10 15 21 9 14 20 9 14 20 8 13 19 8 13 19 22 30 33 23 31 34 25 33 36 29 37 40 32 40 43 35 43 46 38 46 49 39 47 50 51 59 62 51 59 62 51 59 62 51 59 62 51 59 62 51 59 62 51 59 62 51 59 62 50 55 58 48 53 56 46 51 54 43 48 51 39 44 47 36 41 44 34 39 42 32 37 40 6 11 14 6 11 14 6 11 14 6 11 14 6 11 14 6 11 14 6 11 14 6 11 14 0 7 6 0 9 8 2 11 10 5 14 13 9 18 17 12 21 20 14 23 22 16 25 24 24 33 32 24 33 32 24 33 32 24 33 32 24 33 32 24 33 32 24 33 32 24 33 32 35 41 41 35 41 41 35 41 41 35 41 41 35 41 41 35 41 41 35 41 41 35 41 41 44 50 50 44 50 50 44 50 50 44 50 50 44 50 50 44 50 50 44 50 50 45 49 48 31 30 28 33 29 26 33 29 26 33 29 26 33 29 26 33 29 26 33 29 26 33 29 26 34 30 27 34 30 27 34 30 27 34 30 27 34 30 27 34 30 27 34 30 27 34 30 27 37 32 28 37 32 28 37 32 28 37 32 28 37 32 28 37 32 28 37 32 28 37 32 28 37 32 28 37 32 28 37 32 28 37 32 28 37 32 28 37 32 28 37 32 28 37 32 28
3 1 14 3 1 14 3 1 14 3 1 14 3 1 14 3 1 14 3 1 14 3 1 14 3 1 14 3 1 14 3 1 14 3 1 14 3 1 15 3 1 15 3 1 15 3 1 15 3 1 15 3 1 15 3 1 15 3 1 15 4 2 16 4 2 16 4 2 16 4 2 16 4 2 16 4 2 16 4 2 16 4 2 16 4 4 16 4 4 16 4 4 16 4 4 16 4 4 16 4 4 16 4 4 16 4 4 16 4 4 16 4 4 16 4 4 16 4 4 16 4 4 16 4 4 16 4 4 16 4 4 14 3 6 15 3 6 13 3 6 13 3 6 13 3 6 13 3 6 13 3 6 13 3 6 13 6 9 16 6 9 16 6 9 16 6 9 16 6 9 16 6 9 16 6 9 16 6 9 16 6 11 17 6 11 17 6 11 17 6 11 17 6 11 17 6 11 17 6 11 17 6 11 17 10 15 21 11 16 22 11 16 22 12 17 23 12 17 23 13 18 24 14 19 25 14 19 25 27 35 38 28 36 39 30 38 41 33 41 44 37 45 48 40 48 51 43 51 54 44 52 55 53 61 64 53 61 64 53 61 64 53 61 64 53 61 64 53 61 64 53 61 64 53 61 64 50 55 58 48 53 56 46 51 54 43 48 51 39 44 47 36 41 44 34 39 42 32 37 40 6 11 14 6 11 14 6 11 14 6 11 14 6 11 14 6 11 14 6 11 14 6 11 14 0 7 6 0 9 8 2 11 10 5 14 13 9 18 17 12 21 20 14 23 22 16 25 24 24 33 32 24 33 32 24 33 32 24 33 32 24 33 32 24 33 32 24 33 32 24 33 32 35 41 41 35 41 41 35 41 41 35 41 41 35 41 41 35 41 41 35 41 41 35 41 41 42 48 48 42 48 48 42 48 48 42 48 48 42 48 48 42 48 48 42 48 48 43 47 46 31 30 28 33 29 26 33 29 26 33 29 26 33 29 26 33 29 26 33 29 26 33 29 26 34 30 27 34 30 27 34 30 27 34 30 27 34 30 27 34 30 27 34 30 27 34 30 27 37 32 28 37 32 28 37 32 28 37 32 28 37 32 28 37 32 28 37 32 28 37 32 28 37 32 28 37 32 28 37 32 28 37 32 28 37 32 28 37 32 28 37 32 28 37 32 28
3 1 14 3 1 14 3 1 14 3 1 14 3 1 14 3 1 14 3 1 14 3 1 14 3 1 14 3 1 14 3 1 14 3 1 14 3 1 15 3 1 15 3 1 15 3 1 15 3 1 15 3 1 15 3 1 15 3 1 15 4 2 16 4 2 16 4 2 16 4 2 16 4 2 16 4 2 16 4 2 16 4 2 16 4 4 16 4 4 16 4 4 16 4 4 16 4 4 16 4 4 16 4 4 16 4 4 16 4 4 16 4 4 16 4 4 16 4 4 16 4 4 16 4 4 16 4 4 16 4 4 14 3 6 15 3 6 13 3 6 13 3 6 13 3 6 13 3 6 13 3 6 13 3 6 13 6 9 16 6 9 16 6 9 16 6 9 16 6 9 16 6 9 16 6 9 16 6 9 16 6 11 17 6 11 17 6 11 17 6 11 17 6 11 17 6 11 17 6 11 17 6 11 17 9 14 20 10 15 21 12 17 23 14 19 25 17 22 28 19 24 30 21 26 32 22 27 33 33 41 44 34 42 45 37 45 48 40 48 51 43 51 54 46 54 57 49 57 60 50 58 61 56 64 67 56 64 67 56 64 67 56 64 67 56 64 67 56 64 67 56 64 67 56 64 67 50 55 58 48 53 56 46 51 54 43 48 51 39 44 47 36 41 44 34 39 42 32 37 40 6 11 14 6 11 14 6 11 14 6 11 14 6 11 14 6 11 14 6 11 14 6 11 14 0 7 6 0 9 8 2 11 10 5 14 13 9 18 17 12 21 20 14 23 22 16 25 24 24 33 32 24 33 32 24 33 32 24 33 32 24 33 32 24 33 32 24 33 32 24 33 32 35 41 41 35 41 41 35 41 41 35 41 41 35 41 41 35 41 41 35 41 41 35 41 41 39 45 45 39 45 45 39 45 45 39 45 45 39 45 45 39 45 45 39 45 45 40 44 43 31 30 28 33 29 26 33 29 26 33 29 26 33 29 26 33 29 26 33 29 26 33 29 26 34 30 27 34 30 27 34 30 27 34 30 27 34 30 27 34 30 27 34 30 27 34 30 27 37 32 28 37 32 28 37 32 28 37 32 28 37 32 28 37 32 28 37 32 28 37 32 28 37 32 28 37 32 28 37 32 28 37 32 28 37 32 28 37 32 28 37 32 28 37 32 28
3 1 14 3 1 14 3 1 14 3 1 14 3 1 14 3 1 14 3 1 14 3 1 14 3 1 14 3 1 14 3 1 14 3 1 14 3 1 15 3 1 15 3 1 15 3 1 15 3 1 15 3 1 15 3 1 15 3 1 15 4 2 16 4 2 16 4 2 16 4 2 16 4 2 16 4 2 16 4 2 16 4 2 16 4 4 16 4 4 16 4 4 16 4 4 16 4 4 16 4 4 16 4 4 16 4 4 16 4 4 16 4 4 16 4 4 16 4 4 16 4 4 16 4 4 16 4 4 16 4 4 14 3 6 15 3 6 13 3 6 13 3 6 13 3 6 13 3 6 13 3 6 13 3 6 13 6 9 16 6 9 16 6 9 16 6 9 16 6 9 16 6 9 16 6 9 16 6 9 16 6 11 17 6 11 17 6 11 17 6 11 17 6 11 17 6 11 17 6 11 17 6 11 17 8 13 19 9 14 20 12 17 23 17 22 28 21 26 32 25 30 36 28 33 39 30 35 41 40 48 51 41 49 52 44 52 55 47 55 58 50 58 61 53 61 64 56 64 67 57 65 68 60 68 71 60 68 71 60 68 71 60 68 71 60 68 71 60 68 71 60 68 71 60 68 71 50 55 58 48 53 56 46 51 54 43 48 51 39 44 47 36 41 44 34 39 42 32 37 40 6 11 14 6 11 14 6 11 14 6 11 14 6 11 14 6 11 14 6 11 14 6 11 14 0 7 6 0 9 8 2 11 10 5 14 13 9 18 17 12 21 20 14 23 22 16 25 24 24 33 32 24 33 32 24 33 32 24 33 32 24 33 32 24 33 32 24 33 32 24 33 32 35 41 41 35 41 41 35 41 41 35 41 41 35 41 41 35 41 41 35 41 41 35 41 41 35 41 41 35 41 41 35 41 41 35 41 41 35 41 41 35 41 41 35 41 41 36 40 39 31 30 28 33 29 26 33 29 26 33 29 26 33 29 26 33 29 26 33 29 26 33 29 26 34 30 27 34 30 27 34 30 27 34 30 27 34 30 27 34 30 27 34 30 27 34 30 27 37 32 28 37 32 28 37 32 28 37 32 28 37 32 28 37 32 28 37 32 28 37 32 28 37 32 28 37 32 28 37 32 28 37 32 28 37 32 28 37 32 28 37 32 28 37 32 28
3 1 14 3 1 14 3 1 14 3 1 14 3 1 14 3 1 14 3 1 14 3 1 14 3 1 14 3 1 14 3 1 14 3 1 14 3 1 15 3 1 15 3 1 15 3 1 15 3 1 15 3 1 15 3 1 15 3 1 15 4 2 16 4 2 16 4 2 16 4 2 16 4 2 16 4 2 16 4 2 16 4 2 16 4 4 16 4 4 16 4 4 16 4 4 16 4 4 16 4 4 16 4 4 16 4 4 16 4 4 16 4 4 16 4 4 16 4 4 16 4 4 16 4 4 16 4 4 16 4 4 14 3 6 15 3 6 13 3 6 13 3 6 13 3 6 13 3 6 13 3 6 13 3 6 13 6 9 16 6 9 16 6 9 16 6 9 16 6 9 16 6 9 16 6 9 16 6 9 16 6 11 17 6 11 17 6 11 17 6 11 17 6 11 17 6 11 17 6 11 17 6 11 17 6 11 17 9 14 20 13 18 24 19 24 30 25 30 36 31 36 42 35 40 46 37 42 48 46 54 57 47 55 58 50 58 61 53 61 64 57 65 68 60 68 71 62 70 73 63 71 74 63 71 74 63 71 74 63 71 74 63 71 74 63 71 74 63 71 74 63 71 74 63 71 74 50 55 58 48 53 56 46 51 54 43 48 51 39 44 47 36 41 44 34 39 42 32 37 40 6 11 14 6 11 14 6 11 14 6 11 14 6 11 14 6 11 14 6 11 14 6 11 14 0 7 6 0 9 8 2 11 10 5 14 13 9 18 17 12 21 20 14 23 22 16 25 24 24 33 32 24 33 32 24 33 32 24 33 32 24 33 32 24 33 32 24 33 32 24 33 32 35 41 41 35 41 41 35 41 41 35 41 41 35 41 41 35 41 41 35 41 41 35 41 41 32 38 38 32 38 38 32 38 38 32 38 38 32 38 38 32 38 38 32 38 38 33 37 36 31 30 28 33 29 26 33 29 26 33 29 26 33 29 26 33 29 26 33 29 26 33 29 26 34 30 27 34 30 27 34 30 27 34 30 27 34 30 27 34 30 27 34 30 27 34 30 27 37 32 28 37 32 28 37 32 28 37 32 28 37 32 28 37 32 28 37 32 28 37 32 28 37 32 28 37 32 28 37 32 28 37 32 28 37 32 28 37 32 28 37 32 28 37 32 28
3 1 14 3 1 14 3 1 14 3 1 14 3 1 14 3 1 14 3 1 14 3 1 14 3 1 14 3 1 14 3 1 14 3 1 14 3 1 15 3 1 15 3 1 15 3 1 15 3 1 15 3 1 15 3 1 15 3 1 15 4 2 16 4 2 16 4 2 16 4 2 16 4 2 16 4 2 16 4 2 16 4 2 16 4 4 16 4 4 16 4 4 16 4 4 16 4 4 16 4 4 16 4 4 16 4 4 16 4 4 16 4 4 16 4 4 16 4 4 16 4 4 16 4 4 16 4 4 16 4 4 14 3 6 15 3 6 13 3 6 13 3 6 13 3 6 13 3 6 13 3 6 13 3 6 13 6 9 16 6 9 16 6 9 16 6 9 16 6 9 16 6 9 16 6 9 16 6 9 16 6 11 17 6 11 17 6 11 17 6 11 17 6 11 17 6 11 17 6 11 17 6 11 17 5 10 16 8 13 19 14 19 25 21 26 32 28 33 39 35 40 46 40 45 51 43 48 54 51 59 62 52 60 63 55 63 66 58 66 69 61 69 72 65 73 76 67 75 78 68 76 79 65 73 76 65 73 76 65 73 76 65 73 76 65 73 76 65 73 76 65 73 76 65 73 76 50 55 58 48 53 56 46 51 54 43 48 51 39 44 47 36 41 44 34 39 42 32 37 40 6 11 14 6 11 14 6 11 14 6 11 14 6 11 14 6 11 14 6 11 14 6 11 14 0 7 6 0 9 8 2 11 10 5 14 13 9 18 17 12 21 20 14 23 22 16 25 24 24 33 32 24 33 32 24 33 32 24 33 32 24 33 32 24 33 32 24 33 32 24 33 32 35 41 41 35 41 41 35 41 41 35 41 41 35 41 41 35 41 41 35 41 41 35 41 41 30 36 36 30 36 36 30 36 36 30 36 36 30 36 36 30 36 36 30 36 36 31 35 34 31 30 28 33 29 26 33 29 26 33 29 26 33 29 26 33 29 26 33 29 26 33 29 26 34 30 27 34 30 27 34 30 27 34 30 27 34 30 27 34 30 27 34 30 27 34 30 27 37 32 28 37 32 28 37 32 28 37 32 28 37 32 28 37 32 28 37 32 28 37 32 28 37 32 28 37 32 28 37 32 28 37 32 28 37 32 28 37 32 28 37 32 28 37 32 28
3 1 14 3 1 14 3 1 14 3 1 14 3 1 14 3 1 14 3 1 14 3 1 14 3 1 14 3 1 14 3 1 14 3 1 14 3 1 14 3 1 14 3 1 15 3 1 14 3 1 15 3 1 14 3 1 15 3 1 14 4 2 16 4 2 15 4 2 16 4 2 15 4 2 16 4 2 15 4 2 16 4 2 15 4 4 16 4 4 14 4 4 16 4 4 14 4 4 16 4 4 14 4 4 16 4 4 14 4 4 16 4 4 14 4 4 16 4 4 14 4 4 16 4 4 14 4 4 16 4 4 14 3 6 13 2 7 13 3 6 13 2 7 13 3 6 13 2 7 13 3 6 13 2 7 13 6 9 16 5 10 16 6 9 16 5 10 16 6 9 16 5 10 16 6 9 16 5 10 16 6 11 17 6 11 17 6 11 17 6 11 17 6 11 17 6 11 17 6 11 17 6 11 17 5 10 16 8 13 19 14 19 25 22 27 33 30 35 41 37 42 48 43 48 54 46 51 57 54 62 65 55 63 66 57 65 68 61 69 72 64 72 75 67 75 78 70 78 81 71 79 82 67 75 78 67 75 78 67 75 78 67 75 78 67 75 78 67 75 78 67 75 78 67 75 78 50 55 58 48 53 56 46 51 54 43 48 51 39 44 47 36 41 44 34 39 42 32 37 40 6 11 14 6 11 14 6 11 14 6 11 14 6 11 14 6 11 14 6 11 14 6 11 14 0 6 8 0 9 8 2 11 10 5 14 13 9 18 17 12 21 20 14 23 22 16 25 24 24 33 32 24 33 32 24 33 32 24 33 32 24 33 32 24 33 32 24 33 32 24 33 32 35 41 41 35 41 41 35 41 41 35 41 41 35 41 41 35 41 41 35 41 41 35 41 41 28 34 34 28 34 34 28 34 34 28 34 34 28 34 34 28 34 34 28 34 34 29 33 32 31 30 28 33 29 26 34 29 26 33 29 26 34 29 26 33 29 26 34 29 26 33 29 26 35 30 27 34 30 27 35 30 27 34 30 27 35 30 27 34 30 27 35 30 27 35 30 27 37 32 28 37 32 28 39 31 28 37 32 28 39 31 28 37 32 28 39 31 28 37 32 28 39 31 28 37 32 28 39 31 28 37 32 28 39 31 28 37 32 28 39 31 28 37 32 28
4 2 15 4 2 15 4 2 15 4 2 15 4 2 15 4 2 15 4 2 15 4 2 15 4 2 15 4 2 15 4 2 15 4 2 15 3 1 14 3 1 12 3 1 14 3 1 12 3 1 14 3 1 12 3 1 14 3 1 12 3 1 14 3 1 12 3 1 14 3 1 12 3 1 14 3 1 12 3 1 14 3 1 12 2 2 12 2 2 10 2 2 12 2 2 10 2 2 12 2 2 10 2 2 12 2 2 10 3 3 13 3 3 11 3 3 13 3 3 11 3 3 13 3 3 11 3 3 13 1 4 11 4 9 15 2 10 13 4 9 13 2 10 13 4 9 13 2 10 13 4 9 13 2 10 13 0 1 5 0 3 6 0 4 8 1 9 12 6 11 15 7 15 18 12 17 21 11 19 22 8 15 21 9 16 22 12 19 25 15 22 28 18 25 31 22 29 35 24 31 37 25 32 38 44 51 57 45 52 58 47 54 60 51 58 64 54 61 67 57 64 70 60 67 73 61 68 74 71 79 82 71 79 81 71 79 81 71 79 81 71 79 81 71 79 81 71 79 81 71 79 81 68 76 78 68 76 78 68 76 78 68 76 78 68 76 78 68 76 78 68 76 78 68 76 78 56 64 67 54 62 65 49 57 60 42 50 53 36 44 47 29 37 40 24 32 35 22 30 33 5 13 16 5 13 16 5 13 16 5 13 16 5 13 16 5 13 16 5 13 16 5 13 15 10 18 20 10 18 20 10 18 20 10 18 20 10 18 20 10 18 20 10 18 20 10 18 20 22 30 32 22 30 32 22 30 32 22 30 32 22 30 32 22 30 32 22 30 32 22 30 32 25 31 31 25 31 31 25 31 31 25 31 31 25 31 31 25 31 31 25 31 31 25 31 31 24 30 30 24 30 30 24 30 30 24 30 30 24 30 30 24 30 30 24 30 30 27 29 28 31 27 26 32 27 24 34 26 24 32 27 24 34 26 24 32 27 24 34 26 24 32 27 24 36 28 26 34 29 26 36 28 26 34 29 26 36 28 26 34 29 26 36 28 26 36 28 26 37 29 26 37 29 26 38 28 26 37 29 26 38 28 26 37 29 26 38 28 26 37 29 26 39 29 27 38 30 27 39 29 27 38 30 27 39 29 27 38 30 27 39 29 27 38 30 27
4 2 15 4 2 15 4 2 15 4 2 15 4 2 15 4 2 15 4 2 15 4 2 15 4 2 15 4 2 15 4 2 15 4 2 15 3 1 12 3 1 12 3 1 12 3 1 12 3 1 12 3 1 12 3 1 12 3 1 12 3 1 12 3 1 12 3 1 12 3 1 12 3 1 12 3 1 12 3 1 12 3 1 12 2 2 10 2 2 10 2 2 10 2 2 10 2 2 10 2 2 10 2 2 10 2 2 10 3 3 11 3 3 11 3 3 11 3 3 11 3 3 11 3 3 11 3 3 11 1 4 11 4 9 13 2 10 13 2 10 13 2 10 13 2 10 13 2 10 13 2 10 13 2 10 13 0 3 6 0 4 7 0 7 10 2 10 13 5 13 16 9 17 20 11 19 22 12 20 23 11 18 24 12 19 25 14 21 27 18 25 31 21 28 34 24 31 37 27 34 40 28 35 41 45 52 58 46 53 59 49 56 62 52 59 65 55 62 68 59 66 72 61 68 74 62 70 73 71 79 82 71 79 81 71 79 81 71 79 81 71 79 81 71 79 81 71 79 81 71 79 81 68 76 78 68 76 78 68 76 78 68 76 78 68 76 78 68 76 78 68 76 78 68 76 78 56 64 67 54 62 65 49 57 60 42 50 53 36 44 47 29 37 40 24 32 35 22 30 33 5 13 16 5 13 16 5 13 16 5 13 16 5 13 16 5 13 16 5 13 16 5 13 16 10 18 20 10 18 20 10 18 20 10 18 20 10 18 20 10 18 20 10 18 20 10 18 20 22 30 32 22 30 32 22 30 32 22 30 32 22 30 32 22 30 32 22 30 32 22 30 32 25 31 31 25 31 31 25 31 31 25 31 31 25 31 31 25 31 31 25 31 31 25 31 31 24 30 30 24 30 30 24 30 30 24 30 30 24 30 30 24 30 30 24 30 30 27 29 28 31 27 26 34 26 24 34 26 24 34 26 24 34 26 24 34 26 24 34 26 24 34 26 24 36 28 26 36 28 26 36 28 26 36 28 26 36 28 26 36 28 26 36 28 26 36 28 26 38 28 26 38 28 26 38 28 26 38 28 26 38 28 26 38 28 26 38 28 26 38 28 26 39 29 27 39 29 27 39 29 27 39 29 27 39 29 27 39 29 27 39 29 27 38 30 27
4 2 15 4 2 15 4 2 15 4 2 15 4 2 15 4 2 15 4 2 15 4 2 15 4 2 15 4 2 15 4 2 15 4 2 15 3 1 12 3 1 12 3 1 12 3 1 12 3 1 12 3 1 12 3 1 12 3 1 12 3 1 12 3 1 12 3 1 12 3 1 12 3 1 12 3 1 12 3 1 12 3 1 12 2 2 10 2 2 10 2 2 10 2 2 10 2 2 10 2 2 10 2 2 10 2 2 10 3 3 11 3 3 11 3 3 11 3 3 11 3 3 11 3 3 11 3 3 11 1 4 11 4 9 13 2 10 13 2 10 13 2 10 13 2 10 13 2 10 13 2 10 13 2 10 13 0 5 8 0 7 10 1 9 12 4 12 15 8 16 19 11 19 22 13 21 24 15 23 26 16 23 29 17 24 30 19 26 32 22 29 35 26 33 39 29 36 42 32 39 45 33 40 46 47 54 60 49 56 62 51 58 64 54 61 67 58 65 71 61 68 74 63 70 76 65 73 76 71 79 82 71 79 81 71 79 81 71 79 81 71 79 81 71 79 81 71 79 81 71 79 81 68 76 78 68 76 78 68 76 78 68 76 78 68 76 78 68 76 78 68 76 78 68 76 78 56 64 67 54 62 65 49 57 60 42 50 53 36 44 47 29 37 40 24 32 35 22 30 33 5 13 16 5 13 16 5 13 16 5 13 16 5 13 16 5 13 16 5 13 16 5 13 16 10 18 20 10 18 20 10 18 20 10 18 20 10 18 20 10 18 20 10 18 20 10 18 20 22 30 32 22 30 32 22 30 32 22 30 32 22 30 32 22 30 32 22 30 32 22 30 32 25 31 31 25 31 31 25 31 31 25 31 31 25 31 31 25 31 31 25 31 31 25 31 31 24 30 30 24 30 30 24 30 30 24 30 30 24 30 30 24 30 30 24 30 30 27 29 28 31 27 26 34 26 24 34 26 24 34 26 24 34 26 24 34 26 24 34 26 24 34 26 24 36 28 26 36 28 26 36 28 26 36 28 26 36 28 26 36 28 26 36 28 26 36 28 26 38 28 26 38 28 26 38 28 26 38 28 26 38 28 26 38 28 26 38 28 26 38 28 26 39 29 27 39 29 27 39 29 27 39 29 27 39 29 27 39 29 27 39 29 27 38 30 27
