P3
172 37
255
0 9 0 0 9 0 0 9 0 0 9 0 0 8 0 0 9 0 0 15 5 0 22 12 6 29 19 13 36 26 18 41 31 26 41 34 83 79 78 91 79 81 97 82 85 101 89 91 109 94 97 113 101 103 119 104 107 120 108 110 121 106 109 119 107 109 121 106 109 119 107 109 121 106 109 119 107 109 121 106 109 121 106 109 124 108 109 124 108 109 124 108 109 124 108 109 124 108 109 124 108 109 124 108 109 124 108 109 121 105 106 120 104 105 118 102 103 114 98 99 111 95 96 108 92 93 105 89 90 104 88 89 96 82 82 96 82 82 96 82 82 96 82 82 96 82 82 96 82 82 96 82 82 96 82 82 95 81 81 95 81 81 95 81 81 95 81 81 95 81 81 95 81 81 95 81 81 95 81 81 100 85 88 100 85 88 100 85 88 100 85 88 100 85 88 100 85 88 100 85 88 100 85 88 103 88 91 103 88 91 103 88 91 103 88 91 103 88 91 103 88 91 103 88 91 103 88 91 98 83 86 98 83 86 98 83 86 98 83 86 98 83 86 98 83 86 98 83 86 98 83 86 102 87 90 102 87 90 102 87 90 102 87 90 102 87 90 102 87 90 102 87 90 102 87 90 105 89 92 105 89 92 105 89 92 105 89 92 105 89 92 105 89 92 105 89 92 105 89 92 99 83 86 99 83 86 99 83 86 99 83 86 99 83 86 99 83 86 99 83 86 99 83 86 94 79 84 94 79 84 94 79 84 94 79 84 94 79 84 94 79 84 94 79 84 94 79 84 92 77 82 92 77 82 92 77 82 92 77 82 92 77 82 92 77 82 92 77 82 92 77 82 76 61 68 76 61 68 76 61 68 76 61 68 76 61 68 76 61 68 76 61 68 76 61 68 57 42 49 59 44 51 62 47 54 66 51 58 70 55 62 73 58 65 76 61 68 76 63 70 85 76 79 80 74 76 75 69 71 69 63 65 62 56 58 56 50 52 51 45 47 48 42 44 46 40 42 46 40 42 46 40 42 46 40 42 46 40 42 46 40 42 46 40 42 42 42 42 29 44 37 25 46 37 25 46 37 25 46 37 25 46 37 25 46 37 25 46 37 25 46 37 27 48 39 27 48 39 27 48 39 27 48 39 27 48 39 27 48 39 27 48 39 28 48 39
0 7 1 0 8 0 0 7 1 0 8 0 0 6 0 0 8 0 0 13 7 1 22 13 10 29 23 16 37 28 23 42 36 32 43 39 92 83 86 99 82 88 105 86 92 108 91 97 116 97 103 119 102 108 125 106 112 125 108 114 126 107 113 124 107 113 126 107 113 124 107 113 126 107 113 124 107 113 126 107 113 124 107 113 128 109 113 126 110 113 128 109 113 126 110 113 128 109 113 126 110 113 128 109 113 126 110 113 126 107 111 123 107 110 122 103 107 117 101 104 116 97 101 110 94 97 110 91 95 107 91 94 94 82 84 93 83 84 94 82 84 93 83 84 94 82 84 93 83 84 94 82 84 93 83 84 93 81 83 92 82 83 93 81 83 92 82 83 93 81 83 92 82 83 93 81 83 92 82 83 97 86 90 97 86 90 97 86 90 97 86 90 97 86 90 97 86 90 97 86 90 97 86 90 100 89 93 100 89 93 100 89 93 100 89 93 100 89 93 100 89 93 100 89 93 100 89 93 95 84 88 95 84 88 95 84 88 95 84 88 95 84 88 95 84 88 95 84 88 95 84 88 99 88 92 99 88 92 99 88 92 99 88 92 99 88 92 99 88 92 99 88 92 99 88 92 102 90 94 102 90 94 102 90 94 102 90 94 102 90 94 102 90 94 102 90 94 102 90 94 96 84 88 96 84 88 96 84 88 96 84 88 96 84 88 96 84 88 96 84 88 96 84 88 94 79 86 94 79 86 94 79 86 94 79 86 94 79 86 94 79 86 94 79 86 94 79 86 92 77 84 92 77 84 92 77 84 92 77 84 92 77 84 92 77 84 92 77 84 90 77 84 70 61 66 68 62 66 68 62 66 68 62 66 68 62 66 68 62 66 68 62 66 68 62 66 48 42 46 50 44 48 54 48 52 58 52 56 63 57 61 67 61 65 71 65 69 72 66 70 84 78 80 80 76 77 76 70 72 69 65 66 63 57 59 56 52 53 52 46 48 48 44 45 46 40 42 45 41 42 46 40 42 45 41 42 46 40 42 45 41 42 46 40 42 41 43 42 31 44 37 25 46 37 26 46 37 25 46 37 26 46 37 25 46 37 26 46 37 25 46 37 28 48 39 27 48 39 28 48 39 27 48 39 28 48 39 27 48 39 28 48 39 30 47 39
6 6 8 8 10 9 12 12 14 12 14 13 7 7 9 12 14 13 22 22 24 34 36 35 49 49 51 61 63 62 71 71 73 80 75 79 112 97 104 116 96 105 119 98 107 122 102 111 126 105 114 128 108 117 132 111 120 132 112 121 133 112 121 132 112 121 133 112 121 132 112 121 133 112 121 132 112 121 133 112 121 132 112 121 141 120 129 140 120 129 141 120 129 140 120 129 141 120 129 140 120 129 141 120 129 140 120 129 126 105 114 125 105 114 126 105 114 125 105 114 126 105 114 125 105 114 126 105 114 125 105 114 116 97 103 113 96 102 112 93 99 107 90 96 106 87 93 100 83 89 100 81 87 97 80 86 104 85 91 102 85 91 104 85 91 102 85 91 104 85 91 102 85 91 104 85 91 102 85 91 98 81 89 98 81 89 98 81 89 98 81 89 98 81 89 98 81 89 98 81 89 98 81 89 98 81 89 98 81 89 98 81 89 98 81 89 98 81 89 98 81 89 98 81 89 98 81 89 102 85 95 102 85 95 102 85 95 102 85 95 102 85 95 102 85 95 102 85 95 102 85 95 101 84 94 101 84 94 101 84 94 101 84 94 101 84 94 101 84 94 101 84 94 101 84 94 95 78 88 95 78 88 95 78 88 95 78 88 95 78 88 95 78 88 95 78 88 95 78 88 89 72 82 89 72 82 89 72 82 89 72 82 89 72 82 89 72 82 89 72 82 91 71 82 98 74 87 100 74 87 100 74 87 100 74 87 100 74 87 100 74 87 100 74 87 100 74 87 104 78 91 103 77 90 100 74 87 97 71 84 94 68 81 90 64 77 88 62 75 83 63 74 73 63 71 67 65 70 64 62 67 61 59 64 58 56 61 54 52 57 52 50 55 51 49 54 34 32 37 38 36 41 45 43 48 55 53 58 65 63 68 75 73 78 82 80 85 86 84 87 93 91 92 89 87 88 84 80 81 72 70 71 64 60 61 52 50 51 47 43 44 41 39 40 44 40 41 42 40 41 44 40 41 42 40 41 44 40 41 42 40 41 44 40 41 41 41 41 38 40 39 35 41 39 36 40 39 35 41 39 36 40 39 35 41 39 36 40 39 35 41 39 35 39 38 34 40 38 35 39 38 34 40 38 35 39 38 34 40 38 35 39 38 35 39 38
13 4 9 17 8 13 19 10 15 20 11 16 17 8 13 23 14 19 32 23 28 45 36 41 59 50 55 72 63 68 81 72 77 88 77 83 116 96 107 118 96 108 121 99 111 124 102 114 127 105 117 131 109 121 133 111 123 134 112 124 135 113 125 135 113 125 135 113 125 135 113 125 135 113 125 135 113 125 135 113 125 135 113 125 141 119 131 141 119 131 141 119 131 141 119 131 141 119 131 141 119 131 141 119 131 141 119 131 128 106 118 128 106 118 128 106 118 128 106 118 128 106 118 128 106 118 128 106 118 128 106 118 118 97 106 117 96 105 115 94 103 111 90 99 108 87 96 105 84 93 102 81 90 101 80 89 105 84 93 105 84 93 105 84 93 105 84 93 105 84 93 105 84 93 105 84 93 105 84 93 100 80 91 100 80 91 100 80 91 100 80 91 100 80 91 100 80 91 100 80 91 100 80 91 100 80 91 100 80 91 100 80 91 100 80 91 100 80 91 100 80 91 100 80 91 100 80 91 104 84 96 104 84 96 104 84 96 104 84 96 104 84 96 104 84 96 104 84 96 104 84 96 103 83 95 103 83 95 103 83 95 103 83 95 103 83 95 103 83 95 103 83 95 103 83 95 97 77 89 97 77 89 97 77 89 97 77 89 97 77 89 97 77 89 97 77 89 97 77 89 91 71 83 91 71 83 91 71 83 91 71 83 91 71 83 91 71 83 91 71 83 92 70 83 99 71 86 101 70 86 102 69 86 101 70 86 102 69 86 101 70 86 102 69 86 101 70 86 105 72 89 103 72 88 102 69 86 97 66 82 95 62 79 91 60 76 89 56 73 82 58 72 70 60 68 63 62 67 61 60 65 57 56 61 54 53 58 51 50 55 48 47 52 47 46 51 33 32 37 37 36 41 44 43 48 54 53 58 64 63 68 74 73 78 81 80 85 85 85 87 93 91 94 89 87 88 82 80 81 72 70 71 62 60 61 52 50 51 45 43 44 41 39 40 42 40 41 42 40 41 42 40 41 42 40 41 42 40 41 42 40 41 42 40 41 42 40 41 40 38 39 40 38 39 40 38 39 40 38 39 40 38 39 40 38 39 40 38 39 40 38 39 39 37 38 39 37 38 39 37 38 39 37 38 39 37 38 39 37 38 39 37 38 39 37 38
16 7 12 19 10 15 21 12 17 23 14 19 25 16 21 30 21 26 40 31 36 52 43 48 66 57 62 79 70 75 89 80 85 95 84 90 118 98 109 121 99 111 123 101 113 126 104 116 130 108 120 133 111 123 135 113 125 137 115 127 137 115 127 137 115 127 137 115 127 137 115 127 137 115 127 137 115 127 137 115 127 137 115 127 141 119 131 141 119 131 141 119 131 141 119 131 141 119 131 141 119 131 141 119 131 141 119 131 130 108 120 130 108 120 130 108 120 130 108 120 130 108 120 130 108 120 130 108 120 130 108 120 121 100 109 119 98 107 117 96 105 114 93 102 110 89 98 107 86 95 105 84 93 103 82 91 105 84 93 105 84 93 105 84 93 105 84 93 105 84 93 105 84 93 105 84 93 105 84 93 100 80 91 100 80 91 100 80 91 100 80 91 100 80 91 100 80 91 100 80 91 100 80 91 100 80 91 100 80 91 100 80 91 100 80 91 100 80 91 100 80 91 100 80 91 100 80 91 104 84 96 104 84 96 104 84 96 104 84 96 104 84 96 104 84 96 104 84 96 104 84 96 103 83 95 103 83 95 103 83 95 103 83 95 103 83 95 103 83 95 103 83 95 103 83 95 97 77 89 97 77 89 97 77 89 97 77 89 97 77 89 97 77 89 97 77 89 97 77 89 91 71 83 91 71 83 91 71 83 91 71 83 91 71 83 91 71 83 91 71 83 92 70 83 96 69 84 97 69 84 99 68 84 97 69 84 99 68 84 97 69 84 99 68 84 97 69 84 99 68 84 96 68 83 96 65 81 91 63 78 89 58 74 84 56 71 83 52 68 76 54 67 63 56 63 58 57 62 56 55 60 53 52 57 49 48 53 46 45 50 43 42 47 42 41 46 33 32 37 37 36 41 44 43 48 54 53 58 64 63 68 74 73 78 81 80 85 85 85 87 93 91 94 89 87 88 82 80 81 72 70 71 62 60 61 52 50 51 45 43 44 41 39 40 42 40 41 42 40 41 42 40 41 42 40 41 42 40 41 42 40 41 42 40 41 42 40 41 40 38 39 40 38 39 40 38 39 40 38 39 40 38 39 40 38 39 40 38 39 40 38 39 39 37 38 39 37 38 39 37 38 39 37 38 39 37 38 39 37 38 39 37 38 39 37 38
19 10 15 22 13 18 25 16 21 26 17 22 34 25 30 39 30 35 49 40 45 62 53 58 76 67 72 88 79 84 98 89 94 104 93 99 122 102 113 124 102 114 126 104 116 130 108 120 133 111 123 136 114 126 139 117 129 140 118 130 140 118 130 140 118 130 140 118 130 140 118 130 140 118 130 140 118 130 140 118 130 140 118 130 141 119 131 141 119 131 141 119 131 141 119 131 141 119 131 141 119 131 141 119 131 141 119 131 133 111 123 133 111 123 133 111 123 133 111 123 133 111 123 133 111 123 133 111 123 133 111 123 124 103 112 123 102 111 120 99 108 117 96 105 114 93 102 110 89 98 108 87 96 107 86 95 105 84 93 105 84 93 105 84 93 105 84 93 105 84 93 105 84 93 105 84 93 105 84 93 100 80 91 100 80 91 100 80 91 100 80 91 100 80 91 100 80 91 100 80 91 100 80 91 100 80 91 100 80 91 100 80 91 100 80 91 100 80 91 100 80 91 100 80 91 100 80 91 104 84 96 104 84 96 104 84 96 104 84 96 104 84 96 104 84 96 104 84 96 104 84 96 103 83 95 103 83 95 103 83 95 103 83 95 103 83 95 103 83 95 103 83 95 103 83 95 97 77 89 97 77 89 97 77 89 97 77 89 97 77 89 97 77 89 97 77 89 97 77 89 91 71 83 91 71 83 91 71 83 91 71 83 91 71 83 91 71 83 91 71 83 92 70 83 93 66 81 93 66 81 94 66 81 93 66 81 94 66 81 93 66 81 94 66 81 93 66 81 91 63 78 89 62 77 87 59 74 83 56 71 81 53 68 77 50 65 75 47 62 69 49 61 57 50 57 52 51 56 49 48 53 46 45 50 43 42 47 40 39 44 37 36 41 36 35 40 33 32 37 37 36 41 44 43 48 54 53 58 64 63 68 74 73 78 81 80 85 85 85 87 93 91 94 89 87 88 82 80 81 72 70 71 62 60 61 52 50 51 45 43 44 41 39 40 42 40 41 42 40 41 42 40 41 42 40 41 42 40 41 42 40 41 42 40 41 42 40 41 40 38 39 40 38 39 40 38 39 40 38 39 40 38 39 40 38 39 40 38 39 40 38 39 39 37 38 39 37 38 39 37 38 39 37 38 39 37 38 39 37 38 39 37 38 39 37 38
22 13 18 26 17 22 28 19 24 29 20 25 45 36 41 50 41 46 60 51 56 72 63 68 86 77 82 99 90 95 109 100 105 115 104 110 125 105 116 127 105 117 130 108 120 133 111 123 136 114 126 140 118 130 142 120 132 143 121 133 144 122 134 144 122 134 144 122 134 144 122 134 144 122 134 144 122 134 144 122 134 144 122 134 141 119 131 141 119 131 141 119 131 141 119 131 141 119 131 141 119 131 141 119 131 141 119 131 137 115 127 137 115 127 137 115 127 137 115 127 137 115 127 137 115 127 137 115 127 137 115 127 127 106 115 126 105 114 124 103 112 120 99 108 117 96 105 114 93 102 111 90 99 110 89 98 105 84 93 105 84 93 105 84 93 105 84 93 105 84 93 105 84 93 105 84 93 105 84 93 100 80 91 100 80 91 100 80 91 100 80 91 100 80 91 100 80 91 100 80 91 100 80 91 100 80 91 100 80 91 100 80 91 100 80 91 100 80 91 100 80 91 100 80 91 100 80 91 104 84 96 104 84 96 104 84 96 104 84 96 104 84 96 104 84 96 104 84 96 104 84 96 103 83 95 103 83 95 103 83 95 103 83 95 103 83 95 103 83 95 103 83 95 103 83 95 97 77 89 97 77 89 97 77 89 97 77 89 97 77 89 97 77 89 97 77 89 97 77 89 91 71 83 91 71 83 91 71 83 91 71 83 91 71 83 91 71 83 91 71 83 92 70 83 87 63 77 87 63 77 89 62 77 87 63 77 89 62 77 87 63 77 89 62 77 87 63 77 83 56 71 80 56 70 79 52 67 74 50 64 73 46 61 68 44 58 67 40 55 62 42 54 50 43 50 45 44 49 42 41 46 39 38 43 36 35 40 33 32 37 30 29 34 29 28 33 33 32 37 37 36 41 44 43 48 54 53 58 64 63 68 74 73 78 81 80 85 85 85 87 93 91 94 89 87 88 82 80 81 72 70 71 62 60 61 52 50 51 45 43 44 41 39 40 42 40 41 42 40 41 42 40 41 42 40 41 42 40 41 42 40 41 42 40 41 42 40 41 40 38 39 40 38 39 40 38 39 40 38 39 40 38 39 40 38 39 40 38 39 40 38 39 39 37 38 39 37 38 39 37 38 39 37 38 39 37 38 39 37 38 39 37 38 39 37 38
26 17 22 29 20 25 31 22 27 33 24 29 54 45 50 59 50 55 69 60 65 82 73 78 96 87 92 108 99 104 118 109 114 124 113 119 128 108 119 131 109 121 133 111 123 136 114 126 140 118 130 143 121 133 145 123 135 147 125 137 147 125 137 147 125 137 147 125 137 147 125 137 147 125 137 147 125 137 147 125 137 147 125 137 141 119 131 141 119 131 141 119 131 141 119 131 141 119 131 141 119 131 141 119 131 141 119 131 140 118 130 140 118 130 140 118 130 140 118 130 140 118 130 140 118 130 140 118 130 140 118 130 131 110 119 129 108 117 127 106 115 124 103 112 120 99 108 117 96 105 115 94 103 113 92 101 105 84 93 105 84 93 105 84 93 105 84 93 105 84 93 105 84 93 105 84 93 105 84 93 100 80 91 100 80 91 100 80 91 100 80 91 100 80 91 100 80 91 100 80 91 100 80 91 100 80 91 100 80 91 100 80 91 100 80 91 100 80 91 100 80 91 100 80 91 100 80 91 104 84 96 104 84 96 104 84 96 104 84 96 104 84 96 104 84 96 104 84 96 104 84 96 103 83 95 103 83 95 103 83 95 103 83 95 103 83 95 103 83 95 103 83 95 103 83 95 97 77 89 97 77 89 97 77 89 97 77 89 97 77 89 97 77 89 97 77 89 97 77 89 91 71 83 91 71 83 91 71 83 91 71 83 91 71 83 91 71 83 91 71 83 91 71 83 83 61 74 83 61 74 83 61 74 83 61 74 83 61 74 83 61 74 83 61 74 83 61 74 74 52 65 73 51 64 70 48 61 67 45 58 63 41 54 60 38 51 58 36 49 54 36 48 44 37 44 39 38 43 36 35 40 33 32 37 29 28 33 26 25 30 24 23 28 23 22 27 33 32 37 37 36 41 44 43 48 54 53 58 64 63 68 74 73 78 81 80 85 85 85 87 93 91 94 89 87 88 82 80 81 72 70 71 62 60 61 52 50 51 45 43 44 41 39 40 42 40 41 42 40 41 42 40 41 42 40 41 42 40 41 42 40 41 42 40 41 42 40 41 40 38 39 40 38 39 40 38 39 40 38 39 40 38 39 40 38 39 40 38 39 40 38 39 39 37 38 39 37 38 39 37 38 39 37 38 39 37 38 39 37 38 39 37 38 39 37 38
28 19 24 31 22 27 34 25 30 35 26 31 61 52 57 67 58 63 76 67 72 89 80 85 103 94 99 116 107 112 125 116 121 132 121 127 131 111 122 133 111 123 135 113 125 139 117 129 142 120 132 145 123 135 148 126 138 149 127 139 149 127 139 149 127 139 149 127 139 149 127 139 149 127 139 149 127 139 149 127 139 149 127 139 141 119 131 141 119 131 141 119 131 141 119 131 141 119 131 141 119 131 141 119 131 141 119 131 142 120 132 142 120 132 142 120 132 142 120 132 142 120 132 142 120 132 142 120 132 142 120 132 133 112 121 132 111 120 129 108 117 126 105 114 123 102 111 119 98 107 117 96 105 116 95 104 105 84 93 105 84 93 105 84 93 105 84 93 105 84 93 105 84 93 105 84 93 105 84 93 100 80 91 100 80 91 100 80 91 100 80 91 100 80 91 100 80 91 100 80 91 100 80 91 100 80 91 100 80 91 100 80 91 100 80 91 100 80 91 100 80 91 100 80 91 100 80 91 104 84 96 104 84 96 104 84 96 104 84 96 104 84 96 104 84 96 104 84 96 104 84 96 103 83 95 103 83 95 103 83 95 103 83 95 103 83 95 103 83 95 103 83 95 103 83 95 97 77 89 97 77 89 97 77 89 97 77 89 97 77 89 97 77 89 97 77 89 97 77 89 91 71 83 91 71 83 91 71 83 91 71 83 91 71 83 91 71 83 91 71 83 91 71 83 80 60 72 80 60 72 80 60 72 80 60 72 80 60 72 80 60 72 80 60 72 80 60 72 68 48 60 67 47 59 64 44 56 61 41 53 58 38 50 54 34 46 52 32 44 48 32 43 38 33 39 34 33 38 31 30 35 28 27 32 25 24 29 21 20 25 19 18 23 18 17 22 33 32 37 37 36 41 44 43 48 54 53 58 64 63 68 74 73 78 81 80 85 85 85 87 93 91 94 89 87 88 82 80 81 72 70 71 62 60 61 52 50 51 45 43 44 41 39 40 42 40 41 42 40 41 42 40 41 42 40 41 42 40 41 42 40 41 42 40 41 42 40 41 40 38 39 40 38 39 40 38 39 40 38 39 40 38 39 40 38 39 40 38 39 40 38 39 39 37 38 39 37 38 39 37 38 39 37 38 39 37 38 39 37 38 39 37 38 39 37 38
29 20 25 33 24 29 35 26 31 36 27 32 65 56 61 71 62 67 80 71 76 93 84 89 107 98 103 120 111 116 129 120 125 136 125 131 132 112 123 134 112 124 137 115 127 140 118 130 143 121 133 147 125 137 149 127 139 150 128 140 151 129 141 151 129 141 151 129 141 151 129 141 151 129 141 151 129 141 151 129 141 151 129 141 141 119 131 141 119 131 141 119 131 141 119 131 141 119 131 141 119 131 141 119 131 141 119 131 144 122 134 144 122 134 144 122 134 144 122 134 144 122 134 144 122 134 144 122 134 144 122 134 134 113 122 133 112 121 131 110 119 127 106 115 124 103 112 121 100 109 118 97 106 117 96 105 105 84 93 105 84 93 105 84 93 105 84 93 105 84 93 105 84 93 105 84 93 105 84 93 100 80 91 100 80 91 100 80 91 100 80 91 100 80 91 100 80 91 100 80 91 100 80 91 100 80 91 100 80 91 100 80 91 100 80 91 100 80 91 100 80 91 100 80 91 100 80 91 104 84 96 104 84 96 104 84 96 104 84 96 104 84 96 104 84 96 104 84 96 104 84 96 103 83 95 103 83 95 103 83 95 103 83 95 103 83 95 103 83 95 103 83 95 103 83 95 97 77 89 97 77 89 97 77 89 97 77 89 97 77 89 97 77 89 97 77 89 97 77 89 91 71 83 91 71 83 91 71 83 91 71 83 91 71 83 91 71 83 91 71 83 89 71 83 76 58 70 75 59 70 75 59 70 75 59 70 75 59 70 75 59 70 75 59 70 75 59 70 62 46 57 61 45 56 59 43 54 55 39 50 52 36 47 49 33 44 46 30 41 42 30 40 35 30 36 31 30 35 29 28 33 25 24 29 22 21 26 19 18 23 16 15 20 15 14 19 33 32 37 37 36 41 44 43 48 54 53 58 64 63 68 74 73 78 81 80 85 85 85 87 93 91 94 89 87 88 82 80 81 72 70 71 62 60 61 52 50 51 45 43 44 41 39 40 42 40 41 42 40 41 42 40 41 42 40 41 42 40 41 42 40 41 42 40 41 42 40 41 40 38 39 40 38 39 40 38 39 40 38 39 40 38 39 40 38 39 40 38 39 40 38 39 39 37 38 39 37 38 39 37 38 39 37 38 39 37 38 39 37 38 39 37 38 39 37 38
46 37 42 52 43 48 56 47 52 58 49 54 96 87 92 99 90 95 105 96 101 112 103 108 120 111 116 128 119 124 134 125 130 138 127 133 144 124 135 145 123 135 145 123 135 145 123 135 145 123 135 145 123 135 145 123 135 145 123 135 151 129 141 150 128 140 148 126 138 144 122 134 141 119 131 138 116 128 135 113 125 134 112 124 127 105 117 129 107 119 131 109 121 134 112 124 138 116 128 141 119 131 143 121 133 145 123 135 147 125 137 147 125 137 147 125 137 147 125 137 147 125 137 147 125 137 147 125 137 147 125 137 136 115 124 134 113 122 132 111 120 129 108 117 125 104 113 122 101 110 120 99 108 118 97 106 104 83 92 104 83 92 104 83 92 104 83 92 104 83 92 104 83 92 104 83 92 104 83 92 98 78 89 98 78 89 98 78 89 98 78 89 98 78 89 98 78 89 98 78 89 98 78 89 95 75 86 95 75 86 95 75 86 95 75 86 95 75 86 95 75 86 95 75 86 95 75 86 100 80 92 100 80 92 100 80 92 100 80 92 100 80 92 100 80 92 100 80 92 100 80 92 91 71 83 91 71 83 91 71 83 91 71 83 91 71 83 91 71 83 91 71 83 91 71 83 89 69 81 89 69 81 89 69 81 89 69 81 89 69 81 89 69 81 89 69 81 89 69 81 94 74 86 93 73 85 90 70 82 87 67 79 84 64 76 80 60 72 78 58 70 75 57 69 75 62 72 72 60 70 70 58 68 67 55 65 63 51 61 60 48 58 58 46 56 56 44 54 44 32 42 42 30 40 38 26 36 34 22 32 29 17 27 25 13 23 21 9 19 19 9 18 17 15 20 18 17 22 20 19 24 23 22 27 27 26 31 30 29 34 32 31 36 34 33 38 40 39 44 42 41 46 47 46 51 54 53 58 60 59 64 67 66 71 72 71 76 74 74 76 77 75 78 75 73 74 70 68 69 63 61 62 57 55 56 50 48 49 45 43 44 43 41 42 36 34 35 36 34 35 36 34 35 36 34 35 36 34 35 36 34 35 36 34 35 36 34 35 35 33 34 35 33 34 35 33 34 35 33 34 35 33 34 35 33 34 35 33 34 35 33 34 38 36 37 38 36 37 38 36 37 38 36 37 38 36 37 38 36 37 38 36 37 38 36 37
49 40 45 55 46 51 60 51 56 62 53 58 99 90 95 102 93 98 107 98 103 114 105 110 121 112 117 128 119 124 134 125 130 138 127 133 144 124 135 145 123 135 145 123 135 145 123 135 145 123 135 145 123 135 145 123 135 145 123 135 150 128 140 149 127 139 146 124 136 143 121 133 140 118 130 136 114 126 134 112 124 133 111 123 127 105 117 129 107 119 131 109 121 134 112 124 138 116 128 141 119 131 143 121 133 145 123 135 147 125 137 147 125 137 147 125 137 147 125 137 147 125 137 147 125 137 147 125 137 147 125 137 136 115 124 134 113 122 132 111 120 129 108 117 125 104 113 122 101 110 120 99 108 118 97 106 104 83 92 104 83 92 104 83 92 104 83 92 104 83 92 104 83 92 104 83 92 104 83 92 96 76 87 96 76 87 96 76 87 96 76 87 96 76 87 96 76 87 96 76 87 96 76 87 95 75 86 95 75 86 95 75 86 95 75 86 95 75 86 95 75 86 95 75 86 95 75 86 100 80 92 100 80 92 100 80 92 100 80 92 100 80 92 100 80 92 100 80 92 100 80 92 91 71 83 91 71 83 91 71 83 91 71 83 91 71 83 91 71 83 91 71 83 91 71 83 87 67 79 87 67 79 87 67 79 87 67 79 87 67 79 87 67 79 87 67 79 87 67 79 91 71 83 90 70 82 88 68 80 84 64 76 81 61 73 78 58 70 75 55 67 72 54 66 70 58 68 65 58 66 63 56 64 60 53 61 56 49 57 53 46 54 51 44 52 49 42 50 38 31 39 36 29 37 33 26 34 29 22 30 25 18 26 22 15 23 19 12 20 16 11 18 17 15 20 18 17 22 20 19 24 23 22 27 27 26 31 30 29 34 32 31 36 34 33 38 40 39 44 42 41 46 47 46 51 54 53 58 60 59 64 67 66 71 72 71 76 74 74 76 77 75 78 75 73 74 70 68 69 63 61 62 57 55 56 50 48 49 45 43 44 43 41 42 36 34 35 36 34 35 36 34 35 36 34 35 36 34 35 36 34 35 36 34 35 36 34 35 35 33 34 35 33 34 35 33 34 35 33 34 35 33 34 35 33 34 35 33 34 35 33 34 38 36 37 38 36 37 38 36 37 38 36 37 38 36 37 38 36 37 38 36 37 38 36 37
55 46 51 62 53 58 67 58 63 70 61 66 105 96 101 107 98 103 111 102 107 117 108 113 123 114 119 129 120 125 133 124 129 137 126 132 144 124 135 145 123 135 145 123 135 145 123 135 145 123 135 145 123 135 145 123 135 145 123 135 148 126 138 146 124 136 144 122 134 141 119 131 137 115 127 134 112 124 132 110 122 130 108 120 127 105 117 129 107 119 131 109 121 134 112 124 138 116 128 141 119 131 143 121 133 145 123 135 147 125 137 147 125 137 147 125 137 147 125 137 147 125 137 147 125 137 147 125 137 147 125 137 136 115 124 134 113 122 132 111 120 129 108 117 125 104 113 122 101 110 120 99 108 118 97 106 104 83 92 104 83 92 104 83 92 104 83 92 104 83 92 104 83 92 104 83 92 104 83 92 94 74 85 94 74 85 94 74 85 94 74 85 94 74 85 94 74 85 94 74 85 94 74 85 95 75 86 95 75 86 95 75 86 95 75 86 95 75 86 95 75 86 95 75 86 95 75 86 100 80 92 100 80 92 100 80 92 100 80 92 100 80 92 100 80 92 100 80 92 100 80 92 91 71 83 91 71 83 91 71 83 91 71 83 91 71 83 91 71 83 91 71 83 91 71 83 85 65 77 85 65 77 85 65 77 85 65 77 85 65 77 85 65 77 85 65 77 85 65 77 86 66 78 85 65 77 83 63 75 80 60 72 76 56 68 73 53 65 70 50 62 66 50 61 61 51 60 57 52 59 55 50 57 51 46 53 48 43 50 45 40 47 42 37 44 41 36 43 31 26 33 30 25 32 28 23 30 25 20 27 23 18 25 20 15 22 18 13 20 15 12 19 16 15 20 18 17 22 20 19 24 23 22 27 27 26 31 30 29 34 32 31 36 34 33 38 40 39 44 42 41 46 47 46 51 54 53 58 60 59 64 67 66 71 72 71 76 74 74 76 77 75 78 75 73 74 70 68 69 63 61 62 57 55 56 50 48 49 45 43 44 43 41 42 36 34 35 36 34 35 36 34 35 36 34 35 36 34 35 36 34 35 36 34 35 36 34 35 35 33 34 35 33 34 35 33 34 35 33 34 35 33 34 35 33 34 35 33 34 35 33 34 38 36 37 38 36 37 38 36 37 38 36 37 38 36 37 38 36 37 38 36 37 38 36 37
62 53 58 71 62 67 78 69 74 81 72 77 112 103 108 114 105 110 117 108 113 121 112 117 125 116 121 130 121 126 133 124 129 135 124 130 144 124 135 145 123 135 145 123 135 145 123 135 145 123 135 145 123 135 145 123 135 145 123 135 144 122 134 143 121 133 141 119 131 137 115 127 134 112 124 131 109 121 128 106 118 127 105 117 127 105 117 129 107 119 131 109 121 134 112 124 138 116 128 141 119 131 143 121 133 145 123 135 147 125 137 147 125 137 147 125 137 147 125 137 147 125 137 147 125 137 147 125 137 147 125 137 136 115 124 134 113 122 132 111 120 129 108 117 125 104 113 122 101 110 120 99 108 118 97 106 104 83 92 104 83 92 104 83 92 104 83 92 104 83 92 104 83 92 104 83 92 104 83 92 91 71 82 91 71 82 91 71 82 91 71 82 91 71 82 91 71 82 91 71 82 91 71 82 95 75 86 95 75 86 95 75 86 95 75 86 95 75 86 95 75 86 95 75 86 95 75 86 100 80 92 100 80 92 100 80 92 100 80 92 100 80 92 100 80 92 100 80 92 100 80 92 91 71 83 91 71 83 91 71 83 91 71 83 91 71 83 91 71 83 91 71 83 91 71 83 82 62 74 82 62 74 82 62 74 82 62 74 82 62 74 82 62 74 82 62 74 82 62 74 80 60 72 79 59 71 76 56 68 73 53 65 70 50 62 67 47 59 64 44 56 60 44 55 50 43 51 45 44 50 43 40 47 39 38 44 36 33 40 32 31 37 31 28 35 29 28 34 21 18 25 20 19 25 20 17 24 18 17 23 18 15 22 16 15 21 17 14 21 15 14 20 16 15 20 18 17 22 20 19 24 23 22 27 27 26 31 30 29 34 32 31 36 34 33 38 40 39 44 42 41 46 47 46 51 54 53 58 60 59 64 67 66 71 72 71 76 74 74 76 77 75 78 75 73 74 70 68 69 63 61 62 57 55 56 50 48 49 45 43 44 43 41 42 36 34 35 36 34 35 36 34 35 36 34 35 36 34 35 36 34 35 36 34 35 36 34 35 35 33 34 35 33 34 35 33 34 35 33 34 35 33 34 35 33 34 35 33 34 35 33 34 38 36 37 38 36 37 38 36 37 38 36 37 38 36 37 38 36 37 38 36 37 38 36 37
70 61 66 81 72 77 89 80 85 93 84 89 120 111 116 121 112 117 123 114 119 125 116 121 128 119 124 130 121 126 132 123 128 134 123 129 144 124 135 145 123 135 145 123 135 145 123 135 145 123 135 145 123 135 145 123 135 145 123 135 141 119 131 140 118 130 137 115 127 134 112 124 131 109 121 127 105 117 125 103 115 124 102 114 127 105 117 129 107 119 131 109 121 134 112 124 138 116 128 141 119 131 143 121 133 145 123 135 147 125 137 147 125 137 147 125 137 147 125 137 147 125 137 147 125 137 147 125 137 147 125 137 136 115 124 134 113 122 132 111 120 129 108 117 125 104 113 122 101 110 120 99 108 118 97 106 104 83 92 104 83 92 104 83 92 104 83 92 104 83 92 104 83 92 104 83 92 104 83 92 87 67 78 87 67 78 87 67 78 87 67 78 87 67 78 87 67 78 87 67 78 87 67 78 95 75 86 95 75 86 95 75 86 95 75 86 95 75 86 95 75 86 95 75 86 95 75 86 100 80 92 100 80 92 100 80 92 100 80 92 100 80 92 100 80 92 100 80 92 100 80 92 91 71 83 91 71 83 91 71 83 91 71 83 91 71 83 91 71 83 91 71 83 91 71 83 78 58 70 78 58 70 78 58 70 78 58 70 78 58 70 78 58 70 78 58 70 78 58 70 73 53 65 72 52 64 69 49 61 66 46 58 63 43 55 60 40 52 57 37 49 53 37 48 38 33 40 33 34 39 32 31 37 28 29 34 25 24 30 21 22 27 19 18 24 17 18 23 12 11 17 11 12 17 13 12 18 13 14 19 15 14 20 15 16 21 16 15 21 17 16 22 16 15 20 18 17 22 20 19 24 23 22 27 27 26 31 30 29 34 32 31 36 34 33 38 40 39 44 42 41 46 47 46 51 54 53 58 60 59 64 67 66 71 72 71 76 74 74 76 77 75 78 75 73 74 70 68 69 63 61 62 57 55 56 50 48 49 45 43 44 43 41 42 36 34 35 36 34 35 36 34 35 36 34 35 36 34 35 36 34 35 36 34 35 36 34 35 35 33 34 35 33 34 35 33 34 35 33 34 35 33 34 35 33 34 35 33 34 35 33 34 38 36 37 38 36 37 38 36 37 38 36 37 38 36 37 38 36 37 38 36 37 38 36 37
77 68 73 89 80 85 99 90 95 104 95 100 128 119 124 128 119 124 129 120 125 130 121 126 130 121 126 131 122 127 131 122 127 133 122 128 144 124 135 145 123 135 145 123 135 145 123 135 145 123 135 145 123 135 145 123 135 145 123 135 138 116 128 136 114 126 134 112 124 131 109 121 127 105 117 124 102 114 122 100 112 120 98 110 127 105 117 129 107 119 131 109 121 134 112 124 138 116 128 141 119 131 143 121 133 145 123 135 147 125 137 147 125 137 147 125 137 147 125 137 147 125 137 147 125 137 147 125 137 147 125 137 136 115 124 134 113 122 132 111 120 129 108 117 125 104 113 122 101 110 120 99 108 118 97 106 104 83 92 104 83 92 104 83 92 104 83 92 104 83 92 104 83 92 104 83 92 104 83 92 84 64 75 84 64 75 84 64 75 84 64 75 84 64 75 84 64 75 84 64 75 84 64 75 95 75 86 95 75 86 95 75 86 95 75 86 95 75 86 95 75 86 95 75 86 95 75 86 100 80 92 100 80 92 100 80 92 100 80 92 100 80 92 100 80 92 100 80 92 100 80 92 91 71 83 91 71 83 91 71 83 91 71 83 91 71 83 91 71 83 91 71 83 91 71 83 75 55 67 75 55 67 75 55 67 75 55 67 75 55 67 75 55 67 75 55 67 75 55 67 67 47 59 66 46 58 63 43 55 60 40 52 56 36 48 53 33 45 51 31 43 45 32 42 27 24 31 22 25 30 21 22 27 16 19 24 15 16 21 9 12 17 9 10 15 6 9 14 3 4 9 2 5 10 6 7 12 7 10 15 11 12 17 12 15 20 16 17 22 17 18 23 16 15 20 18 17 22 20 19 24 23 22 27 27 26 31 30 29 34 32 31 36 34 33 38 40 39 44 42 41 46 47 46 51 54 53 58 60 59 64 67 66 71 72 71 76 74 74 76 77 75 78 75 73 74 70 68 69 63 61 62 57 55 56 50 48 49 45 43 44 43 41 42 36 34 35 36 34 35 36 34 35 36 34 35 36 34 35 36 34 35 36 34 35 36 34 35 35 33 34 35 33 34 35 33 34 35 33 34 35 33 34 35 33 34 35 33 34 35 33 34 38 36 37 38 36 37 38 36 37 38 36 37 38 36 37 38 36 37 38 36 37 38 36 37
83 74 79 96 87 92 106 97 102 112 103 108 134 125 130 134 125 130 133 124 129 133 124 129 132 123 128 131 122 127 131 122 127 132 121 127 144 124 135 145 123 135 145 123 135 145 123 135 145 123 135 145 123 135 145 123 135 145 123 135 135 113 125 134 112 124 132 110 122 128 106 118 125 103 115 122 100 112 119 97 109 118 96 108 127 105 117 129 107 119 131 109 121 134 112 124 138 116 128 141 119 131 143 121 133 145 123 135 147 125 137 147 125 137 147 125 137 147 125 137 147 125 137 147 125 137 147 125 137 147 125 137 136 115 124 134 113 122 132 111 120 129 108 117 125 104 113 122 101 110 120 99 108 118 97 106 104 83 92 104 83 92 104 83 92 104 83 92 104 83 92 104 83 92 104 83 92 104 83 92 82 62 73 82 62 73 82 62 73 82 62 73 82 62 73 82 62 73 82 62 73 82 62 73 95 75 86 95 75 86 95 75 86 95 75 86 95 75 86 95 75 86 95 75 86 95 75 86 100 80 92 100 80 92 100 80 92 100 80 92 100 80 92 100 80 92 100 80 92 100 80 92 91 71 83 91 71 83 91 71 83 91 71 83 91 71 83 91 71 83 91 71 83 91 71 83 73 53 65 73 53 65 73 53 65 73 53 65 73 53 65 73 53 65 73 53 65 73 53 65 62 42 54 61 41 53 58 38 50 55 35 47 52 32 44 48 28 40 46 26 38 40 27 37 19 18 24 13 18 22 12 15 20 8 13 17 5 8 13 1 6 10 0 3 8 0 2 6 0 0 5 0 1 5 0 3 8 3 8 12 8 11 16 10 15 19 14 17 22 16 19 24 15 16 20 18 17 22 20 19 24 23 22 27 27 26 31 30 29 34 32 31 36 34 33 38 40 39 44 42 41 46 47 46 51 54 53 58 60 59 64 67 66 71 72 71 76 74 74 76 77 75 78 75 73 74 70 68 69 63 61 62 57 55 56 50 48 49 45 43 44 43 41 42 36 34 35 36 34 35 36 34 35 36 34 35 36 34 35 36 34 35 36 34 35 36 34 35 35 33 34 35 33 34 35 33 34 35 33 34 35 33 34 35 33 34 35 33 34 35 33 34 38 36 37 38 36 37 38 36 37 38 36 37 38 36 37 38 36 37 38 36 37 38 36 37
88 75 82 101 90 96 113 100 107 117 106 112 139 126 133 137 126 132 138 125 132 135 124 130 135 122 129 133 122 128 133 120 127 134 119 126 144 124 135 145 123 135 145 123 135 145 123 135 145 123 135 145 123 135 145 123 135 145 123 135 134 112 124 133 111 123 130 108 120 127 105 117 124 102 114 120 98 110 118 96 108 117 95 107 127 105 117 129 107 119 131 109 121 134 112 124 138 116 128 141 119 131 143 121 133 145 123 135 147 125 137 147 125 137 147 125 137 147 125 137 147 125 137 147 125 137 147 125 137 147 125 137 136 115 124 134 113 122 132 111 120 129 108 117 125 104 113 122 101 110 120 99 108 118 97 106 104 83 92 104 83 92 104 83 92 104 83 92 104 83 92 104 83 92 104 83 92 103 83 92 80 60 71 78 61 71 78 61 71 78 61 71 78 61 71 78 61 71 78 61 71 78 61 71 93 76 86 93 76 86 93 76 86 93 76 86 93 76 86 93 76 86 93 76 86 93 76 86 98 80 92 98 80 92 98 80 92 98 80 92 98 80 92 98 80 92 98 80 92 98 80 92 89 71 83 89 71 83 89 71 83 89 71 83 89 71 83 89 71 83 89 71 83 88 72 83 68 52 63 66 53 63 68 52 63 66 53 63 68 52 63 66 53 63 68 52 63 66 53 63 56 40 51 53 40 50 53 37 48 47 34 44 46 30 41 41 28 38 40 24 35 35 25 34 14 15 20 9 14 17 7 12 16 4 9 12 0 5 9 0 2 5 0 1 5 0 1 4 0 1 5 0 1 4 0 2 6 1 6 9 6 11 15 10 15 18 14 19 23 16 20 23 15 16 20 17 18 22 20 19 24 22 23 27 27 26 31 29 30 34 32 31 36 33 34 38 40 39 44 41 42 46 47 46 51 53 54 58 60 59 64 66 67 71 72 71 76 74 74 76 77 75 76 75 74 72 70 68 69 63 62 60 57 55 56 50 49 47 45 43 44 43 42 40 36 34 35 36 35 33 36 34 35 36 35 33 36 34 35 36 35 33 36 34 35 36 35 33 37 33 34 37 33 32 37 33 34 37 33 32 37 33 34 37 33 32 37 33 34 37 33 32 40 36 37 40 36 35 40 36 37 40 36 35 40 36 37 40 36 35 40 36 37 40 36 35
106 87 93 121 104 110 136 117 123 141 124 130 143 124 130 141 124 130 143 124 130 141 124 130 143 124 130 141 124 130 143 124 130 143 123 132 146 126 137 145 125 136 143 123 134 139 119 130 136 116 127 133 113 124 130 110 121 129 109 120 121 101 112 121 101 112 120 100 111 119 99 110 117 97 108 116 96 107 115 95 106 115 95 106 147 127 138 147 127 138 147 127 138 147 127 138 147 127 138 147 127 138 147 127 138 147 127 138 148 128 139 148 128 139 148 128 139 148 128 139 148 128 139 148 128 139 148 128 139 148 128 139 136 115 124 134 113 122 132 111 120 129 108 117 125 104 113 122 101 110 120 99 108 118 97 106 101 80 89 99 78 87 97 76 85 94 73 82 90 69 78 87 66 75 85 64 73 82 62 71 79 63 73 77 64 74 77 64 74 77 64 74 77 64 74 77 64 74 77 64 74 77 64 74 83 70 80 83 70 80 83 70 80 83 70 80 83 70 80 83 70 80 83 70 80 83 70 80 84 72 82 84 72 82 84 72 82 84 72 82 84 72 82 84 72 82 84 72 82 84 72 82 80 68 78 79 67 77 76 64 74 73 61 71 70 58 68 66 54 64 64 52 62 62 52 61 53 47 57 51 48 57 53 47 57 51 48 57 53 47 57 51 48 57 53 47 57 51 48 57 31 25 35 27 24 33 27 21 31 22 19 28 20 14 24 15 12 21 15 9 19 10 9 15 0 3 6 0 4 4 0 3 6 0 4 4 0 3 6 0 4 4 0 3 6 0 4 4 6 11 14 6 12 12 6 11 14 6 12 12 6 11 14 6 12 12 6 11 14 6 12 12 17 21 22 19 23 24 23 24 26 24 28 29 30 31 33 31 35 36 35 36 38 35 39 40 50 51 53 48 52 53 50 51 53 48 52 53 50 51 53 48 52 53 50 51 53 50 51 53 59 59 57 58 57 53 56 55 53 53 52 48 49 48 46 46 45 41 44 43 41 42 41 37 34 33 31 34 33 29 34 33 31 34 33 29 34 33 31 34 33 29 34 33 31 36 32 29 38 32 32 38 33 30 38 32 32 38 33 30 38 32 32 38 33 30 38 32 32 38 33 30 39 33 33 39 34 31 39 33 33 39 34 31 39 33 33 39 34 31 39 33 33 39 33 33
108 87 94 124 103 110 137 116 123 144 123 130 142 121 128 142 121 128 142 121 128 142 121 128 142 121 128 142 121 128 142 121 128 142 121 128 145 125 136 144 124 135 141 121 132 138 118 129 135 115 126 131 111 122 129 109 120 128 108 119 120 100 111 119 99 110 119 99 110 118 98 109 118 98 109 117 97 108 117 97 108 116 96 107 147 127 138 147 127 138 147 127 138 147 127 138 147 127 138 147 127 138 147 127 138 147 127 138 148 128 139 148 128 139 148 128 139 148 128 139 148 128 139 148 128 139 148 128 139 148 128 139 136 115 124 134 113 122 132 111 120 129 108 117 125 104 113 122 101 110 120 99 108 118 97 106 101 80 89 99 78 87 97 76 85 94 73 82 90 69 78 87 66 75 85 64 73 82 62 71 77 64 74 76 64 74 76 64 74 76 64 74 76 64 74 76 64 74 76 64 74 76 64 74 82 70 80 82 70 80 82 70 80 82 70 80 82 70 80 82 70 80 82 70 80 82 70 80 81 71 80 81 71 80 81 71 80 81 71 80 81 71 80 81 71 80 81 71 80 81 71 80 76 66 75 75 65 74 73 63 72 69 59 68 66 56 65 63 53 62 60 50 59 57 50 58 43 42 50 42 42 50 42 42 50 42 42 50 42 42 50 42 42 50 42 42 50 42 42 50 27 27 35 25 25 33 23 23 31 20 20 28 16 16 24 13 13 21 11 11 19 7 10 15 0 3 6 0 4 4 0 4 4 0 4 4 0 4 4 0 4 4 0 4 4 0 4 4 6 12 12 6 12 12 6 12 12 6 12 12 6 12 12 6 12 12 6 12 12 6 12 12 17 21 22 19 23 24 21 25 26 24 28 29 28 32 33 31 35 36 33 37 38 35 39 40 48 52 53 48 52 53 48 52 53 48 52 53 48 52 53 48 52 53 48 52 53 50 52 51 59 59 57 58 57 53 56 55 51 53 52 48 49 48 44 46 45 41 44 43 39 42 41 37 34 33 29 34 33 29 34 33 29 34 33 29 34 33 29 34 33 29 34 33 29 36 32 29 38 33 30 40 32 30 40 32 30 40 32 30 40 32 30 40 32 30 40 32 30 40 32 30 41 33 31 41 33 31 41 33 31 41 33 31 41 33 31 41 33 31 41 33 31 41 33 31
109 88 95 125 104 111 136 115 122 143 122 129 140 119 126 140 119 126 140 119 126 140 119 126 140 119 126 140 119 126 140 119 126 140 119 126 143 123 134 141 121 132 139 119 130 136 116 127 132 112 123 129 109 120 127 107 118 125 105 116 116 96 107 116 96 107 117 97 108 118 98 109 118 98 109 119 99 110 120 100 111 120 100 111 147 127 138 147 127 138 147 127 138 147 127 138 147 127 138 147 127 138 147 127 138 147 127 138 148 128 139 148 128 139 148 128 139 148 128 139 148 128 139 148 128 139 148 128 139 148 128 139 136 115 124 134 113 122 132 111 120 129 108 117 125 104 113 122 101 110 120 99 108 118 97 106 101 80 89 99 78 87 97 76 85 94 73 82 90 69 78 87 66 75 85 64 73 82 62 71 77 64 74 76 64 74 76 64 74 76 64 74 76 64 74 76 64 74 76 64 74 76 64 74 82 70 80 82 70 80 82 70 80 82 70 80 82 70 80 82 70 80 82 70 80 82 70 80 79 69 78 79 69 78 79 69 78 79 69 78 79 69 78 79 69 78 79 69 78 79 69 78 71 61 70 70 60 69 68 58 67 65 55 64 61 51 60 58 48 57 55 45 54 52 45 53 33 32 40 32 32 40 32 32 40 32 32 40 32 32 40 32 32 40 32 32 40 32 32 40 27 27 35 25 25 33 23 23 31 20 20 28 16 16 24 13 13 21 11 11 19 7 10 15 0 3 6 0 4 4 0 4 4 0 4 4 0 4 4 0 4 4 0 4 4 0 4 4 6 12 12 6 12 12 6 12 12 6 12 12 6 12 12 6 12 12 6 12 12 6 12 12 17 21 22 19 23 24 21 25 26 24 28 29 28 32 33 31 35 36 33 37 38 35 39 40 48 52 53 48 52 53 48 52 53 48 52 53 48 52 53 48 52 53 48 52 53 50 52 51 59 59 57 58 57 53 56 55 51 53 52 48 49 48 44 46 45 41 44 43 39 42 41 37 34 33 29 34 33 29 34 33 29 34 33 29 34 33 29 34 33 29 34 33 29 36 32 29 38 33 30 40 32 30 40 32 30 40 32 30 40 32 30 40 32 30 40 32 30 40 32 30 41 33 31 41 33 31 41 33 31 41 33 31 41 33 31 41 33 31 41 33 31 41 33 31
112 91 98 125 104 111 136 115 122 141 120 127 137 116 123 137 116 123 137 116 123 137 116 123 137 116 123 137 116 123 137 116 123 137 116 123 139 119 130 138 118 129 136 116 127 132 112 123 129 109 120 126 106 117 123 103 114 122 102 113 112 92 103 113 93 104 114 94 105 117 97 108 119 99 110 122 102 113 123 103 114 124 104 115 147 127 138 147 127 138 147 127 138 147 127 138 147 127 138 147 127 138 147 127 138 147 127 138 148 128 139 148 128 139 148 128 139 148 128 139 148 128 139 148 128 139 148 128 139 148 128 139 136 115 124 134 113 122 132 111 120 129 108 117 125 104 113 122 101 110 120 99 108 118 97 106 101 80 89 99 78 87 97 76 85 94 73 82 90 69 78 87 66 75 85 64 73 82 62 71 77 64 74 76 64 74 76 64 74 76 64 74 76 64 74 76 64 74 76 64 74 76 64 74 82 70 80 82 70 80 82 70 80 82 70 80 82 70 80 82 70 80 82 70 80 82 70 80 76 66 75 76 66 75 76 66 75 76 66 75 76 66 75 76 66 75 76 66 75 76 66 75 65 55 64 64 54 63 61 51 60 58 48 57 55 45 54 52 42 51 49 39 48 46 39 47 24 23 31 23 23 31 23 23 31 23 23 31 23 23 31 23 23 31 23 23 31 23 23 31 27 27 35 25 25 33 23 23 31 20 20 28 16 16 24 13 13 21 11 11 19 7 10 15 0 3 6 0 4 4 0 4 4 0 4 4 0 4 4 0 4 4 0 4 4 0 4 4 6 12 12 6 12 12 6 12 12 6 12 12 6 12 12 6 12 12 6 12 12 6 12 12 17 21 22 19 23 24 21 25 26 24 28 29 28 32 33 31 35 36 33 37 38 35 39 40 48 52 53 48 52 53 48 52 53 48 52 53 48 52 53 48 52 53 48 52 53 50 52 51 59 59 57 58 57 53 56 55 51 53 52 48 49 48 44 46 45 41 44 43 39 42 41 37 34 33 29 34 33 29 34 33 29 34 33 29 34 33 29 34 33 29 34 33 29 36 32 29 38 33 30 40 32 30 40 32 30 40 32 30 40 32 30 40 32 30 40 32 30 40 32 30 41 33 31 41 33 31 41 33 31 41 33 31 41 33 31 41 33 31 41 33 31 41 33 31
114 93 100 126 105 112 135 114 121 140 119 126 133 112 119 133 112 119 133 112 119 133 112 119 133 112 119 133 112 119 133 112 119 133 112 119 136 116 127 135 115 126 132 112 123 129 109 120 126 106 117 122 102 113 120 100 111 119 99 110 107 87 98 109 89 100 112 92 103 116 96 107 120 100 111 124 104 115 127 107 118 129 109 120 147 127 138 147 127 138 147 127 138 147 127 138 147 127 138 147 127 138 147 127 138 147 127 138 148 128 139 148 128 139 148 128 139 148 128 139 148 128 139 148 128 139 148 128 139 148 128 139 136 115 124 134 113 122 132 111 120 129 108 117 125 104 113 122 101 110 120 99 108 118 97 106 101 80 89 99 78 87 97 76 85 94 73 82 90 69 78 87 66 75 85 64 73 82 62 71 77 64 74 76 64 74 76 64 74 76 64 74 76 64 74 76 64 74 76 64 74 76 64 74 82 70 80 82 70 80 82 70 80 82 70 80 82 70 80 82 70 80 82 70 80 82 70 80 72 62 71 72 62 71 72 62 71 72 62 71 72 62 71 72 62 71 72 62 71 72 62 71 58 48 57 57 47 56 54 44 53 51 41 50 48 38 47 45 35 44 42 32 41 39 32 40 21 20 28 20 20 28 20 20 28 20 20 28 20 20 28 20 20 28 20 20 28 20 20 28 27 27 35 25 25 33 23 23 31 20 20 28 16 16 24 13 13 21 11 11 19 7 10 15 0 3 6 0 4 4 0 4 4 0 4 4 0 4 4 0 4 4 0 4 4 0 4 4 6 12 12 6 12 12 6 12 12 6 12 12 6 12 12 6 12 12 6 12 12 6 12 12 17 21 22 19 23 24 21 25 26 24 28 29 28 32 33 31 35 36 33 37 38 35 39 40 48 52 53 48 52 53 48 52 53 48 52 53 48 52 53 48 52 53 48 52 53 50 52 51 59 59 57 58 57 53 56 55 51 53 52 48 49 48 44 46 45 41 44 43 39 42 41 37 34 33 29 34 33 29 34 33 29 34 33 29 34 33 29 34 33 29 34 33 29 36 32 29 38 33 30 40 32 30 40 32 30 40 32 30 40 32 30 40 32 30 40 32 30 40 32 30 41 33 31 41 33 31 41 33 31 41 33 31 41 33 31 41 33 31 41 33 31 41 33 31
116 95 102 127 106 113 135 114 121 139 118 125 130 109 116 130 109 116 130 109 116 130 109 116 130 109 116 130 109 116 130 109 116 130 109 116 133 113 124 131 111 122 129 109 120 126 106 117 122 102 113 119 99 110 117 97 108 115 95 106 103 83 94 105 85 96 109 89 100 115 95 106 121 101 112 127 107 118 131 111 122 133 113 124 147 127 138 147 127 138 147 127 138 147 127 138 147 127 138 147 127 138 147 127 138 147 127 138 148 128 139 148 128 139 148 128 139 148 128 139 148 128 139 148 128 139 148 128 139 148 128 139 136 115 124 134 113 122 132 111 120 129 108 117 125 104 113 122 101 110 120 99 108 118 97 106 101 80 89 99 78 87 97 76 85 94 73 82 90 69 78 87 66 75 85 64 73 82 62 71 77 64 74 76 64 74 76 64 74 76 64 74 76 64 74 76 64 74 76 64 74 76 64 74 82 70 80 82 70 80 82 70 80 82 70 80 82 70 80 82 70 80 82 70 80 82 70 80 69 59 68 69 59 68 69 59 68 69 59 68 69 59 68 69 59 68 69 59 68 69 59 68 52 42 51 51 41 50 48 38 47 45 35 44 41 31 40 38 28 37 36 26 35 33 26 34 23 22 30 22 22 30 22 22 30 22 22 30 22 22 30 22 22 30 22 22 30 22 22 30 27 27 35 25 25 33 23 23 31 20 20 28 16 16 24 13 13 21 11 11 19 7 10 15 0 3 6 0 4 4 0 4 4 0 4 4 0 4 4 0 4 4 0 4 4 0 4 4 6 12 12 6 12 12 6 12 12 6 12 12 6 12 12 6 12 12 6 12 12 6 12 12 17 21 22 19 23 24 21 25 26 24 28 29 28 32 33 31 35 36 33 37 38 35 39 40 48 52 53 48 52 53 48 52 53 48 52 53 48 52 53 48 52 53 48 52 53 50 52 51 59 59 57 58 57 53 56 55 51 53 52 48 49 48 44 46 45 41 44 43 39 42 41 37 34 33 29 34 33 29 34 33 29 34 33 29 34 33 29 34 33 29 34 33 29 36 32 29 38 33 30 40 32 30 40 32 30 40 32 30 40 32 30 40 32 30 40 32 30 40 32 30 41 33 31 41 33 31 41 33 31 41 33 31 41 33 31 41 33 31 41 33 31 41 33 31
118 97 104 127 106 113 134 113 120 138 117 124 128 107 114 128 107 114 128 107 114 128 107 114 128 107 114 128 107 114 128 107 114 128 107 114 130 110 121 129 109 120 127 107 118 123 103 114 120 100 111 117 97 108 114 94 105 113 93 104 99 79 90 102 82 93 107 87 98 114 94 105 122 102 113 129 109 120 134 114 125 137 117 128 147 127 138 147 127 138 147 127 138 147 127 138 147 127 138 147 127 138 147 127 138 147 127 138 148 128 139 148 128 139 148 128 139 148 128 139 148 128 139 148 128 139 148 128 139 148 128 139 136 115 124 134 113 122 132 111 120 129 108 117 125 104 113 122 101 110 120 99 108 118 97 106 101 80 89 99 78 87 97 76 85 94 73 82 90 69 78 87 66 75 85 64 73 82 62 71 77 64 74 76 64 74 76 64 74 76 64 74 76 64 74 76 64 74 76 64 74 76 64 74 82 70 80 82 70 80 82 70 80 82 70 80 82 70 80 82 70 80 82 70 80 82 70 80 67 57 66 67 57 66 67 57 66 67 57 66 67 57 66 67 57 66 67 57 66 67 57 66 47 37 46 46 36 45 43 33 42 40 30 39 37 27 36 33 23 32 31 21 30 28 21 29 29 28 36 28 28 36 28 28 36 28 28 36 28 28 36 28 28 36 28 28 36 28 28 36 27 27 35 25 25 33 23 23 31 20 20 28 16 16 24 13 13 21 11 11 19 7 10 15 0 3 6 0 4 4 0 4 4 0 4 4 0 4 4 0 4 4 0 4 4 0 4 4 6 12 12 6 12 12 6 12 12 6 12 12 6 12 12 6 12 12 6 12 12 6 12 12 17 21 22 19 23 24 21 25 26 24 28 29 28 32 33 31 35 36 33 37 38 35 39 40 48 52 53 48 52 53 48 52 53 48 52 53 48 52 53 48 52 53 48 52 53 50 52 51 59 59 57 58 57 53 56 55 51 53 52 48 49 48 44 46 45 41 44 43 39 42 41 37 34 33 29 34 33 29 34 33 29 34 33 29 34 33 29 34 33 29 34 33 29 36 32 29 38 33 30 40 32 30 40 32 30 40 32 30 40 32 30 40 32 30 40 32 30 40 32 30 41 33 31 41 33 31 41 33 31 41 33 31 41 33 31 41 33 31 41 33 31 41 33 31
119 98 105 127 106 113 134 113 120 137 116 123 126 105 112 126 105 112 126 105 112 126 105 112 126 105 112 126 105 112 126 105 112 126 105 112 129 109 120 128 108 119 125 105 116 122 102 113 119 99 110 115 95 106 113 93 104 112 92 103 97 77 88 100 80 91 106 86 97 114 94 105 122 102 113 130 110 121 136 116 127 139 119 130 147 127 138 147 127 138 147 127 138 147 127 138 147 127 138 147 127 138 147 127 138 147 127 138 148 128 139 148 128 139 148 128 139 148 128 139 148 128 139 148 128 139 148 128 139 148 128 139 136 115 124 134 113 122 132 111 120 129 108 117 125 104 113 122 101 110 120 99 108 118 97 106 101 80 89 99 78 87 97 76 85 94 73 82 90 69 78 87 66 75 85 64 73 82 62 71 77 64 74 76 64 74 76 64 74 76 64 74 76 64 74 76 64 74 76 64 74 76 64 74 82 70 80 82 70 80 82 70 80 82 70 80 82 70 80 82 70 80 82 70 80 82 70 80 65 55 64 65 55 64 65 55 64 65 55 64 65 55 64 65 55 64 65 55 64 65 55 64 44 34 43 43 33 42 41 31 40 37 27 36 34 24 33 31 21 30 28 18 27 25 18 26 33 32 40 32 32 40 32 32 40 32 32 40 32 32 40 32 32 40 32 32 40 32 32 40 27 27 35 25 25 33 23 23 31 20 20 28 16 16 24 13 13 21 11 11 19 7 10 15 0 3 6 0 4 4 0 4 4 0 4 4 0 4 4 0 4 4 0 4 4 0 4 4 6 12 12 6 12 12 6 12 12 6 12 12 6 12 12 6 12 12 6 12 12 6 12 12 17 21 22 19 23 24 21 25 26 24 28 29 28 32 33 31 35 36 33 37 38 35 39 40 48 52 53 48 52 53 48 52 53 48 52 53 48 52 53 48 52 53 48 52 53 50 52 51 59 59 57 58 57 53 56 55 51 53 52 48 49 48 44 46 45 41 44 43 39 42 41 37 34 33 29 34 33 29 34 33 29 34 33 29 34 33 29 34 33 29 34 33 29 36 32 29 38 33 30 40 32 30 40 32 30 40 32 30 40 32 30 40 32 30 40 32 30 40 32 30 41 33 31 41 33 31 41 33 31 41 33 31 41 33 31 41 33 31 41 33 31 41 33 31
126 105 112 128 107 114 126 105 112 123 102 109 127 106 113 126 105 112 124 103 110 120 99 106 117 96 103 114 93 100 111 90 97 110 89 96 121 101 112 114 94 105 102 82 93 92 72 83 87 67 78 89 69 80 93 73 84 97 77 88 104 84 95 107 87 98 112 92 103 118 98 109 125 105 116 131 111 122 136 116 127 139 119 130 153 133 144 153 133 144 153 133 144 153 133 144 153 133 144 153 133 144 153 133 144 153 133 144 153 133 144 151 131 142 149 129 140 146 126 137 142 122 133 139 119 130 137 117 128 135 115 126 129 108 117 127 106 115 125 104 113 122 101 110 118 97 106 115 94 103 113 92 101 111 90 99 95 74 83 94 73 82 92 71 80 88 67 76 85 64 73 82 61 70 79 58 67 77 57 66 65 52 62 66 54 64 70 58 68 74 62 72 79 67 77 83 71 81 87 75 85 88 76 86 78 66 76 76 64 74 74 62 72 71 59 69 67 55 65 64 52 62 62 50 60 60 48 58 34 24 33 34 24 33 34 24 33 34 24 33 34 24 33 34 24 33 34 24 33 34 24 33 12 2 11 13 3 12 15 5 14 19 9 18 22 12 21 25 15 24 28 18 27 27 20 28 39 38 46 38 38 46 38 38 46 38 38 46 38 38 46 38 38 46 38 38 46 38 38 46 38 38 46 36 36 44 31 31 39 24 24 32 18 18 26 11 11 19 6 6 14 2 5 10 3 7 10 2 8 8 2 8 8 2 8 8 2 8 8 2 8 8 2 8 8 2 8 8 1 7 7 3 9 9 5 11 11 8 14 14 12 18 18 15 21 21 17 23 23 19 25 25 18 22 23 20 24 25 22 26 27 25 29 30 29 33 34 32 36 37 34 38 39 36 40 41 37 41 42 37 41 42 37 41 42 37 41 42 37 41 42 37 41 42 37 41 42 39 41 40 39 39 37 40 39 35 40 39 35 40 39 35 40 39 35 40 39 35 40 39 35 40 39 35 34 33 29 34 33 29 34 33 29 34 33 29 34 33 29 34 33 29 34 33 29 36 32 29 37 32 29 39 31 29 39 31 29 39 31 29 39 31 29 39 31 29 39 31 29 39 31 29 40 32 30 40 32 30 40 32 30 40 32 30 40 32 30 40 32 30 40 32 30 40 32 30
125 104 111 127 106 113 124 103 110 121 100 107 126 105 112 125 104 111 122 101 108 119 98 105 116 95 102 112 91 98 110 89 96 109 88 95 117 97 108 109 89 100 98 78 89 89 69 80 85 65 76 87 67 78 92 72 83 96 76 87 105 85 96 108 88 99 113 93 104 119 99 110 126 106 117 132 112 123 137 117 128 140 120 131 153 133 144 153 133 144 153 133 144 153 133 144 153 133 144 153 133 144 153 133 144 153 133 144 153 133 144 151 131 142 149 129 140 146 126 137 142 122 133 139 119 130 137 117 128 135 115 126 129 108 117 127 106 115 125 104 113 122 101 110 118 97 106 115 94 103 113 92 101 111 90 99 94 73 82 93 72 81 90 69 78 87 66 75 84 63 72 80 59 68 78 57 66 76 56 65 65 52 62 65 53 63 68 56 66 72 60 70 76 64 74 79 67 77 82 70 80 84 72 82 74 62 72 72 60 70 70 58 68 67 55 65 63 51 61 60 48 58 58 46 56 56 44 54 32 22 31 32 22 31 32 22 31 32 22 31 32 22 31 32 22 31 32 22 31 32 22 31 13 3 12 14 4 13 17 7 16 20 10 19 23 13 22 27 17 26 29 19 28 28 21 29 39 38 46 38 38 46 38 38 46 38 38 46 38 38 46 38 38 46 38 38 46 38 38 46 38 38 46 36 36 44 31 31 39 24 24 32 18 18 26 11 11 19 6 6 14 2 5 10 3 7 10 2 8 8 2 8 8 2 8 8 2 8 8 2 8 8 2 8 8 2 8 8 1 7 7 3 9 9 5 11 11 8 14 14 12 18 18 15 21 21 17 23 23 19 25 25 18 22 23 20 24 25 22 26 27 25 29 30 29 33 34 32 36 37 34 38 39 36 40 41 37 41 42 37 41 42 37 41 42 37 41 42 37 41 42 37 41 42 37 41 42 39 41 40 39 39 37 40 39 35 40 39 35 40 39 35 40 39 35 40 39 35 40 39 35 40 39 35 34 33 29 34 33 29 34 33 29 34 33 29 34 33 29 34 33 29 34 33 29 36 32 29 37 32 29 39 31 29 39 31 29 39 31 29 39 31 29 39 31 29 39 31 29 39 31 29 40 32 30 40 32 30 40 32 30 40 32 30 40 32 30 40 32 30 40 32 30 40 32 30
125 104 111 125 104 111 121 100 107 118 97 104 124 103 110 122 101 108 120 99 106 117 96 103 113 92 99 110 89 96 108 87 94 106 85 92 108 88 99 102 82 93 92 72 83 84 64 75 81 61 72 84 64 75 90 70 81 95 75 86 108 88 99 110 90 101 115 95 106 122 102 113 129 109 120 135 115 126 140 120 131 142 122 133 153 133 144 153 133 144 153 133 144 153 133 144 153 133 144 153 133 144 153 133 144 153 133 144 153 133 144 151 131 142 149 129 140 146 126 137 142 122 133 139 119 130 137 117 128 135 115 126 129 108 117 127 106 115 125 104 113 122 101 110 118 97 106 115 94 103 113 92 101 111 90 99 92 71 80 90 69 78 88 67 76 85 64 73 81 60 69 78 57 66 76 55 64 73 53 62 63 50 60 63 51 61 65 53 63 67 55 65 70 58 68 73 61 71 75 63 73 76 64 74 66 54 64 65 53 63 63 51 61 59 47 57 56 44 54 53 41 51 50 38 48 49 37 47 30 20 29 30 20 29 30 20 29 30 20 29 30 20 29 30 20 29 30 20 29 30 20 29 15 5 14 17 7 16 19 9 18 22 12 21 26 16 25 29 19 28 31 21 30 31 24 32 39 38 46 38 38 46 38 38 46 38 38 46 38 38 46 38 38 46 38 38 46 38 38 46 38 38 46 36 36 44 31 31 39 24 24 32 18 18 26 11 11 19 6 6 14 2 5 10 3 7 10 2 8 8 2 8 8 2 8 8 2 8 8 2 8 8 2 8 8 2 8 8 1 7 7 3 9 9 5 11 11 8 14 14 12 18 18 15 21 21 17 23 23 19 25 25 18 22 23 20 24 25 22 26 27 25 29 30 29 33 34 32 36 37 34 38 39 36 40 41 37 41 42 37 41 42 37 41 42 37 41 42 37 41 42 37 41 42 37 41 42 39 41 40 39 39 37 40 39 35 40 39 35 40 39 35 40 39 35 40 39 35 40 39 35 40 39 35 34 33 29 34 33 29 34 33 29 34 33 29 34 33 29 34 33 29 34 33 29 36 32 29 37 32 29 39 31 29 39 31 29 39 31 29 39 31 29 39 31 29 39 31 29 39 31 29 40 32 30 40 32 30 40 32 30 40 32 30 40 32 30 40 32 30 40 32 30 40 32 30
124 103 110 122 101 108 117 96 103 113 92 99 120 99 106 119 98 105 117 96 103 113 92 99 110 89 96 107 86 93 104 83 90 103 82 89 97 77 88 91 71 82 83 63 74 76 56 67 75 55 66 80 60 71 87 67 78 93 73 84 111 91 102 114 94 105 118 98 109 125 105 116 132 112 123 138 118 129 143 123 134 146 126 137 153 133 144 153 133 144 153 133 144 153 133 144 153 133 144 153 133 144 153 133 144 153 133 144 153 133 144 151 131 142 149 129 140 146 126 137 142 122 133 139 119 130 137 117 128 135 115 126 129 108 117 127 106 115 125 104 113 122 101 110 118 97 106 115 94 103 113 92 101 111 90 99 88 67 76 87 66 75 85 64 73 81 60 69 78 57 66 75 54 63 72 51 60 70 50 59 61 48 58 60 48 58 61 49 59 62 50 60 63 51 61 64 52 62 64 52 62 65 53 63 57 45 55 56 44 54 53 41 51 50 38 48 46 34 44 43 31 41 41 29 39 40 28 38 27 17 26 27 17 26 27 17 26 27 17 26 27 17 26 27 17 26 27 17 26 27 17 26 19 9 18 20 10 19 22 12 21 26 16 25 29 19 28 32 22 31 35 25 34 34 27 35 39 38 46 38 38 46 38 38 46 38 38 46 38 38 46 38 38 46 38 38 46 38 38 46 38 38 46 36 36 44 31 31 39 24 24 32 18 18 26 11 11 19 6 6 14 2 5 10 3 7 10 2 8 8 2 8 8 2 8 8 2 8 8 2 8 8 2 8 8 2 8 8 1 7 7 3 9 9 5 11 11 8 14 14 12 18 18 15 21 21 17 23 23 19 25 25 18 22 23 20 24 25 22 26 27 25 29 30 29 33 34 32 36 37 34 38 39 36 40 41 37 41 42 37 41 42 37 41 42 37 41 42 37 41 42 37 41 42 37 41 42 39 41 40 39 39 37 40 39 35 40 39 35 40 39 35 40 39 35 40 39 35 40 39 35 40 39 35 34 33 29 34 33 29 34 33 29 34 33 29 34 33 29 34 33 29 34 33 29 36 32 29 37 32 29 39 31 29 39 31 29 39 31 29 39 31 29 39 31 29 39 31 29 39 31 29 40 32 30 40 32 30 40 32 30 40 32 30 40 32 30 40 32 30 40 32 30 40 32 30
123 102 109 120 99 106 113 92 99 109 88 95 117 96 103 116 95 102 113 92 99 110 89 96 107 86 93 103 82 89 101 80 87 100 79 86 86 66 77 81 61 72 73 53 64 68 48 59 69 49 60 76 56 67 85 65 76 91 71 82 114 94 105 117 97 108 122 102 113 128 108 119 135 115 126 142 122 133 146 126 137 149 129 140 153 133 144 153 133 144 153 133 144 153 133 144 153 133 144 153 133 144 153 133 144 153 133 144 153 133 144 151 131 142 149 129 140 146 126 137 142 122 133 139 119 130 137 117 128 135 115 126 129 108 117 127 106 115 125 104 113 122 101 110 118 97 106 115 94 103 113 92 101 111 90 99 85 64 73 84 63 72 81 60 69 78 57 66 75 54 63 71 50 59 69 48 57 67 47 56 59 46 56 58 46 56 57 45 55 56 44 54 55 43 53 54 42 52 54 42 52 53 41 51 46 34 44 45 33 43 43 31 41 40 28 38 36 24 34 33 21 31 30 18 28 29 17 27 23 13 22 23 13 22 23 13 22 23 13 22 23 13 22 23 13 22 23 13 22 23 13 22 22 12 21 23 13 22 26 16 25 29 19 28 32 22 31 36 26 35 38 28 37 37 30 38 39 38 46 38 38 46 38 38 46 38 38 46 38 38 46 38 38 46 38 38 46 38 38 46 38 38 46 36 36 44 31 31 39 24 24 32 18 18 26 11 11 19 6 6 14 2 5 10 3 7 10 2 8 8 2 8 8 2 8 8 2 8 8 2 8 8 2 8 8 2 8 8 1 7 7 3 9 9 5 11 11 8 14 14 12 18 18 15 21 21 17 23 23 19 25 25 18 22 23 20 24 25 22 26 27 25 29 30 29 33 34 32 36 37 34 38 39 36 40 41 37 41 42 37 41 42 37 41 42 37 41 42 37 41 42 37 41 42 37 41 42 39 41 40 39 39 37 40 39 35 40 39 35 40 39 35 40 39 35 40 39 35 40 39 35 40 39 35 34 33 29 34 33 29 34 33 29 34 33 29 34 33 29 34 33 29 34 33 29 36 32 29 37 32 29 39 31 29 39 31 29 39 31 29 39 31 29 39 31 29 39 31 29 39 31 29 40 32 30 40 32 30 40 32 30 40 32 30 40 32 30 40 32 30 40 32 30 40 32 30
122 101 108 117 96 103 110 89 96 104 83 90 114 93 100 112 91 98 110 89 96 107 86 93 103 82 89 100 79 86 98 77 84 96 75 82 75 55 66 70 50 61 64 44 55 61 41 52 64 44 55 72 52 63 82 62 73 89 69 80 118 98 109 120 100 111 125 105 116 131 111 122 138 118 129 145 125 136 150 130 141 152 132 143 153 133 144 153 133 144 153 133 144 153 133 144 153 133 144 153 133 144 153 133 144 153 133 144 153 133 144 151 131 142 149 129 140 146 126 137 142 122 133 139 119 130 137 117 128 135 115 126 129 108 117 127 106 115 125 104 113 122 101 110 118 97 106 115 94 103 113 92 101 111 90 99 82 61 70 80 59 68 78 57 66 75 54 63 71 50 59 68 47 56 66 45 54 63 43 52 57 44 54 55 43 53 53 41 51 51 39 49 48 36 46 45 33 43 43 31 41 42 30 40 37 25 35 36 24 34 33 21 31 30 18 28 27 15 25 23 11 21 21 9 19 20 8 18 20 10 19 20 10 19 20 10 19 20 10 19 20 10 19 20 10 19 20 10 19 20 10 19 25 15 24 27 17 26 29 19 28 32 22 31 36 26 35 39 29 38 41 31 40 41 34 42 39 38 46 38 38 46 38 38 46 38 38 46 38 38 46 38 38 46 38 38 46 38 38 46 38 38 46 36 36 44 31 31 39 24 24 32 18 18 26 11 11 19 6 6 14 2 5 10 3 7 10 2 8 8 2 8 8 2 8 8 2 8 8 2 8 8 2 8 8 2 8 8 1 7 7 3 9 9 5 11 11 8 14 14 12 18 18 15 21 21 17 23 23 19 25 25 18 22 23 20 24 25 22 26 27 25 29 30 29 33 34 32 36 37 34 38 39 36 40 41 37 41 42 37 41 42 37 41 42 37 41 42 37 41 42 37 41 42 37 41 42 39 41 40 39 39 37 40 39 35 40 39 35 40 39 35 40 39 35 40 39 35 40 39 35 40 39 35 34 33 29 34 33 29 34 33 29 34 33 29 34 33 29 34 33 29 34 33 29 36 32 29 37 32 29 39 31 29 39 31 29 39 31 29 39 31 29 39 31 29 39 31 29 39 31 29 40 32 30 40 32 30 40 32 30 40 32 30 40 32 30 40 32 30 40 32 30 40 32 30
121 100 107 115 94 101 107 86 93 101 80 87 111 90 97 110 89 96 108 87 94 104 83 90 101 80 87 98 77 84 95 74 81 94 73 80 67 47 58 63 43 54 58 38 49 56 36 47 60 40 51 69 49 60 80 60 71 87 67 78 120 100 111 123 103 114 128 108 119 134 114 125 141 121 132 147 127 138 152 132 143 155 135 146 153 133 144 153 133 144 153 133 144 153 133 144 153 133 144 153 133 144 153 133 144 153 133 144 153 133 144 151 131 142 149 129 140 146 126 137 142 122 133 139 119 130 137 117 128 135 115 126 129 108 117 127 106 115 125 104 113 122 101 110 118 97 106 115 94 103 113 92 101 111 90 99 79 58 67 78 57 66 76 55 64 72 51 60 69 48 57 66 45 54 63 42 51 61 41 50 55 42 52 53 41 51 50 38 48 46 34 44 42 30 40 39 27 37 36 24 34 34 22 32 30 18 28 28 16 26 26 14 24 23 11 21 19 7 17 16 4 14 14 2 12 12 0 10 18 8 17 18 8 17 18 8 17 18 8 17 18 8 17 18 8 17 18 8 17 18 8 17 28 18 27 29 19 28 31 21 30 35 25 34 38 28 37 41 31 40 44 34 43 43 36 44 39 38 46 38 38 46 38 38 46 38 38 46 38 38 46 38 38 46 38 38 46 38 38 46 38 38 46 36 36 44 31 31 39 24 24 32 18 18 26 11 11 19 6 6 14 2 5 10 3 7 10 2 8 8 2 8 8 2 8 8 2 8 8 2 8 8 2 8 8 2 8 8 1 7 7 3 9 9 5 11 11 8 14 14 12 18 18 15 21 21 17 23 23 19 25 25 18 22 23 20 24 25 22 26 27 25 29 30 29 33 34 32 36 37 34 38 39 36 40 41 37 41 42 37 41 42 37 41 42 37 41 42 37 41 42 37 41 42 37 41 42 39 41 40 39 39 37 40 39 35 40 39 35 40 39 35 40 39 35 40 39 35 40 39 35 40 39 35 34 33 29 34 33 29 34 33 29 34 33 29 34 33 29 34 33 29 34 33 29 36 32 29 37 32 29 39 31 29 39 31 29 39 31 29 39 31 29 39 31 29 39 31 29 39 31 29 40 32 30 40 32 30 40 32 30 40 32 30 40 32 30 40 32 30 40 32 30 40 32 30
121 100 107 114 93 100 105 84 91 99 78 85 110 89 96 109 88 95 106 85 92 103 82 89 100 79 86 96 75 82 94 73 80 93 72 81 62 42 53 58 38 49 54 34 45 53 33 44 57 37 48 67 47 58 79 59 70 86 66 77 121 101 112 124 104 115 129 109 120 135 115 126 142 122 133 148 128 139 153 133 144 156 136 147 153 133 144 153 133 144 153 133 144 153 133 144 153 133 144 153 133 144 153 133 144 153 133 144 153 133 144 151 131 142 149 129 140 146 126 137 142 122 133 139 119 130 137 117 128 135 115 126 126 109 117 124 107 115 122 105 113 119 102 110 115 98 106 112 95 103 110 93 101 108 91 99 75 58 66 74 57 65 71 54 62 68 51 59 65 48 56 61 44 52 59 42 50 57 41 51 54 42 52 49 42 50 45 38 46 41 34 42 36 29 37 32 25 33 28 21 29 27 20 28 23 16 24 21 14 22 19 12 20 16 9 17 12 5 13 9 2 10 7 0 8 5 0 6 13 8 15 13 8 15 13 7 17 13 8 15 13 7 17 13 8 15 13 7 17 13 8 15 26 20 30 27 22 29 30 24 34 33 28 35 36 30 40 40 35 42 42 36 46 41 38 47 38 38 46 36 39 46 36 39 46 36 39 46 36 39 46 36 39 46 36 39 46 36 39 46 36 39 46 34 37 44 29 32 39 22 25 32 16 19 26 9 12 19 4 7 14 2 5 10 2 7 10 2 8 8 2 8 8 2 8 8 2 8 8 2 8 8 2 8 8 2 8 8 1 7 7 3 9 9 5 11 11 8 14 14 12 18 18 15 21 21 17 23 23 19 25 25 18 22 23 20 24 25 22 26 27 25 29 30 29 33 34 32 36 37 34 38 39 36 40 41 37 41 42 37 41 42 37 41 42 37 41 42 37 41 42 37 41 42 37 41 42 39 41 40 39 39 37 40 39 35 40 39 35 40 39 35 40 39 35 40 39 35 40 39 35 40 39 35 34 33 29 34 33 29 34 33 29 34 33 29 34 33 29 34 33 29 34 33 29 36 32 29 39 31 29 39 31 29 39 31 29 39 31 29 39 31 29 39 31 29 39 31 29 39 31 29 40 32 30 40 32 30 40 32 30 40 32 30 40 32 30 40 32 30 40 32 30 40 32 30
108 87 94 108 87 94 108 87 94 108 87 94 112 91 98 110 89 96 106 85 92 102 81 88 97 76 83 93 72 79 89 68 75 88 67 76 58 38 49 58 40 52 63 45 57 70 52 64 76 58 70 83 65 77 88 70 82 90 72 84 117 99 111 120 102 114 126 108 120 134 116 128 142 124 136 150 132 144 156 138 150 159 141 153 147 130 140 147 130 140 147 130 140 147 130 140 147 130 140 147 130 140 147 130 140 147 130 140 146 129 139 144 127 137 142 125 135 139 122 132 135 118 128 132 115 125 130 113 123 127 111 121 124 111 118 121 110 116 117 106 112 112 101 107 107 96 102 101 90 96 97 86 92 95 84 90 57 46 52 56 45 51 53 42 48 50 39 45 47 36 42 43 32 38 41 30 36 37 30 37 7 4 11 6 5 13 6 5 13 6 5 13 6 5 13 6 5 13 6 5 13 6 5 13 6 5 13 6 5 13 6 5 13 6 5 13 6 5 13 6 5 13 6 5 13 5 5 13 3 6 13 4 7 14 6 9 18 10 13 20 13 16 25 16 19 26 19 22 31 20 23 30 30 33 42 31 34 41 33 36 45 37 40 47 40 43 52 43 46 53 46 49 58 47 50 57 48 53 59 48 53 57 48 53 57 48 53 57 48 53 57 48 53 57 48 53 57 48 53 57 37 42 46 35 40 44 30 35 39 23 28 32 17 22 26 10 15 19 5 10 14 3 8 12 2 10 12 2 11 10 2 11 10 2 11 10 2 11 10 2 11 10 2 11 10 2 11 10 2 11 10 4 13 12 6 15 14 9 18 17 13 22 21 16 25 24 18 27 26 20 29 28 24 30 30 24 30 30 24 30 30 24 30 30 24 30 30 24 30 30 24 30 30 24 30 30 28 34 34 28 34 34 28 34 34 28 34 34 28 34 34 28 34 34 28 34 34 29 33 32 31 30 28 33 29 28 33 29 28 33 29 28 33 29 28 33 29 28 33 29 28 33 29 28 35 31 30 35 31 30 35 31 30 35 31 30 35 31 30 35 31 30 35 31 30 35 31 28 38 30 28 39 29 27 39 29 27 39 29 27 39 29 27 39 29 27 39 29 27 39 29 27 40 30 28 40 30 28 40 30 28 40 30 28 40 30 28 40 30 28 40 30 28 39 31 29
106 85 92 106 85 92 106 85 92 106 85 92 104 83 90 103 82 89 100 79 86 96 75 82 92 71 78 88 67 74 85 64 71 83 63 72 62 42 53 62 44 56 67 49 61 73 55 67 80 62 74 87 69 81 92 74 86 94 76 88 119 101 113 122 104 116 127 109 121 134 116 128 142 124 136 149 131 143 154 136 148 157 139 151 147 130 140 147 130 140 147 130 140 147 130 140 147 130 140 147 130 140 147 130 140 147 130 140 146 129 139 144 127 137 142 125 135 139 122 132 135 118 128 132 115 125 130 113 123 127 111 121 122 113 118 117 111 115 113 107 111 107 101 105 101 95 99 95 89 93 90 84 88 88 82 86 51 45 49 50 44 48 48 42 46 44 38 42 41 35 39 38 32 36 35 29 33 33 28 34 5 6 11 3 6 13 3 6 13 3 6 13 3 6 13 3 6 13 3 6 13 3 6 13 3 6 13 3 6 13 3 6 13 3 6 13 3 6 13 3 6 13 3 6 13 2 7 13 3 7 16 2 9 17 5 12 20 8 15 23 11 18 26 15 22 30 17 24 32 18 25 33 28 35 43 29 36 44 32 39 47 35 42 50 38 45 53 42 49 57 44 51 59 45 52 58 46 53 59 46 54 57 46 54 57 46 54 57 46 54 57 46 54 57 46 54 57 46 54 57 35 43 46 33 41 44 28 36 39 21 29 32 15 23 26 8 16 19 3 11 14 1 9 11 2 10 12 2 11 10 2 11 10 2 11 10 2 11 10 2 11 10 2 11 10 2 11 10 2 11 10 4 13 12 6 15 14 9 18 17 13 22 21 16 25 24 18 27 26 20 29 28 24 30 30 24 30 30 24 30 30 24 30 30 24 30 30 24 30 30 24 30 30 24 30 30 28 34 34 28 34 34 28 34 34 28 34 34 28 34 34 28 34 34 28 34 34 29 33 32 31 29 30 33 29 28 33 29 28 33 29 28 33 29 28 33 29 28 33 29 28 33 29 28 35 31 30 35 31 30 35 31 30 35 31 30 35 31 30 35 31 30 35 31 30 36 31 28 38 30 28 39 29 27 39 29 27 39 29 27 39 29 27 39 29 27 39 29 27 39 29 27 40 30 28 40 30 28 40 30 28 40 30 28 40 30 28 40 30 28 40 30 28 40 30 28
101 80 87 101 80 87 101 80 87 101 80 87 93 72 79 92 71 78 90 69 76 87 66 73 85 64 71 82 61 68 80 59 66 78 58 67 69 49 60 70 52 64 74 56 68 81 63 75 88 70 82 94 76 88 99 81 93 102 84 96 123 105 117 125 107 119 129 111 123 135 117 129 141 123 135 147 129 141 151 133 145 153 135 147 147 130 140 147 130 140 147 130 140 147 130 140 147 130 140 147 130 140 147 130 140 147 130 140 146 129 139 144 127 137 142 125 135 139 122 132 135 118 128 132 115 125 130 113 123 127 111 121 120 111 116 115 109 113 110 104 108 103 97 101 95 89 93 88 82 86 83 77 81 80 74 78 46 40 44 45 39 43 43 37 41 40 34 38 36 30 34 33 27 31 30 24 28 28 23 29 5 6 11 3 6 13 3 6 13 3 6 13 3 6 13 3 6 13 3 6 13 3 6 13 3 6 13 3 6 13 3 6 13 3 6 13 3 6 13 3 6 13 3 6 13 2 7 13 5 9 18 5 12 20 7 14 22 10 17 25 14 21 29 17 24 32 19 26 34 21 28 36 30 37 45 32 39 47 34 41 49 37 44 52 41 48 56 44 51 59 46 53 61 48 55 61 46 53 59 46 54 57 46 54 57 46 54 57 46 54 57 46 54 57 46 54 57 46 54 57 35 43 46 33 41 44 28 36 39 21 29 32 15 23 26 8 16 19 3 11 14 1 9 11 2 10 12 2 11 10 2 11 10 2 11 10 2 11 10 2 11 10 2 11 10 2 11 10 2 11 10 4 13 12 6 15 14 9 18 17 13 22 21 16 25 24 18 27 26 20 29 28 24 30 30 24 30 30 24 30 30 24 30 30 24 30 30 24 30 30 24 30 30 24 30 30 28 34 34 28 34 34 28 34 34 28 34 34 28 34 34 28 34 34 28 34 34 29 33 32 31 29 30 33 29 28 33 29 28 33 29 28 33 29 28 33 29 28 33 29 28 33 29 28 35 31 30 35 31 30 35 31 30 35 31 30 35 31 30 35 31 30 35 31 30 36 31 28 38 30 28 39 29 27 39 29 27 39 29 27 39 29 27 39 29 27 39 29 27 39 29 27 40 30 28 40 30 28 40 30 28 40 30 28 40 30 28 40 30 28 40 30 28 40 30 28
