P3
172 37
255
148 136 138 148 136 138 148 136 138 148 136 138 159 147 149 159 147 149 159 147 149 159 147 149 159 147 149 159 147 149 159 147 149 159 147 149 150 138 140 150 138 140 150 138 140 150 138 140 150 138 140 150 138 140 150 138 140 150 138 140 155 143 145 155 143 145 155 143 145 155 143 145 155 143 145 155 143 145 155 143 145 155 143 145 159 147 151 159 147 151 159 147 151 159 147 151 159 147 151 159 147 151 159 147 151 159 147 151 143 131 135 143 131 135 143 131 135 143 131 135 143 131 135 143 131 135 143 131 135 143 131 135 136 121 126 136 121 126 136 121 126 136 121 126 136 121 126 136 121 126 136 121 126 136 121 126 130 115 120 128 113 118 126 111 116 123 108 113 119 104 109 116 101 106 114 99 104 112 97 104 96 80 90 96 80 91 96 80 91 96 80 91 96 80 91 96 80 91 96 80 91 96 80 91 77 61 72 76 60 71 73 57 68 70 54 65 67 51 62 63 47 58 61 45 56 58 45 55 44 32 42 41 31 40 39 29 38 36 26 35 32 22 31 29 19 28 27 17 26 25 15 24 24 14 23 24 14 23 25 15 24 25 15 24 26 16 25 27 17 26 27 17 26 25 18 25 20 20 22 19 21 20 19 21 20 19 21 20 19 21 20 19 21 20 19 21 20 19 21 20 13 15 14 13 15 14 13 15 14 13 15 14 13 15 14 13 15 14 13 15 14 13 15 14 12 16 15 12 16 15 12 16 15 12 16 15 12 16 15 12 16 15 12 16 15 12 16 15 22 26 25 24 28 27 29 33 32 36 40 39 42 46 45 49 53 52 54 58 57 56 61 57 51 57 53 54 61 54 59 66 59 65 72 65 72 79 72 78 85 78 83 90 83 86 93 86 98 105 98 98 105 98 98 105 98 98 105 98 98 105 98 98 105 98 98 105 98 99 104 98 81 82 77 74 73 69 61 60 56 49 48 44 42 41 37 41 40 36 44 43 39 47 46 42 44 43 39 44 43 39 44 43 39 44 43 39 44 43 39 44 43 39 44 43 39 44 43 39 41 40 36 41 40 36 41 40 36 41 40 36 41 40 36 41 40 36 41 40 36 41 40 36 45 44 40 45 44 40 45 44 40 45 44 40 45 44 40 45 44 40 45 44 40 45 44 40
148 136 140 148 136 140 148 136 140 148 136 140 159 147 151 159 147 151 159 147 151 159 147 151 159 147 151 159 147 151 159 147 151 159 147 151 150 138 140 150 138 140 150 138 140 150 138 140 150 138 140 150 138 140 150 138 140 150 138 140 155 143 145 155 143 145 155 143 145 155 143 145 155 143 145 155 143 145 155 143 145 155 143 145 161 149 151 161 149 151 161 149 153 161 149 151 161 149 153 161 149 151 161 149 153 161 149 151 143 131 135 143 131 133 143 131 135 143 131 133 143 131 135 143 131 133 143 131 135 145 130 135 136 121 126 136 121 126 137 120 126 136 121 126 137 120 126 136 121 126 137 120 126 136 121 126 131 114 120 128 113 118 127 110 116 123 108 113 120 103 109 116 101 106 115 98 104 112 97 104 92 79 88 91 79 89 92 79 89 91 79 89 92 79 89 91 79 89 92 79 89 91 79 89 72 59 69 70 58 68 69 56 66 64 52 62 62 49 59 58 46 56 56 43 53 54 42 52 37 30 38 34 29 36 32 27 34 29 24 31 25 20 27 22 17 24 20 15 22 18 13 20 18 13 20 19 14 21 19 14 21 21 16 23 22 17 24 23 18 25 24 19 26 23 21 26 19 20 22 17 21 20 19 21 20 17 21 20 19 21 20 17 21 20 19 21 20 17 21 20 13 15 14 11 15 14 13 15 14 11 15 14 13 15 14 11 15 14 13 15 14 11 15 14 12 16 15 12 17 13 12 16 15 12 17 13 12 16 15 12 17 13 12 16 15 12 17 13 22 26 25 24 29 25 29 33 32 36 41 37 42 46 45 49 54 50 54 58 57 56 61 57 50 57 50 53 60 53 58 65 58 64 71 64 71 78 71 77 84 77 82 89 82 85 92 85 96 103 96 96 103 96 96 103 96 96 103 96 96 103 96 96 103 96 96 103 96 97 102 96 81 82 77 74 73 69 61 60 56 49 48 44 42 41 37 41 40 36 44 43 39 47 46 42 44 43 39 44 43 39 44 43 39 44 43 39 44 43 39 44 43 39 44 43 39 44 43 39 41 40 36 41 40 36 41 40 36 41 40 36 41 40 36 41 40 36 41 40 36 41 40 36 45 44 40 45 44 40 45 44 40 45 44 40 45 44 40 45 44 40 45 44 40 45 44 40
155 142 151 155 142 151 155 142 151 155 142 151 155 142 151 155 142 151 155 142 151 155 142 151 155 142 151 155 142 151 155 142 151 155 142 149 164 149 154 164 149 152 164 149 152 164 149 152 164 149 152 164 149 152 164 149 152 164 149 152 161 146 149 161 146 149 161 146 149 161 146 149 161 146 149 161 146 149 161 146 149 161 146 149 159 144 147 159 145 145 159 144 147 159 145 145 159 144 147 159 145 145 159 144 147 159 145 145 149 134 137 149 135 135 149 134 137 149 135 135 149 134 137 149 135 135 149 134 137 149 134 137 150 133 139 148 131 137 148 129 135 143 126 132 141 122 128 136 119 125 136 117 123 132 115 121 132 113 119 128 111 117 126 107 113 119 102 108 116 97 103 108 91 97 106 87 93 101 86 93 95 85 93 89 84 91 84 77 85 75 70 77 68 61 69 59 54 61 54 47 55 50 45 52 33 26 34 32 27 34 33 26 34 32 27 34 33 26 34 32 27 34 33 26 34 30 27 34 15 16 20 13 17 20 13 17 20 13 17 20 13 17 20 13 17 20 13 17 20 13 17 20 14 18 21 14 18 21 14 18 21 14 18 21 14 18 21 14 18 21 14 18 21 14 18 19 18 22 21 17 23 19 18 23 19 17 23 19 18 23 19 17 23 19 18 23 19 17 23 19 17 22 18 14 20 16 13 18 14 9 15 11 6 11 7 2 8 4 1 6 2 0 4 0 7 13 9 7 14 7 7 13 9 7 14 7 7 13 9 7 14 7 7 13 9 7 14 7 13 19 15 15 22 15 20 26 22 27 34 27 33 39 35 40 47 40 45 51 47 47 54 47 52 59 52 54 61 54 56 63 56 59 66 59 63 70 63 66 73 66 68 75 68 70 77 70 90 97 90 90 97 90 90 97 90 90 97 90 90 97 90 90 97 90 90 97 90 91 96 90 80 81 75 73 72 67 60 59 54 48 47 42 41 40 35 40 39 34 43 42 37 46 45 40 43 42 37 43 42 37 43 42 37 43 42 37 43 42 37 43 42 37 43 42 37 43 42 37 41 40 35 41 40 35 41 40 35 41 40 35 41 40 35 41 40 35 41 40 35 41 40 35 40 39 34 40 39 34 40 39 34 40 39 34 40 39 34 40 39 34 40 39 34 40 39 34
155 142 152 155 142 152 155 142 152 155 142 152 155 142 152 155 142 152 155 142 152 155 142 152 155 142 152 155 142 152 155 142 152 155 142 151 164 149 154 164 149 152 164 149 152 164 149 152 164 149 152 164 149 152 164 149 152 164 149 152 161 146 149 161 146 149 161 146 149 161 146 149 161 146 149 161 146 149 161 146 149 161 146 149 159 145 145 159 145 145 159 145 145 159 145 145 159 145 145 159 145 145 159 145 145 159 145 145 149 135 135 149 135 135 149 135 135 149 135 135 149 135 135 149 135 135 149 135 135 149 135 135 152 133 139 150 131 137 148 129 135 145 126 132 141 122 128 138 119 125 136 117 123 134 115 121 132 113 119 129 110 116 125 106 112 119 100 106 113 94 100 107 88 94 102 83 89 97 82 89 87 80 87 81 78 85 76 73 80 69 66 73 61 58 65 54 51 58 49 46 53 46 43 50 28 25 32 28 25 32 28 25 32 28 25 32 28 25 32 28 25 32 28 25 32 27 26 32 12 17 20 10 18 20 10 18 20 10 18 20 10 18 20 10 18 20 10 18 20 10 18 20 11 19 21 11 19 21 11 19 21 11 19 21 11 19 21 11 19 21 11 19 21 11 20 19 17 23 21 17 23 19 17 23 19 17 23 19 17 23 19 17 23 19 17 23 19 17 23 19 16 22 18 14 20 16 12 18 14 9 15 11 5 11 7 2 8 4 0 6 2 0 4 0 7 14 7 7 14 7 7 14 7 7 14 7 7 14 7 7 14 7 7 14 7 7 14 7 13 20 13 15 22 15 20 27 20 27 34 27 33 40 33 40 47 40 45 52 45 47 54 47 52 59 52 54 61 54 56 63 56 59 66 59 63 70 63 66 73 66 68 75 68 70 77 70 88 95 88 88 95 88 88 95 88 88 95 88 88 95 88 88 95 88 88 95 88 89 94 88 80 81 75 73 72 67 60 59 54 48 47 42 41 40 35 40 39 34 43 42 37 46 45 40 43 42 37 43 42 37 43 42 37 43 42 37 43 42 37 43 42 37 43 42 37 43 42 37 41 40 35 41 40 35 41 40 35 41 40 35 41 40 35 41 40 35 41 40 35 41 40 35 40 39 34 40 39 34 40 39 34 40 39 34 40 39 34 40 39 34 40 39 34 40 39 34
155 142 152 155 142 152 155 142 152 155 142 152 155 142 152 155 142 152 155 142 152 155 142 152 155 142 152 155 142 152 155 142 152 155 142 151 164 149 154 164 149 152 164 149 152 164 149 152 164 149 152 164 149 152 164 149 152 164 149 152 161 146 149 161 146 149 161 146 149 161 146 149 161 146 149 161 146 149 161 146 149 161 146 149 159 145 145 159 145 145 159 145 145 159 145 145 159 145 145 159 145 145 159 145 145 159 145 145 149 135 135 149 135 135 149 135 135 149 135 135 149 135 135 149 135 135 149 135 135 149 135 135 152 133 139 150 131 137 148 129 135 145 126 132 141 122 128 138 119 125 136 117 123 134 115 121 130 111 117 127 108 114 122 103 109 115 96 102 107 88 94 100 81 87 95 76 82 89 74 81 76 69 76 71 68 75 66 63 70 61 58 65 55 52 59 49 46 53 45 42 49 42 39 46 26 23 30 26 23 30 26 23 30 26 23 30 26 23 30 26 23 30 26 23 30 25 24 30 12 17 20 10 18 20 10 18 20 10 18 20 10 18 20 10 18 20 10 18 20 10 18 20 11 19 21 11 19 21 11 19 21 11 19 21 11 19 21 11 19 21 11 19 21 11 20 19 17 23 21 17 23 19 17 23 19 17 23 19 17 23 19 17 23 19 17 23 19 17 23 19 16 22 18 14 20 16 12 18 14 9 15 11 5 11 7 2 8 4 0 6 2 0 4 0 7 14 7 7 14 7 7 14 7 7 14 7 7 14 7 7 14 7 7 14 7 7 14 7 13 20 13 15 22 15 20 27 20 27 34 27 33 40 33 40 47 40 45 52 45 47 54 47 52 59 52 54 61 54 56 63 56 59 66 59 63 70 63 66 73 66 68 75 68 70 77 70 86 93 86 86 93 86 86 93 86 86 93 86 86 93 86 86 93 86 86 93 86 87 92 86 80 81 75 73 72 67 60 59 54 48 47 42 41 40 35 40 39 34 43 42 37 46 45 40 43 42 37 43 42 37 43 42 37 43 42 37 43 42 37 43 42 37 43 42 37 43 42 37 41 40 35 41 40 35 41 40 35 41 40 35 41 40 35 41 40 35 41 40 35 41 40 35 40 39 34 40 39 34 40 39 34 40 39 34 40 39 34 40 39 34 40 39 34 40 39 34
155 142 152 155 142 152 155 142 152 155 142 152 155 142 152 155 142 152 155 142 152 155 142 152 155 142 152 155 142 152 155 142 152 155 142 151 164 149 154 164 149 152 164 149 152 164 149 152 164 149 152 164 149 152 164 149 152 164 149 152 161 146 149 161 146 149 161 146 149 161 146 149 161 146 149 161 146 149 161 146 149 161 146 149 159 145 145 159 145 145 159 145 145 159 145 145 159 145 145 159 145 145 159 145 145 159 145 145 149 135 135 149 135 135 149 135 135 149 135 135 149 135 135 149 135 135 149 135 135 149 135 135 152 133 139 150 131 137 148 129 135 145 126 132 141 122 128 138 119 125 136 117 123 134 115 121 128 109 115 124 105 111 118 99 105 109 90 96 100 81 87 91 72 78 84 65 71 78 63 70 62 55 62 58 55 62 54 51 58 50 47 54 46 43 50 42 39 46 39 36 43 37 34 41 23 20 27 23 20 27 23 20 27 23 20 27 23 20 27 23 20 27 23 20 27 22 21 27 12 17 20 10 18 20 10 18 20 10 18 20 10 18 20 10 18 20 10 18 20 10 18 20 11 19 21 11 19 21 11 19 21 11 19 21 11 19 21 11 19 21 11 19 21 11 20 19 17 23 21 17 23 19 17 23 19 17 23 19 17 23 19 17 23 19 17 23 19 17 23 19 16 22 18 14 20 16 12 18 14 9 15 11 5 11 7 2 8 4 0 6 2 0 4 0 7 14 7 7 14 7 7 14 7 7 14 7 7 14 7 7 14 7 7 14 7 7 14 7 13 20 13 15 22 15 20 27 20 27 34 27 33 40 33 40 47 40 45 52 45 47 54 47 52 59 52 54 61 54 56 63 56 59 66 59 63 70 63 66 73 66 68 75 68 70 77 70 83 90 83 83 90 83 83 90 83 83 90 83 83 90 83 83 90 83 83 90 83 84 89 83 80 81 75 73 72 67 60 59 54 48 47 42 41 40 35 40 39 34 43 42 37 46 45 40 43 42 37 43 42 37 43 42 37 43 42 37 43 42 37 43 42 37 43 42 37 43 42 37 41 40 35 41 40 35 41 40 35 41 40 35 41 40 35 41 40 35 41 40 35 41 40 35 40 39 34 40 39 34 40 39 34 40 39 34 40 39 34 40 39 34 40 39 34 40 39 34
155 142 152 155 142 152 155 142 152 155 142 152 155 142 152 155 142 152 155 142 152 155 142 152 155 142 152 155 142 152 155 142 152 155 142 151 164 149 154 164 149 152 164 149 152 164 149 152 164 149 152 164 149 152 164 149 152 164 149 152 161 146 149 161 146 149 161 146 149 161 146 149 161 146 149 161 146 149 161 146 149 161 146 149 159 145 145 159 145 145 159 145 145 159 145 145 159 145 145 159 145 145 159 145 145 159 145 145 149 135 135 149 135 135 149 135 135 149 135 135 149 135 135 149 135 135 149 135 135 149 135 135 152 133 139 150 131 137 148 129 135 145 126 132 141 122 128 138 119 125 136 117 123 134 115 121 126 107 113 122 103 109 114 95 101 103 84 90 92 73 79 81 62 68 73 54 60 66 51 58 47 40 47 43 40 47 41 38 45 39 36 43 37 34 41 34 31 38 32 29 36 32 29 36 19 16 23 19 16 23 19 16 23 19 16 23 19 16 23 19 16 23 19 16 23 18 17 23 12 17 20 10 18 20 10 18 20 10 18 20 10 18 20 10 18 20 10 18 20 10 18 20 11 19 21 11 19 21 11 19 21 11 19 21 11 19 21 11 19 21 11 19 21 11 20 19 17 23 21 17 23 19 17 23 19 17 23 19 17 23 19 17 23 19 17 23 19 17 23 19 16 22 18 14 20 16 12 18 14 9 15 11 5 11 7 2 8 4 0 6 2 0 4 0 7 14 7 7 14 7 7 14 7 7 14 7 7 14 7 7 14 7 7 14 7 7 14 7 13 20 13 15 22 15 20 27 20 27 34 27 33 40 33 40 47 40 45 52 45 47 54 47 52 59 52 54 61 54 56 63 56 59 66 59 63 70 63 66 73 66 68 75 68 70 77 70 79 86 79 79 86 79 79 86 79 79 86 79 79 86 79 79 86 79 79 86 79 80 85 79 80 81 75 73 72 67 60 59 54 48 47 42 41 40 35 40 39 34 43 42 37 46 45 40 43 42 37 43 42 37 43 42 37 43 42 37 43 42 37 43 42 37 43 42 37 43 42 37 41 40 35 41 40 35 41 40 35 41 40 35 41 40 35 41 40 35 41 40 35 41 40 35 40 39 34 40 39 34 40 39 34 40 39 34 40 39 34 40 39 34 40 39 34 40 39 34
155 142 152 155 142 152 155 142 152 155 142 152 155 142 152 155 142 152 155 142 152 155 142 152 155 142 152 155 142 152 155 142 152 155 142 151 164 149 154 164 149 152 164 149 152 164 149 152 164 149 152 164 149 152 164 149 152 164 149 152 161 146 149 161 146 149 161 146 149 161 146 149 161 146 149 161 146 149 161 146 149 161 146 149 159 145 145 159 145 145 159 145 145 159 145 145 159 145 145 159 145 145 159 145 145 159 145 145 149 135 135 149 135 135 149 135 135 149 135 135 149 135 135 149 135 135 149 135 135 149 135 135 152 133 139 150 131 137 148 129 135 145 126 132 141 122 128 138 119 125 136 117 123 134 115 121 124 105 111 119 100 106 110 91 97 98 79 85 85 66 72 73 54 60 63 44 50 55 40 47 33 26 33 30 27 34 29 26 33 29 26 33 28 25 32 27 24 31 27 24 31 26 23 30 16 13 20 16 13 20 16 13 20 16 13 20 16 13 20 16 13 20 16 13 20 15 14 20 12 17 20 10 18 20 10 18 20 10 18 20 10 18 20 10 18 20 10 18 20 10 18 20 11 19 21 11 19 21 11 19 21 11 19 21 11 19 21 11 19 21 11 19 21 11 20 19 17 23 21 17 23 19 17 23 19 17 23 19 17 23 19 17 23 19 17 23 19 17 23 19 16 22 18 14 20 16 12 18 14 9 15 11 5 11 7 2 8 4 0 6 2 0 4 0 7 14 7 7 14 7 7 14 7 7 14 7 7 14 7 7 14 7 7 14 7 7 14 7 13 20 13 15 22 15 20 27 20 27 34 27 33 40 33 40 47 40 45 52 45 47 54 47 52 59 52 54 61 54 56 63 56 59 66 59 63 70 63 66 73 66 68 75 68 70 77 70 76 83 76 76 83 76 76 83 76 76 83 76 76 83 76 76 83 76 76 83 76 77 82 76 80 81 75 73 72 67 60 59 54 48 47 42 41 40 35 40 39 34 43 42 37 46 45 40 43 42 37 43 42 37 43 42 37 43 42 37 43 42 37 43 42 37 43 42 37 43 42 37 41 40 35 41 40 35 41 40 35 41 40 35 41 40 35 41 40 35 41 40 35 41 40 35 40 39 34 40 39 34 40 39 34 40 39 34 40 39 34 40 39 34 40 39 34 40 39 34
155 142 152 155 142 152 155 142 152 155 142 152 155 142 152 155 142 152 155 142 152 155 142 152 155 142 152 155 142 152 155 142 152 155 142 151 164 149 154 164 149 152 164 149 152 164 149 152 164 149 152 164 149 152 164 149 152 164 149 152 161 146 149 161 146 149 161 146 149 161 146 149 161 146 149 161 146 149 161 146 149 161 146 149 159 145 145 159 145 145 159 145 145 159 145 145 159 145 145 159 145 145 159 145 145 159 145 145 149 135 135 149 135 135 149 135 135 149 135 135 149 135 135 149 135 135 149 135 135 149 135 135 152 133 139 150 131 137 148 129 135 145 126 132 141 122 128 138 119 125 136 117 123 134 115 121 123 104 110 117 98 104 107 88 94 94 75 81 79 60 66 66 47 53 56 37 43 47 32 39 22 15 22 20 17 24 20 17 24 21 18 25 21 18 25 22 19 26 22 19 26 22 19 26 14 11 18 14 11 18 14 11 18 14 11 18 14 11 18 14 11 18 14 11 18 13 12 18 12 17 20 10 18 20 10 18 20 10 18 20 10 18 20 10 18 20 10 18 20 10 18 20 11 19 21 11 19 21 11 19 21 11 19 21 11 19 21 11 19 21 11 19 21 11 20 19 17 23 21 17 23 19 17 23 19 17 23 19 17 23 19 17 23 19 17 23 19 17 23 19 16 22 18 14 20 16 12 18 14 9 15 11 5 11 7 2 8 4 0 6 2 0 4 0 7 14 7 7 14 7 7 14 7 7 14 7 7 14 7 7 14 7 7 14 7 7 14 7 13 20 13 15 22 15 20 27 20 27 34 27 33 40 33 40 47 40 45 52 45 47 54 47 52 59 52 54 61 54 56 63 56 59 66 59 63 70 63 66 73 66 68 75 68 70 77 70 74 81 74 74 81 74 74 81 74 74 81 74 74 81 74 74 81 74 74 81 74 75 80 74 80 81 75 73 72 67 60 59 54 48 47 42 41 40 35 40 39 34 43 42 37 46 45 40 43 42 37 43 42 37 43 42 37 43 42 37 43 42 37 43 42 37 43 42 37 43 42 37 41 40 35 41 40 35 41 40 35 41 40 35 41 40 35 41 40 35 41 40 35 41 40 35 40 39 34 40 39 34 40 39 34 40 39 34 40 39 34 40 39 34 40 39 34 40 39 34
155 142 152 155 142 152 155 142 152 155 142 152 155 142 152 155 142 152 155 142 152 155 142 152 155 142 152 155 142 152 155 142 152 155 142 151 164 149 154 164 149 152 164 149 152 164 149 152 164 149 152 164 149 152 164 149 152 164 149 152 161 146 149 161 146 149 161 146 149 161 146 149 161 146 149 161 146 149 161 146 149 161 146 149 159 145 145 159 145 145 159 145 145 159 145 145 159 145 145 159 145 145 159 145 145 159 145 145 149 135 135 149 135 135 149 135 135 149 135 135 149 135 135 149 135 135 149 135 135 149 135 135 152 133 139 150 131 137 148 129 135 145 126 132 141 122 128 138 119 125 136 117 123 134 115 121 122 103 109 116 97 103 105 86 92 91 72 78 76 57 63 62 43 49 51 32 38 43 28 35 17 10 17 14 11 18 15 12 19 16 13 20 18 15 22 19 16 23 20 17 24 20 17 24 12 9 16 12 9 16 12 9 16 12 9 16 12 9 16 12 9 16 12 9 16 11 10 16 12 17 20 10 18 20 10 18 20 10 18 20 10 18 20 10 18 20 10 18 20 10 18 20 11 19 21 11 19 21 11 19 21 11 19 21 11 19 21 11 19 21 11 19 21 11 20 19 17 23 21 17 23 19 17 23 19 17 23 19 17 23 19 17 23 19 17 23 19 17 23 19 16 22 18 14 20 16 12 18 14 9 15 11 5 11 7 2 8 4 0 6 2 0 4 0 7 14 7 7 14 7 7 14 7 7 14 7 7 14 7 7 14 7 7 14 7 7 14 7 13 20 13 15 22 15 20 27 20 27 34 27 33 40 33 40 47 40 45 52 45 47 54 47 52 59 52 54 61 54 56 63 56 59 66 59 63 70 63 66 73 66 68 75 68 70 77 70 72 79 72 72 79 72 72 79 72 72 79 72 72 79 72 72 79 72 72 79 72 73 78 72 80 81 75 73 72 67 60 59 54 48 47 42 41 40 35 40 39 34 43 42 37 46 45 40 43 42 37 43 42 37 43 42 37 43 42 37 43 42 37 43 42 37 43 42 37 43 42 37 41 40 35 41 40 35 41 40 35 41 40 35 41 40 35 41 40 35 41 40 35 41 40 35 40 39 34 40 39 34 40 39 34 40 39 34 40 39 34 40 39 34 40 39 34 40 39 34
154 141 151 154 141 151 154 141 151 154 141 151 159 146 156 159 146 156 159 146 156 159 146 156 159 146 156 159 146 156 159 146 156 159 146 155 159 144 149 159 144 147 159 144 147 159 144 147 159 144 147 159 144 147 159 144 147 159 144 147 164 149 152 164 149 152 164 149 152 164 149 152 164 149 152 164 149 152 164 149 152 164 149 152 173 159 159 171 157 157 169 155 155 166 152 152 162 148 148 159 145 145 157 143 143 155 141 141 152 138 138 152 138 138 152 138 138 152 138 138 152 138 138 152 138 138 152 138 138 152 138 138 149 130 136 148 129 135 147 128 134 145 126 132 143 124 130 141 122 128 139 120 126 138 119 125 116 97 103 105 86 92 86 67 73 66 47 53 51 32 38 43 24 30 40 21 27 37 22 29 21 14 21 18 15 22 18 15 22 18 15 22 18 15 22 18 15 22 18 15 22 18 15 22 17 14 21 17 14 21 17 14 21 17 14 21 17 14 21 17 14 21 17 14 21 16 15 21 12 17 20 10 18 20 10 18 20 10 18 20 10 18 20 10 18 20 10 18 20 10 18 20 13 21 23 13 21 23 13 21 23 13 21 23 13 21 23 13 21 23 13 21 23 13 22 21 16 22 20 16 22 18 16 22 18 16 22 18 16 22 18 16 22 18 16 22 18 16 22 18 7 13 9 7 13 9 7 13 9 7 13 9 7 13 9 7 13 9 7 13 9 7 13 9 4 11 4 4 11 4 4 11 4 4 11 4 4 11 4 4 11 4 4 11 4 4 11 4 15 22 15 17 24 17 19 26 19 22 29 22 26 33 26 29 36 29 31 38 31 33 40 33 40 47 40 42 49 42 44 51 44 47 54 47 51 58 51 54 61 54 56 63 56 58 65 58 70 77 70 70 77 70 70 77 70 70 77 70 70 77 70 70 77 70 70 77 70 71 76 70 64 65 59 63 62 57 58 57 52 51 50 45 45 44 39 38 37 32 33 32 27 31 30 25 37 36 31 37 36 31 37 36 31 37 36 31 37 36 31 37 36 31 37 36 31 37 36 31 37 36 31 37 36 31 37 36 31 37 36 31 37 36 31 37 36 31 37 36 31 37 36 31 41 40 35 41 40 35 41 40 35 41 40 35 41 40 35 41 40 35 41 40 35 41 40 35
154 141 151 154 141 151 154 141 151 154 141 151 159 146 156 159 146 156 159 146 156 159 146 156 159 146 156 159 146 156 159 146 156 159 146 155 159 144 149 159 144 147 159 144 147 159 144 147 159 144 147 159 144 147 159 144 147 159 144 147 164 149 152 164 149 152 164 149 152 164 149 152 164 149 152 164 149 152 164 149 152 164 149 152 173 159 159 171 157 157 169 155 155 166 152 152 162 148 148 159 145 145 157 143 143 155 141 141 152 138 138 152 138 138 152 138 138 152 138 138 152 138 138 152 138 138 152 138 138 152 138 138 149 130 136 148 129 135 146 127 133 144 125 131 141 122 128 138 119 125 136 117 123 135 116 122 112 93 99 100 81 87 82 63 69 63 44 50 49 30 36 41 22 28 39 20 26 36 21 28 21 14 21 18 15 22 18 15 22 18 15 22 18 15 22 18 15 22 18 15 22 18 15 22 17 14 21 17 14 21 17 14 21 17 14 21 17 14 21 17 14 21 17 14 21 16 15 21 12 17 20 10 18 20 10 18 20 10 18 20 10 18 20 10 18 20 10 18 20 10 18 20 13 21 23 13 21 23 13 21 23 13 21 23 13 21 23 13 21 23 13 21 23 13 22 21 18 24 22 18 24 20 18 24 20 18 24 20 18 24 20 18 24 20 18 24 20 18 24 20 7 13 9 7 13 9 7 13 9 7 13 9 7 13 9 7 13 9 7 13 9 7 13 9 4 11 4 4 11 4 4 11 4 4 11 4 4 11 4 4 11 4 4 11 4 4 11 4 15 22 15 17 24 17 19 26 19 22 29 22 26 33 26 29 36 29 31 38 31 33 40 33 40 47 40 42 49 42 44 51 44 47 54 47 51 58 51 54 61 54 56 63 56 58 65 58 68 75 68 68 75 68 68 75 68 68 75 68 68 75 68 68 75 68 68 75 68 69 74 68 64 65 59 63 62 57 58 57 52 51 50 45 45 44 39 38 37 32 33 32 27 31 30 25 37 36 31 37 36 31 37 36 31 37 36 31 37 36 31 37 36 31 37 36 31 37 36 31 37 36 31 37 36 31 37 36 31 37 36 31 37 36 31 37 36 31 37 36 31 37 36 31 41 40 35 41 40 35 41 40 35 41 40 35 41 40 35 41 40 35 41 40 35 41 40 35
154 141 151 154 141 151 154 141 151 154 141 151 159 146 156 159 146 156 159 146 156 159 146 156 159 146 156 159 146 156 159 146 156 159 146 155 159 144 149 159 144 147 159 144 147 159 144 147 159 144 147 159 144 147 159 144 147 159 144 147 164 149 152 164 149 152 164 149 152 164 149 152 164 149 152 164 149 152 164 149 152 164 149 152 173 159 159 171 157 157 169 155 155 166 152 152 162 148 148 159 145 145 157 143 143 155 141 141 152 138 138 152 138 138 152 138 138 152 138 138 152 138 138 152 138 138 152 138 138 152 138 138 150 131 137 149 130 136 146 127 133 142 123 129 138 119 125 134 115 121 131 112 118 129 110 116 103 84 90 93 74 80 75 56 62 58 39 45 45 26 32 38 19 25 37 18 24 35 20 27 21 14 21 18 15 22 18 15 22 18 15 22 18 15 22 18 15 22 18 15 22 18 15 22 17 14 21 17 14 21 17 14 21 17 14 21 17 14 21 17 14 21 17 14 21 16 15 21 12 17 20 10 18 20 10 18 20 10 18 20 10 18 20 10 18 20 10 18 20 10 18 20 13 21 23 13 21 23 13 21 23 13 21 23 13 21 23 13 21 23 13 21 23 13 22 21 20 26 24 20 26 22 20 26 22 20 26 22 20 26 22 20 26 22 20 26 22 20 26 22 7 13 9 7 13 9 7 13 9 7 13 9 7 13 9 7 13 9 7 13 9 7 13 9 4 11 4 4 11 4 4 11 4 4 11 4 4 11 4 4 11 4 4 11 4 4 11 4 15 22 15 17 24 17 19 26 19 22 29 22 26 33 26 29 36 29 31 38 31 33 40 33 40 47 40 42 49 42 44 51 44 47 54 47 51 58 51 54 61 54 56 63 56 58 65 58 66 73 66 66 73 66 66 73 66 66 73 66 66 73 66 66 73 66 66 73 66 67 72 66 64 65 59 63 62 57 58 57 52 51 50 45 45 44 39 38 37 32 33 32 27 31 30 25 37 36 31 37 36 31 37 36 31 37 36 31 37 36 31 37 36 31 37 36 31 37 36 31 37 36 31 37 36 31 37 36 31 37 36 31 37 36 31 37 36 31 37 36 31 37 36 31 41 40 35 41 40 35 41 40 35 41 40 35 41 40 35 41 40 35 41 40 35 41 40 35
154 141 151 154 141 151 154 141 151 154 141 151 159 146 156 159 146 156 159 146 156 159 146 156 159 146 156 159 146 156 159 146 156 159 146 155 159 144 149 159 144 147 159 144 147 159 144 147 159 144 147 159 144 147 159 144 147 159 144 147 164 149 152 164 149 152 164 149 152 164 149 152 164 149 152 164 149 152 164 149 152 164 149 152 173 159 159 171 157 157 169 155 155 166 152 152 162 148 148 159 145 145 157 143 143 155 141 141 152 138 138 152 138 138 152 138 138 152 138 138 152 138 138 152 138 138 152 138 138 152 138 138 152 133 139 149 130 136 145 126 132 140 121 127 134 115 121 128 109 115 124 105 111 122 103 109 92 73 79 82 63 69 67 48 54 50 31 37 39 20 26 34 15 21 34 15 21 33 18 25 21 14 21 18 15 22 18 15 22 18 15 22 18 15 22 18 15 22 18 15 22 18 15 22 17 14 21 17 14 21 17 14 21 17 14 21 17 14 21 17 14 21 17 14 21 16 15 21 12 17 20 10 18 20 10 18 20 10 18 20 10 18 20 10 18 20 10 18 20 10 18 20 13 21 23 13 21 23 13 21 23 13 21 23 13 21 23 13 21 23 13 21 23 13 22 21 23 29 27 23 29 25 23 29 25 23 29 25 23 29 25 23 29 25 23 29 25 23 29 25 7 13 9 7 13 9 7 13 9 7 13 9 7 13 9 7 13 9 7 13 9 7 13 9 4 11 4 4 11 4 4 11 4 4 11 4 4 11 4 4 11 4 4 11 4 4 11 4 15 22 15 17 24 17 19 26 19 22 29 22 26 33 26 29 36 29 31 38 31 33 40 33 40 47 40 42 49 42 44 51 44 47 54 47 51 58 51 54 61 54 56 63 56 58 65 58 63 70 63 63 70 63 63 70 63 63 70 63 63 70 63 63 70 63 63 70 63 64 69 63 64 65 59 63 62 57 58 57 52 51 50 45 45 44 39 38 37 32 33 32 27 31 30 25 37 36 31 37 36 31 37 36 31 37 36 31 37 36 31 37 36 31 37 36 31 37 36 31 37 36 31 37 36 31 37 36 31 37 36 31 37 36 31 37 36 31 37 36 31 37 36 31 41 40 35 41 40 35 41 40 35 41 40 35 41 40 35 41 40 35 41 40 35 41 40 35
154 141 151 154 141 151 154 141 151 154 141 151 159 146 156 159 146 156 159 146 156 159 146 156 159 146 156 159 146 156 159 146 156 159 146 155 159 144 149 159 144 147 159 144 147 159 144 147 159 144 147 159 144 147 159 144 147 159 144 147 164 149 152 164 149 152 164 149 152 164 149 152 164 149 152 164 149 152 164 149 152 164 149 152 173 159 159 171 157 157 169 155 155 166 152 152 162 148 148 159 145 145 157 143 143 155 141 141 152 138 138 152 138 138 152 138 138 152 138 138 152 138 138 152 138 138 152 138 138 152 138 138 153 134 140 150 131 137 144 125 131 137 118 124 129 110 116 122 103 109 117 98 104 114 95 101 81 62 68 72 53 59 57 38 44 43 24 30 33 14 20 30 11 17 32 13 19 31 16 23 21 14 21 18 15 22 18 15 22 18 15 22 18 15 22 18 15 22 18 15 22 18 15 22 17 14 21 17 14 21 17 14 21 17 14 21 17 14 21 17 14 21 17 14 21 16 15 21 12 17 20 10 18 20 10 18 20 10 18 20 10 18 20 10 18 20 10 18 20 10 18 20 13 21 23 13 21 23 13 21 23 13 21 23 13 21 23 13 21 23 13 21 23 13 22 21 27 33 31 27 33 29 27 33 29 27 33 29 27 33 29 27 33 29 27 33 29 27 33 29 7 13 9 7 13 9 7 13 9 7 13 9 7 13 9 7 13 9 7 13 9 7 13 9 4 11 4 4 11 4 4 11 4 4 11 4 4 11 4 4 11 4 4 11 4 4 11 4 15 22 15 17 24 17 19 26 19 22 29 22 26 33 26 29 36 29 31 38 31 33 40 33 40 47 40 42 49 42 44 51 44 47 54 47 51 58 51 54 61 54 56 63 56 58 65 58 59 66 59 59 66 59 59 66 59 59 66 59 59 66 59 59 66 59 59 66 59 60 65 59 64 65 59 63 62 57 58 57 52 51 50 45 45 44 39 38 37 32 33 32 27 31 30 25 37 36 31 37 36 31 37 36 31 37 36 31 37 36 31 37 36 31 37 36 31 37 36 31 37 36 31 37 36 31 37 36 31 37 36 31 37 36 31 37 36 31 37 36 31 37 36 31 41 40 35 41 40 35 41 40 35 41 40 35 41 40 35 41 40 35 41 40 35 41 40 35
154 141 151 154 141 151 154 141 151 154 141 151 159 146 156 159 146 156 159 146 156 159 146 156 159 146 156 159 146 156 159 146 156 159 146 155 159 144 149 159 144 147 159 144 147 159 144 147 159 144 147 159 144 147 159 144 147 159 144 147 164 149 152 164 149 152 164 149 152 164 149 152 164 149 152 164 149 152 164 149 152 164 149 152 173 159 159 171 157 157 169 155 155 166 152 152 162 148 148 159 145 145 157 143 143 155 141 141 152 138 138 152 138 138 152 138 138 152 138 138 152 138 138 152 138 138 152 138 138 152 138 138 154 135 141 151 132 138 144 125 131 135 116 122 125 106 112 116 97 103 110 91 97 106 87 93 70 51 57 61 42 48 48 29 35 35 16 22 28 9 15 26 7 13 29 10 16 29 14 21 21 14 21 18 15 22 18 15 22 18 15 22 18 15 22 18 15 22 18 15 22 18 15 22 17 14 21 17 14 21 17 14 21 17 14 21 17 14 21 17 14 21 17 14 21 16 15 21 12 17 20 10 18 20 10 18 20 10 18 20 10 18 20 10 18 20 10 18 20 10 18 20 13 21 23 13 21 23 13 21 23 13 21 23 13 21 23 13 21 23 13 21 23 13 22 21 30 36 34 30 36 32 30 36 32 30 36 32 30 36 32 30 36 32 30 36 32 30 36 32 7 13 9 7 13 9 7 13 9 7 13 9 7 13 9 7 13 9 7 13 9 7 13 9 4 11 4 4 11 4 4 11 4 4 11 4 4 11 4 4 11 4 4 11 4 4 11 4 15 22 15 17 24 17 19 26 19 22 29 22 26 33 26 29 36 29 31 38 31 33 40 33 40 47 40 42 49 42 44 51 44 47 54 47 51 58 51 54 61 54 56 63 56 58 65 58 56 63 56 56 63 56 56 63 56 56 63 56 56 63 56 56 63 56 56 63 56 57 62 56 64 65 59 63 62 57 58 57 52 51 50 45 45 44 39 38 37 32 33 32 27 31 30 25 37 36 31 37 36 31 37 36 31 37 36 31 37 36 31 37 36 31 37 36 31 37 36 31 37 36 31 37 36 31 37 36 31 37 36 31 37 36 31 37 36 31 37 36 31 37 36 31 41 40 35 41 40 35 41 40 35 41 40 35 41 40 35 41 40 35 41 40 35 41 40 35
154 141 151 154 141 151 154 141 151 154 141 151 159 146 156 159 146 156 159 146 156 159 146 156 159 146 156 159 146 156 159 146 156 159 146 155 159 144 149 159 144 147 159 144 147 159 144 147 159 144 147 159 144 147 159 144 147 159 144 147 164 149 152 164 149 152 164 149 152 164 149 152 164 149 152 164 149 152 164 149 152 164 149 152 173 159 159 171 157 157 169 155 155 166 152 152 162 148 148 159 145 145 157 143 143 155 141 141 152 138 138 152 138 138 152 138 138 152 138 138 152 138 138 152 138 138 152 138 138 152 138 138 155 136 142 151 132 138 143 124 130 133 114 120 122 103 109 112 93 99 104 85 91 100 81 87 62 43 49 54 35 41 41 22 28 30 11 17 24 5 11 23 4 10 27 8 14 27 12 19 21 14 21 18 15 22 18 15 22 18 15 22 18 15 22 18 15 22 18 15 22 18 15 22 17 14 21 17 14 21 17 14 21 17 14 21 17 14 21 17 14 21 17 14 21 16 15 21 12 17 20 10 18 20 10 18 20 10 18 20 10 18 20 10 18 20 10 18 20 10 18 20 13 21 23 13 21 23 13 21 23 13 21 23 13 21 23 13 21 23 13 21 23 13 22 21 32 38 36 32 38 34 32 38 34 32 38 34 32 38 34 32 38 34 32 38 34 32 38 34 7 13 9 7 13 9 7 13 9 7 13 9 7 13 9 7 13 9 7 13 9 7 13 9 4 11 4 4 11 4 4 11 4 4 11 4 4 11 4 4 11 4 4 11 4 4 11 4 15 22 15 17 24 17 19 26 19 22 29 22 26 33 26 29 36 29 31 38 31 33 40 33 40 47 40 42 49 42 44 51 44 47 54 47 51 58 51 54 61 54 56 63 56 58 65 58 54 61 54 54 61 54 54 61 54 54 61 54 54 61 54 54 61 54 54 61 54 55 60 54 64 65 59 63 62 57 58 57 52 51 50 45 45 44 39 38 37 32 33 32 27 31 30 25 37 36 31 37 36 31 37 36 31 37 36 31 37 36 31 37 36 31 37 36 31 37 36 31 37 36 31 37 36 31 37 36 31 37 36 31 37 36 31 37 36 31 37 36 31 37 36 31 41 40 35 41 40 35 41 40 35 41 40 35 41 40 35 41 40 35 41 40 35 41 40 35
154 141 151 154 141 151 154 141 151 154 141 151 159 146 156 159 146 156 159 146 156 159 146 156 159 146 156 159 146 156 159 146 156 159 146 155 159 144 149 159 144 147 159 144 149 159 144 147 159 144 149 159 144 147 159 144 149 159 144 147 164 149 154 164 149 152 164 149 154 164 149 152 164 149 154 164 149 152 164 149 154 164 149 152 173 159 159 171 157 157 169 155 155 166 152 152 162 148 148 159 145 145 157 143 143 155 141 141 152 138 138 152 138 138 152 138 138 152 138 138 152 138 138 152 138 138 152 138 138 152 138 138 153 138 143 148 133 138 140 125 130 129 114 119 118 103 108 107 92 97 98 83 88 94 79 84 54 39 44 47 32 37 35 20 25 24 9 14 18 3 8 19 4 9 23 8 13 23 12 18 18 16 21 16 17 22 17 16 22 16 17 22 17 16 22 16 17 22 17 16 22 16 17 22 16 15 21 15 16 21 16 15 21 15 16 21 16 15 21 15 16 21 16 15 21 15 16 21 12 17 20 10 18 20 10 18 20 10 18 20 10 18 20 10 18 20 10 18 20 10 18 20 13 21 23 13 21 23 13 21 23 13 21 23 13 21 23 13 21 23 13 21 23 13 22 21 34 40 38 34 40 36 34 40 36 34 40 36 34 40 36 34 40 36 34 40 36 34 40 36 7 13 9 7 13 9 7 13 9 7 13 9 7 13 9 7 13 9 7 13 9 7 13 9 4 10 6 2 12 4 4 11 4 2 12 4 4 11 4 2 12 4 4 11 4 2 12 4 15 22 15 15 25 17 19 26 19 20 30 22 26 33 26 27 37 29 31 38 31 33 40 33 40 47 40 42 49 42 44 51 44 47 54 47 51 58 51 54 61 54 56 63 56 58 65 58 52 59 52 52 59 52 52 59 52 52 59 52 52 59 52 52 59 52 52 59 52 53 58 52 64 65 60 63 62 57 58 57 52 51 50 45 45 44 39 38 37 32 33 32 27 31 30 25 37 36 31 37 36 31 37 36 31 37 36 31 37 36 31 37 36 31 37 36 31 37 36 31 37 36 31 37 36 31 39 36 31 37 36 31 39 36 31 37 36 31 39 36 31 37 36 31 43 40 35 41 40 35 43 40 35 41 40 35 43 40 35 41 40 35 43 40 35 41 40 35
156 143 152 156 143 152 156 143 152 156 143 152 154 141 150 154 141 150 154 141 150 154 141 150 154 141 150 154 141 150 154 141 150 154 141 150 161 146 153 161 146 151 161 146 153 161 146 151 161 146 153 161 146 151 161 146 153 161 146 151 164 149 156 164 149 154 164 149 156 164 149 154 164 149 156 164 149 154 164 149 156 164 149 154 156 141 144 156 142 142 156 142 142 156 142 142 156 142 142 156 142 142 156 142 142 156 142 142 158 144 144 156 142 142 154 140 140 151 137 137 147 133 133 144 130 130 142 128 128 138 126 126 148 137 141 148 139 142 146 137 140 136 127 130 115 106 109 87 78 81 60 51 54 43 34 37 22 13 16 22 13 16 22 13 16 22 13 16 22 13 16 22 13 16 22 13 16 19 14 18 12 16 19 9 17 19 11 16 19 9 17 19 11 16 19 9 17 19 11 16 19 9 17 19 12 17 20 10 18 20 12 17 20 10 18 20 12 17 20 10 18 20 12 17 20 10 18 20 11 19 21 11 19 21 11 19 21 11 19 21 11 19 21 11 19 21 11 19 21 11 19 21 20 28 30 13 21 23 2 10 12 0 5 7 0 8 10 12 20 22 27 35 37 38 47 46 41 50 47 39 48 45 37 46 43 34 43 40 30 39 36 27 36 33 25 34 31 23 32 29 18 27 24 16 25 22 14 23 20 11 20 17 7 16 13 4 13 10 2 11 8 0 9 4 4 13 8 3 14 8 4 13 8 3 14 8 4 13 8 3 14 8 4 13 8 3 14 8 10 19 14 11 22 16 14 23 18 16 27 21 21 30 25 23 34 28 26 35 30 28 37 32 40 46 42 40 46 42 40 46 42 40 46 42 40 46 42 40 46 42 40 46 42 40 46 42 54 60 56 54 60 56 54 60 56 54 60 56 54 60 56 54 60 56 54 60 56 55 60 54 50 49 45 50 46 43 48 44 41 45 41 38 41 37 34 38 34 31 36 32 29 34 30 27 37 33 30 37 33 30 37 33 30 37 33 30 37 33 30 37 33 30 37 33 30 37 34 29 38 35 30 38 35 28 39 34 28 38 35 28 39 34 28 38 35 28 39 34 28 38 35 28 41 36 30 40 37 30 41 36 30 40 37 30 41 36 30 40 37 30 41 36 30 40 37 30
156 143 152 156 143 152 156 143 152 156 143 152 154 141 150 154 141 150 154 141 150 154 141 150 154 141 150 154 141 150 154 141 150 154 141 150 161 146 153 161 146 153 161 146 153 161 146 153 161 146 153 161 146 153 161 146 153 161 146 153 164 149 156 164 149 156 164 149 156 164 149 156 164 149 156 164 149 156 164 149 156 164 149 154 156 141 144 156 142 142 156 142 142 156 142 142 156 142 142 156 142 142 156 142 142 156 142 142 158 144 144 156 142 142 154 140 140 151 137 137 147 133 133 144 130 130 142 128 128 138 126 126 143 137 139 142 138 139 138 134 135 126 122 123 106 102 103 79 75 76 54 50 51 38 34 35 19 15 16 19 15 16 19 15 16 19 15 16 19 15 16 19 15 16 19 15 16 16 16 16 11 16 19 8 18 19 8 18 19 8 18 19 8 18 19 8 18 19 8 18 19 8 18 19 9 19 20 9 19 20 9 19 20 9 19 20 9 19 20 9 19 20 9 19 20 9 19 20 11 19 21 11 19 21 11 19 21 11 19 21 11 19 21 11 19 21 11 19 21 11 19 21 21 29 31 14 22 24 6 14 16 2 10 12 5 13 15 16 24 26 29 37 39 38 47 46 41 50 49 39 48 45 37 46 43 34 43 40 30 39 36 27 36 33 25 34 31 23 32 29 18 27 24 16 25 22 14 23 20 11 20 17 7 16 13 4 13 10 2 11 8 0 9 6 3 14 8 3 14 8 3 14 8 3 14 8 3 14 8 3 14 8 3 14 8 3 14 8 9 20 14 11 22 16 13 24 18 16 27 21 20 31 25 23 34 28 25 36 30 27 38 32 40 46 42 40 46 42 40 46 42 40 46 42 40 46 42 40 46 42 40 46 42 40 46 42 52 58 54 52 58 54 52 58 54 52 58 54 52 58 54 52 58 54 52 58 54 53 58 54 50 49 45 50 46 43 48 44 41 45 41 38 41 37 34 38 34 31 36 32 29 34 30 27 37 33 30 37 33 30 37 33 30 37 33 30 37 33 30 37 33 30 37 33 30 37 34 29 39 34 30 39 34 28 39 34 28 39 34 28 39 34 28 39 34 28 39 34 28 39 34 28 41 36 30 41 36 30 41 36 30 41 36 30 41 36 30 41 36 30 41 36 30 41 36 30
156 143 152 156 143 152 156 143 152 156 143 152 154 141 150 154 141 150 154 141 150 154 141 150 154 141 150 154 141 150 154 141 150 154 141 150 161 146 153 161 146 153 161 146 153 161 146 153 161 146 153 161 146 153 161 146 153 161 146 153 164 149 156 164 149 156 164 149 156 164 149 156 164 149 156 164 149 156 164 149 156 164 149 154 156 141 144 156 142 142 156 142 142 156 142 142 156 142 142 156 142 142 156 142 142 156 142 142 158 144 144 156 142 142 154 140 140 151 137 137 147 133 133 144 130 130 142 128 128 138 126 126 140 134 136 136 132 133 129 125 126 115 111 112 94 90 91 70 66 67 48 44 45 35 31 32 19 15 16 19 15 16 19 15 16 19 15 16 19 15 16 19 15 16 19 15 16 16 16 16 11 16 19 8 18 19 8 18 19 8 18 19 8 18 19 8 18 19 8 18 19 8 18 19 9 19 20 9 19 20 9 19 20 9 19 20 9 19 20 9 19 20 9 19 20 9 19 20 11 19 21 11 19 21 11 19 21 11 19 21 11 19 21 11 19 21 11 19 21 11 19 21 21 29 31 17 25 27 13 21 23 11 19 21 14 22 24 22 30 32 32 40 42 39 48 47 41 50 49 39 48 45 37 46 43 34 43 40 30 39 36 27 36 33 25 34 31 23 32 29 18 27 24 16 25 22 14 23 20 11 20 17 7 16 13 4 13 10 2 11 8 0 9 6 3 14 8 3 14 8 3 14 8 3 14 8 3 14 8 3 14 8 3 14 8 3 14 8 9 20 14 11 22 16 13 24 18 16 27 21 20 31 25 23 34 28 25 36 30 27 38 32 40 46 42 40 46 42 40 46 42 40 46 42 40 46 42 40 46 42 40 46 42 40 46 42 50 56 52 50 56 52 50 56 52 50 56 52 50 56 52 50 56 52 50 56 52 51 56 52 50 49 45 50 46 43 48 44 41 45 41 38 41 37 34 38 34 31 36 32 29 34 30 27 37 33 30 37 33 30 37 33 30 37 33 30 37 33 30 37 33 30 37 33 30 37 34 29 39 34 30 39 34 28 39 34 28 39 34 28 39 34 28 39 34 28 39 34 28 39 34 28 41 36 30 41 36 30 41 36 30 41 36 30 41 36 30 41 36 30 41 36 30 41 36 30
156 143 152 156 143 152 156 143 152 156 143 152 154 141 150 154 141 150 154 141 150 154 141 150 154 141 150 154 141 150 154 141 150 154 141 150 161 146 153 161 146 153 161 146 153 161 146 153 161 146 153 161 146 153 161 146 153 161 146 153 164 149 156 164 149 156 164 149 156 164 149 156 164 149 156 164 149 156 164 149 156 164 149 154 156 141 144 156 142 142 156 142 142 156 142 142 156 142 142 156 142 142 156 142 142 156 142 142 158 144 144 156 142 142 154 140 140 151 137 137 147 133 133 144 130 130 142 128 128 138 126 126 136 130 132 129 125 126 117 113 114 100 96 97 79 75 76 58 54 55 41 37 38 31 27 28 19 15 16 19 15 16 19 15 16 19 15 16 19 15 16 19 15 16 19 15 16 16 16 16 11 16 19 8 18 19 8 18 19 8 18 19 8 18 19 8 18 19 8 18 19 8 18 19 9 19 20 9 19 20 9 19 20 9 19 20 9 19 20 9 19 20 9 19 20 9 19 20 11 19 21 11 19 21 11 19 21 11 19 21 11 19 21 11 19 21 11 19 21 11 19 21 22 30 32 21 29 31 21 29 31 23 31 33 26 34 36 31 39 41 36 44 46 39 48 47 41 50 49 39 48 45 37 46 43 34 43 40 30 39 36 27 36 33 25 34 31 23 32 29 18 27 24 16 25 22 14 23 20 11 20 17 7 16 13 4 13 10 2 11 8 0 9 6 3 14 8 3 14 8 3 14 8 3 14 8 3 14 8 3 14 8 3 14 8 3 14 8 9 20 14 11 22 16 13 24 18 16 27 21 20 31 25 23 34 28 25 36 30 27 38 32 40 46 42 40 46 42 40 46 42 40 46 42 40 46 42 40 46 42 40 46 42 40 46 42 47 53 49 47 53 49 47 53 49 47 53 49 47 53 49 47 53 49 47 53 49 48 53 49 50 49 45 50 46 43 48 44 41 45 41 38 41 37 34 38 34 31 36 32 29 34 30 27 37 33 30 37 33 30 37 33 30 37 33 30 37 33 30 37 33 30 37 33 30 37 34 29 39 34 30 39 34 28 39 34 28 39 34 28 39 34 28 39 34 28 39 34 28 39 34 28 41 36 30 41 36 30 41 36 30 41 36 30 41 36 30 41 36 30 41 36 30 41 36 30
156 143 152 156 143 152 156 143 152 156 143 152 154 141 150 154 141 150 154 141 150 154 141 150 154 141 150 154 141 150 154 141 150 154 141 150 161 146 153 161 146 153 161 146 153 161 146 153 161 146 153 161 146 153 161 146 153 161 146 153 164 149 156 164 149 156 164 149 156 164 149 156 164 149 156 164 149 156 164 149 156 164 149 154 156 141 144 156 142 142 156 142 142 156 142 142 156 142 142 156 142 142 156 142 142 156 142 142 158 144 144 156 142 142 154 140 140 151 137 137 147 133 133 144 130 130 142 128 128 138 126 126 132 126 128 121 117 118 104 100 101 83 79 80 62 58 59 45 41 42 33 29 30 27 23 24 19 15 16 19 15 16 19 15 16 19 15 16 19 15 16 19 15 16 19 15 16 16 16 16 11 16 19 8 18 19 8 18 19 8 18 19 8 18 19 8 18 19 8 18 19 8 18 19 9 19 20 9 19 20 9 19 20 9 19 20 9 19 20 9 19 20 9 19 20 9 19 20 11 19 21 11 19 21 11 19 21 11 19 21 11 19 21 11 19 21 11 19 21 11 19 21 23 31 33 26 34 36 31 39 41 36 44 46 39 47 49 41 49 51 41 49 51 40 49 48 41 50 49 39 48 45 37 46 43 34 43 40 30 39 36 27 36 33 25 34 31 23 32 29 18 27 24 16 25 22 14 23 20 11 20 17 7 16 13 4 13 10 2 11 8 0 9 6 3 14 8 3 14 8 3 14 8 3 14 8 3 14 8 3 14 8 3 14 8 3 14 8 9 20 14 11 22 16 13 24 18 16 27 21 20 31 25 23 34 28 25 36 30 27 38 32 40 46 42 40 46 42 40 46 42 40 46 42 40 46 42 40 46 42 40 46 42 40 46 42 43 49 45 43 49 45 43 49 45 43 49 45 43 49 45 43 49 45 43 49 45 44 49 45 50 49 45 50 46 43 48 44 41 45 41 38 41 37 34 38 34 31 36 32 29 34 30 27 37 33 30 37 33 30 37 33 30 37 33 30 37 33 30 37 33 30 37 33 30 37 34 29 39 34 30 39 34 28 39 34 28 39 34 28 39 34 28 39 34 28 39 34 28 39 34 28 41 36 30 41 36 30 41 36 30 41 36 30 41 36 30 41 36 30 41 36 30 41 36 30
156 143 152 156 143 152 156 143 152 156 143 152 154 141 150 154 141 150 154 141 150 154 141 150 154 141 150 154 141 150 154 141 150 154 141 150 161 146 153 161 146 153 161 146 153 161 146 153 161 146 153 161 146 153 161 146 153 161 146 153 164 149 156 164 149 156 164 149 156 164 149 156 164 149 156 164 149 156 164 149 156 164 149 154 156 141 144 156 142 142 156 142 142 156 142 142 156 142 142 156 142 142 156 142 142 156 142 142 158 144 144 156 142 142 154 140 140 151 137 137 147 133 133 144 130 130 142 128 128 138 126 126 128 122 124 114 110 111 92 88 89 68 64 65 47 43 44 33 29 30 26 22 23 23 19 20 19 15 16 19 15 16 19 15 16 19 15 16 19 15 16 19 15 16 19 15 16 16 16 16 11 16 19 8 18 19 8 18 19 8 18 19 8 18 19 8 18 19 8 18 19 8 18 19 9 19 20 9 19 20 9 19 20 9 19 20 9 19 20 9 19 20 9 19 20 9 19 20 11 19 21 11 19 21 11 19 21 11 19 21 11 19 21 11 19 21 11 19 21 11 19 21 23 31 33 30 38 40 40 48 50 48 56 58 51 59 61 49 57 59 45 53 55 41 50 49 41 50 49 39 48 45 37 46 43 34 43 40 30 39 36 27 36 33 25 34 31 23 32 29 18 27 24 16 25 22 14 23 20 11 20 17 7 16 13 4 13 10 2 11 8 0 9 6 3 14 8 3 14 8 3 14 8 3 14 8 3 14 8 3 14 8 3 14 8 3 14 8 9 20 14 11 22 16 13 24 18 16 27 21 20 31 25 23 34 28 25 36 30 27 38 32 40 46 42 40 46 42 40 46 42 40 46 42 40 46 42 40 46 42 40 46 42 40 46 42 40 46 42 40 46 42 40 46 42 40 46 42 40 46 42 40 46 42 40 46 42 41 46 42 50 49 45 50 46 43 48 44 41 45 41 38 41 37 34 38 34 31 36 32 29 34 30 27 37 33 30 37 33 30 37 33 30 37 33 30 37 33 30 37 33 30 37 33 30 37 34 29 39 34 30 39 34 28 39 34 28 39 34 28 39 34 28 39 34 28 39 34 28 39 34 28 41 36 30 41 36 30 41 36 30 41 36 30 41 36 30 41 36 30 41 36 30 41 36 30
156 143 152 156 143 152 156 143 152 156 143 152 154 141 150 154 141 150 154 141 150 154 141 150 154 141 150 154 141 150 154 141 150 154 141 150 161 146 153 161 146 153 161 146 153 161 146 153 161 146 153 161 146 153 161 146 153 161 146 153 164 149 156 164 149 156 164 149 156 164 149 156 164 149 156 164 149 156 164 149 156 164 149 154 156 141 144 156 142 142 156 142 142 156 142 142 156 142 142 156 142 142 156 142 142 156 142 142 158 144 144 156 142 142 154 140 140 151 137 137 147 133 133 144 130 130 142 128 128 138 126 126 125 119 121 108 104 105 83 79 80 56 52 53 36 32 33 24 20 21 20 16 17 20 16 17 19 15 16 19 15 16 19 15 16 19 15 16 19 15 16 19 15 16 19 15 16 16 16 16 11 16 19 8 18 19 8 18 19 8 18 19 8 18 19 8 18 19 8 18 19 8 18 19 9 19 20 9 19 20 9 19 20 9 19 20 9 19 20 9 19 20 9 19 20 9 19 20 11 19 21 11 19 21 11 19 21 11 19 21 11 19 21 11 19 21 11 19 21 11 19 21 24 32 34 33 41 43 46 54 56 57 65 67 60 68 70 56 64 66 48 56 58 41 50 49 41 50 49 39 48 45 37 46 43 34 43 40 30 39 36 27 36 33 25 34 31 23 32 29 18 27 24 16 25 22 14 23 20 11 20 17 7 16 13 4 13 10 2 11 8 0 9 6 3 14 8 3 14 8 3 14 8 3 14 8 3 14 8 3 14 8 3 14 8 3 14 8 9 20 14 11 22 16 13 24 18 16 27 21 20 31 25 23 34 28 25 36 30 27 38 32 40 46 42 40 46 42 40 46 42 40 46 42 40 46 42 40 46 42 40 46 42 40 46 42 38 44 40 38 44 40 38 44 40 38 44 40 38 44 40 38 44 40 38 44 40 39 44 40 50 49 45 50 46 43 48 44 41 45 41 38 41 37 34 38 34 31 36 32 29 34 30 27 37 33 30 37 33 30 37 33 30 37 33 30 37 33 30 37 33 30 37 33 30 37 34 29 39 34 30 39 34 28 39 34 28 39 34 28 39 34 28 39 34 28 39 34 28 39 34 28 41 36 30 41 36 30 41 36 30 41 36 30 41 36 30 41 36 30 41 36 30 41 36 30
156 143 152 156 143 152 156 143 152 156 143 152 154 141 150 154 141 150 154 141 150 154 141 150 154 141 150 154 141 150 154 141 150 154 141 150 161 146 153 161 146 153 161 146 153 161 146 153 161 146 153 161 146 153 161 146 153 161 146 153 164 149 156 164 149 156 164 149 156 164 149 156 164 149 156 164 149 156 164 149 156 164 149 154 156 141 144 156 142 142 156 142 142 156 142 142 156 142 142 156 142 142 156 142 142 156 142 142 158 144 144 156 142 142 154 140 140 151 137 137 147 133 133 144 130 130 142 128 128 138 126 126 123 117 119 105 101 102 78 74 75 50 46 47 29 25 26 19 15 16 17 13 14 18 14 15 19 15 16 19 15 16 19 15 16 19 15 16 19 15 16 19 15 16 19 15 16 16 16 16 11 16 19 8 18 19 8 18 19 8 18 19 8 18 19 8 18 19 8 18 19 8 18 19 9 19 20 9 19 20 9 19 20 9 19 20 9 19 20 9 19 20 9 19 20 9 19 20 11 19 21 11 19 21 11 19 21 11 19 21 11 19 21 11 19 21 11 19 21 11 19 21 24 32 34 35 43 45 50 58 60 62 70 72 65 73 75 60 68 70 49 57 59 42 51 50 41 50 49 39 48 45 37 46 43 34 43 40 30 39 36 27 36 33 25 34 31 23 32 29 18 27 24 16 25 22 14 23 20 11 20 17 7 16 13 4 13 10 2 11 8 0 9 6 3 14 8 3 14 8 3 14 8 3 14 8 3 14 8 3 14 8 3 14 8 3 14 8 9 20 14 11 22 16 13 24 18 16 27 21 20 31 25 23 34 28 25 36 30 27 38 32 40 46 42 40 46 42 40 46 42 40 46 42 40 46 42 40 46 42 40 46 42 40 46 42 36 42 38 36 42 38 36 42 38 36 42 38 36 42 38 36 42 38 36 42 38 37 42 38 50 49 45 50 46 43 48 44 41 45 41 38 41 37 34 38 34 31 36 32 29 34 30 27 37 33 30 37 33 30 37 33 30 37 33 30 37 33 30 37 33 30 37 33 30 37 34 29 39 34 30 39 34 28 39 34 28 39 34 28 39 34 28 39 34 28 39 34 28 39 34 28 41 36 30 41 36 30 41 36 30 41 36 30 41 36 30 41 36 30 41 36 30 41 36 30
151 138 147 151 138 147 151 138 147 151 138 147 153 140 149 153 140 149 153 140 149 153 140 149 153 140 149 153 140 149 153 140 149 153 140 149 165 150 157 165 150 157 165 150 157 165 150 157 165 150 157 165 150 157 165 150 157 165 150 157 164 149 156 162 147 154 160 145 152 157 142 149 153 138 145 150 135 142 148 133 140 146 131 136 157 142 145 157 143 143 157 143 143 157 143 143 157 143 143 157 143 143 157 143 143 157 143 143 160 146 146 162 148 148 164 150 150 161 147 147 152 138 138 138 124 124 123 109 109 112 100 100 74 68 70 63 59 60 46 42 43 30 26 27 18 14 15 13 9 10 13 9 10 14 10 11 17 13 14 17 13 14 17 13 14 17 13 14 17 13 14 17 13 14 17 13 14 14 14 14 11 16 19 8 18 19 8 18 19 8 18 19 8 18 19 8 18 19 8 18 19 8 18 19 10 20 21 10 20 21 10 20 21 10 20 21 10 20 21 10 20 21 10 20 21 10 20 21 1 9 11 3 11 13 6 14 16 10 18 20 14 22 24 18 26 28 21 29 31 23 31 33 71 79 81 76 84 86 81 89 91 84 92 94 80 88 90 71 79 81 61 69 71 54 63 62 50 59 58 47 56 53 42 51 48 36 45 42 29 38 35 23 32 29 18 27 24 15 24 21 14 23 20 14 23 20 14 23 20 14 23 20 14 23 20 14 23 20 14 23 20 14 23 20 7 18 12 7 18 12 7 18 12 7 18 12 7 18 12 7 18 12 7 18 12 7 18 12 10 21 15 12 23 17 14 25 19 17 28 22 21 32 26 24 35 29 26 37 31 28 39 33 30 36 32 30 36 32 30 36 32 30 36 32 30 36 32 30 36 32 30 36 32 30 36 32 33 39 35 33 39 35 33 39 35 33 39 35 33 39 35 33 39 35 33 39 35 34 39 35 34 33 29 36 32 29 36 32 29 36 32 29 36 32 29 36 32 29 36 32 29 36 32 29 37 33 30 37 33 30 37 33 30 37 33 30 37 33 30 37 33 30 37 33 30 37 34 29 39 34 30 39 34 28 39 34 28 39 34 28 39 34 28 39 34 28 39 34 28 39 34 28 40 35 29 40 35 29 40 35 29 40 35 29 40 35 29 40 35 29 40 35 29 40 35 29
151 138 147 151 138 147 151 138 147 151 138 147 153 140 149 153 140 149 153 140 149 153 140 149 153 140 149 153 140 149 153 140 149 153 140 149 165 150 157 165 150 157 165 150 157 165 150 157 165 150 157 165 150 157 165 150 157 165 150 157 164 149 156 162 147 154 160 145 152 157 142 149 153 138 145 150 135 142 148 133 140 146 131 136 155 140 143 155 141 141 155 141 141 155 141 141 155 141 141 155 141 141 155 141 141 155 141 141 156 142 142 158 144 144 159 145 145 156 142 142 146 132 132 132 118 118 117 103 103 105 93 93 71 65 67 60 56 57 44 40 41 28 24 25 17 13 14 13 9 10 13 9 10 14 10 11 17 13 14 17 13 14 17 13 14 17 13 14 17 13 14 17 13 14 17 13 14 14 14 14 11 16 19 8 18 19 8 18 19 8 18 19 8 18 19 8 18 19 8 18 19 8 18 19 10 20 21 10 20 21 10 20 21 10 20 21 10 20 21 10 20 21 10 20 21 10 20 21 0 4 6 0 7 9 5 13 15 12 20 22 20 28 30 27 35 37 33 41 43 36 44 46 73 81 83 77 85 87 83 91 93 85 93 95 82 90 92 73 81 83 62 70 72 55 64 63 51 60 59 48 57 54 43 52 49 37 46 43 30 39 36 24 33 30 19 28 25 16 25 22 14 23 20 14 23 20 14 23 20 14 23 20 14 23 20 14 23 20 14 23 20 14 23 20 7 18 12 7 18 12 7 18 12 7 18 12 7 18 12 7 18 12 7 18 12 7 18 12 10 21 15 12 23 17 14 25 19 17 28 22 21 32 26 24 35 29 26 37 31 28 39 33 30 36 32 30 36 32 30 36 32 30 36 32 30 36 32 30 36 32 30 36 32 30 36 32 33 39 35 33 39 35 33 39 35 33 39 35 33 39 35 33 39 35 33 39 35 34 39 35 34 33 29 36 32 29 36 32 29 36 32 29 36 32 29 36 32 29 36 32 29 36 32 29 37 33 30 37 33 30 37 33 30 37 33 30 37 33 30 37 33 30 37 33 30 37 34 29 39 34 30 39 34 28 39 34 28 39 34 28 39 34 28 39 34 28 39 34 28 39 34 28 40 35 29 40 35 29 40 35 29 40 35 29 40 35 29 40 35 29 40 35 29 40 35 29
151 138 147 151 138 147 151 138 147 151 138 147 153 140 149 153 140 149 153 140 149 153 140 149 153 140 149 153 140 149 153 140 149 153 140 149 165 150 157 165 150 157 165 150 157 165 150 157 165 150 157 165 150 157 165 150 157 165 150 157 164 149 156 162 147 154 160 145 152 157 142 149 153 138 145 150 135 142 148 133 140 146 131 136 153 138 141 153 139 139 153 139 139 153 139 139 153 139 139 153 139 139 153 139 139 153 139 139 150 136 136 151 137 137 151 137 137 147 133 133 136 122 122 120 106 106 104 90 90 92 80 80 65 59 61 54 50 51 40 36 37 25 21 22 15 11 12 12 8 9 13 9 10 15 11 12 17 13 14 17 13 14 17 13 14 17 13 14 17 13 14 17 13 14 17 13 14 14 14 14 11 16 19 8 18 19 8 18 19 8 18 19 8 18 19 8 18 19 8 18 19 8 18 19 10 20 21 10 20 21 10 20 21 10 20 21 10 20 21 10 20 21 10 20 21 10 20 21 0 2 4 0 4 6 5 13 15 17 25 27 30 38 40 42 50 52 51 59 61 56 64 66 75 83 85 79 87 89 85 93 95 87 95 97 84 92 94 75 83 85 65 73 75 58 67 66 53 62 61 51 60 57 46 55 52 40 49 46 33 42 39 26 35 32 21 30 27 19 28 25 14 23 20 14 23 20 14 23 20 14 23 20 14 23 20 14 23 20 14 23 20 14 23 20 7 18 12 7 18 12 7 18 12 7 18 12 7 18 12 7 18 12 7 18 12 7 18 12 10 21 15 12 23 17 14 25 19 17 28 22 21 32 26 24 35 29 26 37 31 28 39 33 30 36 32 30 36 32 30 36 32 30 36 32 30 36 32 30 36 32 30 36 32 30 36 32 33 39 35 33 39 35 33 39 35 33 39 35 33 39 35 33 39 35 33 39 35 34 39 35 34 33 29 36 32 29 36 32 29 36 32 29 36 32 29 36 32 29 36 32 29 36 32 29 37 33 30 37 33 30 37 33 30 37 33 30 37 33 30 37 33 30 37 33 30 37 34 29 39 34 30 39 34 28 39 34 28 39 34 28 39 34 28 39 34 28 39 34 28 39 34 28 40 35 29 40 35 29 40 35 29 40 35 29 40 35 29 40 35 29 40 35 29 40 35 29
151 138 147 151 138 147 151 138 147 151 138 147 153 140 149 153 140 149 153 140 149 153 140 149 153 140 149 153 140 149 153 140 149 153 140 149 165 150 157 165 150 157 165 150 157 165 150 157 165 150 157 165 150 157 165 150 157 165 150 157 164 149 156 162 147 154 160 145 152 157 142 149 153 138 145 150 135 142 148 133 140 146 131 136 150 135 138 150 136 136 150 136 136 150 136 136 150 136 136 150 136 136 150 136 136 150 136 136 142 128 128 142 128 128 141 127 127 135 121 121 122 108 108 105 91 91 88 74 74 75 63 63 57 51 53 47 43 44 34 30 31 21 17 18 13 9 10 12 8 9 14 10 11 17 13 14 17 13 14 17 13 14 17 13 14 17 13 14 17 13 14 17 13 14 17 13 14 14 14 14 11 16 19 8 18 19 8 18 19 8 18 19 8 18 19 8 18 19 8 18 19 8 18 19 10 20 21 10 20 21 10 20 21 10 20 21 10 20 21 10 20 21 10 20 21 10 20 21 0 2 4 0 6 8 9 17 19 25 33 35 41 49 51 56 64 66 68 76 78 74 82 84 78 86 88 83 91 93 88 96 98 91 99 101 87 95 97 78 86 88 68 76 78 61 70 69 57 66 65 54 63 60 49 58 55 43 52 49 36 45 42 29 38 35 25 34 31 22 31 28 14 23 20 14 23 20 14 23 20 14 23 20 14 23 20 14 23 20 14 23 20 14 23 20 7 18 12 7 18 12 7 18 12 7 18 12 7 18 12 7 18 12 7 18 12 7 18 12 10 21 15 12 23 17 14 25 19 17 28 22 21 32 26 24 35 29 26 37 31 28 39 33 30 36 32 30 36 32 30 36 32 30 36 32 30 36 32 30 36 32 30 36 32 30 36 32 33 39 35 33 39 35 33 39 35 33 39 35 33 39 35 33 39 35 33 39 35 34 39 35 34 33 29 36 32 29 36 32 29 36 32 29 36 32 29 36 32 29 36 32 29 36 32 29 37 33 30 37 33 30 37 33 30 37 33 30 37 33 30 37 33 30 37 33 30 37 34 29 39 34 30 39 34 28 39 34 28 39 34 28 39 34 28 39 34 28 39 34 28 39 34 28 40 35 29 40 35 29 40 35 29 40 35 29 40 35 29 40 35 29 40 35 29 40 35 29
151 138 147 151 138 147 151 138 147 151 138 147 153 140 149 153 140 149 153 140 149 153 140 149 153 140 149 153 140 149 153 140 149 153 140 149 165 150 157 165 150 157 165 150 157 165 150 157 165 150 157 165 150 157 165 150 157 165 150 157 164 149 156 162 147 154 160 145 152 157 142 149 153 138 145 150 135 142 148 133 140 146 131 136 146 131 134 146 132 132 146 132 132 146 132 132 146 132 132 146 132 132 146 132 132 146 132 132 133 119 119 133 119 119 130 116 116 122 108 108 107 93 93 88 74 74 70 56 56 56 44 44 49 43 45 40 36 37 28 24 25 17 13 14 11 7 8 11 7 8 15 11 12 18 14 15 17 13 14 17 13 14 17 13 14 17 13 14 17 13 14 17 13 14 17 13 14 14 14 14 11 16 19 8 18 19 8 18 19 8 18 19 8 18 19 8 18 19 8 18 19 8 18 19 10 20 21 10 20 21 10 20 21 10 20 21 10 20 21 10 20 21 10 20 21 10 20 21 2 10 12 8 16 18 20 28 30 35 43 45 51 59 61 67 75 77 78 86 88 85 93 95 82 90 92 86 94 96 92 100 102 94 102 104 91 99 101 82 90 92 71 79 81 64 73 72 60 69 68 57 66 63 53 62 59 46 55 52 39 48 45 33 42 39 28 37 34 25 34 31 14 23 20 14 23 20 14 23 20 14 23 20 14 23 20 14 23 20 14 23 20 14 23 20 7 18 12 7 18 12 7 18 12 7 18 12 7 18 12 7 18 12 7 18 12 7 18 12 10 21 15 12 23 17 14 25 19 17 28 22 21 32 26 24 35 29 26 37 31 28 39 33 30 36 32 30 36 32 30 36 32 30 36 32 30 36 32 30 36 32 30 36 32 30 36 32 33 39 35 33 39 35 33 39 35 33 39 35 33 39 35 33 39 35 33 39 35 34 39 35 34 33 29 36 32 29 36 32 29 36 32 29 36 32 29 36 32 29 36 32 29 36 32 29 37 33 30 37 33 30 37 33 30 37 33 30 37 33 30 37 33 30 37 33 30 37 34 29 39 34 30 39 34 28 39 34 28 39 34 28 39 34 28 39 34 28 39 34 28 39 34 28 40 35 29 40 35 29 40 35 29 40 35 29 40 35 29 40 35 29 40 35 29 40 35 29
151 138 147 151 138 147 151 138 147 151 138 147 153 140 149 153 140 149 153 140 149 153 140 149 153 140 149 153 140 149 153 140 149 153 140 149 165 150 157 165 150 157 165 150 157 165 150 157 165 150 157 165 150 157 165 150 157 165 150 157 164 149 156 162 147 154 160 145 152 157 142 149 153 138 145 150 135 142 148 133 140 146 131 136 143 128 131 143 129 129 143 129 129 143 129 129 143 129 129 143 129 129 143 129 129 143 129 129 124 110 110 124 110 110 120 106 106 110 96 96 94 80 80 73 59 59 53 39 39 39 27 27 41 35 37 33 29 30 22 18 19 13 9 10 8 4 5 10 6 7 15 11 12 19 15 16 17 13 14 17 13 14 17 13 14 17 13 14 17 13 14 17 13 14 17 13 14 14 14 14 11 16 19 8 18 19 8 18 19 8 18 19 8 18 19 8 18 19 8 18 19 8 18 19 10 20 21 10 20 21 10 20 21 10 20 21 10 20 21 10 20 21 10 20 21 10 20 21 20 28 30 25 33 35 34 42 44 46 54 56 59 67 69 71 79 81 80 88 90 85 93 95 85 93 95 89 97 99 95 103 105 97 105 107 94 102 104 85 93 95 75 83 85 68 77 76 63 72 71 61 70 67 56 65 62 49 58 55 42 51 48 36 45 42 31 40 37 29 38 35 14 23 20 14 23 20 14 23 20 14 23 20 14 23 20 14 23 20 14 23 20 14 23 20 7 18 12 7 18 12 7 18 12 7 18 12 7 18 12 7 18 12 7 18 12 7 18 12 10 21 15 12 23 17 14 25 19 17 28 22 21 32 26 24 35 29 26 37 31 28 39 33 30 36 32 30 36 32 30 36 32 30 36 32 30 36 32 30 36 32 30 36 32 30 36 32 33 39 35 33 39 35 33 39 35 33 39 35 33 39 35 33 39 35 33 39 35 34 39 35 34 33 29 36 32 29 36 32 29 36 32 29 36 32 29 36 32 29 36 32 29 36 32 29 37 33 30 37 33 30 37 33 30 37 33 30 37 33 30 37 33 30 37 33 30 37 34 29 39 34 30 39 34 28 39 34 28 39 34 28 39 34 28 39 34 28 39 34 28 39 34 28 40 35 29 40 35 29 40 35 29 40 35 29 40 35 29 40 35 29 40 35 29 40 35 29
151 138 147 151 138 147 151 138 147 151 138 147 153 140 149 153 140 149 153 140 149 153 140 149 153 140 149 153 140 149 153 140 149 153 140 149 165 150 157 165 150 157 165 150 157 165 150 157 165 150 157 165 150 157 165 150 157 165 150 157 164 149 156 162 147 154 160 145 152 157 142 149 153 138 145 150 135 142 148 133 140 146 131 136 141 126 129 141 127 127 141 127 127 141 127 127 141 127 127 141 127 127 141 127 127 141 127 127 118 104 104 117 103 103 112 98 98 101 87 87 83 69 69 61 47 47 41 27 27 26 14 14 35 29 31 28 24 25 18 14 15 9 5 6 7 3 4 10 6 7 16 12 13 20 16 17 17 13 14 17 13 14 17 13 14 17 13 14 17 13 14 17 13 14 17 13 14 14 14 14 11 16 19 8 18 19 8 18 19 8 18 19 8 18 19 8 18 19 8 18 19 8 18 19 10 20 21 10 20 21 10 20 21 10 20 21 10 20 21 10 20 21 10 20 21 10 20 21 40 48 50 43 51 53 49 57 59 56 64 66 64 72 74 71 79 81 77 85 87 80 88 90 87 95 97 92 100 102 97 105 107 100 108 110 96 104 106 87 95 97 77 85 87 70 79 78 66 75 74 63 72 69 58 67 64 52 61 58 45 54 51 39 48 45 34 43 40 31 40 37 14 23 20 14 23 20 14 23 20 14 23 20 14 23 20 14 23 20 14 23 20 14 23 20 7 18 12 7 18 12 7 18 12 7 18 12 7 18 12 7 18 12 7 18 12 7 18 12 10 21 15 12 23 17 14 25 19 17 28 22 21 32 26 24 35 29 26 37 31 28 39 33 30 36 32 30 36 32 30 36 32 30 36 32 30 36 32 30 36 32 30 36 32 30 36 32 33 39 35 33 39 35 33 39 35 33 39 35 33 39 35 33 39 35 33 39 35 34 39 35 34 33 29 36 32 29 36 32 29 36 32 29 36 32 29 36 32 29 36 32 29 36 32 29 37 33 30 37 33 30 37 33 30 37 33 30 37 33 30 37 33 30 37 33 30 37 34 29 39 34 30 39 34 28 39 34 28 39 34 28 39 34 28 39 34 28 39 34 28 39 34 28 40 35 29 40 35 29 40 35 29 40 35 29 40 35 29 40 35 29 40 35 29 40 35 29
153 137 147 153 137 147 153 137 147 153 137 147 155 139 149 155 139 149 155 139 149 155 139 149 155 139 149 155 139 149 155 139 149 155 139 149 165 150 157 165 150 157 165 150 157 165 150 157 165 150 157 165 150 157 165 150 157 165 150 157 164 149 156 162 147 154 160 145 152 157 142 149 153 138 145 150 135 142 148 133 140 146 131 136 137 125 127 137 125 125 137 125 125 137 125 125 137 125 125 137 125 125 137 125 125 137 125 125 112 100 100 111 99 99 106 94 94 94 82 82 76 64 64 53 41 41 32 20 20 18 8 9 31 27 28 22 22 22 13 11 14 5 5 5 4 2 5 6 6 6 14 12 15 18 18 18 15 13 16 14 14 14 15 13 16 14 14 14 15 13 16 14 14 14 15 13 16 13 14 16 11 17 17 8 18 19 8 18 19 8 18 19 8 18 19 8 18 19 8 18 19 8 18 19 10 20 21 10 20 21 10 20 21 10 20 21 10 20 21 10 20 21 10 20 21 10 20 21 53 61 63 55 64 63 58 66 68 62 71 70 66 74 76 70 79 78 73 81 83 75 84 83 89 97 99 93 102 101 99 107 109 101 110 109 98 106 108 89 98 97 78 86 88 71 80 79 67 76 75 64 73 70 59 68 67 53 62 59 46 55 54 40 49 46 35 44 43 32 41 38 14 23 22 14 23 20 14 23 22 14 23 20 14 23 22 14 23 20 14 23 22 14 23 20 7 18 14 7 18 12 7 18 14 7 18 12 7 18 14 7 18 12 7 18 14 7 18 12 10 21 17 12 23 17 14 25 21 17 28 22 21 32 28 24 35 29 26 37 33 28 39 33 30 36 32 30 36 32 30 36 32 30 36 32 30 36 32 30 36 32 30 36 32 30 36 32 33 39 35 33 39 35 33 39 35 33 39 35 33 39 35 33 39 35 33 39 35 34 39 35 34 33 29 36 33 28 37 32 29 36 33 28 37 32 29 36 33 28 37 32 29 36 33 28 38 33 30 37 34 29 38 33 30 37 34 29 38 33 30 37 34 29 38 33 30 38 33 29 39 34 28 39 35 26 39 34 28 39 35 26 39 34 28 39 35 26 39 34 28 39 35 26 40 35 29 40 36 27 40 35 29 40 36 27 40 35 29 40 36 27 40 35 29 40 35 29
147 130 140 147 130 140 147 130 140 147 130 140 154 137 147 154 137 147 154 137 147 154 137 147 154 137 147 154 137 147 154 137 147 154 137 147 159 144 151 159 144 149 159 144 149 159 144 149 159 144 149 159 144 149 159 144 149 159 144 149 144 129 134 146 131 136 148 133 138 151 136 141 155 140 145 158 143 148 160 145 150 160 148 152 152 142 143 149 140 141 146 137 138 142 133 134 138 129 130 134 125 126 131 122 123 129 120 121 80 71 72 70 61 62 53 44 45 37 28 29 25 16 17 20 11 12 20 11 12 18 14 13 12 13 15 9 15 15 10 14 17 9 15 15 10 14 17 9 15 15 10 14 17 9 15 15 11 15 18 10 16 16 11 15 18 10 16 16 11 15 18 10 16 16 11 15 18 10 16 16 9 18 17 8 17 16 7 16 15 6 15 14 5 14 13 3 12 11 3 12 11 2 11 10 9 18 17 12 21 20 18 27 26 25 34 33 33 42 41 41 50 49 47 56 55 50 59 58 54 60 60 56 62 60 58 64 64 61 67 65 65 71 71 68 74 72 70 76 76 72 78 76 85 91 91 87 93 91 89 95 95 92 98 96 96 102 102 99 105 103 101 107 107 103 109 109 77 83 83 74 80 80 69 74 77 63 69 69 56 61 64 50 56 56 45 50 53 42 48 48 18 23 26 20 26 26 23 28 31 28 34 34 32 37 40 37 43 43 40 45 48 40 49 48 7 17 16 7 18 14 7 17 16 7 18 14 7 17 16 7 18 14 7 17 16 7 18 14 15 25 24 15 26 22 15 25 24 15 26 22 15 25 24 15 26 22 15 25 24 15 26 22 34 40 38 34 40 38 34 40 38 34 40 38 34 40 38 34 40 38 34 40 38 34 40 38 23 29 27 23 29 27 23 29 27 23 29 27 23 29 27 23 29 27 23 29 27 26 28 25 34 31 26 35 30 24 37 29 26 35 30 24 37 29 26 35 30 24 37 29 26 35 30 24 40 32 29 38 33 27 40 32 29 38 33 27 40 32 29 38 33 27 40 32 29 40 33 27 41 34 26 41 34 24 41 34 26 41 34 24 41 34 26 41 34 24 41 34 26 41 34 24 41 34 26 41 34 24 41 34 26 41 34 24 41 34 26 41 34 24 41 34 26 39 35 26
149 129 140 149 129 140 149 129 140 149 129 140 156 136 147 156 136 147 156 136 147 156 136 147 156 136 147 156 136 147 156 136 147 154 137 145 158 141 149 157 142 147 157 142 147 157 142 147 157 142 147 157 142 147 157 142 147 157 142 147 144 129 134 146 131 136 148 133 138 151 136 141 155 140 145 158 143 148 160 145 150 160 148 152 150 141 142 146 140 140 142 136 136 137 131 131 131 125 125 126 120 120 122 116 116 120 114 114 75 69 69 65 59 59 49 43 43 33 27 27 22 16 16 18 12 12 18 12 12 16 14 15 10 14 15 7 15 17 7 15 17 7 15 17 7 15 17 7 15 17 7 15 17 7 15 17 8 16 18 8 16 18 8 16 18 8 16 18 8 16 18 8 16 18 8 16 18 8 16 18 8 17 16 8 17 16 8 17 16 7 16 15 6 15 14 6 15 14 5 14 13 5 14 13 12 21 20 15 24 23 20 29 28 27 36 35 34 43 42 41 50 49 47 56 55 50 59 58 54 60 58 56 62 60 58 64 62 61 67 65 65 71 69 68 74 72 70 76 74 72 78 76 85 91 89 87 93 91 89 95 93 92 98 96 96 102 100 99 105 103 101 107 105 103 109 107 78 83 86 75 80 83 70 75 78 64 69 72 57 62 65 51 56 59 46 51 54 43 48 51 20 25 28 21 26 29 24 29 32 28 33 36 32 37 40 36 41 44 39 44 47 38 46 48 10 19 18 9 19 18 9 19 18 9 19 18 9 19 18 9 19 18 9 19 18 9 19 18 15 25 24 15 25 24 15 25 24 15 25 24 15 25 24 15 25 24 15 25 24 15 25 24 32 38 36 32 38 36 32 38 36 32 38 36 32 38 36 32 38 36 32 38 36 32 38 36 23 29 27 23 29 27 23 29 27 23 29 27 23 29 27 23 29 27 23 29 27 26 28 25 34 31 26 37 30 24 37 30 24 37 30 24 37 30 24 37 30 24 37 30 24 37 30 24 40 33 27 40 33 27 40 33 27 40 33 27 40 33 27 40 33 27 40 33 27 40 33 25 41 34 26 41 34 24 41 34 24 41 34 24 41 34 24 41 34 24 41 34 24 41 34 24 41 34 24 41 34 24 41 34 24 41 34 24 41 34 24 41 34 24 41 34 24 41 34 24
149 129 140 149 129 140 149 129 140 149 129 140 156 136 147 156 136 147 156 136 147 156 136 147 156 136 147 156 136 147 156 136 147 154 137 145 156 139 147 155 140 145 155 140 145 155 140 145 155 140 145 155 140 145 155 140 145 155 140 145 144 129 134 146 131 136 148 133 138 151 136 141 155 140 145 158 143 148 160 145 150 160 148 152 150 141 142 145 139 139 139 133 133 131 125 125 123 117 117 115 109 109 109 103 103 106 100 100 69 63 63 59 53 53 45 39 39 30 24 24 20 14 14 17 11 11 18 12 12 17 15 16 10 14 15 7 15 17 7 15 17 7 15 17 7 15 17 7 15 17 7 15 17 7 15 17 8 16 18 8 16 18 8 16 18 8 16 18 8 16 18 8 16 18 8 16 18 8 16 18 7 16 15 8 17 16 8 17 16 9 18 17 9 18 17 10 19 18 11 20 19 11 20 19 18 27 26 20 29 28 24 33 32 30 39 38 36 45 44 42 51 50 46 55 54 49 58 57 54 60 58 56 62 60 58 64 62 61 67 65 65 71 69 68 74 72 70 76 74 72 78 76 85 91 89 87 93 91 89 95 93 92 98 96 96 102 100 99 105 103 101 107 105 103 109 107 80 85 88 78 83 86 73 78 81 67 72 75 60 65 68 53 58 61 48 53 56 46 51 54 23 28 31 24 29 32 26 31 34 29 34 37 31 36 39 34 39 42 36 41 44 35 43 45 12 21 20 11 21 20 11 21 20 11 21 20 11 21 20 11 21 20 11 21 20 11 21 20 15 25 24 15 25 24 15 25 24 15 25 24 15 25 24 15 25 24 15 25 24 15 25 24 30 36 34 30 36 34 30 36 34 30 36 34 30 36 34 30 36 34 30 36 34 30 36 34 23 29 27 23 29 27 23 29 27 23 29 27 23 29 27 23 29 27 23 29 27 26 28 25 34 31 26 37 30 24 37 30 24 37 30 24 37 30 24 37 30 24 37 30 24 37 30 24 40 33 27 40 33 27 40 33 27 40 33 27 40 33 27 40 33 27 40 33 27 40 33 25 41 34 26 41 34 24 41 34 24 41 34 24 41 34 24 41 34 24 41 34 24 41 34 24 41 34 24 41 34 24 41 34 24 41 34 24 41 34 24 41 34 24 41 34 24 41 34 24
