P3
172 37
255
1 0 5 1 0 5 1 0 5 1 0 5 1 0 5 1 0 5 1 0 5 1 0 5 1 0 5 1 0 5 1 0 5 1 0 5 1 0 5 1 0 5 1 0 5 1 0 5 1 0 5 1 0 5 1 0 5 1 0 5 2 1 6 2 1 6 2 1 6 2 1 6 2 1 6 2 1 6 2 1 6 2 1 6 1 0 5 1 0 5 1 0 5 1 0 5 1 0 5 1 0 5 1 0 5 1 0 5 1 0 5 1 0 5 1 0 5 1 0 5 1 0 5 1 0 5 1 0 5 0 1 5 5 6 10 3 7 10 3 7 10 3 7 10 3 7 10 3 7 10 3 7 10 3 7 10 3 7 10 3 7 10 3 7 10 3 7 10 3 7 10 3 7 10 3 7 10 3 6 11 6 5 13 6 4 15 6 4 15 6 4 15 6 4 15 6 4 15 6 4 15 6 4 15 6 4 15 6 4 15 6 4 15 6 4 15 6 4 15 6 4 15 6 4 15 5 5 13 8 9 14 6 10 13 6 10 13 6 10 13 6 10 13 6 10 13 6 10 13 6 10 13 7 11 14 7 11 14 7 11 14 7 11 14 7 11 14 7 11 14 7 11 14 7 11 14 6 10 13 6 10 13 6 10 13 6 10 13 6 10 13 6 10 13 6 10 13 6 10 13 0 2 5 0 2 5 0 2 5 0 2 5 0 2 5 0 2 5 0 2 5 0 2 3 5 6 8 5 7 6 5 7 6 5 7 6 5 7 6 5 7 6 5 7 6 5 7 6 14 16 15 16 18 17 18 20 19 21 23 22 25 27 26 28 30 29 30 32 31 32 34 33 47 51 50 51 55 54 58 62 61 68 72 71 78 82 81 88 92 91 95 99 98 99 103 102 100 104 103 106 110 109 114 118 117 119 123 122 119 123 122 114 118 117 106 110 109 102 104 103 66 66 66 60 58 59 50 48 49 41 39 40 38 36 37 40 38 39 46 44 45 50 48 49 40 38 39 40 38 39 40 38 39 40 38 39 40 38 39 40 38 39 40 38 39 40 38 39 37 36 34 37 36 34 37 36 34 37 36 34 37 36 34 37 36 34 37 36 34 37 36 34 41 40 38 41 40 38 41 40 38 41 40 38 41 40 38 41 40 38 41 40 38 41 40 38
1 0 5 1 0 5 1 0 5 1 0 5 1 0 5 1 0 5 1 0 5 1 0 5 1 0 5 1 0 5 1 0 5 1 0 5 1 0 5 1 0 5 1 0 5 1 0 5 1 0 5 1 0 5 1 0 5 1 0 5 2 1 6 2 1 6 2 1 6 2 1 6 2 1 6 2 1 6 2 1 6 2 1 6 1 0 5 1 0 5 1 0 5 1 0 5 1 0 5 1 0 5 1 0 5 1 0 5 1 0 5 1 0 5 1 0 5 1 0 5 1 0 5 1 0 5 1 0 5 1 0 5 5 6 10 3 7 10 3 7 10 3 7 10 3 7 10 3 7 10 3 7 10 3 7 10 3 7 10 3 7 10 3 7 10 3 7 10 3 7 10 3 7 10 3 7 10 5 6 11 5 5 13 5 5 15 6 4 15 5 5 15 6 4 15 5 5 15 6 4 15 5 5 15 6 4 15 5 5 15 6 4 15 5 5 15 6 4 15 5 5 15 6 4 15 5 5 13 6 10 13 6 10 11 6 10 13 6 10 11 6 10 13 6 10 11 6 10 13 6 10 11 7 11 14 7 11 12 7 11 14 7 11 12 7 11 14 7 11 12 7 11 14 7 11 12 6 10 13 6 10 11 6 10 13 6 10 11 6 10 13 6 10 11 6 10 13 6 10 11 0 2 5 0 2 3 0 2 5 0 2 3 0 2 5 0 2 3 0 2 5 0 2 3 3 7 8 3 7 6 5 7 6 3 7 6 5 7 6 3 7 6 5 7 6 3 7 6 14 16 15 14 18 17 18 20 19 19 23 22 25 27 26 26 30 29 30 32 31 30 34 33 47 51 50 51 56 52 58 63 59 68 73 69 78 83 79 88 93 89 95 100 96 99 104 100 99 104 100 104 109 105 112 117 113 118 123 119 118 123 119 112 117 113 104 109 105 101 103 100 66 66 64 60 59 57 50 49 47 41 40 38 38 37 35 40 39 37 46 45 43 50 49 47 40 39 37 40 39 37 40 39 37 40 39 37 40 39 37 40 39 37 40 39 37 40 39 37 37 36 34 37 36 32 37 36 34 37 36 32 37 36 34 37 36 32 37 36 34 37 36 32 41 40 38 41 40 36 41 40 38 41 40 36 41 40 38 41 40 36 41 40 38 41 40 38
0 0 2 0 0 2 0 0 2 0 0 2 2 2 4 2 2 4 2 2 4 2 2 4 2 2 4 2 2 4 2 2 4 2 2 4 0 0 2 0 0 2 0 0 2 0 0 2 0 0 2 0 0 2 0 0 2 0 0 2 1 1 3 1 1 3 1 1 3 1 1 3 1 1 3 1 1 3 1 1 3 1 1 3 1 0 5 1 0 5 1 0 5 1 0 5 1 0 5 1 0 5 1 0 5 1 0 5 1 0 5 1 0 5 1 0 5 1 0 5 1 0 5 1 0 5 1 0 5 1 0 5 2 3 8 2 3 8 2 3 8 2 3 8 2 3 8 2 3 8 2 3 8 2 3 8 7 8 13 7 8 13 7 8 13 7 8 13 7 8 13 7 8 13 7 8 13 7 8 13 5 5 13 3 6 13 5 5 13 3 6 13 5 5 13 3 6 13 5 5 13 3 6 13 5 5 13 3 6 13 5 5 13 3 6 13 5 5 13 3 6 13 5 5 13 3 6 11 5 9 10 4 10 8 4 10 10 4 10 8 4 10 10 4 10 8 4 10 10 4 10 8 7 13 13 7 13 11 7 13 13 7 13 11 7 13 13 7 13 11 7 13 13 8 12 11 4 8 9 6 8 7 6 7 9 6 8 7 6 7 9 6 8 7 6 7 9 6 8 7 1 2 4 1 3 2 1 2 4 1 3 2 1 2 4 1 3 2 1 2 4 0 3 4 0 1 2 0 2 2 0 1 2 0 5 5 4 8 9 6 12 12 9 13 14 10 16 16 18 22 23 19 25 25 22 26 27 24 30 30 29 33 34 31 37 37 34 38 39 35 41 39 50 56 52 52 59 52 57 64 57 64 71 64 70 77 70 77 84 77 82 89 82 84 91 84 105 112 105 105 112 105 105 112 105 105 112 105 105 112 105 105 112 105 105 112 105 106 111 105 75 76 71 68 67 63 55 54 50 43 42 38 36 35 31 35 34 30 38 37 33 41 40 36 40 39 35 40 39 35 40 39 35 40 39 35 40 39 35 40 39 35 40 39 35 40 39 35 38 37 33 38 37 32 38 37 33 38 37 32 38 37 33 38 37 32 38 37 33 38 37 32 37 36 32 37 36 31 37 36 32 37 36 31 37 36 32 37 36 31 37 36 32 37 36 32
0 0 2 0 0 2 0 0 2 0 0 2 2 2 4 2 2 4 2 2 4 2 2 4 2 2 4 2 2 4 2 2 4 2 2 4 0 0 2 0 0 2 0 0 2 0 0 2 0 0 2 0 0 2 0 0 2 0 0 2 1 1 3 1 1 3 1 1 3 1 1 3 1 1 3 1 1 3 1 1 3 1 1 3 1 0 5 1 0 5 1 0 5 1 0 5 1 0 5 1 0 5 1 0 5 1 0 5 1 0 5 1 0 5 1 0 5 1 0 5 1 0 5 1 0 5 1 0 5 1 0 5 2 3 8 2 3 8 2 3 8 2 3 8 2 3 8 2 3 8 2 3 8 2 3 8 7 8 13 7 8 13 7 8 13 7 8 13 7 8 13 7 8 13 7 8 13 7 8 13 3 6 13 3 6 13 3 6 13 3 6 13 3 6 13 3 6 13 3 6 13 3 6 13 3 6 13 3 6 13 3 6 13 3 6 13 3 6 13 3 6 13 3 6 13 3 6 11 4 10 10 4 10 8 4 10 8 4 10 8 4 10 8 4 10 8 4 10 8 4 10 8 7 13 11 7 13 11 7 13 11 7 13 11 7 13 11 7 13 11 7 13 11 7 13 11 6 8 7 6 8 7 6 8 7 6 8 7 6 8 7 6 8 7 6 8 7 6 8 7 1 3 2 1 3 2 1 3 2 1 3 2 1 3 2 1 3 2 1 3 2 0 3 2 0 1 2 0 2 2 0 2 2 0 5 5 3 9 9 6 12 12 8 14 14 10 16 16 17 23 23 19 25 25 21 27 27 24 30 30 28 34 34 31 37 37 33 39 39 35 41 39 50 57 50 52 59 51 57 64 56 64 71 63 70 77 69 77 84 76 82 89 81 84 91 83 103 110 102 103 110 102 103 110 102 103 110 102 103 110 102 103 110 102 103 110 102 104 109 102 75 76 70 68 67 62 55 54 49 43 42 37 36 35 30 35 34 29 38 37 32 41 40 35 40 39 34 40 39 34 40 39 34 40 39 34 40 39 34 40 39 34 40 39 34 40 39 34 38 37 32 38 37 32 38 37 32 38 37 32 38 37 32 38 37 32 38 37 32 38 37 32 37 36 31 37 36 31 37 36 31 37 36 31 37 36 31 37 36 31 37 36 31 37 36 32
0 0 2 0 0 2 0 0 2 0 0 2 2 2 4 2 2 4 2 2 4 2 2 4 2 2 4 2 2 4 2 2 4 2 2 4 0 0 2 0 0 2 0 0 2 0 0 2 0 0 2 0 0 2 0 0 2 0 0 2 1 1 3 1 1 3 1 1 3 1 1 3 1 1 3 1 1 3 1 1 3 1 1 3 1 0 5 1 0 5 1 0 5 1 0 5 1 0 5 1 0 5 1 0 5 1 0 5 1 0 5 1 0 5 1 0 5 1 0 5 1 0 5 1 0 5 1 0 5 1 0 5 2 3 8 2 3 8 2 3 8 2 3 8 2 3 8 2 3 8 2 3 8 2 3 8 7 8 13 7 8 13 7 8 13 7 8 13 7 8 13 7 8 13 7 8 13 7 8 13 3 6 13 3 6 13 3 6 13 3 6 13 3 6 13 3 6 13 3 6 13 3 6 13 3 6 13 3 6 13 3 6 13 3 6 13 3 6 13 3 6 13 3 6 13 3 6 11 4 10 10 4 10 8 4 10 8 4 10 8 4 10 8 4 10 8 4 10 8 4 10 8 7 13 11 7 13 11 7 13 11 7 13 11 7 13 11 7 13 11 7 13 11 7 13 11 6 8 7 6 8 7 6 8 7 6 8 7 6 8 7 6 8 7 6 8 7 6 8 7 1 3 2 1 3 2 1 3 2 1 3 2 1 3 2 1 3 2 1 3 2 0 3 2 0 1 2 0 2 2 0 2 2 0 5 5 3 9 9 6 12 12 8 14 14 10 16 16 17 23 23 19 25 25 21 27 27 24 30 30 28 34 34 31 37 37 33 39 39 35 41 39 50 57 50 52 59 51 57 64 56 64 71 63 70 77 69 77 84 76 82 89 81 84 91 83 101 108 100 101 108 100 101 108 100 101 108 100 101 108 100 101 108 100 101 108 100 102 107 100 75 76 70 68 67 62 55 54 49 43 42 37 36 35 30 35 34 29 38 37 32 41 40 35 40 39 34 40 39 34 40 39 34 40 39 34 40 39 34 40 39 34 40 39 34 40 39 34 38 37 32 38 37 32 38 37 32 38 37 32 38 37 32 38 37 32 38 37 32 38 37 32 37 36 31 37 36 31 37 36 31 37 36 31 37 36 31 37 36 31 37 36 31 37 36 32
0 0 2 0 0 2 0 0 2 0 0 2 2 2 4 2 2 4 2 2 4 2 2 4 2 2 4 2 2 4 2 2 4 2 2 4 0 0 2 0 0 2 0 0 2 0 0 2 0 0 2 0 0 2 0 0 2 0 0 2 1 1 3 1 1 3 1 1 3 1 1 3 1 1 3 1 1 3 1 1 3 1 1 3 1 0 5 1 0 5 1 0 5 1 0 5 1 0 5 1 0 5 1 0 5 1 0 5 1 0 5 1 0 5 1 0 5 1 0 5 1 0 5 1 0 5 1 0 5 1 0 5 2 3 8 2 3 8 2 3 8 2 3 8 2 3 8 2 3 8 2 3 8 2 3 8 7 8 13 7 8 13 7 8 13 7 8 13 7 8 13 7 8 13 7 8 13 7 8 13 3 6 13 3 6 13 3 6 13 3 6 13 3 6 13 3 6 13 3 6 13 3 6 13 3 6 13 3 6 13 3 6 13 3 6 13 3 6 13 3 6 13 3 6 13 3 6 11 4 10 10 4 10 8 4 10 8 4 10 8 4 10 8 4 10 8 4 10 8 4 10 8 7 13 11 7 13 11 7 13 11 7 13 11 7 13 11 7 13 11 7 13 11 7 13 11 6 8 7 6 8 7 6 8 7 6 8 7 6 8 7 6 8 7 6 8 7 6 8 7 1 3 2 1 3 2 1 3 2 1 3 2 1 3 2 1 3 2 1 3 2 0 3 2 0 1 2 0 2 2 0 2 2 0 5 5 3 9 9 6 12 12 8 14 14 10 16 16 17 23 23 19 25 25 21 27 27 24 30 30 28 34 34 31 37 37 33 39 39 35 41 39 50 57 50 52 59 51 57 64 56 64 71 63 70 77 69 77 84 76 82 89 81 84 91 83 98 105 97 98 105 97 98 105 97 98 105 97 98 105 97 98 105 97 98 105 97 99 104 97 75 76 70 68 67 62 55 54 49 43 42 37 36 35 30 35 34 29 38 37 32 41 40 35 40 39 34 40 39 34 40 39 34 40 39 34 40 39 34 40 39 34 40 39 34 40 39 34 38 37 32 38 37 32 38 37 32 38 37 32 38 37 32 38 37 32 38 37 32 38 37 32 37 36 31 37 36 31 37 36 31 37 36 31 37 36 31 37 36 31 37 36 31 37 36 32
0 0 2 0 0 2 0 0 2 0 0 2 2 2 4 2 2 4 2 2 4 2 2 4 2 2 4 2 2 4 2 2 4 2 2 4 0 0 2 0 0 2 0 0 2 0 0 2 0 0 2 0 0 2 0 0 2 0 0 2 1 1 3 1 1 3 1 1 3 1 1 3 1 1 3 1 1 3 1 1 3 1 1 3 1 0 5 1 0 5 1 0 5 1 0 5 1 0 5 1 0 5 1 0 5 1 0 5 1 0 5 1 0 5 1 0 5 1 0 5 1 0 5 1 0 5 1 0 5 1 0 5 2 3 8 2 3 8 2 3 8 2 3 8 2 3 8 2 3 8 2 3 8 2 3 8 7 8 13 7 8 13 7 8 13 7 8 13 7 8 13 7 8 13 7 8 13 7 8 13 3 6 13 3 6 13 3 6 13 3 6 13 3 6 13 3 6 13 3 6 13 3 6 13 3 6 13 3 6 13 3 6 13 3 6 13 3 6 13 3 6 13 3 6 13 3 6 11 4 10 10 4 10 8 4 10 8 4 10 8 4 10 8 4 10 8 4 10 8 4 10 8 7 13 11 7 13 11 7 13 11 7 13 11 7 13 11 7 13 11 7 13 11 7 13 11 6 8 7 6 8 7 6 8 7 6 8 7 6 8 7 6 8 7 6 8 7 6 8 7 1 3 2 1 3 2 1 3 2 1 3 2 1 3 2 1 3 2 1 3 2 0 3 2 0 1 2 0 2 2 0 2 2 0 5 5 3 9 9 6 12 12 8 14 14 10 16 16 17 23 23 19 25 25 21 27 27 24 30 30 28 34 34 31 37 37 33 39 39 35 41 39 50 57 50 52 59 51 57 64 56 64 71 63 70 77 69 77 84 76 82 89 81 84 91 83 94 101 93 94 101 93 94 101 93 94 101 93 94 101 93 94 101 93 94 101 93 95 100 93 75 76 70 68 67 62 55 54 49 43 42 37 36 35 30 35 34 29 38 37 32 41 40 35 40 39 34 40 39 34 40 39 34 40 39 34 40 39 34 40 39 34 40 39 34 40 39 34 38 37 32 38 37 32 38 37 32 38 37 32 38 37 32 38 37 32 38 37 32 38 37 32 37 36 31 37 36 31 37 36 31 37 36 31 37 36 31 37 36 31 37 36 31 37 36 32
0 0 2 0 0 2 0 0 2 0 0 2 2 2 4 2 2 4 2 2 4 2 2 4 2 2 4 2 2 4 2 2 4 2 2 4 0 0 2 0 0 2 0 0 2 0 0 2 0 0 2 0 0 2 0 0 2 0 0 2 1 1 3 1 1 3 1 1 3 1 1 3 1 1 3 1 1 3 1 1 3 1 1 3 1 0 5 1 0 5 1 0 5 1 0 5 1 0 5 1 0 5 1 0 5 1 0 5 1 0 5 1 0 5 1 0 5 1 0 5 1 0 5 1 0 5 1 0 5 1 0 5 2 3 8 2 3 8 2 3 8 2 3 8 2 3 8 2 3 8 2 3 8 2 3 8 7 8 13 7 8 13 7 8 13 7 8 13 7 8 13 7 8 13 7 8 13 7 8 13 3 6 13 3 6 13 3 6 13 3 6 13 3 6 13 3 6 13 3 6 13 3 6 13 3 6 13 3 6 13 3 6 13 3 6 13 3 6 13 3 6 13 3 6 13 3 6 11 4 10 10 4 10 8 4 10 8 4 10 8 4 10 8 4 10 8 4 10 8 4 10 8 7 13 11 7 13 11 7 13 11 7 13 11 7 13 11 7 13 11 7 13 11 7 13 11 6 8 7 6 8 7 6 8 7 6 8 7 6 8 7 6 8 7 6 8 7 6 8 7 1 3 2 1 3 2 1 3 2 1 3 2 1 3 2 1 3 2 1 3 2 0 3 2 0 1 2 0 2 2 0 2 2 0 5 5 3 9 9 6 12 12 8 14 14 10 16 16 17 23 23 19 25 25 21 27 27 24 30 30 28 34 34 31 37 37 33 39 39 35 41 39 50 57 50 52 59 51 57 64 56 64 71 63 70 77 69 77 84 76 82 89 81 84 91 83 91 98 90 91 98 90 91 98 90 91 98 90 91 98 90 91 98 90 91 98 90 92 97 90 75 76 70 68 67 62 55 54 49 43 42 37 36 35 30 35 34 29 38 37 32 41 40 35 40 39 34 40 39 34 40 39 34 40 39 34 40 39 34 40 39 34 40 39 34 40 39 34 38 37 32 38 37 32 38 37 32 38 37 32 38 37 32 38 37 32 38 37 32 38 37 32 37 36 31 37 36 31 37 36 31 37 36 31 37 36 31 37 36 31 37 36 31 37 36 32
0 0 2 0 0 2 0 0 2 0 0 2 2 2 4 2 2 4 2 2 4 2 2 4 2 2 4 2 2 4 2 2 4 2 2 4 0 0 2 0 0 2 0 0 2 0 0 2 0 0 2 0 0 2 0 0 2 0 0 2 1 1 3 1 1 3 1 1 3 1 1 3 1 1 3 1 1 3 1 1 3 1 1 3 1 0 5 1 0 5 1 0 5 1 0 5 1 0 5 1 0 5 1 0 5 1 0 5 1 0 5 1 0 5 1 0 5 1 0 5 1 0 5 1 0 5 1 0 5 1 0 5 2 3 8 2 3 8 2 3 8 2 3 8 2 3 8 2 3 8 2 3 8 2 3 8 7 8 13 7 8 13 7 8 13 7 8 13 7 8 13 7 8 13 7 8 13 7 8 13 3 6 13 3 6 13 3 6 13 3 6 13 3 6 13 3 6 13 3 6 13 3 6 13 3 6 13 3 6 13 3 6 13 3 6 13 3 6 13 3 6 13 3 6 13 3 6 11 4 10 10 4 10 8 4 10 8 4 10 8 4 10 8 4 10 8 4 10 8 4 10 8 7 13 11 7 13 11 7 13 11 7 13 11 7 13 11 7 13 11 7 13 11 7 13 11 6 8 7 6 8 7 6 8 7 6 8 7 6 8 7 6 8 7 6 8 7 6 8 7 1 3 2 1 3 2 1 3 2 1 3 2 1 3 2 1 3 2 1 3 2 0 3 2 0 1 2 0 2 2 0 2 2 0 5 5 3 9 9 6 12 12 8 14 14 10 16 16 17 23 23 19 25 25 21 27 27 24 30 30 28 34 34 31 37 37 33 39 39 35 41 39 50 57 50 52 59 51 57 64 56 64 71 63 70 77 69 77 84 76 82 89 81 84 91 83 89 96 88 89 96 88 89 96 88 89 96 88 89 96 88 89 96 88 89 96 88 90 95 88 75 76 70 68 67 62 55 54 49 43 42 37 36 35 30 35 34 29 38 37 32 41 40 35 40 39 34 40 39 34 40 39 34 40 39 34 40 39 34 40 39 34 40 39 34 40 39 34 38 37 32 38 37 32 38 37 32 38 37 32 38 37 32 38 37 32 38 37 32 38 37 32 37 36 31 37 36 31 37 36 31 37 36 31 37 36 31 37 36 31 37 36 31 37 36 32
0 0 2 0 0 2 0 0 2 0 0 2 2 2 4 2 2 4 2 2 4 2 2 4 2 2 4 2 2 4 2 2 4 2 2 4 0 0 2 0 0 2 0 0 2 0 0 2 0 0 2 0 0 2 0 0 2 0 0 2 1 1 3 1 1 3 1 1 3 1 1 3 1 1 3 1 1 3 1 1 3 1 1 3 1 0 5 1 0 5 1 0 5 1 0 5 1 0 5 1 0 5 1 0 5 1 0 5 1 0 5 1 0 5 1 0 5 1 0 5 1 0 5 1 0 5 1 0 5 1 0 5 2 3 8 2 3 8 2 3 8 2 3 8 2 3 8 2 3 8 2 3 8 2 3 8 7 8 13 7 8 13 7 8 13 7 8 13 7 8 13 7 8 13 7 8 13 7 8 13 3 6 13 3 6 13 3 6 13 3 6 13 3 6 13 3 6 13 3 6 13 3 6 13 3 6 13 3 6 13 3 6 13 3 6 13 3 6 13 3 6 13 3 6 13 3 6 11 4 10 10 4 10 8 4 10 8 4 10 8 4 10 8 4 10 8 4 10 8 4 10 8 7 13 11 7 13 11 7 13 11 7 13 11 7 13 11 7 13 11 7 13 11 7 13 11 6 8 7 6 8 7 6 8 7 6 8 7 6 8 7 6 8 7 6 8 7 6 8 7 1 3 2 1 3 2 1 3 2 1 3 2 1 3 2 1 3 2 1 3 2 0 3 2 0 1 2 0 2 2 0 2 2 0 5 5 3 9 9 6 12 12 8 14 14 10 16 16 17 23 23 19 25 25 21 27 27 24 30 30 28 34 34 31 37 37 33 39 39 35 41 39 50 57 50 52 59 51 57 64 56 64 71 63 70 77 69 77 84 76 82 89 81 84 91 83 87 94 86 87 94 86 87 94 86 87 94 86 87 94 86 87 94 86 87 94 86 88 93 86 75 76 70 68 67 62 55 54 49 43 42 37 36 35 30 35 34 29 38 37 32 41 40 35 40 39 34 40 39 34 40 39 34 40 39 34 40 39 34 40 39 34 40 39 34 40 39 34 38 37 32 38 37 32 38 37 32 38 37 32 38 37 32 38 37 32 38 37 32 38 37 32 37 36 31 37 36 31 37 36 31 37 36 31 37 36 31 37 36 31 37 36 31 37 36 32
0 0 2 0 0 2 0 0 2 0 0 2 0 0 2 0 0 2 0 0 2 0 0 2 0 0 2 0 0 2 0 0 2 0 0 2 0 0 2 0 0 2 0 0 2 0 0 2 0 0 2 0 0 2 0 0 2 0 0 2 1 1 3 1 1 3 1 1 3 1 1 3 1 1 3 1 1 3 1 1 3 1 1 3 0 0 4 0 0 4 0 0 4 0 0 4 0 0 4 0 0 4 0 0 4 0 0 4 1 0 5 1 0 5 1 0 5 1 0 5 1 0 5 1 0 5 1 0 5 1 0 5 2 3 8 2 3 8 2 3 8 2 3 8 2 3 8 2 3 8 2 3 8 2 3 8 4 5 10 4 5 10 4 5 10 4 5 10 4 5 10 4 5 10 4 5 10 4 5 10 2 5 12 2 5 12 2 5 12 2 5 12 2 5 12 2 5 12 2 5 12 2 5 12 2 5 12 2 5 12 2 5 12 2 5 12 2 5 12 2 5 12 2 5 12 2 5 10 0 6 6 0 6 4 0 6 4 0 6 4 0 6 4 0 6 4 0 6 4 0 6 4 5 11 9 5 11 9 5 11 9 5 11 9 5 11 9 5 11 9 5 11 9 5 11 9 1 3 2 1 3 2 1 3 2 1 3 2 1 3 2 1 3 2 1 3 2 1 3 2 2 4 3 2 4 3 2 4 3 2 4 3 2 4 3 2 4 3 2 4 3 0 4 3 0 1 2 0 2 2 0 2 2 0 5 5 3 9 9 6 12 12 8 14 14 10 16 16 20 26 26 22 28 28 24 30 30 27 33 33 31 37 37 34 40 40 36 42 42 38 44 42 48 55 48 50 57 49 52 59 51 55 62 54 59 66 58 62 69 61 64 71 63 66 73 65 82 89 81 82 89 81 82 89 81 82 89 81 82 89 81 82 89 81 82 89 81 83 88 81 69 70 64 62 61 56 49 48 43 37 36 31 30 29 24 29 28 23 32 31 26 35 34 29 33 32 27 33 32 27 33 32 27 33 32 27 33 32 27 33 32 27 33 32 27 33 32 27 33 32 27 33 32 27 33 32 27 33 32 27 33 32 27 33 32 27 33 32 27 33 32 27 37 36 31 37 36 31 37 36 31 37 36 31 37 36 31 37 36 31 37 36 31 37 36 32
0 0 2 0 0 2 0 0 2 0 0 2 0 0 2 0 0 2 0 0 2 0 0 2 0 0 2 0 0 2 0 0 2 0 0 2 0 0 2 0 0 2 0 0 2 0 0 2 0 0 2 0 0 2 0 0 2 0 0 2 1 1 3 1 1 3 1 1 3 1 1 3 1 1 3 1 1 3 1 1 3 1 1 3 0 0 4 0 0 4 0 0 4 0 0 4 0 0 4 0 0 4 0 0 4 0 0 4 1 0 5 1 0 5 1 0 5 1 0 5 1 0 5 1 0 5 1 0 5 1 0 5 2 3 8 2 3 8 2 3 8 2 3 8 2 3 8 2 3 8 2 3 8 2 3 8 4 5 10 4 5 10 4 5 10 4 5 10 4 5 10 4 5 10 4 5 10 4 5 10 2 5 12 2 5 12 2 5 12 2 5 12 2 5 12 2 5 12 2 5 12 2 5 12 2 5 12 2 5 12 2 5 12 2 5 12 2 5 12 2 5 12 2 5 12 2 5 10 0 6 6 0 6 4 0 6 4 0 6 4 0 6 4 0 6 4 0 6 4 0 6 4 5 11 9 5 11 9 5 11 9 5 11 9 5 11 9 5 11 9 5 11 9 5 11 9 3 5 4 3 5 4 3 5 4 3 5 4 3 5 4 3 5 4 3 5 4 3 5 4 2 4 3 2 4 3 2 4 3 2 4 3 2 4 3 2 4 3 2 4 3 0 4 3 0 1 2 0 2 2 0 2 2 0 5 5 3 9 9 6 12 12 8 14 14 10 16 16 20 26 26 22 28 28 24 30 30 27 33 33 31 37 37 34 40 40 36 42 42 38 44 42 48 55 48 50 57 49 52 59 51 55 62 54 59 66 58 62 69 61 64 71 63 66 73 65 80 87 79 80 87 79 80 87 79 80 87 79 80 87 79 80 87 79 80 87 79 81 86 79 69 70 64 62 61 56 49 48 43 37 36 31 30 29 24 29 28 23 32 31 26 35 34 29 33 32 27 33 32 27 33 32 27 33 32 27 33 32 27 33 32 27 33 32 27 33 32 27 33 32 27 33 32 27 33 32 27 33 32 27 33 32 27 33 32 27 33 32 27 33 32 27 37 36 31 37 36 31 37 36 31 37 36 31 37 36 31 37 36 31 37 36 31 37 36 32
0 0 2 0 0 2 0 0 2 0 0 2 0 0 2 0 0 2 0 0 2 0 0 2 0 0 2 0 0 2 0 0 2 0 0 2 0 0 2 0 0 2 0 0 2 0 0 2 0 0 2 0 0 2 0 0 2 0 0 2 1 1 3 1 1 3 1 1 3 1 1 3 1 1 3 1 1 3 1 1 3 1 1 3 0 0 4 0 0 4 0 0 4 0 0 4 0 0 4 0 0 4 0 0 4 0 0 4 1 0 5 1 0 5 1 0 5 1 0 5 1 0 5 1 0 5 1 0 5 1 0 5 2 3 8 2 3 8 2 3 8 2 3 8 2 3 8 2 3 8 2 3 8 2 3 8 4 5 10 4 5 10 4 5 10 4 5 10 4 5 10 4 5 10 4 5 10 4 5 10 2 5 12 2 5 12 2 5 12 2 5 12 2 5 12 2 5 12 2 5 12 2 5 12 2 5 12 2 5 12 2 5 12 2 5 12 2 5 12 2 5 12 2 5 12 2 5 10 0 6 6 0 6 4 0 6 4 0 6 4 0 6 4 0 6 4 0 6 4 0 6 4 5 11 9 5 11 9 5 11 9 5 11 9 5 11 9 5 11 9 5 11 9 5 11 9 5 7 6 5 7 6 5 7 6 5 7 6 5 7 6 5 7 6 5 7 6 5 7 6 2 4 3 2 4 3 2 4 3 2 4 3 2 4 3 2 4 3 2 4 3 0 4 3 0 1 2 0 2 2 0 2 2 0 5 5 3 9 9 6 12 12 8 14 14 10 16 16 20 26 26 22 28 28 24 30 30 27 33 33 31 37 37 34 40 40 36 42 42 38 44 42 48 55 48 50 57 49 52 59 51 55 62 54 59 66 58 62 69 61 64 71 63 66 73 65 78 85 77 78 85 77 78 85 77 78 85 77 78 85 77 78 85 77 78 85 77 79 84 77 69 70 64 62 61 56 49 48 43 37 36 31 30 29 24 29 28 23 32 31 26 35 34 29 33 32 27 33 32 27 33 32 27 33 32 27 33 32 27 33 32 27 33 32 27 33 32 27 33 32 27 33 32 27 33 32 27 33 32 27 33 32 27 33 32 27 33 32 27 33 32 27 37 36 31 37 36 31 37 36 31 37 36 31 37 36 31 37 36 31 37 36 31 37 36 32
0 0 2 0 0 2 0 0 2 0 0 2 0 0 2 0 0 2 0 0 2 0 0 2 0 0 2 0 0 2 0 0 2 0 0 2 0 0 2 0 0 2 0 0 2 0 0 2 0 0 2 0 0 2 0 0 2 0 0 2 1 1 3 1 1 3 1 1 3 1 1 3 1 1 3 1 1 3 1 1 3 1 1 3 0 0 4 0 0 4 0 0 4 0 0 4 0 0 4 0 0 4 0 0 4 0 0 4 1 0 5 1 0 5 1 0 5 1 0 5 1 0 5 1 0 5 1 0 5 1 0 5 2 3 8 2 3 8 2 3 8 2 3 8 2 3 8 2 3 8 2 3 8 2 3 8 4 5 10 4 5 10 4 5 10 4 5 10 4 5 10 4 5 10 4 5 10 4 5 10 2 5 12 2 5 12 2 5 12 2 5 12 2 5 12 2 5 12 2 5 12 2 5 12 2 5 12 2 5 12 2 5 12 2 5 12 2 5 12 2 5 12 2 5 12 2 5 10 0 6 6 0 6 4 0 6 4 0 6 4 0 6 4 0 6 4 0 6 4 0 6 4 5 11 9 5 11 9 5 11 9 5 11 9 5 11 9 5 11 9 5 11 9 5 11 9 8 10 9 8 10 9 8 10 9 8 10 9 8 10 9 8 10 9 8 10 9 8 10 9 2 4 3 2 4 3 2 4 3 2 4 3 2 4 3 2 4 3 2 4 3 0 4 3 0 1 2 0 2 2 0 2 2 0 5 5 3 9 9 6 12 12 8 14 14 10 16 16 20 26 26 22 28 28 24 30 30 27 33 33 31 37 37 34 40 40 36 42 42 38 44 42 48 55 48 50 57 49 52 59 51 55 62 54 59 66 58 62 69 61 64 71 63 66 73 65 75 82 74 75 82 74 75 82 74 75 82 74 75 82 74 75 82 74 75 82 74 76 81 74 69 70 64 62 61 56 49 48 43 37 36 31 30 29 24 29 28 23 32 31 26 35 34 29 33 32 27 33 32 27 33 32 27 33 32 27 33 32 27 33 32 27 33 32 27 33 32 27 33 32 27 33 32 27 33 32 27 33 32 27 33 32 27 33 32 27 33 32 27 33 32 27 37 36 31 37 36 31 37 36 31 37 36 31 37 36 31 37 36 31 37 36 31 37 36 32
0 0 2 0 0 2 0 0 2 0 0 2 0 0 2 0 0 2 0 0 2 0 0 2 0 0 2 0 0 2 0 0 2 0 0 2 0 0 2 0 0 2 0 0 2 0 0 2 0 0 2 0 0 2 0 0 2 0 0 2 1 1 3 1 1 3 1 1 3 1 1 3 1 1 3 1 1 3 1 1 3 1 1 3 0 0 4 0 0 4 0 0 4 0 0 4 0 0 4 0 0 4 0 0 4 0 0 4 1 0 5 1 0 5 1 0 5 1 0 5 1 0 5 1 0 5 1 0 5 1 0 5 2 3 8 2 3 8 2 3 8 2 3 8 2 3 8 2 3 8 2 3 8 2 3 8 4 5 10 4 5 10 4 5 10 4 5 10 4 5 10 4 5 10 4 5 10 4 5 10 2 5 12 2 5 12 2 5 12 2 5 12 2 5 12 2 5 12 2 5 12 2 5 12 2 5 12 2 5 12 2 5 12 2 5 12 2 5 12 2 5 12 2 5 12 2 5 10 0 6 6 0 6 4 0 6 4 0 6 4 0 6 4 0 6 4 0 6 4 0 6 4 5 11 9 5 11 9 5 11 9 5 11 9 5 11 9 5 11 9 5 11 9 5 11 9 12 14 13 12 14 13 12 14 13 12 14 13 12 14 13 12 14 13 12 14 13 12 14 13 2 4 3 2 4 3 2 4 3 2 4 3 2 4 3 2 4 3 2 4 3 0 4 3 0 1 2 0 2 2 0 2 2 0 5 5 3 9 9 6 12 12 8 14 14 10 16 16 20 26 26 22 28 28 24 30 30 27 33 33 31 37 37 34 40 40 36 42 42 38 44 42 48 55 48 50 57 49 52 59 51 55 62 54 59 66 58 62 69 61 64 71 63 66 73 65 71 78 70 71 78 70 71 78 70 71 78 70 71 78 70 71 78 70 71 78 70 72 77 70 69 70 64 62 61 56 49 48 43 37 36 31 30 29 24 29 28 23 32 31 26 35 34 29 33 32 27 33 32 27 33 32 27 33 32 27 33 32 27 33 32 27 33 32 27 33 32 27 33 32 27 33 32 27 33 32 27 33 32 27 33 32 27 33 32 27 33 32 27 33 32 27 37 36 31 37 36 31 37 36 31 37 36 31 37 36 31 37 36 31 37 36 31 37 36 32
0 0 2 0 0 2 0 0 2 0 0 2 0 0 2 0 0 2 0 0 2 0 0 2 0 0 2 0 0 2 0 0 2 0 0 2 0 0 2 0 0 2 0 0 2 0 0 2 0 0 2 0 0 2 0 0 2 0 0 2 1 1 3 1 1 3 1 1 3 1 1 3 1 1 3 1 1 3 1 1 3 1 1 3 0 0 4 0 0 4 0 0 4 0 0 4 0 0 4 0 0 4 0 0 4 0 0 4 1 0 5 1 0 5 1 0 5 1 0 5 1 0 5 1 0 5 1 0 5 1 0 5 2 3 8 2 3 8 2 3 8 2 3 8 2 3 8 2 3 8 2 3 8 2 3 8 4 5 10 4 5 10 4 5 10 4 5 10 4 5 10 4 5 10 4 5 10 4 5 10 2 5 12 2 5 12 2 5 12 2 5 12 2 5 12 2 5 12 2 5 12 2 5 12 2 5 12 2 5 12 2 5 12 2 5 12 2 5 12 2 5 12 2 5 12 2 5 10 0 6 6 0 6 4 0 6 4 0 6 4 0 6 4 0 6 4 0 6 4 0 6 4 5 11 9 5 11 9 5 11 9 5 11 9 5 11 9 5 11 9 5 11 9 5 11 9 15 17 16 15 17 16 15 17 16 15 17 16 15 17 16 15 17 16 15 17 16 15 17 16 2 4 3 2 4 3 2 4 3 2 4 3 2 4 3 2 4 3 2 4 3 0 4 3 0 1 2 0 2 2 0 2 2 0 5 5 3 9 9 6 12 12 8 14 14 10 16 16 20 26 26 22 28 28 24 30 30 27 33 33 31 37 37 34 40 40 36 42 42 38 44 42 48 55 48 50 57 49 52 59 51 55 62 54 59 66 58 62 69 61 64 71 63 66 73 65 68 75 67 68 75 67 68 75 67 68 75 67 68 75 67 68 75 67 68 75 67 69 74 67 69 70 64 62 61 56 49 48 43 37 36 31 30 29 24 29 28 23 32 31 26 35 34 29 33 32 27 33 32 27 33 32 27 33 32 27 33 32 27 33 32 27 33 32 27 33 32 27 33 32 27 33 32 27 33 32 27 33 32 27 33 32 27 33 32 27 33 32 27 33 32 27 37 36 31 37 36 31 37 36 31 37 36 31 37 36 31 37 36 31 37 36 31 37 36 32
0 0 2 0 0 2 0 0 2 0 0 2 0 0 2 0 0 2 0 0 2 0 0 2 0 0 2 0 0 2 0 0 2 0 0 2 0 0 2 0 0 2 0 0 2 0 0 2 0 0 2 0 0 2 0 0 2 0 0 2 1 1 3 1 1 3 1 1 3 1 1 3 1 1 3 1 1 3 1 1 3 1 1 3 0 0 4 0 0 4 0 0 4 0 0 4 0 0 4 0 0 4 0 0 4 0 0 4 1 0 5 1 0 5 1 0 5 1 0 5 1 0 5 1 0 5 1 0 5 1 0 5 2 3 8 2 3 8 2 3 8 2 3 8 2 3 8 2 3 8 2 3 8 2 3 8 4 5 10 4 5 10 4 5 10 4 5 10 4 5 10 4 5 10 4 5 10 4 5 10 2 5 12 2 5 12 2 5 12 2 5 12 2 5 12 2 5 12 2 5 12 2 5 12 2 5 12 2 5 12 2 5 12 2 5 12 2 5 12 2 5 12 2 5 12 2 5 10 0 6 6 0 6 4 0 6 4 0 6 4 0 6 4 0 6 4 0 6 4 0 6 4 5 11 9 5 11 9 5 11 9 5 11 9 5 11 9 5 11 9 5 11 9 5 11 9 17 19 18 17 19 18 17 19 18 17 19 18 17 19 18 17 19 18 17 19 18 17 19 18 2 4 3 2 4 3 2 4 3 2 4 3 2 4 3 2 4 3 2 4 3 0 4 3 0 1 2 0 2 2 0 2 2 0 5 5 3 9 9 6 12 12 8 14 14 10 16 16 20 26 26 22 28 28 24 30 30 27 33 33 31 37 37 34 40 40 36 42 42 38 44 42 48 55 48 50 57 49 52 59 51 55 62 54 59 66 58 62 69 61 64 71 63 66 73 65 66 73 65 66 73 65 66 73 65 66 73 65 66 73 65 66 73 65 66 73 65 67 72 65 69 70 64 62 61 56 49 48 43 37 36 31 30 29 24 29 28 23 32 31 26 35 34 29 33 32 27 33 32 27 33 32 27 33 32 27 33 32 27 33 32 27 33 32 27 33 32 27 33 32 27 33 32 27 33 32 27 33 32 27 33 32 27 33 32 27 33 32 27 33 32 27 37 36 31 37 36 31 37 36 31 37 36 31 37 36 31 37 36 31 37 36 31 37 36 32
0 0 2 0 0 2 0 0 2 0 0 2 0 0 2 0 0 2 0 0 2 0 0 2 0 0 2 0 0 2 0 0 2 0 0 2 0 0 2 0 0 2 0 0 2 0 0 2 0 0 2 0 0 2 0 0 2 0 0 2 1 1 3 1 1 3 1 1 3 1 1 3 1 1 3 1 1 3 1 1 3 1 1 3 0 0 4 0 0 4 0 0 4 0 0 4 0 0 4 0 0 4 0 0 4 0 0 4 1 0 5 1 0 5 1 0 5 1 0 5 1 0 5 1 0 5 1 0 5 1 0 5 2 3 7 2 3 7 2 3 8 2 3 7 2 3 8 2 3 7 2 3 8 2 3 7 4 5 10 4 5 9 4 5 10 4 5 9 4 5 10 4 5 9 4 5 10 4 5 10 2 5 10 2 5 10 2 5 10 2 5 10 2 5 10 2 5 10 2 5 10 2 5 10 2 5 10 2 5 10 2 5 10 2 5 10 2 5 10 2 5 10 2 5 10 2 6 9 0 6 6 0 6 4 0 6 4 0 6 4 0 6 4 0 6 4 0 6 4 0 6 4 5 11 9 5 11 9 5 11 9 5 11 9 5 11 9 5 11 9 5 11 9 5 11 9 17 21 20 17 21 20 17 21 20 17 21 20 17 21 20 17 21 20 17 21 20 17 21 20 0 4 3 0 4 3 0 4 3 0 4 3 0 4 3 0 4 3 0 4 3 0 4 3 0 2 2 0 2 2 0 2 2 0 5 5 3 9 9 6 12 12 8 14 14 10 16 16 20 26 26 22 28 28 24 30 30 27 33 33 31 37 37 34 40 40 36 42 42 38 44 42 48 55 48 50 57 49 52 59 51 55 62 54 59 66 58 62 69 61 64 71 63 66 73 65 64 71 63 64 71 63 64 71 63 64 71 63 64 71 63 64 71 63 64 71 63 65 70 63 69 70 64 62 61 56 49 48 43 37 36 31 30 29 24 29 28 23 32 31 26 35 34 29 33 32 27 33 32 27 33 32 27 33 32 27 33 32 27 33 32 27 33 32 27 33 32 27 33 32 27 33 32 27 35 32 27 33 32 27 35 32 27 33 32 27 35 32 27 33 32 27 39 36 31 37 36 31 39 36 31 37 36 31 39 36 31 37 36 31 39 36 31 37 36 32
0 0 0 0 0 0 0 0 0 0 0 0 0 0 0 0 0 0 0 0 0 0 0 0 0 0 0 0 0 0 0 0 0 0 0 0 1 1 3 1 1 3 1 1 3 1 1 3 1 1 3 1 1 3 1 1 3 1 1 3 1 1 3 1 1 3 1 1 3 1 1 3 1 1 3 1 1 3 1 1 3 1 1 3 1 1 3 1 1 3 1 1 3 1 1 3 1 1 3 1 1 3 1 1 3 1 1 3 1 1 3 1 1 3 1 1 3 1 1 3 1 1 3 1 1 3 1 1 3 1 1 3 2 3 5 2 3 5 2 3 7 2 3 5 2 3 7 2 3 5 2 3 7 2 3 5 3 4 8 3 4 6 3 4 8 3 4 6 3 4 8 3 4 6 3 4 8 3 4 8 2 6 9 1 6 9 1 6 9 1 6 9 1 6 9 1 6 9 1 6 9 1 6 9 3 8 11 3 8 11 3 8 11 3 8 11 3 8 11 3 8 11 3 8 11 3 9 9 6 12 12 5 11 11 4 10 10 3 9 9 2 8 8 0 6 6 0 6 6 0 5 5 5 11 11 6 12 12 10 16 16 14 20 20 19 25 25 23 29 29 27 33 33 29 35 35 33 39 39 33 39 39 33 39 39 33 39 39 33 39 39 33 39 39 33 39 39 33 39 39 14 20 20 12 18 18 10 16 16 7 13 13 3 9 9 0 6 6 0 4 4 0 2 2 0 2 0 0 3 1 0 5 3 2 8 6 6 12 10 9 15 13 11 17 15 13 19 17 19 25 23 21 27 25 23 29 27 26 32 30 30 36 34 33 39 37 35 41 39 37 43 41 44 51 44 45 52 45 48 55 48 51 58 51 54 61 54 58 65 58 60 67 60 61 68 61 63 70 63 63 70 63 63 70 63 63 70 63 63 70 63 63 70 63 63 70 63 64 69 63 47 46 41 47 44 39 45 42 37 42 39 34 38 35 30 35 32 27 33 30 25 31 28 23 33 30 25 33 30 25 33 30 25 33 30 25 33 30 25 33 30 25 33 30 25 33 30 25 34 30 27 34 30 27 35 30 27 34 30 27 35 30 27 34 30 27 35 30 27 34 30 27 37 32 29 36 32 29 37 32 29 36 32 29 37 32 29 36 32 29 37 32 29 36 32 29
0 0 0 0 0 0 0 0 0 0 0 0 0 0 0 0 0 0 0 0 0 0 0 0 0 0 0 0 0 0 0 0 0 0 0 0 1 1 3 1 1 3 1 1 3 1 1 3 1 1 3 1 1 3 1 1 3 1 1 3 1 1 3 1 1 3 1 1 3 1 1 3 1 1 3 1 1 3 1 1 3 1 1 3 1 1 3 1 1 3 1 1 3 1 1 3 1 1 3 1 1 3 1 1 3 1 1 3 1 1 3 1 1 3 1 1 3 1 1 3 1 1 3 1 1 3 1 1 3 1 1 3 2 3 5 2 3 5 2 3 5 2 3 5 2 3 5 2 3 5 2 3 5 2 3 5 3 4 6 3 4 6 3 4 6 3 4 6 3 4 6 3 4 6 3 4 6 1 5 6 2 6 7 1 7 7 1 7 7 1 7 7 1 7 7 1 7 7 1 7 7 1 7 7 3 9 9 3 9 9 3 9 9 3 9 9 3 9 9 3 9 9 3 9 9 3 9 9 5 11 11 5 11 11 5 11 11 4 10 10 3 9 9 3 9 9 2 8 8 2 8 8 9 15 15 11 17 17 14 20 20 17 23 23 21 27 27 25 31 31 28 34 34 29 35 35 31 40 39 31 40 39 31 40 39 31 40 39 31 40 39 31 40 39 31 40 39 31 40 39 12 21 20 10 19 18 8 17 16 5 14 13 1 10 9 0 7 6 0 5 4 0 3 2 0 2 0 0 3 1 0 5 3 2 8 6 6 12 10 9 15 13 11 17 15 13 19 17 19 25 23 21 27 25 23 29 27 26 32 30 30 36 34 33 39 37 35 41 39 37 43 39 43 49 45 44 51 44 46 53 46 50 57 50 53 60 53 56 63 56 59 66 59 60 67 60 61 68 61 61 68 61 61 68 61 61 68 61 61 68 61 61 68 61 61 68 61 62 67 61 47 46 41 47 44 39 45 42 37 42 39 34 38 35 30 35 32 27 33 30 25 31 28 23 33 30 25 33 30 25 33 30 25 33 30 25 33 30 25 33 30 25 33 30 25 33 30 25 35 30 27 35 30 27 35 30 27 35 30 27 35 30 27 35 30 27 35 30 27 35 30 27 37 32 29 37 32 29 37 32 29 37 32 29 37 32 29 37 32 29 37 32 29 37 32 29
0 0 0 0 0 0 0 0 0 0 0 0 0 0 0 0 0 0 0 0 0 0 0 0 0 0 0 0 0 0 0 0 0 0 0 0 1 1 3 1 1 3 1 1 3 1 1 3 1 1 3 1 1 3 1 1 3 1 1 3 1 1 3 1 1 3 1 1 3 1 1 3 1 1 3 1 1 3 1 1 3 1 1 3 1 1 3 1 1 3 1 1 3 1 1 3 1 1 3 1 1 3 1 1 3 1 1 3 1 1 3 1 1 3 1 1 3 1 1 3 1 1 3 1 1 3 1 1 3 1 1 3 2 3 5 2 3 5 2 3 5 2 3 5 2 3 5 2 3 5 2 3 5 2 3 5 3 4 6 3 4 6 3 4 6 3 4 6 3 4 6 3 4 6 3 4 6 1 5 6 2 6 7 1 7 7 1 7 7 1 7 7 1 7 7 1 7 7 1 7 7 1 7 7 3 9 9 3 9 9 3 9 9 3 9 9 3 9 9 3 9 9 3 9 9 3 9 9 4 10 10 5 11 11 5 11 11 6 12 12 6 12 12 7 13 13 8 14 14 8 14 14 17 23 23 18 24 24 20 26 26 23 29 29 26 32 32 28 34 34 30 36 36 31 37 37 31 40 39 31 40 39 31 40 39 31 40 39 31 40 39 31 40 39 31 40 39 31 40 39 12 21 20 10 19 18 8 17 16 5 14 13 1 10 9 0 7 6 0 5 4 0 3 2 0 2 0 0 3 1 0 5 3 2 8 6 6 12 10 9 15 13 11 17 15 13 19 17 19 25 23 21 27 25 23 29 27 26 32 30 30 36 34 33 39 37 35 41 39 37 43 39 40 46 42 42 49 42 44 51 44 47 54 47 51 58 51 54 61 54 56 63 56 58 65 58 59 66 59 59 66 59 59 66 59 59 66 59 59 66 59 59 66 59 59 66 59 60 65 59 47 46 41 47 44 39 45 42 37 42 39 34 38 35 30 35 32 27 33 30 25 31 28 23 33 30 25 33 30 25 33 30 25 33 30 25 33 30 25 33 30 25 33 30 25 33 30 25 35 30 27 35 30 27 35 30 27 35 30 27 35 30 27 35 30 27 35 30 27 35 30 27 37 32 29 37 32 29 37 32 29 37 32 29 37 32 29 37 32 29 37 32 29 37 32 29
0 0 0 0 0 0 0 0 0 0 0 0 0 0 0 0 0 0 0 0 0 0 0 0 0 0 0 0 0 0 0 0 0 0 0 0 1 1 3 1 1 3 1 1 3 1 1 3 1 1 3 1 1 3 1 1 3 1 1 3 1 1 3 1 1 3 1 1 3 1 1 3 1 1 3 1 1 3 1 1 3 1 1 3 1 1 3 1 1 3 1 1 3 1 1 3 1 1 3 1 1 3 1 1 3 1 1 3 1 1 3 1 1 3 1 1 3 1 1 3 1 1 3 1 1 3 1 1 3 1 1 3 2 3 5 2 3 5 2 3 5 2 3 5 2 3 5 2 3 5 2 3 5 2 3 5 3 4 6 3 4 6 3 4 6 3 4 6 3 4 6 3 4 6 3 4 6 1 5 6 2 6 7 1 7 7 1 7 7 1 7 7 1 7 7 1 7 7 1 7 7 1 7 7 3 9 9 3 9 9 3 9 9 3 9 9 3 9 9 3 9 9 3 9 9 3 9 9 3 9 9 4 10 10 6 12 12 8 14 14 11 17 17 13 19 19 15 21 21 16 22 22 28 34 34 29 35 35 29 35 35 30 36 36 31 37 37 32 38 38 33 39 39 33 39 39 31 40 39 31 40 39 31 40 39 31 40 39 31 40 39 31 40 39 31 40 39 31 40 39 12 21 20 10 19 18 8 17 16 5 14 13 1 10 9 0 7 6 0 5 4 0 3 2 0 2 0 0 3 1 0 5 3 2 8 6 6 12 10 9 15 13 11 17 15 13 19 17 19 25 23 21 27 25 23 29 27 26 32 30 30 36 34 33 39 37 35 41 39 37 43 39 37 43 39 38 45 38 41 48 41 44 51 44 47 54 47 51 58 51 53 60 53 54 61 54 56 63 56 56 63 56 56 63 56 56 63 56 56 63 56 56 63 56 56 63 56 57 62 56 47 46 41 47 44 39 45 42 37 42 39 34 38 35 30 35 32 27 33 30 25 31 28 23 33 30 25 33 30 25 33 30 25 33 30 25 33 30 25 33 30 25 33 30 25 33 30 25 35 30 27 35 30 27 35 30 27 35 30 27 35 30 27 35 30 27 35 30 27 35 30 27 37 32 29 37 32 29 37 32 29 37 32 29 37 32 29 37 32 29 37 32 29 37 32 29
0 0 0 0 0 0 0 0 0 0 0 0 0 0 0 0 0 0 0 0 0 0 0 0 0 0 0 0 0 0 0 0 0 0 0 0 1 1 3 1 1 3 1 1 3 1 1 3 1 1 3 1 1 3 1 1 3 1 1 3 1 1 3 1 1 3 1 1 3 1 1 3 1 1 3 1 1 3 1 1 3 1 1 3 1 1 3 1 1 3 1 1 3 1 1 3 1 1 3 1 1 3 1 1 3 1 1 3 1 1 3 1 1 3 1 1 3 1 1 3 1 1 3 1 1 3 1 1 3 1 1 3 2 3 5 2 3 5 2 3 5 2 3 5 2 3 5 2 3 5 2 3 5 2 3 5 3 4 6 3 4 6 3 4 6 3 4 6 3 4 6 3 4 6 3 4 6 1 5 6 2 6 7 1 7 7 1 7 7 1 7 7 1 7 7 1 7 7 1 7 7 1 7 7 3 9 9 3 9 9 3 9 9 3 9 9 3 9 9 3 9 9 3 9 9 3 9 9 2 8 8 3 9 9 6 12 12 11 17 17 15 21 21 19 25 25 22 28 28 24 30 30 40 46 46 39 45 45 39 45 45 38 44 44 37 43 43 36 42 42 35 41 41 35 41 41 31 40 39 31 40 39 31 40 39 31 40 39 31 40 39 31 40 39 31 40 39 31 40 39 12 21 20 10 19 18 8 17 16 5 14 13 1 10 9 0 7 6 0 5 4 0 3 2 0 2 0 0 3 1 0 5 3 2 8 6 6 12 10 9 15 13 11 17 15 13 19 17 19 25 23 21 27 25 23 29 27 26 32 30 30 36 34 33 39 37 35 41 39 37 43 39 34 40 36 35 42 35 37 44 37 41 48 41 44 51 44 47 54 47 50 57 50 51 58 51 52 59 52 52 59 52 52 59 52 52 59 52 52 59 52 52 59 52 52 59 52 53 58 52 47 46 41 47 44 39 45 42 37 42 39 34 38 35 30 35 32 27 33 30 25 31 28 23 33 30 25 33 30 25 33 30 25 33 30 25 33 30 25 33 30 25 33 30 25 33 30 25 35 30 27 35 30 27 35 30 27 35 30 27 35 30 27 35 30 27 35 30 27 35 30 27 37 32 29 37 32 29 37 32 29 37 32 29 37 32 29 37 32 29 37 32 29 37 32 29
0 0 0 0 0 0 0 0 0 0 0 0 0 0 0 0 0 0 0 0 0 0 0 0 0 0 0 0 0 0 0 0 0 0 0 0 1 1 3 1 1 3 1 1 3 1 1 3 1 1 3 1 1 3 1 1 3 1 1 3 1 1 3 1 1 3 1 1 3 1 1 3 1 1 3 1 1 3 1 1 3 1 1 3 1 1 3 1 1 3 1 1 3 1 1 3 1 1 3 1 1 3 1 1 3 1 1 3 1 1 3 1 1 3 1 1 3 1 1 3 1 1 3 1 1 3 1 1 3 1 1 3 2 3 5 2 3 5 2 3 5 2 3 5 2 3 5 2 3 5 2 3 5 2 3 5 3 4 6 3 4 6 3 4 6 3 4 6 3 4 6 3 4 6 3 4 6 1 5 6 2 6 7 1 7 7 1 7 7 1 7 7 1 7 7 1 7 7 1 7 7 1 7 7 3 9 9 3 9 9 3 9 9 3 9 9 3 9 9 3 9 9 3 9 9 3 9 9 0 6 6 3 9 9 7 13 13 13 19 19 19 25 25 25 31 31 29 35 35 31 37 37 51 57 57 50 56 56 48 54 54 45 51 51 42 48 48 40 46 46 38 44 44 37 43 43 31 40 39 31 40 39 31 40 39 31 40 39 31 40 39 31 40 39 31 40 39 31 40 39 12 21 20 10 19 18 8 17 16 5 14 13 1 10 9 0 7 6 0 5 4 0 3 2 0 2 0 0 3 1 0 5 3 2 8 6 6 12 10 9 15 13 11 17 15 13 19 17 19 25 23 21 27 25 23 29 27 26 32 30 30 36 34 33 39 37 35 41 39 37 43 39 30 36 32 32 39 32 34 41 34 37 44 37 41 48 41 44 51 44 46 53 46 48 55 48 49 56 49 49 56 49 49 56 49 49 56 49 49 56 49 49 56 49 49 56 49 50 55 49 47 46 41 47 44 39 45 42 37 42 39 34 38 35 30 35 32 27 33 30 25 31 28 23 33 30 25 33 30 25 33 30 25 33 30 25 33 30 25 33 30 25 33 30 25 33 30 25 35 30 27 35 30 27 35 30 27 35 30 27 35 30 27 35 30 27 35 30 27 35 30 27 37 32 29 37 32 29 37 32 29 37 32 29 37 32 29 37 32 29 37 32 29 37 32 29
0 0 0 0 0 0 0 0 0 0 0 0 0 0 0 0 0 0 0 0 0 0 0 0 0 0 0 0 0 0 0 0 0 0 0 0 1 1 3 1 1 3 1 1 3 1 1 3 1 1 3 1 1 3 1 1 3 1 1 3 1 1 3 1 1 3 1 1 3 1 1 3 1 1 3 1 1 3 1 1 3 1 1 3 1 1 3 1 1 3 1 1 3 1 1 3 1 1 3 1 1 3 1 1 3 1 1 3 1 1 3 1 1 3 1 1 3 1 1 3 1 1 3 1 1 3 1 1 3 1 1 3 2 3 5 2 3 5 2 3 5 2 3 5 2 3 5 2 3 5 2 3 5 2 3 5 3 4 6 3 4 6 3 4 6 3 4 6 3 4 6 3 4 6 3 4 6 1 5 6 2 6 7 1 7 7 1 7 7 1 7 7 1 7 7 1 7 7 1 7 7 1 7 7 3 9 9 3 9 9 3 9 9 3 9 9 3 9 9 3 9 9 3 9 9 3 9 9 0 5 5 2 8 8 8 14 14 15 21 21 22 28 28 29 35 35 34 40 40 37 43 43 59 65 65 57 63 63 54 60 60 51 57 57 47 53 53 43 49 49 40 46 46 39 45 45 31 40 39 31 40 39 31 40 39 31 40 39 31 40 39 31 40 39 31 40 39 31 40 39 12 21 20 10 19 18 8 17 16 5 14 13 1 10 9 0 7 6 0 5 4 0 3 2 0 2 0 0 3 1 0 5 3 2 8 6 6 12 10 9 15 13 11 17 15 13 19 17 19 25 23 21 27 25 23 29 27 26 32 30 30 36 34 33 39 37 35 41 39 37 43 39 28 34 30 29 36 29 32 39 32 35 42 35 38 45 38 42 49 42 44 51 44 45 52 45 47 54 47 47 54 47 47 54 47 47 54 47 47 54 47 47 54 47 47 54 47 48 53 47 47 46 41 47 44 39 45 42 37 42 39 34 38 35 30 35 32 27 33 30 25 31 28 23 33 30 25 33 30 25 33 30 25 33 30 25 33 30 25 33 30 25 33 30 25 33 30 25 35 30 27 35 30 27 35 30 27 35 30 27 35 30 27 35 30 27 35 30 27 35 30 27 37 32 29 37 32 29 37 32 29 37 32 29 37 32 29 37 32 29 37 32 29 37 32 29
0 0 0 0 0 0 0 0 0 0 0 0 0 0 0 0 0 0 0 0 0 0 0 0 0 0 0 0 0 0 0 0 0 0 0 0 1 1 3 1 1 3 1 1 3 1 1 3 1 1 3 1 1 3 1 1 3 1 1 3 1 1 3 1 1 3 1 1 3 1 1 3 1 1 3 1 1 3 1 1 3 1 1 3 1 1 3 1 1 3 1 1 3 1 1 3 1 1 3 1 1 3 1 1 3 1 1 3 1 1 3 1 1 3 1 1 3 1 1 3 1 1 3 1 1 3 1 1 3 1 1 3 2 3 5 2 3 5 2 3 5 2 3 5 2 3 5 2 3 5 2 3 5 2 3 5 3 4 6 3 4 6 3 4 6 3 4 6 3 4 6 3 4 6 3 4 6 1 5 6 2 6 7 1 7 7 1 7 7 1 7 7 1 7 7 1 7 7 1 7 7 1 7 7 3 9 9 3 9 9 3 9 9 3 9 9 3 9 9 3 9 9 3 9 9 3 9 9 0 5 5 2 8 8 8 14 14 16 22 22 24 30 30 31 37 37 37 43 43 40 46 46 63 69 69 62 68 68 58 64 64 54 60 60 49 55 55 45 51 51 41 47 47 39 45 45 31 40 39 31 40 39 31 40 39 31 40 39 31 40 39 31 40 39 31 40 39 31 40 39 12 21 20 10 19 18 8 17 16 5 14 13 1 10 9 0 7 6 0 5 4 0 3 2 0 2 0 0 3 1 0 5 3 2 8 6 6 12 10 9 15 13 11 17 15 13 19 17 19 25 23 21 27 25 23 29 27 26 32 30 30 36 34 33 39 37 35 41 39 37 43 39 27 33 29 28 35 28 30 37 30 34 41 34 37 44 37 40 47 40 43 50 43 44 51 44 45 52 45 45 52 45 45 52 45 45 52 45 45 52 45 45 52 45 45 52 45 46 51 45 47 46 41 47 44 39 45 42 37 42 39 34 38 35 30 35 32 27 33 30 25 31 28 23 33 30 25 33 30 25 33 30 25 33 30 25 33 30 25 33 30 25 33 30 25 33 30 25 35 30 27 35 30 27 35 30 27 35 30 27 35 30 27 35 30 27 35 30 27 35 30 27 37 32 29 37 32 29 37 32 29 37 32 29 37 32 29 37 32 29 37 32 29 37 32 29
0 0 0 0 0 0 0 0 0 0 0 0 0 0 0 0 0 0 0 0 0 0 0 0 0 0 0 0 0 0 0 0 0 0 0 0 1 1 3 1 1 3 1 1 3 1 1 3 1 1 3 1 1 3 1 1 3 1 1 3 1 1 3 1 1 3 1 1 3 1 1 3 1 1 3 1 1 3 1 1 3 1 1 3 1 1 3 1 1 3 1 1 3 1 1 3 1 1 3 1 1 3 1 1 3 1 1 3 3 3 5 3 3 5 3 3 5 3 3 5 3 3 5 3 3 5 3 3 5 3 3 5 3 4 6 3 4 6 3 4 6 3 4 6 3 4 6 3 4 6 3 4 6 3 4 6 4 5 7 4 5 7 4 5 7 4 5 7 4 5 7 4 5 7 4 5 7 2 6 7 7 11 12 6 12 12 6 12 12 6 12 12 6 12 12 6 12 12 6 12 12 6 12 12 8 14 14 7 13 13 5 11 11 2 8 8 0 6 6 0 3 3 0 2 2 0 2 2 36 42 42 37 43 43 39 45 45 43 49 49 46 52 52 49 55 55 52 58 58 53 59 59 53 59 59 53 59 59 53 59 59 53 59 59 53 59 59 53 59 59 53 59 59 53 59 59 52 61 60 50 59 58 48 57 56 45 54 53 41 50 49 38 47 46 36 45 44 34 43 42 14 23 22 12 21 20 10 19 18 7 16 15 3 12 11 0 9 8 0 7 6 0 5 4 0 3 1 0 5 3 1 7 5 4 10 8 8 14 12 11 17 15 13 19 17 15 21 19 14 20 18 16 22 20 18 24 22 21 27 25 25 31 29 28 34 32 30 36 34 32 38 34 32 38 34 32 39 32 32 39 32 32 39 32 32 39 32 32 39 32 32 39 32 32 39 32 45 52 45 45 52 45 45 52 45 45 52 45 45 52 45 45 52 45 45 52 45 46 51 45 31 30 25 33 30 25 33 30 25 33 30 25 33 30 25 33 30 25 33 30 25 33 30 25 33 30 25 33 30 25 33 30 25 33 30 25 33 30 25 33 30 25 33 30 25 33 30 25 35 30 27 35 30 27 35 30 27 35 30 27 35 30 27 35 30 27 35 30 27 35 30 27 36 31 28 36 31 28 36 31 28 36 31 28 36 31 28 36 31 28 36 31 28 36 31 28
0 0 0 0 0 0 0 0 0 0 0 0 0 0 0 0 0 0 0 0 0 0 0 0 0 0 0 0 0 0 0 0 0 0 0 0 1 1 3 1 1 3 1 1 3 1 1 3 1 1 3 1 1 3 1 1 3 1 1 3 1 1 3 1 1 3 1 1 3 1 1 3 1 1 3 1 1 3 1 1 3 1 1 3 1 1 3 1 1 3 1 1 3 1 1 3 1 1 3 1 1 3 1 1 3 1 1 3 3 3 5 3 3 5 3 3 5 3 3 5 3 3 5 3 3 5 3 3 5 3 3 5 3 4 6 3 4 6 3 4 6 3 4 6 3 4 6 3 4 6 3 4 6 3 4 6 4 5 7 4 5 7 4 5 7 4 5 7 4 5 7 4 5 7 4 5 7 2 6 7 7 11 12 6 12 12 6 12 12 6 12 12 6 12 12 6 12 12 6 12 12 6 12 12 3 9 9 3 9 9 4 10 10 4 10 10 5 11 11 6 12 12 7 13 13 7 13 13 37 43 43 38 44 44 41 47 47 44 50 50 47 53 53 51 57 57 53 59 59 54 60 60 55 61 61 55 61 61 55 61 61 55 61 61 55 61 61 55 61 61 55 61 61 55 61 61 52 61 60 50 59 58 48 57 56 45 54 53 41 50 49 38 47 46 36 45 44 34 43 42 14 23 22 12 21 20 10 19 18 7 16 15 3 12 11 0 9 8 0 7 6 0 5 4 0 3 1 0 5 3 1 7 5 4 10 8 8 14 12 11 17 15 13 19 17 15 21 19 14 20 18 16 22 20 18 24 22 21 27 25 25 31 29 28 34 32 30 36 34 32 38 34 32 38 34 32 39 32 32 39 32 32 39 32 32 39 32 32 39 32 32 39 32 32 39 32 43 50 43 43 50 43 43 50 43 43 50 43 43 50 43 43 50 43 43 50 43 44 49 43 31 30 25 33 30 25 33 30 25 33 30 25 33 30 25 33 30 25 33 30 25 33 30 25 33 30 25 33 30 25 33 30 25 33 30 25 33 30 25 33 30 25 33 30 25 33 30 25 35 30 27 35 30 27 35 30 27 35 30 27 35 30 27 35 30 27 35 30 27 35 30 27 36 31 28 36 31 28 36 31 28 36 31 28 36 31 28 36 31 28 36 31 28 36 31 28
0 0 0 0 0 0 0 0 0 0 0 0 0 0 0 0 0 0 0 0 0 0 0 0 0 0 0 0 0 0 0 0 0 0 0 0 1 1 3 1 1 3 1 1 3 1 1 3 1 1 3 1 1 3 1 1 3 1 1 3 1 1 3 1 1 3 1 1 3 1 1 3 1 1 3 1 1 3 1 1 3 1 1 3 1 1 3 1 1 3 1 1 3 1 1 3 1 1 3 1 1 3 1 1 3 1 1 3 3 3 5 3 3 5 3 3 5 3 3 5 3 3 5 3 3 5 3 3 5 3 3 5 3 4 6 3 4 6 3 4 6 3 4 6 3 4 6 3 4 6 3 4 6 3 4 6 4 5 7 4 5 7 4 5 7 4 5 7 4 5 7 4 5 7 4 5 7 2 6 7 7 11 12 6 12 12 6 12 12 6 12 12 6 12 12 6 12 12 6 12 12 6 12 12 0 3 3 0 6 6 4 10 10 9 15 15 15 21 21 21 27 27 25 31 31 27 33 33 39 45 45 41 47 47 43 49 49 46 52 52 50 56 56 53 59 59 55 61 61 57 63 63 57 63 63 57 63 63 57 63 63 57 63 63 57 63 63 57 63 63 57 63 63 57 63 63 52 61 60 50 59 58 48 57 56 45 54 53 41 50 49 38 47 46 36 45 44 34 43 42 14 23 22 12 21 20 10 19 18 7 16 15 3 12 11 0 9 8 0 7 6 0 5 4 0 3 1 0 5 3 1 7 5 4 10 8 8 14 12 11 17 15 13 19 17 15 21 19 14 20 18 16 22 20 18 24 22 21 27 25 25 31 29 28 34 32 30 36 34 32 38 34 32 38 34 32 39 32 32 39 32 32 39 32 32 39 32 32 39 32 32 39 32 32 39 32 41 48 41 41 48 41 41 48 41 41 48 41 41 48 41 41 48 41 41 48 41 42 47 41 31 30 25 33 30 25 33 30 25 33 30 25 33 30 25 33 30 25 33 30 25 33 30 25 33 30 25 33 30 25 33 30 25 33 30 25 33 30 25 33 30 25 33 30 25 33 30 25 35 30 27 35 30 27 35 30 27 35 30 27 35 30 27 35 30 27 35 30 27 35 30 27 36 31 28 36 31 28 36 31 28 36 31 28 36 31 28 36 31 28 36 31 28 36 31 28
0 0 0 0 0 0 0 0 0 0 0 0 0 0 0 0 0 0 0 0 0 0 0 0 0 0 0 0 0 0 0 0 0 0 0 0 1 1 3 1 1 3 1 1 3 1 1 3 1 1 3 1 1 3 1 1 3 1 1 3 1 1 3 1 1 3 1 1 3 1 1 3 1 1 3 1 1 3 1 1 3 1 1 3 1 1 3 1 1 3 1 1 3 1 1 3 1 1 3 1 1 3 1 1 3 1 1 3 3 3 5 3 3 5 3 3 5 3 3 5 3 3 5 3 3 5 3 3 5 3 3 5 3 4 6 3 4 6 3 4 6 3 4 6 3 4 6 3 4 6 3 4 6 3 4 6 4 5 7 4 5 7 4 5 7 4 5 7 4 5 7 4 5 7 4 5 7 2 6 7 7 11 12 6 12 12 6 12 12 6 12 12 6 12 12 6 12 12 6 12 12 6 12 12 0 4 4 1 7 7 8 14 14 17 23 23 27 33 33 35 41 41 42 48 48 46 52 52 43 49 49 44 50 50 46 52 52 50 56 56 53 59 59 56 62 62 59 65 65 60 66 66 60 66 66 60 66 66 60 66 66 60 66 66 60 66 66 60 66 66 60 66 66 60 66 66 52 61 60 50 59 58 48 57 56 45 54 53 41 50 49 38 47 46 36 45 44 34 43 42 14 23 22 12 21 20 10 19 18 7 16 15 3 12 11 0 9 8 0 7 6 0 5 4 0 3 1 0 5 3 1 7 5 4 10 8 8 14 12 11 17 15 13 19 17 15 21 19 14 20 18 16 22 20 18 24 22 21 27 25 25 31 29 28 34 32 30 36 34 32 38 34 32 38 34 32 39 32 32 39 32 32 39 32 32 39 32 32 39 32 32 39 32 32 39 32 38 45 38 38 45 38 38 45 38 38 45 38 38 45 38 38 45 38 38 45 38 39 44 38 31 30 25 33 30 25 33 30 25 33 30 25 33 30 25 33 30 25 33 30 25 33 30 25 33 30 25 33 30 25 33 30 25 33 30 25 33 30 25 33 30 25 33 30 25 33 30 25 35 30 27 35 30 27 35 30 27 35 30 27 35 30 27 35 30 27 35 30 27 35 30 27 36 31 28 36 31 28 36 31 28 36 31 28 36 31 28 36 31 28 36 31 28 36 31 28
0 0 0 0 0 0 0 0 0 0 0 0 0 0 0 0 0 0 0 0 0 0 0 0 0 0 0 0 0 0 0 0 0 0 0 0 1 1 3 1 1 3 1 1 3 1 1 3 1 1 3 1 1 3 1 1 3 1 1 3 1 1 3 1 1 3 1 1 3 1 1 3 1 1 3 1 1 3 1 1 3 1 1 3 1 1 3 1 1 3 1 1 3 1 1 3 1 1 3 1 1 3 1 1 3 1 1 3 3 3 5 3 3 5 3 3 5 3 3 5 3 3 5 3 3 5 3 3 5 3 3 5 3 4 6 3 4 6 3 4 6 3 4 6 3 4 6 3 4 6 3 4 6 3 4 6 4 5 7 4 5 7 4 5 7 4 5 7 4 5 7 4 5 7 4 5 7 2 6 7 7 11 12 6 12 12 6 12 12 6 12 12 6 12 12 6 12 12 6 12 12 6 12 12 8 14 14 12 18 18 19 25 25 27 33 33 37 43 43 46 52 52 53 59 59 56 62 62 46 52 52 47 53 53 50 56 56 53 59 59 56 62 62 60 66 66 62 68 68 63 69 69 64 70 70 64 70 70 64 70 70 64 70 70 64 70 70 64 70 70 64 70 70 64 70 70 52 61 60 50 59 58 48 57 56 45 54 53 41 50 49 38 47 46 36 45 44 34 43 42 14 23 22 12 21 20 10 19 18 7 16 15 3 12 11 0 9 8 0 7 6 0 5 4 0 3 1 0 5 3 1 7 5 4 10 8 8 14 12 11 17 15 13 19 17 15 21 19 14 20 18 16 22 20 18 24 22 21 27 25 25 31 29 28 34 32 30 36 34 32 38 34 32 38 34 32 39 32 32 39 32 32 39 32 32 39 32 32 39 32 32 39 32 32 39 32 34 41 34 34 41 34 34 41 34 34 41 34 34 41 34 34 41 34 34 41 34 35 40 34 31 30 25 33 30 25 33 30 25 33 30 25 33 30 25 33 30 25 33 30 25 33 30 25 33 30 25 33 30 25 33 30 25 33 30 25 33 30 25 33 30 25 33 30 25 33 30 25 35 30 27 35 30 27 35 30 27 35 30 27 35 30 27 35 30 27 35 30 27 35 30 27 36 31 28 36 31 28 36 31 28 36 31 28 36 31 28 36 31 28 36 31 28 36 31 28
0 0 0 0 0 0 0 0 0 0 0 0 0 0 0 0 0 0 0 0 0 0 0 0 0 0 0 0 0 0 0 0 0 0 0 0 1 1 3 1 1 3 1 1 3 1 1 3 1 1 3 1 1 3 1 1 3 1 1 3 1 1 3 1 1 3 1 1 3 1 1 3 1 1 3 1 1 3 1 1 3 1 1 3 1 1 3 1 1 3 1 1 3 1 1 3 1 1 3 1 1 3 1 1 3 1 1 3 3 3 5 3 3 5 3 3 5 3 3 5 3 3 5 3 3 5 3 3 5 3 3 5 3 4 6 3 4 6 3 4 6 3 4 6 3 4 6 3 4 6 3 4 6 3 4 6 4 5 7 4 5 7 4 5 7 4 5 7 4 5 7 4 5 7 4 5 7 2 6 7 7 11 12 6 12 12 6 12 12 6 12 12 6 12 12 6 12 12 6 12 12 6 12 12 27 33 33 29 35 35 33 39 39 39 45 45 45 51 51 50 56 56 54 60 60 57 63 63 49 55 55 51 57 57 53 59 59 56 62 62 60 66 66 63 69 69 65 71 71 67 73 73 67 73 73 67 73 73 67 73 73 67 73 73 67 73 73 67 73 73 67 73 73 67 73 73 52 61 60 50 59 58 48 57 56 45 54 53 41 50 49 38 47 46 36 45 44 34 43 42 14 23 22 12 21 20 10 19 18 7 16 15 3 12 11 0 9 8 0 7 6 0 5 4 0 3 1 0 5 3 1 7 5 4 10 8 8 14 12 11 17 15 13 19 17 15 21 19 14 20 18 16 22 20 18 24 22 21 27 25 25 31 29 28 34 32 30 36 34 32 38 34 32 38 34 32 39 32 32 39 32 32 39 32 32 39 32 32 39 32 32 39 32 32 39 32 31 38 31 31 38 31 31 38 31 31 38 31 31 38 31 31 38 31 31 38 31 32 37 31 31 30 25 33 30 25 33 30 25 33 30 25 33 30 25 33 30 25 33 30 25 33 30 25 33 30 25 33 30 25 33 30 25 33 30 25 33 30 25 33 30 25 33 30 25 33 30 25 35 30 27 35 30 27 35 30 27 35 30 27 35 30 27 35 30 27 35 30 27 35 30 27 36 31 28 36 31 28 36 31 28 36 31 28 36 31 28 36 31 28 36 31 28 36 31 28
0 0 0 0 0 0 0 0 0 0 0 0 0 0 0 0 0 0 0 0 0 0 0 0 0 0 0 0 0 0 0 0 0 0 0 0 1 1 3 1 1 3 1 1 3 1 1 3 1 1 3 1 1 3 1 1 3 1 1 3 1 1 3 1 1 3 1 1 3 1 1 3 1 1 3 1 1 3 1 1 3 1 1 3 1 1 3 1 1 3 1 1 3 1 1 3 1 1 3 1 1 3 1 1 3 1 1 3 3 3 5 3 3 5 3 3 5 3 3 5 3 3 5 3 3 5 3 3 5 3 3 5 3 4 6 3 4 6 3 4 6 3 4 6 3 4 6 3 4 6 3 4 6 3 4 6 4 5 7 4 5 7 4 5 7 4 5 7 4 5 7 4 5 7 4 5 7 2 6 7 7 11 12 6 12 12 6 12 12 6 12 12 6 12 12 6 12 12 6 12 12 6 12 12 47 53 53 47 53 53 48 54 54 49 55 55 50 56 56 50 56 56 51 57 57 51 57 57 52 58 58 53 59 59 55 61 61 59 65 65 62 68 68 65 71 71 68 74 74 69 75 75 69 75 75 69 75 75 69 75 75 69 75 75 69 75 75 69 75 75 69 75 75 69 75 75 52 61 60 50 59 58 48 57 56 45 54 53 41 50 49 38 47 46 36 45 44 34 43 42 14 23 22 12 21 20 10 19 18 7 16 15 3 12 11 0 9 8 0 7 6 0 5 4 0 3 1 0 5 3 1 7 5 4 10 8 8 14 12 11 17 15 13 19 17 15 21 19 14 20 18 16 22 20 18 24 22 21 27 25 25 31 29 28 34 32 30 36 34 32 38 34 32 38 34 32 39 32 32 39 32 32 39 32 32 39 32 32 39 32 32 39 32 32 39 32 29 36 29 29 36 29 29 36 29 29 36 29 29 36 29 29 36 29 29 36 29 30 35 29 31 30 25 33 30 25 33 30 25 33 30 25 33 30 25 33 30 25 33 30 25 33 30 25 33 30 25 33 30 25 33 30 25 33 30 25 33 30 25 33 30 25 33 30 25 33 30 25 35 30 27 35 30 27 35 30 27 35 30 27 35 30 27 35 30 27 35 30 27 35 30 27 36 31 28 36 31 28 36 31 28 36 31 28 36 31 28 36 31 28 36 31 28 36 31 28
0 0 0 0 0 0 0 0 0 0 0 0 0 0 0 0 0 0 0 0 0 0 0 0 0 0 0 0 0 0 0 0 0 0 0 0 1 1 3 1 1 3 1 1 3 1 1 3 1 1 3 1 1 3 1 1 3 1 1 3 1 1 3 1 1 3 1 1 3 1 1 3 1 1 3 1 1 3 1 1 3 1 1 3 1 1 3 0 1 3 1 1 3 0 1 3 1 1 3 0 1 3 1 1 3 0 1 3 3 3 5 2 3 5 3 3 5 2 3 5 3 3 5 2 3 5 3 3 5 2 3 5 3 4 6 1 5 6 3 4 8 1 5 6 3 4 8 1 5 6 3 4 8 1 5 6 4 5 9 2 6 7 4 5 9 2 6 7 4 5 9 2 6 7 4 5 9 2 6 7 6 12 12 4 13 12 6 12 12 4 13 12 6 12 12 4 13 12 6 12 12 4 13 12 60 66 66 57 66 65 57 63 63 52 61 60 52 58 58 47 56 55 47 53 53 46 52 52 53 59 59 54 60 60 57 63 63 60 66 66 63 69 69 67 73 73 69 75 75 70 76 76 71 77 77 71 77 77 71 77 77 71 77 77 71 77 77 71 77 77 71 77 77 71 77 77 52 61 60 50 59 58 48 57 56 45 54 53 41 50 49 38 47 46 36 45 44 34 43 42 14 23 22 12 21 20 10 19 18 7 16 15 3 12 11 0 9 8 0 7 6 0 5 4 0 3 1 0 5 3 1 7 5 4 10 8 8 14 12 11 17 15 13 19 17 15 21 19 14 20 18 16 22 20 18 24 22 21 27 25 25 31 29 28 34 32 30 36 34 32 38 36 32 38 34 32 38 34 32 38 34 32 38 34 32 38 34 32 38 34 32 38 34 32 38 34 27 33 29 27 33 29 27 33 29 27 33 29 27 33 29 27 33 29 27 33 29 28 33 27 31 30 26 33 30 25 33 30 25 33 30 25 33 30 25 33 30 25 33 30 25 33 30 25 33 30 25 33 30 25 33 30 25 33 30 25 33 30 25 33 30 25 33 30 25 33 30 25 35 30 27 35 30 27 35 30 27 35 30 27 35 30 27 35 30 27 35 30 27 35 30 27 36 31 28 36 31 28 36 31 28 36 31 28 36 31 28 36 31 28 36 31 28 36 31 28
0 0 0 0 0 0 0 0 0 0 0 0 0 0 0 0 0 0 0 0 0 0 0 0 0 0 0 0 0 0 0 0 0 0 0 0 0 0 0 0 0 0 0 0 0 0 0 0 0 0 0 0 0 0 0 0 0 0 0 0 0 0 0 0 0 0 0 0 0 0 0 0 0 0 0 0 0 0 0 0 0 0 0 0 0 1 3 0 2 3 0 1 3 0 2 3 0 1 3 0 2 3 0 1 3 0 2 3 1 2 4 0 3 4 1 2 4 0 3 4 1 2 4 0 3 4 1 2 4 0 3 4 8 12 15 6 11 14 3 6 11 0 3 6 0 0 5 0 1 4 0 0 5 0 1 4 3 6 11 1 6 9 0 3 8 0 1 4 0 0 5 0 1 4 0 0 5 0 1 4 18 26 28 18 28 29 22 30 32 24 34 35 28 36 38 31 41 42 34 42 44 34 44 45 55 63 65 54 64 65 55 63 65 54 64 65 55 63 65 54 64 65 55 63 65 55 63 65 75 81 81 75 81 81 75 81 81 75 81 81 75 81 81 75 81 81 75 81 81 75 81 81 72 78 78 72 78 78 72 78 78 72 78 78 72 78 78 72 78 78 72 78 78 72 78 78 64 73 72 62 71 70 57 66 65 50 59 58 44 53 52 37 46 45 32 41 40 30 39 38 5 14 13 5 14 13 5 14 13 5 14 13 5 14 13 5 14 13 5 14 13 5 14 13 7 16 15 7 16 15 7 16 15 7 16 15 7 16 15 7 16 15 7 16 15 7 16 15 20 29 28 20 29 28 20 29 28 20 29 28 20 29 28 20 29 28 20 29 28 20 29 28 24 30 28 24 30 28 24 30 28 24 30 28 24 30 28 24 30 28 24 30 28 24 30 28 23 29 27 23 29 27 23 29 27 23 29 27 23 29 27 23 29 27 23 29 27 24 28 27 29 28 24 32 27 24 32 27 24 32 27 24 32 27 24 32 27 24 32 27 24 32 27 24 33 28 25 33 28 25 33 28 25 33 28 25 33 28 25 33 28 25 33 28 25 33 28 25 36 28 26 36 28 26 36 28 26 36 28 26 36 28 26 36 28 26 36 28 26 36 28 26 36 28 26 36 28 26 36 28 26 36 28 26 36 28 26 36 28 26 36 28 26 36 28 26
0 0 0 0 0 0 0 0 0 0 0 0 0 0 0 0 0 0 0 0 0 0 0 0 0 0 0 0 0 0 0 0 0 0 0 0 0 0 0 0 0 0 0 0 0 0 0 0 0 0 0 0 0 0 0 0 0 0 0 0 0 0 0 0 0 0 0 0 0 0 0 0 0 0 0 0 0 0 0 0 0 0 1 0 0 1 3 0 2 3 0 2 3 0 2 3 0 2 3 0 2 3 0 2 3 0 2 3 0 3 4 0 3 4 0 3 4 0 3 4 0 3 4 0 3 4 0 3 4 0 3 4 7 12 16 5 10 14 2 7 11 0 4 8 0 1 5 0 1 5 0 1 5 0 1 5 0 2 6 0 2 6 0 3 7 0 3 7 0 4 8 0 5 9 1 6 10 0 7 10 21 29 31 21 31 32 23 33 34 27 37 38 30 40 41 33 43 44 36 46 47 37 47 48 56 66 67 56 66 67 56 66 67 56 66 67 56 66 67 56 66 67 56 66 67 56 66 67 75 81 81 75 81 81 75 81 81 75 81 81 75 81 81 75 81 81 75 81 81 75 81 81 72 78 78 72 78 78 72 78 78 72 78 78 72 78 78 72 78 78 72 78 78 72 78 78 64 73 72 62 71 70 57 66 65 50 59 58 44 53 52 37 46 45 32 41 40 30 39 38 5 14 13 5 14 13 5 14 13 5 14 13 5 14 13 5 14 13 5 14 13 5 14 13 7 16 15 7 16 15 7 16 15 7 16 15 7 16 15 7 16 15 7 16 15 7 16 15 20 29 28 20 29 28 20 29 28 20 29 28 20 29 28 20 29 28 20 29 28 20 29 28 24 30 30 24 30 30 24 30 30 24 30 30 24 30 30 24 30 30 24 30 30 24 30 30 23 29 29 23 29 29 23 29 29 23 29 29 23 29 29 23 29 29 23 29 29 24 28 27 31 27 26 32 27 24 32 27 24 32 27 24 32 27 24 32 27 24 32 27 24 32 27 24 33 28 25 33 28 25 33 28 25 33 28 25 33 28 25 33 28 25 33 28 25 33 28 25 36 28 26 36 28 26 36 28 26 36 28 26 36 28 26 36 28 26 36 28 26 36 28 26 36 28 26 36 28 26 36 28 26 36 28 26 36 28 26 36 28 26 36 28 26 36 28 26
0 0 0 0 0 0 0 0 0 0 0 0 0 0 0 0 0 0 0 0 0 0 0 0 0 0 0 0 0 0 0 0 0 0 0 0 0 0 0 0 0 0 0 0 0 0 0 0 0 0 0 0 0 0 0 0 0 0 0 0 0 0 0 0 0 0 0 0 0 0 0 0 0 0 0 0 0 0 0 0 0 0 1 0 0 1 3 0 2 3 0 2 3 0 2 3 0 2 3 0 2 3 0 2 3 0 2 3 0 3 4 0 3 4 0 3 4 0 3 4 0 3 4 0 3 4 0 3 4 0 3 4 6 11 15 5 10 14 3 8 12 0 5 9 0 3 7 0 1 5 0 1 5 0 1 5 0 1 5 0 1 5 0 3 7 3 8 12 9 14 18 15 20 24 19 24 28 19 27 30 26 34 36 26 36 37 28 38 39 31 41 42 35 45 46 38 48 49 41 51 52 42 52 53 58 68 69 58 68 69 58 68 69 58 68 69 58 68 69 58 68 69 58 68 69 58 68 69 75 81 81 75 81 81 75 81 81 75 81 81 75 81 81 75 81 81 75 81 81 75 81 81 72 78 78 72 78 78 72 78 78 72 78 78 72 78 78 72 78 78 72 78 78 72 78 78 64 73 72 62 71 70 57 66 65 50 59 58 44 53 52 37 46 45 32 41 40 30 39 38 5 14 13 5 14 13 5 14 13 5 14 13 5 14 13 5 14 13 5 14 13 5 14 13 7 16 15 7 16 15 7 16 15 7 16 15 7 16 15 7 16 15 7 16 15 7 16 15 20 29 28 20 29 28 20 29 28 20 29 28 20 29 28 20 29 28 20 29 28 20 29 28 24 30 30 24 30 30 24 30 30 24 30 30 24 30 30 24 30 30 24 30 30 24 30 30 23 29 29 23 29 29 23 29 29 23 29 29 23 29 29 23 29 29 23 29 29 24 28 27 31 27 26 32 27 24 32 27 24 32 27 24 32 27 24 32 27 24 32 27 24 32 27 24 33 28 25 33 28 25 33 28 25 33 28 25 33 28 25 33 28 25 33 28 25 33 28 25 36 28 26 36 28 26 36 28 26 36 28 26 36 28 26 36 28 26 36 28 26 36 28 26 36 28 26 36 28 26 36 28 26 36 28 26 36 28 26 36 28 26 36 28 26 36 28 26
