P3
172 37
255
132 113 135 132 113 135 132 113 135 132 113 135 129 110 132 129 110 132 129 110 132 129 110 132 129 110 132 129 110 132 129 110 132 129 109 136 126 106 141 126 106 143 126 105 144 126 106 143 126 105 144 126 106 143 126 105 144 126 106 143 125 104 143 125 105 142 125 104 143 125 105 142 125 104 143 125 105 142 125 104 143 125 106 138 118 100 122 116 99 117 114 97 115 111 94 112 107 90 108 104 87 105 102 85 103 100 83 101 91 74 92 90 73 91 88 71 89 84 67 85 81 64 82 78 61 79 75 58 76 72 58 75 47 36 52 44 36 51 41 33 48 38 30 45 35 27 42 31 23 38 29 21 36 28 20 35 28 20 35 26 18 33 24 16 31 21 13 28 17 9 24 14 6 21 12 4 19 9 3 17 8 2 14 6 3 14 6 3 14 6 3 14 6 3 14 6 3 14 6 3 14 6 3 14 13 10 21 13 10 21 13 10 21 13 10 21 13 10 21 13 10 21 13 10 21 12 11 19 11 10 18 10 11 16 10 11 16 10 11 16 10 11 16 10 11 16 10 11 16 10 11 16 9 10 15 9 10 15 9 10 15 9 10 15 9 10 15 9 10 15 9 10 15 9 10 15 7 11 14 7 11 14 7 11 14 7 11 14 7 11 14 7 11 14 7 11 14 7 11 14 5 9 12 5 9 12 5 9 12 5 9 12 5 9 12 5 9 12 5 9 12 5 9 12 5 11 11 5 11 11 5 11 11 5 11 11 5 11 11 5 11 11 5 11 11 5 11 11 7 13 13 9 15 15 11 17 17 14 20 20 18 24 24 21 27 27 23 29 29 25 31 31 30 31 33 34 35 37 41 42 44 51 52 54 61 62 64 71 72 74 78 79 81 82 83 85 95 96 98 96 97 99 99 100 102 102 103 105 105 106 108 109 110 112 111 112 114 112 113 115 81 81 83 73 73 75 60 60 62 48 48 50 41 41 43 40 40 42 43 43 45 46 46 48 41 41 43 41 41 43 41 41 43 41 41 43 41 41 43 41 41 43 41 41 43 41 41 43 39 37 42 39 37 42 39 37 42 39 37 42 39 37 42 39 37 42 39 37 42 39 37 42 42 40 45 42 40 45 42 40 45 42 40 45 42 40 45 42 40 45 42 40 45 42 40 45
132 112 137 131 113 137 132 112 137 131 113 137 129 109 134 128 110 134 129 109 134 128 110 134 129 109 134 128 110 134 129 109 134 128 110 136 126 107 139 126 106 141 126 106 143 126 106 141 126 106 143 126 106 141 126 106 143 126 106 141 125 105 142 125 105 140 125 105 142 125 105 140 125 105 142 125 105 140 125 105 142 125 106 138 116 101 124 114 99 118 112 97 116 109 94 113 105 90 109 102 87 106 100 85 104 98 83 102 88 73 92 87 72 91 84 69 88 81 66 85 78 63 82 74 59 78 72 57 76 70 57 75 37 29 44 34 28 42 32 26 40 29 23 37 25 19 33 22 16 30 20 14 28 18 12 26 23 17 31 21 15 29 19 13 27 16 10 24 12 6 20 9 3 17 7 1 15 5 0 13 2 0 12 1 0 10 1 0 10 1 0 10 1 0 10 1 0 10 1 0 10 1 0 10 16 14 25 16 14 25 16 14 25 16 14 25 16 14 25 16 14 25 16 14 25 16 14 25 10 10 18 8 11 16 10 10 18 8 11 16 10 10 18 8 11 16 10 10 18 8 11 16 9 9 17 7 10 15 9 9 17 7 10 15 9 9 17 7 10 15 9 9 17 7 10 15 7 10 15 6 11 14 7 11 14 6 11 14 7 11 14 6 11 14 7 11 14 6 11 14 5 9 12 4 9 12 5 9 12 4 9 12 5 9 12 4 9 12 5 9 12 4 9 12 5 10 13 5 11 11 5 11 11 5 11 11 5 11 11 5 11 11 5 11 11 5 11 11 7 13 13 9 15 15 11 17 17 14 20 20 18 24 24 21 27 27 23 29 29 25 31 31 28 32 33 32 36 37 41 42 44 49 53 54 61 62 64 69 73 74 78 79 81 80 84 85 94 95 97 93 97 98 97 98 100 99 103 104 104 105 107 105 109 110 110 111 113 111 112 114 81 81 83 73 73 75 60 60 62 48 48 50 41 41 43 40 40 42 43 43 45 46 46 48 41 41 43 41 41 43 41 41 43 41 41 43 41 41 43 41 41 43 41 41 43 41 41 43 39 37 42 39 37 42 39 37 42 39 37 42 39 37 42 39 37 42 39 37 42 39 37 42 42 40 45 42 40 45 42 40 45 42 40 45 42 40 45 42 40 45 42 40 45 42 40 43
128 109 137 126 110 137 128 109 137 126 110 137 138 119 147 136 120 147 138 119 147 136 120 147 138 119 147 136 120 147 138 119 147 136 120 147 127 111 138 127 111 138 127 111 140 127 111 138 127 111 140 127 111 138 127 111 140 127 111 138 122 106 135 121 105 132 119 103 132 115 99 126 112 96 125 109 93 120 106 90 119 105 89 116 96 82 105 96 84 104 96 84 104 98 86 106 99 87 107 100 88 108 101 89 109 102 90 110 92 80 100 88 76 96 80 68 88 69 57 77 57 45 65 46 34 54 38 26 46 32 23 42 12 8 23 11 9 23 11 9 23 11 9 23 11 9 23 11 9 23 11 9 23 11 9 23 7 5 19 7 5 19 7 5 19 7 5 19 7 5 19 7 5 19 7 5 19 7 5 18 7 7 19 7 7 19 7 7 19 7 7 19 7 7 19 7 7 19 7 7 19 7 7 19 8 8 20 8 8 20 8 8 20 8 8 20 8 8 20 8 8 20 8 8 20 6 9 18 7 10 19 6 11 17 7 10 19 6 11 17 7 10 19 6 11 17 7 10 19 6 11 17 7 10 19 6 11 17 7 10 19 6 11 17 7 10 19 6 11 17 7 10 19 6 11 17 9 14 18 7 15 18 9 14 18 7 15 18 9 14 18 7 15 18 9 14 18 7 15 18 14 19 23 10 18 21 10 15 19 5 13 16 3 8 12 0 6 9 0 3 7 0 1 4 1 6 9 1 6 9 1 6 9 1 6 9 1 6 9 1 6 9 1 6 9 1 6 9 10 15 18 12 17 20 14 19 22 17 22 25 21 26 29 24 29 32 26 31 34 28 34 34 37 43 43 39 45 43 45 49 48 51 57 55 58 62 61 64 70 68 70 74 73 71 77 75 87 91 90 87 93 91 91 95 94 93 99 97 97 101 100 100 106 104 103 107 106 104 108 107 80 82 81 73 73 73 60 60 60 48 48 48 41 41 41 40 40 40 43 43 43 46 46 46 40 40 40 40 40 40 40 40 40 40 40 40 40 40 40 40 40 40 40 40 40 40 40 40 39 37 40 39 37 40 39 37 40 39 37 40 39 37 40 39 37 40 39 37 40 39 37 40 39 37 40 39 37 40 39 37 40 39 37 40 39 37 40 39 37 40 39 37 40 39 37 40
126 110 139 126 110 139 126 110 139 126 110 139 134 118 147 134 118 147 134 118 147 134 118 147 134 118 147 134 118 147 134 118 147 134 118 145 125 109 136 125 109 135 125 109 135 125 109 135 125 109 135 125 109 135 125 109 135 125 109 135 121 105 131 120 104 130 117 101 127 114 98 124 111 95 121 107 91 117 105 89 115 103 89 114 94 82 104 92 83 104 93 84 105 93 84 105 94 85 106 95 86 107 95 86 107 95 86 107 85 76 97 80 71 92 73 64 85 63 54 75 52 43 64 41 32 53 34 25 46 29 22 40 11 8 25 10 9 23 10 9 23 10 9 23 10 9 23 10 9 23 10 9 23 10 9 23 6 5 19 6 5 19 6 5 19 6 5 19 6 5 19 6 5 19 6 5 19 6 5 19 5 7 19 5 7 19 5 7 19 5 7 19 5 7 19 5 7 19 5 7 19 5 7 19 6 8 20 6 8 20 6 8 20 6 8 20 6 8 20 6 8 20 6 8 20 6 8 20 6 10 19 6 10 19 6 10 19 6 10 19 6 10 19 6 10 19 6 10 19 6 10 19 6 10 19 6 10 19 6 10 19 6 10 19 6 10 19 6 10 19 6 10 19 6 11 17 7 14 20 7 15 18 7 15 18 7 15 18 7 15 18 7 15 18 7 15 18 7 15 18 12 20 23 10 18 21 8 16 19 5 13 16 1 9 12 0 6 9 0 4 7 0 2 5 1 6 9 1 6 9 1 6 9 1 6 9 1 6 9 1 6 9 1 6 9 1 6 9 10 15 18 12 17 20 14 19 22 17 22 25 21 26 29 24 29 32 26 31 34 28 34 34 37 43 43 39 45 43 44 50 48 51 57 55 57 63 61 64 70 68 69 75 73 71 77 75 85 91 89 86 92 90 88 94 92 92 98 96 95 101 99 98 104 102 101 107 105 103 107 106 80 82 81 73 73 73 60 60 60 48 48 48 41 41 41 40 40 40 43 43 43 46 46 46 40 40 40 40 40 40 40 40 40 40 40 40 40 40 40 40 40 40 40 40 40 40 40 40 39 37 40 39 37 40 39 37 40 39 37 40 39 37 40 39 37 40 39 37 40 39 37 40 39 37 40 39 37 40 39 37 40 39 37 40 39 37 40 39 37 40 39 37 40 39 37 40
126 110 139 126 110 139 126 110 139 126 110 139 132 116 145 132 116 145 132 116 145 132 116 145 132 116 145 132 116 145 132 116 145 132 116 143 123 107 134 123 107 133 123 107 133 123 107 133 123 107 133 123 107 133 123 107 133 123 107 133 119 103 129 117 101 127 115 99 125 112 96 122 108 92 118 105 89 115 103 87 113 100 86 111 93 81 103 90 81 102 90 81 102 89 80 101 88 79 100 88 79 100 87 78 99 87 78 99 74 65 86 70 61 82 63 54 75 55 46 67 45 36 57 36 27 48 29 20 41 25 18 36 11 8 25 10 9 23 10 9 23 10 9 23 10 9 23 10 9 23 10 9 23 10 9 23 6 5 19 6 5 19 6 5 19 6 5 19 6 5 19 6 5 19 6 5 19 6 5 19 5 7 19 5 7 19 5 7 19 5 7 19 5 7 19 5 7 19 5 7 19 5 7 19 6 8 20 6 8 20 6 8 20 6 8 20 6 8 20 6 8 20 6 8 20 6 8 20 6 10 19 6 10 19 6 10 19 6 10 19 6 10 19 6 10 19 6 10 19 6 10 19 6 10 19 6 10 19 6 10 19 6 10 19 6 10 19 6 10 19 6 10 19 6 11 17 7 14 20 7 15 18 7 15 18 7 15 18 7 15 18 7 15 18 7 15 18 7 15 18 12 20 23 10 18 21 8 16 19 5 13 16 1 9 12 0 6 9 0 4 7 0 2 5 1 6 9 1 6 9 1 6 9 1 6 9 1 6 9 1 6 9 1 6 9 1 6 9 10 15 18 12 17 20 14 19 22 17 22 25 21 26 29 24 29 32 26 31 34 28 34 34 37 43 43 39 45 43 44 50 48 51 57 55 57 63 61 64 70 68 69 75 73 71 77 75 82 88 86 84 90 88 86 92 90 89 95 93 93 99 97 96 102 100 98 104 102 101 105 104 80 82 81 73 73 73 60 60 60 48 48 48 41 41 41 40 40 40 43 43 43 46 46 46 40 40 40 40 40 40 40 40 40 40 40 40 40 40 40 40 40 40 40 40 40 40 40 40 39 37 40 39 37 40 39 37 40 39 37 40 39 37 40 39 37 40 39 37 40 39 37 40 39 37 40 39 37 40 39 37 40 39 37 40 39 37 40 39 37 40 39 37 40 39 37 40
126 110 139 126 110 139 126 110 139 126 110 139 129 113 142 129 113 142 129 113 142 129 113 142 129 113 142 129 113 142 129 113 142 129 113 140 120 104 131 120 104 130 120 104 130 120 104 130 120 104 130 120 104 130 120 104 130 120 104 130 115 99 125 114 98 124 112 96 122 108 92 118 105 89 115 102 86 112 99 83 109 97 83 108 91 79 101 88 79 100 86 77 98 84 75 96 81 72 93 79 70 91 77 68 89 76 67 88 60 51 72 57 48 69 51 42 63 44 35 56 36 27 48 29 20 41 23 14 35 19 12 30 11 8 25 10 9 23 10 9 23 10 9 23 10 9 23 10 9 23 10 9 23 10 9 23 6 5 19 6 5 19 6 5 19 6 5 19 6 5 19 6 5 19 6 5 19 6 5 19 5 7 19 5 7 19 5 7 19 5 7 19 5 7 19 5 7 19 5 7 19 5 7 19 6 8 20 6 8 20 6 8 20 6 8 20 6 8 20 6 8 20 6 8 20 6 8 20 6 10 19 6 10 19 6 10 19 6 10 19 6 10 19 6 10 19 6 10 19 6 10 19 6 10 19 6 10 19 6 10 19 6 10 19 6 10 19 6 10 19 6 10 19 6 11 17 7 14 20 7 15 18 7 15 18 7 15 18 7 15 18 7 15 18 7 15 18 7 15 18 12 20 23 10 18 21 8 16 19 5 13 16 1 9 12 0 6 9 0 4 7 0 2 5 1 6 9 1 6 9 1 6 9 1 6 9 1 6 9 1 6 9 1 6 9 1 6 9 10 15 18 12 17 20 14 19 22 17 22 25 21 26 29 24 29 32 26 31 34 28 34 34 37 43 43 39 45 43 44 50 48 51 57 55 57 63 61 64 70 68 69 75 73 71 77 75 79 85 83 80 86 84 83 89 87 86 92 90 89 95 93 93 99 97 95 101 99 97 101 100 80 82 81 73 73 73 60 60 60 48 48 48 41 41 41 40 40 40 43 43 43 46 46 46 40 40 40 40 40 40 40 40 40 40 40 40 40 40 40 40 40 40 40 40 40 40 40 40 39 37 40 39 37 40 39 37 40 39 37 40 39 37 40 39 37 40 39 37 40 39 37 40 39 37 40 39 37 40 39 37 40 39 37 40 39 37 40 39 37 40 39 37 40 39 37 40
126 110 139 126 110 139 126 110 139 126 110 139 125 109 138 125 109 138 125 109 138 125 109 138 125 109 138 125 109 138 125 109 138 125 109 136 116 100 127 116 100 126 116 100 126 116 100 126 116 100 126 116 100 126 116 100 126 116 100 126 112 96 122 111 95 121 108 92 118 105 89 115 102 86 112 98 82 108 96 80 106 94 80 105 89 77 99 85 76 97 82 73 94 78 69 90 73 64 85 69 60 81 66 57 78 65 56 77 45 36 57 42 33 54 38 29 50 33 24 45 27 18 39 21 12 33 17 8 29 14 7 25 11 8 25 10 9 23 10 9 23 10 9 23 10 9 23 10 9 23 10 9 23 10 9 23 6 5 19 6 5 19 6 5 19 6 5 19 6 5 19 6 5 19 6 5 19 6 5 19 5 7 19 5 7 19 5 7 19 5 7 19 5 7 19 5 7 19 5 7 19 5 7 19 6 8 20 6 8 20 6 8 20 6 8 20 6 8 20 6 8 20 6 8 20 6 8 20 6 10 19 6 10 19 6 10 19 6 10 19 6 10 19 6 10 19 6 10 19 6 10 19 6 10 19 6 10 19 6 10 19 6 10 19 6 10 19 6 10 19 6 10 19 6 11 17 7 14 20 7 15 18 7 15 18 7 15 18 7 15 18 7 15 18 7 15 18 7 15 18 12 20 23 10 18 21 8 16 19 5 13 16 1 9 12 0 6 9 0 4 7 0 2 5 1 6 9 1 6 9 1 6 9 1 6 9 1 6 9 1 6 9 1 6 9 1 6 9 10 15 18 12 17 20 14 19 22 17 22 25 21 26 29 24 29 32 26 31 34 28 34 34 37 43 43 39 45 43 44 50 48 51 57 55 57 63 61 64 70 68 69 75 73 71 77 75 76 82 80 77 83 81 79 85 83 83 89 87 86 92 90 89 95 93 92 98 96 94 98 97 80 82 81 73 73 73 60 60 60 48 48 48 41 41 41 40 40 40 43 43 43 46 46 46 40 40 40 40 40 40 40 40 40 40 40 40 40 40 40 40 40 40 40 40 40 40 40 40 39 37 40 39 37 40 39 37 40 39 37 40 39 37 40 39 37 40 39 37 40 39 37 40 39 37 40 39 37 40 39 37 40 39 37 40 39 37 40 39 37 40 39 37 40 39 37 40
126 110 139 126 110 139 126 110 139 126 110 139 122 106 135 122 106 135 122 106 135 122 106 135 122 106 135 122 106 135 122 106 135 122 106 133 113 97 124 113 97 123 113 97 123 113 97 123 113 97 123 113 97 123 113 97 123 113 97 123 109 93 119 107 91 117 105 89 115 102 86 112 98 82 108 95 79 105 93 77 103 90 76 101 87 75 97 82 73 94 78 69 90 72 63 84 66 57 78 60 51 72 56 47 68 54 45 66 31 22 43 29 20 41 26 17 38 22 13 34 18 9 30 14 5 26 11 2 23 9 2 20 11 8 25 10 9 23 10 9 23 10 9 23 10 9 23 10 9 23 10 9 23 10 9 23 6 5 19 6 5 19 6 5 19 6 5 19 6 5 19 6 5 19 6 5 19 6 5 19 5 7 19 5 7 19 5 7 19 5 7 19 5 7 19 5 7 19 5 7 19 5 7 19 6 8 20 6 8 20 6 8 20 6 8 20 6 8 20 6 8 20 6 8 20 6 8 20 6 10 19 6 10 19 6 10 19 6 10 19 6 10 19 6 10 19 6 10 19 6 10 19 6 10 19 6 10 19 6 10 19 6 10 19 6 10 19 6 10 19 6 10 19 6 11 17 7 14 20 7 15 18 7 15 18 7 15 18 7 15 18 7 15 18 7 15 18 7 15 18 12 20 23 10 18 21 8 16 19 5 13 16 1 9 12 0 6 9 0 4 7 0 2 5 1 6 9 1 6 9 1 6 9 1 6 9 1 6 9 1 6 9 1 6 9 1 6 9 10 15 18 12 17 20 14 19 22 17 22 25 21 26 29 24 29 32 26 31 34 28 34 34 37 43 43 39 45 43 44 50 48 51 57 55 57 63 61 64 70 68 69 75 73 71 77 75 72 78 76 74 80 78 76 82 80 79 85 83 83 89 87 86 92 90 88 94 92 91 95 94 80 82 81 73 73 73 60 60 60 48 48 48 41 41 41 40 40 40 43 43 43 46 46 46 40 40 40 40 40 40 40 40 40 40 40 40 40 40 40 40 40 40 40 40 40 40 40 40 39 37 40 39 37 40 39 37 40 39 37 40 39 37 40 39 37 40 39 37 40 39 37 40 39 37 40 39 37 40 39 37 40 39 37 40 39 37 40 39 37 40 39 37 40 39 37 40
126 110 139 126 110 139 126 110 139 126 110 139 120 104 133 120 104 133 120 104 133 120 104 133 120 104 133 120 104 133 120 104 133 120 104 131 111 95 122 111 95 121 111 95 121 111 95 121 111 95 121 111 95 121 111 95 121 111 95 121 106 90 116 105 89 115 103 87 113 99 83 109 96 80 106 93 77 103 90 74 100 88 74 99 85 73 95 80 71 92 75 66 87 68 59 80 61 52 73 54 45 66 48 39 60 45 36 57 20 11 32 19 10 31 17 8 29 14 5 26 12 3 24 9 0 21 7 0 19 5 0 16 11 8 25 10 9 23 10 9 23 10 9 23 10 9 23 10 9 23 10 9 23 10 9 23 6 5 19 6 5 19 6 5 19 6 5 19 6 5 19 6 5 19 6 5 19 6 5 19 5 7 19 5 7 19 5 7 19 5 7 19 5 7 19 5 7 19 5 7 19 5 7 19 6 8 20 6 8 20 6 8 20 6 8 20 6 8 20 6 8 20 6 8 20 6 8 20 6 10 19 6 10 19 6 10 19 6 10 19 6 10 19 6 10 19 6 10 19 6 10 19 6 10 19 6 10 19 6 10 19 6 10 19 6 10 19 6 10 19 6 10 19 6 11 17 7 14 20 7 15 18 7 15 18 7 15 18 7 15 18 7 15 18 7 15 18 7 15 18 12 20 23 10 18 21 8 16 19 5 13 16 1 9 12 0 6 9 0 4 7 0 2 5 1 6 9 1 6 9 1 6 9 1 6 9 1 6 9 1 6 9 1 6 9 1 6 9 10 15 18 12 17 20 14 19 22 17 22 25 21 26 29 24 29 32 26 31 34 28 34 34 37 43 43 39 45 43 44 50 48 51 57 55 57 63 61 64 70 68 69 75 73 71 77 75 70 76 74 71 77 75 74 80 78 77 83 81 80 86 84 84 90 88 86 92 90 88 92 91 80 82 81 73 73 73 60 60 60 48 48 48 41 41 41 40 40 40 43 43 43 46 46 46 40 40 40 40 40 40 40 40 40 40 40 40 40 40 40 40 40 40 40 40 40 40 40 40 39 37 40 39 37 40 39 37 40 39 37 40 39 37 40 39 37 40 39 37 40 39 37 40 39 37 40 39 37 40 39 37 40 39 37 40 39 37 40 39 37 40 39 37 40 39 37 40
126 110 139 126 110 139 126 110 139 126 110 139 118 102 131 118 102 131 118 102 131 118 102 131 118 102 131 118 102 131 118 102 131 118 102 129 109 93 120 109 93 119 109 93 119 109 93 119 109 93 119 109 93 119 109 93 119 109 93 119 105 89 115 104 88 114 101 85 111 98 82 108 95 79 105 91 75 101 89 73 99 87 73 98 84 72 94 79 70 91 73 64 85 66 57 78 58 49 70 50 41 62 44 35 56 41 32 53 14 5 26 14 5 26 12 3 24 10 1 22 8 0 20 6 0 18 4 0 16 3 0 14 11 8 25 10 9 23 10 9 23 10 9 23 10 9 23 10 9 23 10 9 23 10 9 23 6 5 19 6 5 19 6 5 19 6 5 19 6 5 19 6 5 19 6 5 19 6 5 19 5 7 19 5 7 19 5 7 19 5 7 19 5 7 19 5 7 19 5 7 19 5 7 19 6 8 20 6 8 20 6 8 20 6 8 20 6 8 20 6 8 20 6 8 20 6 8 20 6 10 19 6 10 19 6 10 19 6 10 19 6 10 19 6 10 19 6 10 19 6 10 19 6 10 19 6 10 19 6 10 19 6 10 19 6 10 19 6 10 19 6 10 19 6 11 17 7 14 20 7 15 18 7 15 18 7 15 18 7 15 18 7 15 18 7 15 18 7 15 18 12 20 23 10 18 21 8 16 19 5 13 16 1 9 12 0 6 9 0 4 7 0 2 5 1 6 9 1 6 9 1 6 9 1 6 9 1 6 9 1 6 9 1 6 9 1 6 9 10 15 18 12 17 20 14 19 22 17 22 25 21 26 29 24 29 32 26 31 34 28 34 34 37 43 43 39 45 43 44 50 48 51 57 55 57 63 61 64 70 68 69 75 73 71 77 75 69 75 73 70 76 74 72 78 76 76 82 80 79 85 83 82 88 86 85 91 89 87 91 90 80 82 81 73 73 73 60 60 60 48 48 48 41 41 41 40 40 40 43 43 43 46 46 46 40 40 40 40 40 40 40 40 40 40 40 40 40 40 40 40 40 40 40 40 40 40 40 40 39 37 40 39 37 40 39 37 40 39 37 40 39 37 40 39 37 40 39 37 40 39 37 40 39 37 40 39 37 40 39 37 40 39 37 40 39 37 40 39 37 40 39 37 40 39 37 40
118 102 131 115 99 128 113 97 126 111 95 124 104 88 117 104 88 117 104 88 117 104 88 117 104 88 117 104 88 117 104 88 117 104 88 115 101 85 112 101 85 111 101 85 111 101 85 111 101 85 111 101 85 111 101 85 111 101 85 111 107 91 117 104 88 114 98 82 108 90 74 100 82 66 92 75 59 85 69 53 79 65 51 76 58 46 68 53 44 65 47 38 59 39 30 51 31 22 43 24 15 36 18 9 30 15 6 27 10 1 22 10 1 22 10 1 22 10 1 22 10 1 22 10 1 22 10 1 22 9 2 20 9 6 23 8 7 21 8 7 21 8 7 21 8 7 21 8 7 21 8 7 21 8 7 21 9 8 22 9 8 22 9 8 22 9 8 22 9 8 22 9 8 22 9 8 22 9 8 22 7 9 21 7 9 21 7 9 21 7 9 21 7 9 21 7 9 21 7 9 21 7 9 21 7 9 21 7 9 21 7 9 21 7 9 21 7 9 21 7 9 21 7 9 21 7 9 21 8 12 21 8 12 21 8 12 21 8 12 21 8 12 21 8 12 21 8 12 21 8 12 21 15 19 28 14 18 27 10 14 23 6 10 19 1 5 14 0 1 10 0 0 9 0 1 7 9 16 22 9 17 20 9 17 20 9 17 20 9 17 20 9 17 20 9 17 20 9 17 20 11 19 22 9 17 20 7 15 18 4 12 15 0 8 11 0 5 8 0 3 6 0 2 5 0 4 7 0 4 7 0 4 7 0 4 7 0 4 7 0 4 7 0 4 7 0 4 7 12 17 20 14 19 22 16 21 24 19 24 27 23 28 31 26 31 34 28 33 36 30 36 36 39 45 45 41 47 45 43 49 47 46 52 50 50 56 54 53 59 57 55 61 59 57 63 61 74 80 78 74 80 78 74 80 78 74 80 78 74 80 78 74 80 78 74 80 78 75 79 78 64 66 65 63 63 63 58 58 58 51 51 51 45 45 45 38 38 38 33 33 33 31 31 31 33 33 33 33 33 33 33 33 33 33 33 33 33 33 33 33 33 33 33 33 33 33 33 33 35 33 36 35 33 36 35 33 36 35 33 36 35 33 36 35 33 36 35 33 36 35 33 36 38 36 39 38 36 39 38 36 39 38 36 39 38 36 39 38 36 39 38 36 39 38 36 39
110 94 123 107 91 120 105 89 118 103 87 116 98 82 111 98 82 111 98 82 111 98 82 111 98 82 111 98 82 111 98 82 111 98 82 109 95 79 106 95 79 105 95 79 105 95 79 105 95 79 105 95 79 105 95 79 105 95 79 105 94 78 104 91 75 101 86 70 96 79 63 89 72 56 82 65 49 75 59 43 69 56 42 67 49 37 59 44 35 56 39 30 51 32 23 44 25 16 37 18 9 30 12 3 24 9 0 21 10 1 22 10 1 22 10 1 22 10 1 22 10 1 22 10 1 22 10 1 22 9 2 20 9 6 23 8 7 21 8 7 21 8 7 21 8 7 21 8 7 21 8 7 21 8 7 21 9 8 22 9 8 22 9 8 22 9 8 22 9 8 22 9 8 22 9 8 22 9 8 22 7 9 21 7 9 21 7 9 21 7 9 21 7 9 21 7 9 21 7 9 21 7 9 21 7 9 21 7 9 21 7 9 21 7 9 21 7 9 21 7 9 21 7 9 21 7 9 21 8 12 21 8 12 21 8 12 21 8 12 21 8 12 21 8 12 21 8 12 21 8 12 21 15 19 28 13 17 26 10 14 23 7 11 20 3 7 16 0 3 12 0 0 9 0 1 7 11 18 24 11 19 22 11 19 22 11 19 22 11 19 22 11 19 22 11 19 22 11 19 22 11 19 22 9 17 20 7 15 18 4 12 15 0 8 11 0 5 8 0 3 6 0 2 5 0 4 7 0 4 7 0 4 7 0 4 7 0 4 7 0 4 7 0 4 7 0 4 7 12 17 20 14 19 22 16 21 24 19 24 27 23 28 31 26 31 34 28 33 36 30 36 36 39 45 45 41 47 45 43 49 47 46 52 50 50 56 54 53 59 57 55 61 59 57 63 61 72 78 76 72 78 76 72 78 76 72 78 76 72 78 76 72 78 76 72 78 76 73 77 76 64 66 65 63 63 63 58 58 58 51 51 51 45 45 45 38 38 38 33 33 33 31 31 31 33 33 33 33 33 33 33 33 33 33 33 33 33 33 33 33 33 33 33 33 33 33 33 33 35 33 36 35 33 36 35 33 36 35 33 36 35 33 36 35 33 36 35 33 36 35 33 36 38 36 39 38 36 39 38 36 39 38 36 39 38 36 39 38 36 39 38 36 39 38 36 39
96 80 109 93 77 106 90 74 103 89 73 102 86 70 99 86 70 99 86 70 99 86 70 99 86 70 99 86 70 99 86 70 99 86 70 97 83 67 94 83 67 93 83 67 93 83 67 93 83 67 93 83 67 93 83 67 93 83 67 93 73 57 83 71 55 81 66 50 76 61 45 71 55 39 65 49 33 59 45 29 55 41 27 52 35 23 45 31 22 43 27 18 39 21 12 33 15 6 27 9 0 21 5 0 17 4 0 16 10 1 22 10 1 22 10 1 22 10 1 22 10 1 22 10 1 22 10 1 22 9 2 20 9 6 23 8 7 21 8 7 21 8 7 21 8 7 21 8 7 21 8 7 21 8 7 21 9 8 22 9 8 22 9 8 22 9 8 22 9 8 22 9 8 22 9 8 22 9 8 22 7 9 21 7 9 21 7 9 21 7 9 21 7 9 21 7 9 21 7 9 21 7 9 21 7 9 21 7 9 21 7 9 21 7 9 21 7 9 21 7 9 21 7 9 21 7 9 21 8 12 21 8 12 21 8 12 21 8 12 21 8 12 21 8 12 21 8 12 21 8 12 21 14 18 27 13 17 26 11 15 24 8 12 21 6 10 19 3 7 16 1 5 14 0 5 11 13 20 26 13 21 24 13 21 24 13 21 24 13 21 24 13 21 24 13 21 24 13 21 24 11 19 22 9 17 20 7 15 18 4 12 15 0 8 11 0 5 8 0 3 6 0 2 5 0 4 7 0 4 7 0 4 7 0 4 7 0 4 7 0 4 7 0 4 7 0 4 7 12 17 20 14 19 22 16 21 24 19 24 27 23 28 31 26 31 34 28 33 36 30 36 36 39 45 45 41 47 45 43 49 47 46 52 50 50 56 54 53 59 57 55 61 59 57 63 61 70 76 74 70 76 74 70 76 74 70 76 74 70 76 74 70 76 74 70 76 74 71 75 74 64 66 65 63 63 63 58 58 58 51 51 51 45 45 45 38 38 38 33 33 33 31 31 31 33 33 33 33 33 33 33 33 33 33 33 33 33 33 33 33 33 33 33 33 33 33 33 33 35 33 36 35 33 36 35 33 36 35 33 36 35 33 36 35 33 36 35 33 36 35 33 36 38 36 39 38 36 39 38 36 39 38 36 39 38 36 39 38 36 39 38 36 39 38 36 39
77 61 90 73 57 86 71 55 84 70 54 83 70 54 83 70 54 83 70 54 83 70 54 83 70 54 83 70 54 83 70 54 83 70 54 81 67 51 78 67 51 77 67 51 77 67 51 77 67 51 77 67 51 77 67 51 77 67 51 77 50 34 60 49 33 59 46 30 56 41 25 51 37 21 47 33 17 43 30 14 40 27 13 38 22 10 32 18 9 30 15 6 27 11 2 23 7 0 19 4 0 16 4 0 16 4 0 16 10 1 22 10 1 22 10 1 22 10 1 22 10 1 22 10 1 22 10 1 22 9 2 20 9 6 23 8 7 21 8 7 21 8 7 21 8 7 21 8 7 21 8 7 21 8 7 21 9 8 22 9 8 22 9 8 22 9 8 22 9 8 22 9 8 22 9 8 22 9 8 22 7 9 21 7 9 21 7 9 21 7 9 21 7 9 21 7 9 21 7 9 21 7 9 21 7 9 21 7 9 21 7 9 21 7 9 21 7 9 21 7 9 21 7 9 21 7 9 21 8 12 21 8 12 21 8 12 21 8 12 21 8 12 21 8 12 21 8 12 21 8 12 21 13 17 26 12 16 25 12 16 25 11 15 24 10 14 23 9 13 22 8 12 21 8 13 19 16 23 29 16 24 27 16 24 27 16 24 27 16 24 27 16 24 27 16 24 27 16 24 27 11 19 22 9 17 20 7 15 18 4 12 15 0 8 11 0 5 8 0 3 6 0 2 5 0 4 7 0 4 7 0 4 7 0 4 7 0 4 7 0 4 7 0 4 7 0 4 7 12 17 20 14 19 22 16 21 24 19 24 27 23 28 31 26 31 34 28 33 36 30 36 36 39 45 45 41 47 45 43 49 47 46 52 50 50 56 54 53 59 57 55 61 59 57 63 61 67 73 71 67 73 71 67 73 71 67 73 71 67 73 71 67 73 71 67 73 71 68 72 71 64 66 65 63 63 63 58 58 58 51 51 51 45 45 45 38 38 38 33 33 33 31 31 31 33 33 33 33 33 33 33 33 33 33 33 33 33 33 33 33 33 33 33 33 33 33 33 33 35 33 36 35 33 36 35 33 36 35 33 36 35 33 36 35 33 36 35 33 36 35 33 36 38 36 39 38 36 39 38 36 39 38 36 39 38 36 39 38 36 39 38 36 39 38 36 39
56 40 69 53 37 66 50 34 63 49 33 62 52 36 65 52 36 65 52 36 65 52 36 65 52 36 65 52 36 65 52 36 65 52 36 63 49 33 60 49 33 59 49 33 59 49 33 59 49 33 59 49 33 59 49 33 59 49 33 59 32 16 42 31 15 41 29 13 39 27 11 37 24 8 34 22 6 32 20 4 30 18 4 29 14 2 24 11 2 23 9 0 21 7 0 19 4 0 16 4 0 16 4 0 16 4 0 16 10 1 22 10 1 22 10 1 22 10 1 22 10 1 22 10 1 22 10 1 22 9 2 20 9 6 23 8 7 21 8 7 21 8 7 21 8 7 21 8 7 21 8 7 21 8 7 21 9 8 22 9 8 22 9 8 22 9 8 22 9 8 22 9 8 22 9 8 22 9 8 22 7 9 21 7 9 21 7 9 21 7 9 21 7 9 21 7 9 21 7 9 21 7 9 21 7 9 21 7 9 21 7 9 21 7 9 21 7 9 21 7 9 21 7 9 21 7 9 21 8 12 21 8 12 21 8 12 21 8 12 21 8 12 21 8 12 21 8 12 21 8 12 21 11 15 24 12 16 25 12 16 25 13 17 26 14 18 27 15 19 28 16 20 29 16 21 27 20 27 33 20 28 31 20 28 31 20 28 31 20 28 31 20 28 31 20 28 31 20 28 31 11 19 22 9 17 20 7 15 18 4 12 15 0 8 11 0 5 8 0 3 6 0 2 5 0 4 7 0 4 7 0 4 7 0 4 7 0 4 7 0 4 7 0 4 7 0 4 7 12 17 20 14 19 22 16 21 24 19 24 27 23 28 31 26 31 34 28 33 36 30 36 36 39 45 45 41 47 45 43 49 47 46 52 50 50 56 54 53 59 57 55 61 59 57 63 61 63 69 67 63 69 67 63 69 67 63 69 67 63 69 67 63 69 67 63 69 67 64 68 67 64 66 65 63 63 63 58 58 58 51 51 51 45 45 45 38 38 38 33 33 33 31 31 31 33 33 33 33 33 33 33 33 33 33 33 33 33 33 33 33 33 33 33 33 33 33 33 33 35 33 36 35 33 36 35 33 36 35 33 36 35 33 36 35 33 36 35 33 36 35 33 36 38 36 39 38 36 39 38 36 39 38 36 39 38 36 39 38 36 39 38 36 39 38 36 39
37 21 50 34 18 47 31 15 44 30 14 43 36 20 49 36 20 49 36 20 49 36 20 49 36 20 49 36 20 49 36 20 49 36 20 47 33 17 44 33 17 43 33 17 43 33 17 43 33 17 43 33 17 43 33 17 43 33 17 43 20 4 30 20 4 30 19 3 29 19 3 29 18 2 28 17 1 27 17 1 27 16 2 27 12 0 22 10 1 22 9 0 21 8 0 20 8 0 20 7 0 19 7 0 19 6 0 18 10 1 22 10 1 22 10 1 22 10 1 22 10 1 22 10 1 22 10 1 22 9 2 20 9 6 23 8 7 21 8 7 21 8 7 21 8 7 21 8 7 21 8 7 21 8 7 21 9 8 22 9 8 22 9 8 22 9 8 22 9 8 22 9 8 22 9 8 22 9 8 22 7 9 21 7 9 21 7 9 21 7 9 21 7 9 21 7 9 21 7 9 21 7 9 21 7 9 21 7 9 21 7 9 21 7 9 21 7 9 21 7 9 21 7 9 21 7 9 21 8 12 21 8 12 21 8 12 21 8 12 21 8 12 21 8 12 21 8 12 21 8 12 21 10 14 23 11 15 24 13 17 26 16 20 29 18 22 31 21 25 34 23 27 36 24 29 35 23 30 36 23 31 34 23 31 34 23 31 34 23 31 34 23 31 34 23 31 34 23 31 34 11 19 22 9 17 20 7 15 18 4 12 15 0 8 11 0 5 8 0 3 6 0 2 5 0 4 7 0 4 7 0 4 7 0 4 7 0 4 7 0 4 7 0 4 7 0 4 7 12 17 20 14 19 22 16 21 24 19 24 27 23 28 31 26 31 34 28 33 36 30 36 36 39 45 45 41 47 45 43 49 47 46 52 50 50 56 54 53 59 57 55 61 59 57 63 61 60 66 64 60 66 64 60 66 64 60 66 64 60 66 64 60 66 64 60 66 64 61 65 64 64 66 65 63 63 63 58 58 58 51 51 51 45 45 45 38 38 38 33 33 33 31 31 31 33 33 33 33 33 33 33 33 33 33 33 33 33 33 33 33 33 33 33 33 33 33 33 33 35 33 36 35 33 36 35 33 36 35 33 36 35 33 36 35 33 36 35 33 36 35 33 36 38 36 39 38 36 39 38 36 39 38 36 39 38 36 39 38 36 39 38 36 39 38 36 39
22 6 35 19 3 32 17 1 30 15 0 28 24 8 37 24 8 37 24 8 37 24 8 37 24 8 37 24 8 37 24 8 37 24 8 35 21 5 32 21 5 31 21 5 31 21 5 31 21 5 31 21 5 31 21 5 31 21 5 31 15 0 25 15 0 25 16 0 26 16 0 26 17 1 27 17 1 27 18 2 28 17 3 28 14 2 24 12 3 24 13 4 25 13 4 25 14 5 26 15 6 27 15 6 27 15 6 27 10 1 22 10 1 22 10 1 22 10 1 22 10 1 22 10 1 22 10 1 22 9 2 20 9 6 23 8 7 21 8 7 21 8 7 21 8 7 21 8 7 21 8 7 21 8 7 21 9 8 22 9 8 22 9 8 22 9 8 22 9 8 22 9 8 22 9 8 22 9 8 22 7 9 21 7 9 21 7 9 21 7 9 21 7 9 21 7 9 21 7 9 21 7 9 21 7 9 21 7 9 21 7 9 21 7 9 21 7 9 21 7 9 21 7 9 21 7 9 21 8 12 21 8 12 21 8 12 21 8 12 21 8 12 21 8 12 21 8 12 21 8 12 21 9 13 22 11 15 24 14 18 27 17 21 30 21 25 34 25 29 38 28 32 41 30 35 41 25 32 38 25 33 36 25 33 36 25 33 36 25 33 36 25 33 36 25 33 36 25 33 36 11 19 22 9 17 20 7 15 18 4 12 15 0 8 11 0 5 8 0 3 6 0 2 5 0 4 7 0 4 7 0 4 7 0 4 7 0 4 7 0 4 7 0 4 7 0 4 7 12 17 20 14 19 22 16 21 24 19 24 27 23 28 31 26 31 34 28 33 36 30 36 36 39 45 45 41 47 45 43 49 47 46 52 50 50 56 54 53 59 57 55 61 59 57 63 61 58 64 62 58 64 62 58 64 62 58 64 62 58 64 62 58 64 62 58 64 62 59 63 62 64 66 65 63 63 63 58 58 58 51 51 51 45 45 45 38 38 38 33 33 33 31 31 31 33 33 33 33 33 33 33 33 33 33 33 33 33 33 33 33 33 33 33 33 33 33 33 33 35 33 36 35 33 36 35 33 36 35 33 36 35 33 36 35 33 36 35 33 36 35 33 36 38 36 39 38 36 39 38 36 39 38 36 39 38 36 39 38 36 39 38 36 39 38 36 39
13 0 25 9 0 22 8 0 20 6 0 19 17 3 29 16 3 29 17 3 29 16 3 29 17 3 29 16 3 29 17 3 29 17 3 29 14 0 25 14 0 25 14 0 25 14 0 25 14 0 25 14 0 25 14 0 25 14 0 25 13 0 24 13 0 24 14 0 25 15 1 26 17 3 28 18 4 29 19 5 30 18 6 28 15 6 27 14 6 27 15 7 28 16 8 29 18 10 31 19 11 32 20 12 33 20 12 33 9 1 22 9 1 22 9 1 22 9 1 22 9 1 22 9 1 22 9 1 22 7 3 20 9 6 23 8 7 21 8 7 21 8 7 21 8 7 21 8 7 21 8 7 21 8 7 21 9 8 22 9 8 22 9 8 22 9 8 22 9 8 22 9 8 22 9 8 22 9 8 22 7 9 21 7 9 21 7 9 21 7 9 21 7 9 21 7 9 21 7 9 21 7 9 21 7 9 21 7 9 21 7 9 21 7 9 21 7 9 21 7 9 21 7 9 21 6 10 21 8 12 21 8 12 21 8 12 21 8 12 21 8 12 21 8 12 21 8 12 21 8 12 21 9 13 22 10 14 23 14 18 27 18 22 31 23 27 36 27 31 40 31 35 44 31 38 46 27 34 40 27 35 38 27 35 38 27 35 38 27 35 38 27 35 38 27 35 38 27 35 38 11 19 22 9 17 20 7 15 18 4 12 15 0 8 11 0 5 8 0 3 6 0 2 5 0 4 7 0 4 7 0 4 7 0 4 7 0 4 7 0 4 7 0 4 7 0 4 7 12 17 20 14 19 22 16 21 24 19 24 27 23 28 31 26 31 34 28 33 36 30 35 38 39 45 45 41 47 45 43 49 47 46 52 50 50 56 54 53 59 57 55 61 59 57 63 61 56 62 60 56 62 60 56 62 60 56 62 60 56 62 60 56 62 60 56 62 60 57 61 60 64 66 65 63 63 63 58 58 58 51 51 51 45 45 45 38 38 38 33 33 33 31 31 31 33 33 33 33 33 33 33 33 33 33 33 33 33 33 33 33 33 33 33 33 33 33 33 33 35 33 34 35 33 34 35 33 34 35 33 34 35 33 34 35 33 34 35 33 34 35 33 34 38 36 37 38 36 37 38 36 37 38 36 37 38 36 37 38 36 37 38 36 37 38 36 37
9 1 24 7 2 24 9 1 24 7 2 24 8 0 23 6 1 23 8 0 23 6 1 23 8 0 23 6 1 23 8 0 23 8 0 23 9 1 22 9 1 22 9 1 22 9 1 22 9 1 22 9 1 22 9 1 22 9 1 22 8 0 21 8 0 21 8 0 21 8 0 21 8 0 21 8 0 21 8 0 21 8 0 21 7 2 22 6 3 20 6 3 20 6 3 20 6 3 20 6 3 20 6 3 20 6 3 20 6 3 20 6 3 20 6 3 20 6 3 20 6 3 20 6 3 20 6 3 20 6 3 20 6 5 21 6 5 21 6 5 21 6 5 21 6 5 21 6 5 21 6 5 21 6 5 21 5 4 20 5 4 20 5 4 20 5 4 20 5 4 20 5 4 20 5 4 20 5 4 18 7 9 21 6 10 19 6 10 19 6 10 19 6 10 19 6 10 19 6 10 19 6 10 19 7 11 20 7 11 20 7 11 20 7 11 20 7 11 20 7 11 20 7 11 20 7 11 20 8 12 23 5 12 22 4 11 21 3 10 20 2 9 19 0 7 17 0 7 17 0 6 16 26 33 43 26 33 43 26 33 43 26 33 43 26 33 43 26 33 43 26 33 43 26 33 41 34 41 47 33 42 47 33 42 47 33 42 47 33 42 47 33 42 47 33 42 47 33 42 47 15 24 29 13 22 27 11 20 25 8 17 22 4 13 18 1 10 15 0 8 13 0 7 9 1 9 11 1 9 11 1 9 11 1 9 11 1 9 11 1 9 11 1 9 11 1 9 11 9 17 19 11 19 21 13 21 23 16 24 26 20 28 30 23 31 33 25 33 35 27 35 37 30 36 36 32 38 38 34 40 40 37 43 43 41 47 47 44 50 50 46 52 52 48 54 54 56 62 62 56 62 62 56 62 62 56 62 62 56 62 62 56 62 62 56 62 62 57 61 60 49 49 49 48 47 45 46 45 43 43 42 40 39 38 36 36 35 33 34 33 31 32 31 29 33 32 30 33 32 30 33 32 30 33 32 30 33 32 30 33 32 30 33 32 30 33 32 30 36 32 31 36 32 31 36 32 31 36 32 31 36 32 31 36 32 31 36 32 31 36 32 31 36 32 31 36 32 31 36 32 31 36 32 31 36 32 31 36 32 31 36 32 31 36 32 31
6 3 22 6 3 22 6 3 22 6 3 22 5 2 21 5 2 21 5 2 21 5 2 21 5 2 21 5 2 21 5 2 21 5 2 21 7 2 22 7 2 22 7 2 22 7 2 22 7 2 22 7 2 22 7 2 22 7 2 22 6 1 21 6 1 21 6 1 21 6 1 21 6 1 21 6 1 21 6 1 21 5 2 21 6 3 20 5 4 20 5 4 20 5 4 20 5 4 20 5 4 20 5 4 20 5 4 20 5 4 20 5 4 20 5 4 20 5 4 20 5 4 20 5 4 20 5 4 20 5 4 20 6 5 21 6 5 21 6 5 21 6 5 21 6 5 21 6 5 21 6 5 21 6 5 21 5 4 20 5 4 20 5 4 20 5 4 20 5 4 20 5 4 20 5 4 20 3 5 18 7 9 21 6 10 19 6 10 19 6 10 19 6 10 19 6 10 19 6 10 19 6 10 19 7 11 20 7 11 20 7 11 20 7 11 20 7 11 20 7 11 20 7 11 20 7 11 20 5 12 22 5 12 22 5 12 22 4 11 21 3 10 20 3 10 20 2 9 19 2 9 19 28 35 45 28 35 45 28 35 45 28 35 45 28 35 45 28 35 45 28 35 45 28 35 43 33 42 49 33 42 47 33 42 47 33 42 47 33 42 47 33 42 47 33 42 47 33 42 47 15 24 29 13 22 27 11 20 25 8 17 22 4 13 18 1 10 15 0 8 13 0 7 9 1 9 12 1 9 11 1 9 11 1 9 11 1 9 11 1 9 11 1 9 11 1 9 11 9 17 19 11 19 21 13 21 23 16 24 26 20 28 30 23 31 33 25 33 35 27 35 37 30 36 36 32 38 38 34 40 40 37 43 43 41 47 47 44 50 50 46 52 52 48 54 54 54 60 60 54 60 60 54 60 60 54 60 60 54 60 60 54 60 60 54 60 60 55 59 58 49 49 49 48 47 45 46 45 43 43 42 40 39 38 36 36 35 33 34 33 31 32 31 29 33 32 30 33 32 30 33 32 30 33 32 30 33 32 30 33 32 30 33 32 30 33 32 30 36 32 29 36 32 29 36 32 29 36 32 29 36 32 29 36 32 29 36 32 29 36 32 29 36 32 29 36 32 29 36 32 29 36 32 29 36 32 29 36 32 29 36 32 29 36 32 29
6 3 22 6 3 22 6 3 22 6 3 22 5 2 21 5 2 21 5 2 21 5 2 21 5 2 21 5 2 21 5 2 21 5 2 21 7 2 22 7 2 22 7 2 22 7 2 22 7 2 22 7 2 22 7 2 22 7 2 22 6 1 21 6 1 21 6 1 21 6 1 21 6 1 21 6 1 21 6 1 21 5 2 21 6 3 20 5 4 20 5 4 20 5 4 20 5 4 20 5 4 20 5 4 20 5 4 20 5 4 20 5 4 20 5 4 20 5 4 20 5 4 20 5 4 20 5 4 20 5 4 20 6 5 21 6 5 21 6 5 21 6 5 21 6 5 21 6 5 21 6 5 21 6 5 21 5 4 20 5 4 20 5 4 20 5 4 20 5 4 20 5 4 20 5 4 20 3 5 18 7 9 21 6 10 19 6 10 19 6 10 19 6 10 19 6 10 19 6 10 19 6 10 19 7 11 20 7 11 20 7 11 20 7 11 20 7 11 20 7 11 20 7 11 20 7 11 20 4 11 21 5 12 22 5 12 22 6 13 23 6 13 23 7 14 24 8 15 25 8 15 25 30 37 47 30 37 47 30 37 47 30 37 47 30 37 47 30 37 47 30 37 47 30 37 45 33 42 49 33 42 47 33 42 47 33 42 47 33 42 47 33 42 47 33 42 47 33 42 47 15 24 29 13 22 27 11 20 25 8 17 22 4 13 18 1 10 15 0 8 13 0 7 9 1 9 12 1 9 11 1 9 11 1 9 11 1 9 11 1 9 11 1 9 11 1 9 11 9 17 19 11 19 21 13 21 23 16 24 26 20 28 30 23 31 33 25 33 35 27 35 37 30 36 36 32 38 38 34 40 40 37 43 43 41 47 47 44 50 50 46 52 52 48 54 54 52 58 58 52 58 58 52 58 58 52 58 58 52 58 58 52 58 58 52 58 58 53 57 56 49 49 49 48 47 45 46 45 43 43 42 40 39 38 36 36 35 33 34 33 31 32 31 29 33 32 30 33 32 30 33 32 30 33 32 30 33 32 30 33 32 30 33 32 30 33 32 30 36 32 29 36 32 29 36 32 29 36 32 29 36 32 29 36 32 29 36 32 29 36 32 29 36 32 29 36 32 29 36 32 29 36 32 29 36 32 29 36 32 29 36 32 29 36 32 29
6 3 22 6 3 22 6 3 22 6 3 22 5 2 21 5 2 21 5 2 21 5 2 21 5 2 21 5 2 21 5 2 21 5 2 21 7 2 22 7 2 22 7 2 22 7 2 22 7 2 22 7 2 22 7 2 22 7 2 22 6 1 21 6 1 21 6 1 21 6 1 21 6 1 21 6 1 21 6 1 21 5 2 21 6 3 20 5 4 20 5 4 20 5 4 20 5 4 20 5 4 20 5 4 20 5 4 20 5 4 20 5 4 20 5 4 20 5 4 20 5 4 20 5 4 20 5 4 20 5 4 20 6 5 21 6 5 21 6 5 21 6 5 21 6 5 21 6 5 21 6 5 21 6 5 21 5 4 20 5 4 20 5 4 20 5 4 20 5 4 20 5 4 20 5 4 20 3 5 18 7 9 21 6 10 19 6 10 19 6 10 19 6 10 19 6 10 19 6 10 19 6 10 19 7 11 20 7 11 20 7 11 20 7 11 20 7 11 20 7 11 20 7 11 20 7 11 20 3 10 20 4 11 21 6 13 23 8 15 25 11 18 28 13 20 30 15 22 32 16 23 33 33 40 50 33 40 50 33 40 50 33 40 50 33 40 50 33 40 50 33 40 50 33 40 48 33 42 49 33 42 47 33 42 47 33 42 47 33 42 47 33 42 47 33 42 47 33 42 47 15 24 29 13 22 27 11 20 25 8 17 22 4 13 18 1 10 15 0 8 13 0 7 9 1 9 12 1 9 11 1 9 11 1 9 11 1 9 11 1 9 11 1 9 11 1 9 11 9 17 19 11 19 21 13 21 23 16 24 26 20 28 30 23 31 33 25 33 35 27 35 37 30 36 36 32 38 38 34 40 40 37 43 43 41 47 47 44 50 50 46 52 52 48 54 54 49 55 55 49 55 55 49 55 55 49 55 55 49 55 55 49 55 55 49 55 55 50 54 53 49 49 49 48 47 45 46 45 43 43 42 40 39 38 36 36 35 33 34 33 31 32 31 29 33 32 30 33 32 30 33 32 30 33 32 30 33 32 30 33 32 30 33 32 30 33 32 30 36 32 29 36 32 29 36 32 29 36 32 29 36 32 29 36 32 29 36 32 29 36 32 29 36 32 29 36 32 29 36 32 29 36 32 29 36 32 29 36 32 29 36 32 29 36 32 29
6 3 22 6 3 22 6 3 22 6 3 22 5 2 21 5 2 21 5 2 21 5 2 21 5 2 21 5 2 21 5 2 21 5 2 21 7 2 22 7 2 22 7 2 22 7 2 22 7 2 22 7 2 22 7 2 22 7 2 22 6 1 21 6 1 21 6 1 21 6 1 21 6 1 21 6 1 21 6 1 21 5 2 21 6 3 20 5 4 20 5 4 20 5 4 20 5 4 20 5 4 20 5 4 20 5 4 20 5 4 20 5 4 20 5 4 20 5 4 20 5 4 20 5 4 20 5 4 20 5 4 20 6 5 21 6 5 21 6 5 21 6 5 21 6 5 21 6 5 21 6 5 21 6 5 21 5 4 20 5 4 20 5 4 20 5 4 20 5 4 20 5 4 20 5 4 20 3 5 18 7 9 21 6 10 19 6 10 19 6 10 19 6 10 19 6 10 19 6 10 19 6 10 19 7 11 20 7 11 20 7 11 20 7 11 20 7 11 20 7 11 20 7 11 20 7 11 20 2 9 19 3 10 20 6 13 23 11 18 28 15 22 32 19 26 36 22 29 39 24 31 41 37 44 54 37 44 54 37 44 54 37 44 54 37 44 54 37 44 54 37 44 54 37 44 52 33 42 49 33 42 47 33 42 47 33 42 47 33 42 47 33 42 47 33 42 47 33 42 47 15 24 29 13 22 27 11 20 25 8 17 22 4 13 18 1 10 15 0 8 13 0 7 9 1 9 12 1 9 11 1 9 11 1 9 11 1 9 11 1 9 11 1 9 11 1 9 11 9 17 19 11 19 21 13 21 23 16 24 26 20 28 30 23 31 33 25 33 35 27 35 37 30 36 36 32 38 38 34 40 40 37 43 43 41 47 47 44 50 50 46 52 52 48 54 54 45 51 51 45 51 51 45 51 51 45 51 51 45 51 51 45 51 51 45 51 51 46 50 49 49 49 49 48 47 45 46 45 43 43 42 40 39 38 36 36 35 33 34 33 31 32 31 29 33 32 30 33 32 30 33 32 30 33 32 30 33 32 30 33 32 30 33 32 30 33 32 30 36 32 29 36 32 29 36 32 29 36 32 29 36 32 29 36 32 29 36 32 29 36 32 29 36 32 29 36 32 29 36 32 29 36 32 29 36 32 29 36 32 29 36 32 29 36 32 29
6 3 22 6 3 22 6 3 22 6 3 22 5 2 21 5 2 21 5 2 21 5 2 21 5 2 21 5 2 21 5 2 21 5 2 21 7 2 22 7 2 22 7 2 22 7 2 22 7 2 22 7 2 22 7 2 22 7 2 22 6 1 21 6 1 21 6 1 21 6 1 21 6 1 21 6 1 21 6 1 21 5 2 21 6 3 20 5 4 20 5 4 20 5 4 20 5 4 20 5 4 20 5 4 20 5 4 20 5 4 20 5 4 20 5 4 20 5 4 20 5 4 20 5 4 20 5 4 20 5 4 20 6 5 21 6 5 21 6 5 21 6 5 21 6 5 21 6 5 21 6 5 21 6 5 21 5 4 20 5 4 20 5 4 20 5 4 20 5 4 20 5 4 20 5 4 20 3 5 18 7 9 21 6 10 19 6 10 19 6 10 19 6 10 19 6 10 19 6 10 19 6 10 19 7 11 20 7 11 20 7 11 20 7 11 20 7 11 20 7 11 20 7 11 20 7 11 20 0 7 17 3 10 20 7 14 24 13 20 30 19 26 36 25 32 42 29 36 46 31 38 48 40 47 57 40 47 57 40 47 57 40 47 57 40 47 57 40 47 57 40 47 57 40 47 55 33 42 49 33 42 47 33 42 47 33 42 47 33 42 47 33 42 47 33 42 47 33 42 47 15 24 29 13 22 27 11 20 25 8 17 22 4 13 18 1 10 15 0 8 13 0 7 9 1 9 12 1 9 11 1 9 11 1 9 11 1 9 11 1 9 11 1 9 11 1 9 11 9 17 19 11 19 21 13 21 23 16 24 26 20 28 30 23 31 33 25 33 35 27 35 37 30 36 36 32 38 38 34 40 40 37 43 43 41 47 47 44 50 50 46 52 52 48 54 54 42 48 48 42 48 48 42 48 48 42 48 48 42 48 48 42 48 48 42 48 48 43 47 46 49 49 49 48 47 45 46 45 43 43 42 40 39 38 36 36 35 33 34 33 31 32 31 29 33 32 30 33 32 30 33 32 30 33 32 30 33 32 30 33 32 30 33 32 30 33 32 30 36 32 29 36 32 29 36 32 29 36 32 29 36 32 29 36 32 29 36 32 29 36 32 29 36 32 29 36 32 29 36 32 29 36 32 29 36 32 29 36 32 29 36 32 29 36 32 29
6 3 22 6 3 22 6 3 22 6 3 22 5 2 21 5 2 21 5 2 21 5 2 21 5 2 21 5 2 21 5 2 21 5 2 21 7 2 22 7 2 22 7 2 22 7 2 22 7 2 22 7 2 22 7 2 22 7 2 22 6 1 21 6 1 21 6 1 21 6 1 21 6 1 21 6 1 21 6 1 21 5 2 21 6 3 20 5 4 20 5 4 20 5 4 20 5 4 20 5 4 20 5 4 20 5 4 20 5 4 20 5 4 20 5 4 20 5 4 20 5 4 20 5 4 20 5 4 20 5 4 20 6 5 21 6 5 21 6 5 21 6 5 21 6 5 21 6 5 21 6 5 21 6 5 21 5 4 20 5 4 20 5 4 20 5 4 20 5 4 20 5 4 20 5 4 20 3 5 18 7 9 21 6 10 19 6 10 19 6 10 19 6 10 19 6 10 19 6 10 19 6 10 19 7 11 20 7 11 20 7 11 20 7 11 20 7 11 20 7 11 20 7 11 20 7 11 20 0 6 16 2 9 19 8 15 25 15 22 32 22 29 39 29 36 46 34 41 51 37 44 54 42 49 59 42 49 59 42 49 59 42 49 59 42 49 59 42 49 59 42 49 59 42 49 57 33 42 49 33 42 47 33 42 47 33 42 47 33 42 47 33 42 47 33 42 47 33 42 47 15 24 29 13 22 27 11 20 25 8 17 22 4 13 18 1 10 15 0 8 13 0 7 9 1 9 12 1 9 11 1 9 11 1 9 11 1 9 11 1 9 11 1 9 11 1 9 11 9 17 19 11 19 21 13 21 23 16 24 26 20 28 30 23 31 33 25 33 35 27 35 37 30 36 36 32 38 38 34 40 40 37 43 43 41 47 47 44 50 50 46 52 52 48 54 54 40 46 46 40 46 46 40 46 46 40 46 46 40 46 46 40 46 46 40 46 46 41 45 44 49 49 49 48 47 45 46 45 43 43 42 40 39 38 36 36 35 33 34 33 31 32 31 29 33 32 30 33 32 30 33 32 30 33 32 30 33 32 30 33 32 30 33 32 30 33 32 30 36 32 29 36 32 29 36 32 29 36 32 29 36 32 29 36 32 29 36 32 29 36 32 29 36 32 29 36 32 29 36 32 29 36 32 29 36 32 29 36 32 29 36 32 29 36 32 29
6 3 22 6 3 22 6 3 22 6 3 22 5 2 21 5 2 21 5 2 21 5 2 21 5 2 21 5 2 21 5 2 21 5 2 21 7 2 22 7 2 22 7 2 22 7 2 22 7 2 22 7 2 22 7 2 22 7 2 22 6 1 21 6 1 21 6 1 21 6 1 21 6 1 21 6 1 21 6 1 21 5 2 21 6 3 20 5 4 20 5 4 20 5 4 20 5 4 20 5 4 20 5 4 20 5 4 20 5 4 20 5 4 20 5 4 20 5 4 20 5 4 20 5 4 20 5 4 20 5 4 20 6 5 21 6 5 21 6 5 21 6 5 21 6 5 21 6 5 21 6 5 21 6 5 21 5 4 20 5 4 20 5 4 20 5 4 20 5 4 20 5 4 20 5 4 20 3 5 18 7 9 21 6 10 19 6 10 19 6 10 19 6 10 19 6 10 19 6 10 19 6 10 19 7 11 20 7 11 20 7 11 20 7 11 20 7 11 20 7 11 20 7 11 20 7 11 20 0 6 16 2 9 19 8 15 25 16 23 33 24 31 41 31 38 48 37 44 54 40 47 57 44 51 61 44 51 61 44 51 61 44 51 61 44 51 61 44 51 61 44 51 61 44 51 59 33 42 49 33 42 47 33 42 47 33 42 47 33 42 47 33 42 47 33 42 47 33 42 47 15 24 29 13 22 27 11 20 25 8 17 22 4 13 18 1 10 15 0 8 13 0 7 9 1 9 12 1 9 11 1 9 11 1 9 11 1 9 11 1 9 11 1 9 11 1 9 11 9 17 19 11 19 21 13 21 23 16 24 26 20 28 30 23 31 33 25 33 35 27 35 37 30 36 36 32 38 38 34 40 40 37 43 43 41 47 47 44 50 50 46 52 52 48 54 54 38 44 44 38 44 44 38 44 44 38 44 44 38 44 44 38 44 44 38 44 44 39 43 42 49 49 49 48 47 45 46 45 43 43 42 40 39 38 36 36 35 33 34 33 31 32 31 29 33 32 30 33 32 30 33 32 30 33 32 30 33 32 30 33 32 30 33 32 30 33 32 30 36 32 29 36 32 29 36 32 29 36 32 29 36 32 29 36 32 29 36 32 29 36 32 29 36 32 29 36 32 29 36 32 29 36 32 29 36 32 29 36 32 29 36 32 29 36 32 29
5 2 21 5 2 21 5 2 21 5 2 21 5 2 21 5 2 21 5 2 21 5 2 21 5 2 21 5 2 21 5 2 21 5 2 21 6 1 21 6 1 21 6 1 21 6 1 21 6 1 21 6 1 21 6 1 21 6 1 21 6 1 21 6 1 21 6 1 21 6 1 21 6 1 21 6 1 21 6 1 21 5 2 21 7 4 21 6 5 21 6 5 21 6 5 21 6 5 21 6 5 21 6 5 21 6 5 21 6 5 21 6 5 21 6 5 21 6 5 21 6 5 21 6 5 21 6 5 21 6 5 21 5 4 20 5 4 20 5 4 20 5 4 20 5 4 20 5 4 20 5 4 20 5 4 20 7 6 22 7 6 22 7 6 22 7 6 22 7 6 22 7 6 22 7 6 22 5 7 20 7 9 21 6 10 19 6 10 19 6 10 19 6 10 19 6 10 19 6 10 19 6 10 19 11 15 24 10 14 23 9 13 22 8 12 21 7 11 20 5 9 18 5 9 18 4 8 17 11 18 28 14 21 31 20 27 37 28 35 45 36 43 53 43 50 60 49 56 66 52 59 69 55 62 72 55 62 72 55 62 72 55 62 72 55 62 72 55 62 72 55 62 72 55 62 70 48 57 64 46 55 60 44 53 58 41 50 55 37 46 51 34 43 48 32 41 46 30 39 44 19 28 33 17 26 31 15 24 29 12 21 26 8 17 22 5 14 19 3 12 17 1 11 13 6 14 17 6 14 16 6 14 16 6 14 16 6 14 16 6 14 16 6 14 16 6 14 16 18 26 28 18 26 28 18 26 28 18 26 28 18 26 28 18 26 28 18 26 28 18 26 28 30 36 36 30 36 36 30 36 36 30 36 36 30 36 36 30 36 36 30 36 36 30 36 36 33 39 39 33 39 39 33 39 39 33 39 39 33 39 39 33 39 39 33 39 39 34 38 37 32 32 32 33 32 30 33 32 30 33 32 30 33 32 30 33 32 30 33 32 30 33 32 30 31 30 28 31 30 28 31 30 28 31 30 28 31 30 28 31 30 28 31 30 28 31 30 28 36 32 29 36 32 29 36 32 29 36 32 29 36 32 29 36 32 29 36 32 29 36 32 29 36 32 29 36 32 29 36 32 29 36 32 29 36 32 29 36 32 29 36 32 29 36 32 29
5 2 21 5 2 21 5 2 21 5 2 21 5 2 21 5 2 21 5 2 21 5 2 21 5 2 21 5 2 21 5 2 21 5 2 21 6 1 21 6 1 21 6 1 21 6 1 21 6 1 21 6 1 21 6 1 21 6 1 21 6 1 21 6 1 21 6 1 21 6 1 21 6 1 21 6 1 21 6 1 21 5 2 21 7 4 21 6 5 21 6 5 21 6 5 21 6 5 21 6 5 21 6 5 21 6 5 21 6 5 21 6 5 21 6 5 21 6 5 21 6 5 21 6 5 21 6 5 21 6 5 21 5 4 20 5 4 20 5 4 20 5 4 20 5 4 20 5 4 20 5 4 20 5 4 20 7 6 22 7 6 22 7 6 22 7 6 22 7 6 22 7 6 22 7 6 22 5 7 20 7 9 21 6 10 19 6 10 19 6 10 19 6 10 19 6 10 19 6 10 19 6 10 19 10 14 23 10 14 23 10 14 23 9 13 22 8 12 21 8 12 21 7 11 20 7 11 20 15 22 32 18 25 35 24 31 41 31 38 48 38 45 55 45 52 62 50 57 67 53 60 70 55 62 72 55 62 72 55 62 72 55 62 72 55 62 72 55 62 72 55 62 72 55 62 70 48 57 64 46 55 60 44 53 58 41 50 55 37 46 51 34 43 48 32 41 46 30 39 44 19 28 33 17 26 31 15 24 29 12 21 26 8 17 22 5 14 19 3 12 17 1 11 13 6 14 17 6 14 16 6 14 16 6 14 16 6 14 16 6 14 16 6 14 16 6 14 16 18 26 28 18 26 28 18 26 28 18 26 28 18 26 28 18 26 28 18 26 28 18 26 28 30 36 36 30 36 36 30 36 36 30 36 36 30 36 36 30 36 36 30 36 36 30 36 36 33 39 39 33 39 39 33 39 39 33 39 39 33 39 39 33 39 39 33 39 39 34 38 37 32 32 32 33 32 30 33 32 30 33 32 30 33 32 30 33 32 30 33 32 30 33 32 30 31 30 28 31 30 28 31 30 28 31 30 28 31 30 28 31 30 28 31 30 28 31 30 28 36 32 29 36 32 29 36 32 29 36 32 29 36 32 29 36 32 29 36 32 29 36 32 29 36 32 29 36 32 29 36 32 29 36 32 29 36 32 29 36 32 29 36 32 29 36 32 29
5 2 21 5 2 21 5 2 21 5 2 21 5 2 21 5 2 21 5 2 21 5 2 21 5 2 21 5 2 21 5 2 21 5 2 21 6 1 21 6 1 21 6 1 21 6 1 21 6 1 21 6 1 21 6 1 21 6 1 21 6 1 21 6 1 21 6 1 21 6 1 21 6 1 21 6 1 21 6 1 21 5 2 21 7 4 21 6 5 21 6 5 21 6 5 21 6 5 21 6 5 21 6 5 21 6 5 21 6 5 21 6 5 21 6 5 21 6 5 21 6 5 21 6 5 21 6 5 21 6 5 21 5 4 20 5 4 20 5 4 20 5 4 20 5 4 20 5 4 20 5 4 20 5 4 20 7 6 22 7 6 22 7 6 22 7 6 22 7 6 22 7 6 22 7 6 22 5 7 20 7 9 21 6 10 19 6 10 19 6 10 19 6 10 19 6 10 19 6 10 19 6 10 19 9 13 22 10 14 23 10 14 23 11 15 24 11 15 24 12 16 25 13 17 26 13 17 26 24 31 41 26 33 43 30 37 47 36 43 53 42 49 59 48 55 65 52 59 69 55 62 72 55 62 72 55 62 72 55 62 72 55 62 72 55 62 72 55 62 72 55 62 72 55 62 70 48 57 64 46 55 60 44 53 58 41 50 55 37 46 51 34 43 48 32 41 46 30 39 44 19 28 33 17 26 31 15 24 29 12 21 26 8 17 22 5 14 19 3 12 17 1 11 13 6 14 17 6 14 16 6 14 16 6 14 16 6 14 16 6 14 16 6 14 16 6 14 16 18 26 28 18 26 28 18 26 28 18 26 28 18 26 28 18 26 28 18 26 28 18 26 28 30 36 36 30 36 36 30 36 36 30 36 36 30 36 36 30 36 36 30 36 36 30 36 36 33 39 39 33 39 39 33 39 39 33 39 39 33 39 39 33 39 39 33 39 39 34 38 37 32 32 32 33 32 30 33 32 30 33 32 30 33 32 30 33 32 30 33 32 30 33 32 30 31 30 28 31 30 28 31 30 28 31 30 28 31 30 28 31 30 28 31 30 28 31 30 28 36 32 29 36 32 29 36 32 29 36 32 29 36 32 29 36 32 29 36 32 29 36 32 29 36 32 29 36 32 29 36 32 29 36 32 29 36 32 29 36 32 29 36 32 29 36 32 29
5 2 21 5 2 21 5 2 21 5 2 21 5 2 21 5 2 21 5 2 21 5 2 21 5 2 21 5 2 21 5 2 21 5 2 21 6 1 21 6 1 21 6 1 21 6 1 21 6 1 21 6 1 21 6 1 21 6 1 21 6 1 21 6 1 21 6 1 21 6 1 21 6 1 21 6 1 21 6 1 21 5 2 21 7 4 21 6 5 21 6 5 21 6 5 21 6 5 21 6 5 21 6 5 21 6 5 21 6 5 21 6 5 21 6 5 21 6 5 21 6 5 21 6 5 21 6 5 21 6 5 21 5 4 20 5 4 20 5 4 20 5 4 20 5 4 20 5 4 20 5 4 20 5 4 20 7 6 22 7 6 22 7 6 22 7 6 22 7 6 22 7 6 22 7 6 22 5 7 20 7 9 21 6 10 19 6 10 19 6 10 19 6 10 19 6 10 19 6 10 19 6 10 19 8 12 21 9 13 22 11 15 24 13 17 26 16 20 29 18 22 31 20 24 33 21 25 34 35 42 52 36 43 53 39 46 56 43 50 60 48 55 65 52 59 69 55 62 72 57 64 74 55 62 72 55 62 72 55 62 72 55 62 72 55 62 72 55 62 72 55 62 72 55 62 70 48 57 64 46 55 60 44 53 58 41 50 55 37 46 51 34 43 48 32 41 46 30 39 44 19 28 33 17 26 31 15 24 29 12 21 26 8 17 22 5 14 19 3 12 17 1 11 13 6 14 17 6 14 16 6 14 16 6 14 16 6 14 16 6 14 16 6 14 16 6 14 16 18 26 28 18 26 28 18 26 28 18 26 28 18 26 28 18 26 28 18 26 28 18 26 28 30 36 36 30 36 36 30 36 36 30 36 36 30 36 36 30 36 36 30 36 36 30 36 36 33 39 39 33 39 39 33 39 39 33 39 39 33 39 39 33 39 39 33 39 39 34 38 37 32 32 32 33 32 30 33 32 30 33 32 30 33 32 30 33 32 30 33 32 30 33 32 30 31 30 28 31 30 28 31 30 28 31 30 28 31 30 28 31 30 28 31 30 28 31 30 28 36 32 29 36 32 29 36 32 29 36 32 29 36 32 29 36 32 29 36 32 29 36 32 29 36 32 29 36 32 29 36 32 29 36 32 29 36 32 29 36 32 29 36 32 29 36 32 29
5 2 21 5 2 21 5 2 21 5 2 21 5 2 21 5 2 21 5 2 21 5 2 21 5 2 21 5 2 21 5 2 21 5 2 21 6 1 21 6 1 21 6 1 21 6 1 21 6 1 21 6 1 21 6 1 21 6 1 21 6 1 21 6 1 21 6 1 21 6 1 21 6 1 21 6 1 21 6 1 21 5 2 21 7 4 21 6 5 21 6 5 21 6 5 21 6 5 21 6 5 21 6 5 21 6 5 21 6 5 21 6 5 21 6 5 21 6 5 21 6 5 21 6 5 21 6 5 21 6 5 21 5 4 20 5 4 20 5 4 20 5 4 20 5 4 20 5 4 20 5 4 20 5 4 20 7 6 22 7 6 22 7 6 22 7 6 22 7 6 22 7 6 22 7 6 22 5 7 20 7 9 21 6 10 19 6 10 19 6 10 19 6 10 19 6 10 19 6 10 19 6 10 19 7 11 20 8 12 21 11 15 24 16 20 29 20 24 33 24 28 37 27 31 40 29 33 42 46 53 63 47 54 64 49 56 66 51 58 68 54 61 71 56 63 73 58 65 75 59 66 76 55 62 72 55 62 72 55 62 72 55 62 72 55 62 72 55 62 72 55 62 72 55 62 70 48 57 64 46 55 60 44 53 58 41 50 55 37 46 51 34 43 48 32 41 46 30 39 44 19 28 33 17 26 31 15 24 29 12 21 26 8 17 22 5 14 19 3 12 17 1 11 13 6 14 17 6 14 16 6 14 16 6 14 16 6 14 16 6 14 16 6 14 16 6 14 16 18 26 28 18 26 28 18 26 28 18 26 28 18 26 28 18 26 28 18 26 28 18 26 28 30 36 36 30 36 36 30 36 36 30 36 36 30 36 36 30 36 36 30 36 36 30 36 36 33 39 39 33 39 39 33 39 39 33 39 39 33 39 39 33 39 39 33 39 39 34 38 37 32 32 32 33 32 30 33 32 30 33 32 30 33 32 30 33 32 30 33 32 30 33 32 30 31 30 28 31 30 28 31 30 28 31 30 28 31 30 28 31 30 28 31 30 28 31 30 28 36 32 29 36 32 29 36 32 29 36 32 29 36 32 29 36 32 29 36 32 29 36 32 29 36 32 29 36 32 29 36 32 29 36 32 29 36 32 29 36 32 29 36 32 29 36 32 29
5 2 21 5 2 21 5 2 21 5 2 21 5 2 21 5 2 21 5 2 21 5 2 21 5 2 21 5 2 21 5 2 21 5 2 21 6 1 21 6 1 21 6 1 21 6 1 21 6 1 21 6 1 21 6 1 21 6 1 21 6 1 21 6 1 21 6 1 21 6 1 21 6 1 21 6 1 21 6 1 21 5 2 21 7 4 21 6 5 21 6 5 21 6 5 21 6 5 21 6 5 21 6 5 21 6 5 21 6 5 21 6 5 21 6 5 21 6 5 21 6 5 21 6 5 21 6 5 21 6 5 21 5 4 20 5 4 20 5 4 20 5 4 20 5 4 20 5 4 20 5 4 20 5 4 20 7 6 22 7 6 22 7 6 22 7 6 22 7 6 22 7 6 22 7 6 22 5 7 20 7 9 21 6 10 19 6 10 19 6 10 19 6 10 19 6 10 19 6 10 19 6 10 19 5 9 18 8 12 21 12 16 25 18 22 31 24 28 37 30 34 43 34 38 47 36 40 49 57 64 74 57 64 74 58 65 75 58 65 75 59 66 76 60 67 77 60 67 77 61 68 78 55 62 72 55 62 72 55 62 72 55 62 72 55 62 72 55 62 72 55 62 72 55 62 70 48 57 64 46 55 60 44 53 58 41 50 55 37 46 51 34 43 48 32 41 46 30 39 44 19 28 33 17 26 31 15 24 29 12 21 26 8 17 22 5 14 19 3 12 17 1 11 13 6 14 17 6 14 16 6 14 16 6 14 16 6 14 16 6 14 16 6 14 16 6 14 16 18 26 28 18 26 28 18 26 28 18 26 28 18 26 28 18 26 28 18 26 28 18 26 28 30 36 36 30 36 36 30 36 36 30 36 36 30 36 36 30 36 36 30 36 36 30 36 36 33 39 39 33 39 39 33 39 39 33 39 39 33 39 39 33 39 39 33 39 39 34 38 37 32 32 32 33 32 30 33 32 30 33 32 30 33 32 30 33 32 30 33 32 30 33 32 30 31 30 28 31 30 28 31 30 28 31 30 28 31 30 28 31 30 28 31 30 28 31 30 28 36 32 29 36 32 29 36 32 29 36 32 29 36 32 29 36 32 29 36 32 29 36 32 29 36 32 29 36 32 29 36 32 29 36 32 29 36 32 29 36 32 29 36 32 29 36 32 29
5 2 21 5 2 21 5 2 21 5 2 21 5 2 21 5 2 21 5 2 21 5 2 21 5 2 21 5 2 21 5 2 21 5 2 21 6 1 21 6 1 21 6 1 21 6 1 21 6 1 21 6 1 21 6 1 21 6 1 21 6 1 21 6 1 21 6 1 21 6 1 21 6 1 21 6 1 21 6 1 21 5 2 21 7 4 21 6 5 21 6 5 21 6 5 21 6 5 21 6 5 21 6 5 21 6 5 21 6 5 21 6 5 21 6 5 21 6 5 21 6 5 21 6 5 21 6 5 21 6 5 21 5 4 20 5 4 20 5 4 20 5 4 20 5 4 20 5 4 20 5 4 20 5 4 20 7 6 22 7 6 22 7 6 22 7 6 22 7 6 22 7 6 22 7 6 22 5 7 20 7 9 21 6 10 19 6 10 19 6 10 19 6 10 19 6 10 19 6 10 19 6 10 19 4 8 17 7 11 20 13 17 26 20 24 33 27 31 40 34 38 47 39 43 52 42 46 55 65 72 82 65 72 82 65 72 82 64 71 81 63 70 80 63 70 80 62 69 79 62 69 79 55 62 72 55 62 72 55 62 72 55 62 72 55 62 72 55 62 72 55 62 72 55 62 70 48 57 64 46 55 60 44 53 58 41 50 55 37 46 51 34 43 48 32 41 46 30 39 44 19 28 33 17 26 31 15 24 29 12 21 26 8 17 22 5 14 19 3 12 17 1 11 13 6 14 17 6 14 16 6 14 16 6 14 16 6 14 16 6 14 16 6 14 16 6 14 16 18 26 28 18 26 28 18 26 28 18 26 28 18 26 28 18 26 28 18 26 28 18 26 28 30 36 36 30 36 36 30 36 36 30 36 36 30 36 36 30 36 36 30 36 36 30 36 36 33 39 39 33 39 39 33 39 39 33 39 39 33 39 39 33 39 39 33 39 39 34 38 37 32 32 32 33 32 30 33 32 30 33 32 30 33 32 30 33 32 30 33 32 30 33 32 30 31 30 28 31 30 28 31 30 28 31 30 28 31 30 28 31 30 28 31 30 28 31 30 28 36 32 29 36 32 29 36 32 29 36 32 29 36 32 29 36 32 29 36 32 29 36 32 29 36 32 29 36 32 29 36 32 29 36 32 29 36 32 29 36 32 29 36 32 29 36 32 29
5 2 21 5 2 21 5 2 21 5 2 21 5 2 21 5 2 21 5 2 21 5 2 21 5 2 21 5 2 21 5 2 21 5 2 21 6 2 19 6 2 19 6 2 19 6 2 19 6 2 19 6 2 19 6 2 19 6 2 19 6 2 19 6 2 19 6 2 19 6 2 19 6 2 19 6 2 19 6 2 19 6 2 19 7 4 21 6 5 19 6 5 21 6 5 19 6 5 21 6 5 19 6 5 21 6 5 19 6 5 21 6 5 19 6 5 21 6 5 19 6 5 21 6 5 19 6 5 21 6 5 19 5 4 18 3 5 18 3 5 18 3 5 18 3 5 18 3 5 18 3 5 18 3 5 18 5 7 20 5 7 20 5 7 20 5 7 20 5 7 20 5 7 20 5 7 20 5 7 20 6 10 21 4 11 19 6 10 19 4 11 19 6 10 19 4 11 19 6 10 19 4 11 19 4 8 17 5 12 20 13 17 26 19 26 34 29 33 42 34 41 49 42 46 55 43 50 58 70 77 87 69 76 86 68 75 85 67 74 84 66 73 83 64 71 81 64 71 81 63 70 80 55 62 72 55 62 72 55 62 72 55 62 72 55 62 72 55 62 72 55 62 72 55 62 70 48 57 62 46 55 60 44 53 58 41 50 55 37 46 51 34 43 48 32 41 46 30 39 44 19 28 33 17 26 31 15 24 29 12 21 26 8 17 22 5 14 19 3 12 17 1 10 15 6 14 17 6 14 16 6 14 17 6 14 16 6 14 17 6 14 16 6 14 17 6 14 16 18 26 29 18 26 28 18 26 29 18 26 28 18 26 29 18 26 28 18 26 29 18 26 28 28 36 38 28 37 36 30 35 38 28 37 36 30 35 38 28 37 36 30 35 38 28 37 36 33 38 41 31 40 39 33 38 41 31 40 39 33 38 41 31 40 39 33 38 41 34 38 39 32 32 30 33 32 30 33 32 30 33 32 30 33 32 30 33 32 30 33 32 30 33 32 30 31 30 28 31 30 28 31 30 28 31 30 28 31 30 28 31 30 28 31 30 28 31 30 26 36 32 29 36 32 29 37 32 29 36 32 29 37 32 29 36 32 29 37 32 29 36 32 29 37 32 29 36 32 29 37 32 29 36 32 29 37 32 29 36 32 29 37 32 29 36 32 29
6 2 19 6 2 19 6 2 19 6 2 19 6 2 19 6 2 19 6 2 19 6 2 19 6 2 19 6 2 19 6 2 19 6 2 19 6 2 17 6 2 17 6 2 17 6 2 17 6 2 17 6 2 17 6 2 17 6 2 17 6 2 17 6 2 17 6 2 17 6 2 17 6 2 17 6 2 17 6 2 17 6 2 17 6 4 18 6 4 17 6 4 18 6 4 17 6 4 18 6 4 17 6 4 18 6 4 17 5 3 17 5 3 16 5 3 17 5 3 16 5 3 17 5 3 16 5 3 17 4 4 16 4 6 18 3 7 18 3 7 18 3 7 18 3 7 18 3 7 18 3 7 18 3 7 18 8 12 23 8 12 23 8 12 23 8 12 23 8 12 23 8 12 23 8 12 23 6 13 23 0 1 9 0 2 9 0 1 9 0 6 13 4 11 19 10 19 26 16 23 31 17 26 33 26 33 41 28 37 44 35 42 50 41 50 57 50 57 65 57 66 73 64 71 79 67 74 82 63 70 78 63 70 78 63 70 78 63 70 78 63 70 78 63 70 78 63 70 78 63 70 78 69 76 84 67 74 82 65 72 80 62 69 77 58 65 73 55 62 70 53 60 68 51 58 66 50 57 63 48 55 61 46 53 59 43 50 56 39 46 52 36 43 49 34 41 47 32 39 45 18 25 31 16 23 29 14 21 27 11 18 24 7 14 20 4 11 17 2 9 15 0 7 13 8 17 22 8 18 20 8 17 22 8 18 20 8 17 22 8 18 20 8 17 22 8 18 20 8 17 22 10 20 22 12 21 26 15 25 27 19 28 33 22 32 34 24 33 38 26 36 38 21 31 33 21 31 32 22 30 33 21 31 32 22 30 33 21 31 32 22 30 33 21 31 32 21 29 32 20 30 31 21 29 32 20 30 31 21 29 32 20 30 31 21 29 32 23 29 29 27 27 25 28 27 23 28 27 23 28 27 23 28 27 23 28 27 23 28 27 23 28 27 23 32 31 27 32 31 27 32 31 27 32 31 27 32 31 27 32 31 27 32 31 27 34 30 27 35 30 27 35 30 26 37 29 26 35 30 26 37 29 26 35 30 26 37 29 26 35 30 26 38 30 27 36 31 27 38 30 27 36 31 27 38 30 27 36 31 27 38 30 27 36 31 28
6 2 19 6 2 19 6 2 19 6 2 19 6 2 19 6 2 19 6 2 19 6 2 19 6 2 19 6 2 19 6 2 19 6 2 17 6 2 17 6 2 16 6 2 16 6 2 16 6 2 16 6 2 16 6 2 16 6 2 16 6 2 16 6 2 16 6 2 16 6 2 16 6 2 16 6 2 16 6 2 16 6 2 16 6 4 17 6 4 17 6 4 17 6 4 17 6 4 17 6 4 17 6 4 17 6 4 17 5 3 16 5 3 16 5 3 16 5 3 16 5 3 16 5 3 16 5 3 16 4 4 16 3 7 16 1 8 16 1 8 16 1 8 16 1 8 16 1 8 16 1 8 16 1 8 16 6 13 21 6 13 21 6 13 21 6 13 21 6 13 21 6 13 21 6 13 21 6 13 21 0 2 9 0 2 9 0 3 10 0 9 16 7 16 23 14 23 30 19 28 35 21 30 37 28 37 44 31 40 47 36 45 52 43 52 59 50 59 66 57 66 73 63 72 79 66 75 82 63 70 78 63 70 78 63 70 78 63 70 78 63 70 78 63 70 78 63 70 78 63 70 78 69 76 84 67 74 82 65 72 80 62 69 77 58 65 73 55 62 70 53 60 68 51 58 66 50 57 63 48 55 61 46 53 59 43 50 56 39 46 52 36 43 49 34 41 47 32 39 45 18 25 31 16 23 29 14 21 27 11 18 24 7 14 20 4 11 17 2 9 15 0 7 13 8 17 22 8 17 22 8 17 22 8 17 22 8 17 22 8 17 22 8 17 22 8 17 22 8 17 22 10 19 24 12 21 26 15 24 29 19 28 33 22 31 36 24 33 38 26 35 40 21 31 33 21 31 33 21 31 33 21 31 33 21 31 33 21 31 33 21 31 33 21 31 33 20 30 32 20 30 32 20 30 32 20 30 32 20 30 32 20 30 32 20 30 32 21 29 31 27 27 25 28 27 23 28 27 23 28 27 23 28 27 23 28 27 23 28 27 23 28 27 23 32 31 27 32 31 27 32 31 27 32 31 27 32 31 27 32 31 27 32 31 27 34 30 27 35 30 26 37 29 26 37 29 26 37 29 26 37 29 26 37 29 26 37 29 26 37 29 26 38 30 27 38 30 27 38 30 27 38 30 27 38 30 27 38 30 27 38 30 27 38 30 27
6 2 19 6 2 19 6 2 19 6 2 19 6 2 19 6 2 19 6 2 19 6 2 19 6 2 19 6 2 19 6 2 19 6 2 17 6 2 17 6 2 16 6 2 16 6 2 16 6 2 16 6 2 16 6 2 16 6 2 16 6 2 16 6 2 16 6 2 16 6 2 16 6 2 16 6 2 16 6 2 16 6 2 16 6 4 17 6 4 17 6 4 17 6 4 17 6 4 17 6 4 17 6 4 17 6 4 17 5 3 16 5 3 16 5 3 16 5 3 16 5 3 16 5 3 16 5 3 16 4 4 16 3 7 16 1 8 16 1 8 16 1 8 16 1 8 16 1 8 16 1 8 16 1 8 16 6 13 21 6 13 21 6 13 21 6 13 21 6 13 21 6 13 21 6 13 21 6 13 21 0 3 10 0 6 13 1 10 17 8 17 24 15 24 31 21 30 37 26 35 42 29 38 45 34 43 50 36 45 52 40 49 56 46 55 62 52 61 68 58 67 74 62 71 78 65 74 81 63 70 78 63 70 78 63 70 78 63 70 78 63 70 78 63 70 78 63 70 78 63 70 78 69 76 84 67 74 82 65 72 80 62 69 77 58 65 73 55 62 70 53 60 68 51 58 66 50 57 63 48 55 61 46 53 59 43 50 56 39 46 52 36 43 49 34 41 47 32 39 45 18 25 31 16 23 29 14 21 27 11 18 24 7 14 20 4 11 17 2 9 15 0 7 13 8 17 22 8 17 22 8 17 22 8 17 22 8 17 22 8 17 22 8 17 22 8 17 22 8 17 22 10 19 24 12 21 26 15 24 29 19 28 33 22 31 36 24 33 38 26 35 40 21 31 33 21 31 33 21 31 33 21 31 33 21 31 33 21 31 33 21 31 33 21 31 33 20 30 32 20 30 32 20 30 32 20 30 32 20 30 32 20 30 32 20 30 32 21 29 31 27 27 25 28 27 23 28 27 23 28 27 23 28 27 23 28 27 23 28 27 23 28 27 23 32 31 27 32 31 27 32 31 27 32 31 27 32 31 27 32 31 27 32 31 27 34 30 27 35 30 26 37 29 26 37 29 26 37 29 26 37 29 26 37 29 26 37 29 26 37 29 26 38 30 27 38 30 27 38 30 27 38 30 27 38 30 27 38 30 27 38 30 27 38 30 27
