P3
172 37
255
83 64 68 82 63 67 82 63 67 82 63 67 82 63 67 82 63 67 82 63 67 82 63 67 82 63 67 82 63 67 82 63 67 80 64 67 63 50 57 64 53 59 67 56 62 71 60 66 76 65 71 80 69 75 84 73 79 85 74 80 84 73 79 84 73 79 84 73 79 84 73 79 84 73 79 84 73 79 84 73 79 84 73 79 87 75 85 88 76 86 91 79 89 94 82 92 97 85 95 101 89 99 103 91 101 104 92 102 103 91 101 104 92 102 107 95 105 110 98 108 113 101 111 117 105 115 119 107 117 120 109 117 127 116 124 128 117 123 130 119 125 133 122 128 135 124 130 138 127 133 140 129 135 141 130 136 144 133 139 144 133 139 144 133 139 144 133 139 144 133 139 144 133 139 144 133 139 143 134 139 133 127 131 113 108 112 82 77 81 52 47 51 31 26 30 23 18 22 25 20 24 28 23 27 17 12 16 17 12 16 17 12 16 17 12 16 17 12 16 17 12 16 17 12 16 15 13 16 13 10 17 12 11 17 12 11 17 12 11 17 12 11 17 12 11 17 12 11 17 12 11 17 9 8 14 9 8 14 9 8 14 9 8 14 9 8 14 9 8 14 9 8 14 9 8 14 7 7 15 7 7 15 7 7 15 7 7 15 7 7 15 7 7 15 7 7 15 7 7 15 2 2 10 2 2 10 2 2 10 2 2 10 2 2 10 2 2 10 2 2 10 0 3 8 5 9 12 4 10 10 4 10 10 4 10 10 4 10 10 4 10 10 4 10 10 4 10 10 15 21 21 15 21 21 15 21 21 15 21 21 15 21 21 15 21 21 15 21 21 15 21 19 22 26 25 26 31 27 33 38 34 43 48 44 53 58 54 63 68 64 70 75 71 74 79 75 96 101 97 103 108 104 113 118 114 122 127 123 125 130 126 123 128 124 117 122 118 113 118 114 76 77 72 68 69 64 55 56 51 43 44 39 36 37 32 35 36 31 38 39 34 41 42 37 41 42 37 41 42 37 41 42 37 41 42 37 41 42 37 41 42 37 41 42 37 41 42 37 39 37 38 39 37 38 39 37 38 39 37 38 39 37 38 39 37 38 39 37 38 39 37 38 42 40 41 42 40 41 42 40 41 42 40 41 42 40 41 42 40 41 42 40 41 42 40 41
69 49 58 67 47 56 67 47 56 66 46 55 78 58 67 78 58 67 78 58 67 78 58 67 78 58 67 78 58 67 78 58 67 76 59 67 64 51 60 65 54 62 69 57 67 75 64 72 81 69 79 87 76 84 91 79 89 93 82 90 92 80 90 92 81 89 92 80 90 92 81 89 92 80 90 92 81 89 92 80 90 92 80 90 91 78 88 92 79 89 94 80 93 98 85 95 101 87 100 104 91 101 107 93 106 108 95 105 107 93 106 108 95 105 110 96 109 114 101 111 117 103 116 120 107 117 123 109 122 124 111 121 130 117 126 130 117 126 132 119 128 134 121 130 136 123 132 138 125 134 140 127 136 140 127 136 143 130 139 143 130 139 143 130 139 143 130 139 143 130 139 143 130 139 143 130 139 142 131 139 131 126 132 109 107 112 79 77 82 48 46 51 28 26 31 20 18 23 21 19 24 25 23 28 13 11 16 13 11 16 13 11 16 13 11 16 13 11 16 13 11 16 13 11 16 13 11 16 12 11 17 11 12 17 11 12 17 11 12 17 11 12 17 11 12 17 11 12 17 11 12 17 8 9 14 8 9 14 8 9 14 8 9 14 8 9 14 8 9 14 8 9 14 8 9 14 7 7 15 7 7 15 7 7 15 7 7 15 7 7 15 7 7 15 7 7 15 7 7 15 2 2 10 2 2 10 2 2 10 2 2 10 2 2 10 2 2 10 2 2 10 0 3 8 5 9 12 4 10 10 4 10 10 4 10 10 4 10 10 4 10 10 4 10 10 4 10 10 15 21 21 15 21 21 15 21 21 15 21 21 15 21 21 15 21 21 15 21 21 15 21 19 22 26 25 26 31 27 33 38 34 43 48 44 53 58 54 63 68 64 70 75 71 74 79 75 96 101 97 103 108 104 113 118 114 122 127 123 125 130 126 123 128 124 117 122 118 115 117 114 76 77 72 68 69 64 56 55 51 43 44 39 37 36 32 35 36 31 39 38 34 41 42 37 42 41 37 41 42 37 42 41 37 41 42 37 42 41 37 41 42 37 42 41 37 42 41 39 39 37 38 39 37 38 39 37 38 39 37 38 39 37 38 39 37 38 39 37 38 39 37 38 42 40 41 42 40 41 42 40 41 42 40 41 42 40 41 42 40 41 42 40 41 42 40 41
82 61 78 85 64 81 87 66 83 89 68 85 93 72 89 93 72 89 93 72 89 93 72 89 93 72 89 93 72 89 93 72 89 91 73 89 108 91 107 106 92 107 106 92 109 106 92 107 106 92 109 106 92 107 106 92 109 106 92 107 115 101 118 115 101 116 115 101 118 115 101 116 115 101 118 115 101 116 115 101 118 115 101 116 120 103 119 120 104 117 120 103 119 120 104 117 120 103 119 120 104 117 120 103 119 120 104 117 117 100 116 117 101 114 117 100 116 117 101 114 117 100 116 117 101 114 117 100 116 117 101 114 123 105 119 123 105 117 123 105 117 123 105 117 123 105 117 123 105 117 123 105 117 123 105 117 125 107 119 132 114 126 140 122 134 147 129 141 149 131 143 144 126 138 137 119 131 129 116 126 101 96 103 87 86 92 68 67 73 48 47 53 33 32 38 25 24 30 22 21 27 22 21 27 10 9 15 10 9 15 10 9 15 10 9 15 10 9 15 10 9 15 10 9 15 9 10 15 7 10 15 6 11 15 6 11 15 6 11 15 6 11 15 6 11 15 6 11 15 6 11 15 9 14 18 9 14 18 9 14 18 9 14 18 9 14 18 9 14 18 9 14 18 9 14 18 6 9 14 6 9 14 6 9 14 6 9 14 6 9 14 6 9 14 6 9 14 6 9 14 0 2 7 0 2 7 0 2 7 0 2 7 0 2 7 0 2 7 0 2 7 0 2 7 2 6 9 2 6 7 2 6 7 2 6 7 2 6 7 2 6 7 2 6 7 2 6 7 10 14 15 12 16 17 14 18 19 17 21 22 21 25 26 24 28 29 26 30 31 28 32 31 38 42 41 40 45 41 45 50 46 52 57 53 58 63 59 65 70 66 70 75 71 72 77 73 95 100 96 96 101 97 99 104 100 102 107 103 105 110 106 109 114 110 111 116 112 114 116 113 77 76 74 69 68 66 58 54 53 44 43 41 39 35 34 36 35 33 41 37 36 42 41 39 42 38 37 40 39 37 42 38 37 40 39 37 42 38 37 40 39 37 42 38 37 40 39 37 39 37 38 39 37 38 39 37 38 39 37 38 39 37 38 39 37 38 39 37 38 39 37 38 37 35 36 37 35 36 37 35 36 37 35 36 37 35 36 37 35 36 37 35 36 37 35 36
86 64 85 89 67 88 91 69 90 93 71 92 101 79 100 101 79 100 101 79 100 101 79 100 101 79 100 101 79 100 101 79 100 99 80 100 115 98 117 113 98 117 113 98 117 113 98 117 113 98 117 113 98 117 113 98 117 113 98 117 117 102 121 117 102 121 117 102 121 117 102 121 117 102 121 117 102 121 117 102 121 117 103 120 121 102 121 121 103 119 121 103 119 121 103 119 121 103 119 121 103 119 121 103 119 121 103 119 118 100 116 118 100 116 118 100 116 118 100 116 118 100 116 118 100 116 118 100 116 118 100 116 125 104 119 125 104 119 125 104 119 125 104 119 125 104 119 125 104 119 125 104 119 125 104 119 127 106 121 132 111 126 141 120 135 147 126 141 148 127 142 143 122 137 135 114 129 125 111 124 97 91 101 81 81 89 63 63 71 44 44 52 30 30 38 22 22 30 20 20 28 20 20 28 9 9 17 9 9 17 9 9 17 9 9 17 9 9 17 9 9 17 9 9 17 7 10 17 6 11 15 4 12 15 4 12 15 4 12 15 4 12 15 4 12 15 4 12 15 4 12 15 7 15 18 7 15 18 7 15 18 7 15 18 7 15 18 7 15 18 7 15 18 7 15 18 6 9 14 6 9 14 6 9 14 6 9 14 6 9 14 6 9 14 6 9 14 6 9 14 0 2 7 0 2 7 0 2 7 0 2 7 0 2 7 0 2 7 0 2 7 0 3 6 2 6 9 2 6 7 2 6 7 2 6 7 2 6 7 2 6 7 2 6 7 2 6 7 10 14 15 12 16 17 14 18 19 17 21 22 21 25 26 24 28 29 26 30 31 28 32 31 38 42 41 40 45 41 45 50 46 52 57 53 58 63 59 65 70 66 70 75 71 72 77 73 94 99 95 95 100 96 97 102 98 101 106 102 104 109 105 107 112 108 110 115 111 113 115 112 77 76 74 71 67 66 58 54 53 46 42 41 39 35 34 38 34 33 41 37 36 44 40 39 42 38 37 42 38 37 42 38 37 42 38 37 42 38 37 42 38 37 42 38 37 42 38 37 39 37 38 39 37 38 39 37 38 39 37 38 39 37 38 39 37 38 39 37 38 39 37 38 37 35 36 37 35 36 37 35 36 37 35 36 37 35 36 37 35 36 37 35 36 37 35 36
93 71 92 96 74 95 99 77 98 100 78 99 114 92 113 114 92 113 114 92 113 114 92 113 114 92 113 114 92 113 114 92 113 112 93 113 125 108 127 123 108 127 123 108 127 123 108 127 123 108 127 123 108 127 123 108 127 123 108 127 119 104 123 119 104 123 119 104 123 119 104 123 119 104 123 119 104 123 119 104 123 119 105 122 121 102 121 121 103 119 121 103 119 121 103 119 121 103 119 121 103 119 121 103 119 121 103 119 118 100 116 118 100 116 118 100 116 118 100 116 118 100 116 118 100 116 118 100 116 118 100 116 125 104 119 125 104 119 125 104 119 125 104 119 125 104 119 125 104 119 125 104 119 125 104 119 125 104 119 130 109 124 138 117 132 143 122 137 142 121 136 136 115 130 127 106 121 116 102 115 88 82 92 74 74 82 56 56 64 39 39 47 26 26 34 19 19 27 18 18 26 19 19 27 9 9 17 9 9 17 9 9 17 9 9 17 9 9 17 9 9 17 9 9 17 7 10 17 6 11 15 4 12 15 4 12 15 4 12 15 4 12 15 4 12 15 4 12 15 4 12 15 7 15 18 7 15 18 7 15 18 7 15 18 7 15 18 7 15 18 7 15 18 7 15 18 6 9 14 6 9 14 6 9 14 6 9 14 6 9 14 6 9 14 6 9 14 6 9 14 0 2 7 0 2 7 0 2 7 0 2 7 0 2 7 0 2 7 0 2 7 0 3 6 2 6 9 2 6 7 2 6 7 2 6 7 2 6 7 2 6 7 2 6 7 2 6 7 10 14 15 12 16 17 14 18 19 17 21 22 21 25 26 24 28 29 26 30 31 28 32 31 38 42 41 40 45 41 45 50 46 52 57 53 58 63 59 65 70 66 70 75 71 72 77 73 91 96 92 93 98 94 95 100 96 98 103 99 102 107 103 105 110 106 107 112 108 111 113 110 77 76 74 71 67 66 58 54 53 46 42 41 39 35 34 38 34 33 41 37 36 44 40 39 42 38 37 42 38 37 42 38 37 42 38 37 42 38 37 42 38 37 42 38 37 42 38 37 39 37 38 39 37 38 39 37 38 39 37 38 39 37 38 39 37 38 39 37 38 39 37 38 37 35 36 37 35 36 37 35 36 37 35 36 37 35 36 37 35 36 37 35 36 37 35 36
103 81 102 106 84 105 108 86 107 109 87 108 126 104 125 126 104 125 126 104 125 126 104 125 126 104 125 126 104 125 126 104 125 124 105 125 134 117 136 132 117 136 132 117 136 132 117 136 132 117 136 132 117 136 132 117 136 132 117 136 122 107 126 122 107 126 122 107 126 122 107 126 122 107 126 122 107 126 122 107 126 122 108 125 121 102 121 121 103 119 121 103 119 121 103 119 121 103 119 121 103 119 121 103 119 121 103 119 118 100 116 118 100 116 118 100 116 118 100 116 118 100 116 118 100 116 118 100 116 118 100 116 125 104 119 125 104 119 125 104 119 125 104 119 125 104 119 125 104 119 125 104 119 125 104 119 123 102 117 128 107 122 134 113 128 137 116 131 135 114 129 127 106 121 117 96 111 106 92 105 77 71 81 63 63 71 48 48 56 31 31 39 20 20 28 15 15 23 15 15 23 17 17 25 9 9 17 9 9 17 9 9 17 9 9 17 9 9 17 9 9 17 9 9 17 7 10 17 6 11 15 4 12 15 4 12 15 4 12 15 4 12 15 4 12 15 4 12 15 4 12 15 7 15 18 7 15 18 7 15 18 7 15 18 7 15 18 7 15 18 7 15 18 7 15 18 6 9 14 6 9 14 6 9 14 6 9 14 6 9 14 6 9 14 6 9 14 6 9 14 0 2 7 0 2 7 0 2 7 0 2 7 0 2 7 0 2 7 0 2 7 0 3 6 2 6 9 2 6 7 2 6 7 2 6 7 2 6 7 2 6 7 2 6 7 2 6 7 10 14 15 12 16 17 14 18 19 17 21 22 21 25 26 24 28 29 26 30 31 28 32 31 38 42 41 40 45 41 45 50 46 52 57 53 58 63 59 65 70 66 70 75 71 72 77 73 88 93 89 89 94 90 92 97 93 95 100 96 98 103 99 102 107 103 104 109 105 107 109 106 77 76 74 71 67 66 58 54 53 46 42 41 39 35 34 38 34 33 41 37 36 44 40 39 42 38 37 42 38 37 42 38 37 42 38 37 42 38 37 42 38 37 42 38 37 42 38 37 39 37 38 39 37 38 39 37 38 39 37 38 39 37 38 39 37 38 39 37 38 39 37 38 37 35 36 37 35 36 37 35 36 37 35 36 37 35 36 37 35 36 37 35 36 37 35 36
113 91 112 116 94 115 119 97 118 120 98 119 133 111 132 133 111 132 133 111 132 133 111 132 133 111 132 133 111 132 133 111 132 131 112 132 137 120 139 135 120 139 135 120 139 135 120 139 135 120 139 135 120 139 135 120 139 135 120 139 126 111 130 126 111 130 126 111 130 126 111 130 126 111 130 126 111 130 126 111 130 126 112 129 121 102 121 121 103 119 121 103 119 121 103 119 121 103 119 121 103 119 121 103 119 121 103 119 118 100 116 118 100 116 118 100 116 118 100 116 118 100 116 118 100 116 118 100 116 118 100 116 125 104 119 125 104 119 125 104 119 125 104 119 125 104 119 125 104 119 125 104 119 125 104 119 121 100 115 125 104 119 130 109 124 131 110 125 127 106 121 117 96 111 106 85 100 94 80 93 66 60 70 53 53 61 38 38 46 24 24 32 14 14 22 11 11 19 13 13 21 15 15 23 9 9 17 9 9 17 9 9 17 9 9 17 9 9 17 9 9 17 9 9 17 7 10 17 6 11 15 4 12 15 4 12 15 4 12 15 4 12 15 4 12 15 4 12 15 4 12 15 7 15 18 7 15 18 7 15 18 7 15 18 7 15 18 7 15 18 7 15 18 7 15 18 6 9 14 6 9 14 6 9 14 6 9 14 6 9 14 6 9 14 6 9 14 6 9 14 0 2 7 0 2 7 0 2 7 0 2 7 0 2 7 0 2 7 0 2 7 0 3 6 2 6 9 2 6 7 2 6 7 2 6 7 2 6 7 2 6 7 2 6 7 2 6 7 10 14 15 12 16 17 14 18 19 17 21 22 21 25 26 24 28 29 26 30 31 28 32 31 38 42 41 40 45 41 45 50 46 52 57 53 58 63 59 65 70 66 70 75 71 72 77 73 85 90 86 86 91 87 88 93 89 92 97 93 95 100 96 98 103 99 101 106 102 104 106 103 77 76 74 71 67 66 58 54 53 46 42 41 39 35 34 38 34 33 41 37 36 44 40 39 42 38 37 42 38 37 42 38 37 42 38 37 42 38 37 42 38 37 42 38 37 42 38 37 39 37 38 39 37 38 39 37 38 39 37 38 39 37 38 39 37 38 39 37 38 39 37 38 37 35 36 37 35 36 37 35 36 37 35 36 37 35 36 37 35 36 37 35 36 37 35 36
122 100 121 126 104 125 128 106 127 129 107 128 134 112 133 134 112 133 134 112 133 134 112 133 134 112 133 134 112 133 134 112 133 132 113 133 135 118 137 133 118 137 133 118 137 133 118 137 133 118 137 133 118 137 133 118 137 133 118 137 129 114 133 129 114 133 129 114 133 129 114 133 129 114 133 129 114 133 129 114 133 129 115 132 121 102 121 121 103 119 121 103 119 121 103 119 121 103 119 121 103 119 121 103 119 121 103 119 118 100 116 118 100 116 118 100 116 118 100 116 118 100 116 118 100 116 118 100 116 118 100 116 125 104 119 125 104 119 125 104 119 125 104 119 125 104 119 125 104 119 125 104 119 125 104 119 119 98 113 122 101 116 126 105 120 126 105 120 120 99 114 108 87 102 96 75 90 83 69 82 55 49 59 42 42 50 29 29 37 16 16 24 9 9 17 7 7 15 10 10 18 13 13 21 9 9 17 9 9 17 9 9 17 9 9 17 9 9 17 9 9 17 9 9 17 7 10 17 6 11 15 4 12 15 4 12 15 4 12 15 4 12 15 4 12 15 4 12 15 4 12 15 7 15 18 7 15 18 7 15 18 7 15 18 7 15 18 7 15 18 7 15 18 7 15 18 6 9 14 6 9 14 6 9 14 6 9 14 6 9 14 6 9 14 6 9 14 6 9 14 0 2 7 0 2 7 0 2 7 0 2 7 0 2 7 0 2 7 0 2 7 0 3 6 2 6 9 2 6 7 2 6 7 2 6 7 2 6 7 2 6 7 2 6 7 2 6 7 10 14 15 12 16 17 14 18 19 17 21 22 21 25 26 24 28 29 26 30 31 28 32 31 38 42 41 40 45 41 45 50 46 52 57 53 58 63 59 65 70 66 70 75 71 72 77 73 81 86 82 83 88 84 85 90 86 88 93 89 92 97 93 95 100 96 97 102 98 101 103 100 77 76 74 71 67 66 58 54 53 46 42 41 39 35 34 38 34 33 41 37 36 44 40 39 42 38 37 42 38 37 42 38 37 42 38 37 42 38 37 42 38 37 42 38 37 42 38 37 39 37 38 39 37 38 39 37 38 39 37 38 39 37 38 39 37 38 39 37 38 39 37 38 37 35 36 37 35 36 37 35 36 37 35 36 37 35 36 37 35 36 37 35 36 37 35 36
130 108 129 133 111 132 135 113 134 137 115 136 131 109 130 131 109 130 131 109 130 131 109 130 131 109 130 131 109 130 131 109 130 129 110 130 129 112 131 127 112 131 127 112 131 127 112 131 127 112 131 127 112 131 127 112 131 127 112 131 131 116 135 131 116 135 131 116 135 131 116 135 131 116 135 131 116 135 131 116 135 131 117 134 121 102 121 121 103 119 121 103 119 121 103 119 121 103 119 121 103 119 121 103 119 121 103 119 118 100 116 118 100 116 118 100 116 118 100 116 118 100 116 118 100 116 118 100 116 118 100 116 125 104 119 125 104 119 125 104 119 125 104 119 125 104 119 125 104 119 125 104 119 125 104 119 118 97 112 120 99 114 123 102 117 122 101 116 114 93 108 102 81 96 88 67 82 75 61 74 47 41 51 35 35 43 22 22 30 11 11 19 5 5 13 4 4 12 8 8 16 11 11 19 9 9 17 9 9 17 9 9 17 9 9 17 9 9 17 9 9 17 9 9 17 7 10 17 6 11 15 4 12 15 4 12 15 4 12 15 4 12 15 4 12 15 4 12 15 4 12 15 7 15 18 7 15 18 7 15 18 7 15 18 7 15 18 7 15 18 7 15 18 7 15 18 6 9 14 6 9 14 6 9 14 6 9 14 6 9 14 6 9 14 6 9 14 6 9 14 0 2 7 0 2 7 0 2 7 0 2 7 0 2 7 0 2 7 0 2 7 0 3 6 2 6 9 2 6 7 2 6 7 2 6 7 2 6 7 2 6 7 2 6 7 2 6 7 10 14 15 12 16 17 14 18 19 17 21 22 21 25 26 24 28 29 26 30 31 28 32 31 38 42 41 40 45 41 45 50 46 52 57 53 58 63 59 65 70 66 70 75 71 72 77 73 79 84 80 80 85 81 83 88 84 86 91 87 89 94 90 93 98 94 95 100 96 98 100 97 77 76 74 71 67 66 58 54 53 46 42 41 39 35 34 38 34 33 41 37 36 44 40 39 42 38 37 42 38 37 42 38 37 42 38 37 42 38 37 42 38 37 42 38 37 42 38 37 39 37 38 39 37 38 39 37 38 39 37 38 39 37 38 39 37 38 39 37 38 39 37 38 37 35 36 37 35 36 37 35 36 37 35 36 37 35 36 37 35 36 37 35 36 37 35 36
134 112 133 137 115 136 139 117 138 141 119 140 128 106 127 128 106 127 128 106 127 128 106 127 128 106 127 128 106 127 128 106 127 126 107 127 125 108 127 123 108 127 123 108 127 123 108 127 123 108 127 123 108 127 123 108 127 123 108 127 133 118 137 133 118 137 133 118 137 133 118 137 133 118 137 133 118 137 133 118 137 133 119 136 121 102 121 121 103 119 121 103 119 121 103 119 121 103 119 121 103 119 121 103 119 121 103 119 118 100 116 118 100 116 118 100 116 118 100 116 118 100 116 118 100 116 118 100 116 118 100 116 125 104 119 125 104 119 125 104 119 125 104 119 125 104 119 125 104 119 125 104 119 125 104 119 117 96 111 119 98 113 121 100 115 119 98 113 111 90 105 98 77 92 84 63 78 70 56 69 42 36 46 31 31 39 19 19 27 8 8 16 2 2 10 3 3 11 7 7 15 10 10 18 9 9 17 9 9 17 9 9 17 9 9 17 9 9 17 9 9 17 9 9 17 7 10 17 6 11 15 4 12 15 4 12 15 4 12 15 4 12 15 4 12 15 4 12 15 4 12 15 7 15 18 7 15 18 7 15 18 7 15 18 7 15 18 7 15 18 7 15 18 7 15 18 6 9 14 6 9 14 6 9 14 6 9 14 6 9 14 6 9 14 6 9 14 6 9 14 0 2 7 0 2 7 0 2 7 0 2 7 0 2 7 0 2 7 0 2 7 0 3 6 2 6 9 2 6 7 2 6 7 2 6 7 2 6 7 2 6 7 2 6 7 2 6 7 10 14 15 12 16 17 14 18 19 17 21 22 21 25 26 24 28 29 26 30 31 28 32 31 38 42 41 40 45 41 45 50 46 52 57 53 58 63 59 65 70 66 70 75 71 72 77 73 78 83 79 79 84 80 81 86 82 85 90 86 88 93 89 91 96 92 94 99 95 97 99 96 77 76 74 71 67 66 58 54 53 46 42 41 39 35 34 38 34 33 41 37 36 44 40 39 42 38 37 42 38 37 42 38 37 42 38 37 42 38 37 42 38 37 42 38 37 42 38 37 39 37 38 39 37 38 39 37 38 39 37 38 39 37 38 39 37 38 39 37 38 39 37 38 37 35 36 37 35 36 37 35 36 37 35 36 37 35 36 37 35 36 37 35 36 37 35 36
132 110 131 132 110 131 132 110 131 132 110 131 134 112 133 134 112 133 134 112 133 134 112 133 134 112 133 134 112 133 134 112 133 132 113 133 132 115 134 130 115 134 130 115 134 130 115 134 130 115 134 130 115 134 130 115 134 130 115 134 128 113 132 128 113 132 128 113 132 128 113 132 128 113 132 128 113 132 128 113 132 128 114 131 120 101 120 120 102 118 120 102 118 120 102 118 120 102 118 120 102 118 120 102 118 120 102 118 120 102 118 120 102 118 120 102 118 120 102 118 120 102 118 120 102 118 120 102 118 120 102 118 124 103 118 124 103 118 124 103 118 124 103 118 124 103 118 124 103 118 124 103 118 124 103 118 116 95 110 118 97 112 119 98 113 115 94 109 104 83 98 89 68 83 74 53 68 59 45 58 18 12 22 14 14 22 14 14 22 14 14 22 14 14 22 14 14 22 14 14 22 14 14 22 9 9 17 9 9 17 9 9 17 9 9 17 9 9 17 9 9 17 9 9 17 7 10 17 8 13 17 6 14 17 6 14 17 6 14 17 6 14 17 6 14 17 6 14 17 6 14 17 7 15 18 7 15 18 7 15 18 7 15 18 7 15 18 7 15 18 7 15 18 7 15 18 1 4 9 1 4 9 1 4 9 1 4 9 1 4 9 1 4 9 1 4 9 1 4 9 0 3 8 0 3 8 0 3 8 0 3 8 0 3 8 0 3 8 0 3 8 0 4 7 0 1 4 0 1 2 0 1 2 0 3 4 3 7 8 6 10 11 8 12 13 10 14 15 16 20 21 18 22 23 20 24 25 23 27 28 27 31 32 30 34 35 32 36 37 34 38 37 46 50 49 48 53 49 50 55 51 53 58 54 57 62 58 60 65 61 62 67 63 64 69 65 83 88 84 83 88 84 83 88 84 83 88 84 83 88 84 83 88 84 83 88 84 85 87 84 72 71 69 66 62 61 53 49 48 41 37 36 34 30 29 33 29 28 36 32 31 39 35 34 36 32 31 36 32 31 36 32 31 36 32 31 36 32 31 36 32 31 36 32 31 36 32 31 34 32 33 34 32 33 34 32 33 34 32 33 34 32 33 34 32 33 34 32 33 34 32 33 37 35 36 37 35 36 37 35 36 37 35 36 37 35 36 37 35 36 37 35 36 37 35 36
130 108 129 130 108 129 130 108 129 130 108 129 132 110 131 132 110 131 132 110 131 132 110 131 132 110 131 132 110 131 132 110 131 130 111 131 130 113 132 128 113 132 128 113 132 128 113 132 128 113 132 128 113 132 128 113 132 128 113 132 126 111 130 126 111 130 126 111 130 126 111 130 126 111 130 126 111 130 126 111 130 126 112 129 120 101 120 120 102 118 120 102 118 120 102 118 120 102 118 120 102 118 120 102 118 120 102 118 120 102 118 120 102 118 120 102 118 120 102 118 120 102 118 120 102 118 120 102 118 120 102 118 124 103 118 124 103 118 124 103 118 124 103 118 124 103 118 124 103 118 124 103 118 124 103 118 116 95 110 118 97 112 119 98 113 115 94 109 104 83 98 89 68 83 74 53 68 59 45 58 18 12 22 14 14 22 14 14 22 14 14 22 14 14 22 14 14 22 14 14 22 14 14 22 9 9 17 9 9 17 9 9 17 9 9 17 9 9 17 9 9 17 9 9 17 7 10 17 8 13 17 6 14 17 6 14 17 6 14 17 6 14 17 6 14 17 6 14 17 6 14 17 7 15 18 7 15 18 7 15 18 7 15 18 7 15 18 7 15 18 7 15 18 7 15 18 3 6 11 3 6 11 3 6 11 3 6 11 3 6 11 3 6 11 3 6 11 3 6 11 0 3 8 0 3 8 0 3 8 0 3 8 0 3 8 0 3 8 0 3 8 0 4 7 0 1 4 0 1 2 0 1 2 0 3 4 3 7 8 6 10 11 8 12 13 10 14 15 16 20 21 18 22 23 20 24 25 23 27 28 27 31 32 30 34 35 32 36 37 34 38 37 46 50 49 48 53 49 50 55 51 53 58 54 57 62 58 60 65 61 62 67 63 64 69 65 81 86 82 81 86 82 81 86 82 81 86 82 81 86 82 81 86 82 81 86 82 83 85 82 72 71 69 66 62 61 53 49 48 41 37 36 34 30 29 33 29 28 36 32 31 39 35 34 36 32 31 36 32 31 36 32 31 36 32 31 36 32 31 36 32 31 36 32 31 36 32 31 34 32 33 34 32 33 34 32 33 34 32 33 34 32 33 34 32 33 34 32 33 34 32 33 37 35 36 37 35 36 37 35 36 37 35 36 37 35 36 37 35 36 37 35 36 37 35 36
128 106 127 128 106 127 128 106 127 128 106 127 130 108 129 130 108 129 130 108 129 130 108 129 130 108 129 130 108 129 130 108 129 128 109 129 128 111 130 126 111 130 126 111 130 126 111 130 126 111 130 126 111 130 126 111 130 126 111 130 124 109 128 124 109 128 124 109 128 124 109 128 124 109 128 124 109 128 124 109 128 124 110 127 120 101 120 120 102 118 120 102 118 120 102 118 120 102 118 120 102 118 120 102 118 120 102 118 120 102 118 120 102 118 120 102 118 120 102 118 120 102 118 120 102 118 120 102 118 120 102 118 124 103 118 124 103 118 124 103 118 124 103 118 124 103 118 124 103 118 124 103 118 124 103 118 116 95 110 118 97 112 119 98 113 115 94 109 104 83 98 89 68 83 74 53 68 59 45 58 18 12 22 14 14 22 14 14 22 14 14 22 14 14 22 14 14 22 14 14 22 14 14 22 9 9 17 9 9 17 9 9 17 9 9 17 9 9 17 9 9 17 9 9 17 7 10 17 8 13 17 6 14 17 6 14 17 6 14 17 6 14 17 6 14 17 6 14 17 6 14 17 7 15 18 7 15 18 7 15 18 7 15 18 7 15 18 7 15 18 7 15 18 7 15 18 5 8 13 5 8 13 5 8 13 5 8 13 5 8 13 5 8 13 5 8 13 5 8 13 0 3 8 0 3 8 0 3 8 0 3 8 0 3 8 0 3 8 0 3 8 0 4 7 0 1 4 0 1 2 0 1 2 0 3 4 3 7 8 6 10 11 8 12 13 10 14 15 16 20 21 18 22 23 20 24 25 23 27 28 27 31 32 30 34 35 32 36 37 34 38 37 46 50 49 48 53 49 50 55 51 53 58 54 57 62 58 60 65 61 62 67 63 64 69 65 79 84 80 79 84 80 79 84 80 79 84 80 79 84 80 79 84 80 79 84 80 81 83 80 72 71 69 66 62 61 53 49 48 41 37 36 34 30 29 33 29 28 36 32 31 39 35 34 36 32 31 36 32 31 36 32 31 36 32 31 36 32 31 36 32 31 36 32 31 36 32 31 34 32 33 34 32 33 34 32 33 34 32 33 34 32 33 34 32 33 34 32 33 34 32 33 37 35 36 37 35 36 37 35 36 37 35 36 37 35 36 37 35 36 37 35 36 37 35 36
125 103 124 125 103 124 125 103 124 125 103 124 127 105 126 127 105 126 127 105 126 127 105 126 127 105 126 127 105 126 127 105 126 125 106 126 125 108 127 123 108 127 123 108 127 123 108 127 123 108 127 123 108 127 123 108 127 123 108 127 121 106 125 121 106 125 121 106 125 121 106 125 121 106 125 121 106 125 121 106 125 121 107 124 120 101 120 120 102 118 120 102 118 120 102 118 120 102 118 120 102 118 120 102 118 120 102 118 120 102 118 120 102 118 120 102 118 120 102 118 120 102 118 120 102 118 120 102 118 120 102 118 124 103 118 124 103 118 124 103 118 124 103 118 124 103 118 124 103 118 124 103 118 124 103 118 116 95 110 118 97 112 119 98 113 115 94 109 104 83 98 89 68 83 74 53 68 59 45 58 18 12 22 14 14 22 14 14 22 14 14 22 14 14 22 14 14 22 14 14 22 14 14 22 9 9 17 9 9 17 9 9 17 9 9 17 9 9 17 9 9 17 9 9 17 7 10 17 8 13 17 6 14 17 6 14 17 6 14 17 6 14 17 6 14 17 6 14 17 6 14 17 7 15 18 7 15 18 7 15 18 7 15 18 7 15 18 7 15 18 7 15 18 7 15 18 8 11 16 8 11 16 8 11 16 8 11 16 8 11 16 8 11 16 8 11 16 8 11 16 0 3 8 0 3 8 0 3 8 0 3 8 0 3 8 0 3 8 0 3 8 0 4 7 0 1 4 0 1 2 0 1 2 0 3 4 3 7 8 6 10 11 8 12 13 10 14 15 16 20 21 18 22 23 20 24 25 23 27 28 27 31 32 30 34 35 32 36 37 34 38 37 46 50 49 48 53 49 50 55 51 53 58 54 57 62 58 60 65 61 62 67 63 64 69 65 76 81 77 76 81 77 76 81 77 76 81 77 76 81 77 76 81 77 76 81 77 78 80 77 72 71 69 66 62 61 53 49 48 41 37 36 34 30 29 33 29 28 36 32 31 39 35 34 36 32 31 36 32 31 36 32 31 36 32 31 36 32 31 36 32 31 36 32 31 36 32 31 34 32 33 34 32 33 34 32 33 34 32 33 34 32 33 34 32 33 34 32 33 34 32 33 37 35 36 37 35 36 37 35 36 37 35 36 37 35 36 37 35 36 37 35 36 37 35 36
121 99 120 121 99 120 121 99 120 121 99 120 123 101 122 123 101 122 123 101 122 123 101 122 123 101 122 123 101 122 123 101 122 121 102 122 121 104 123 119 104 123 119 104 123 119 104 123 119 104 123 119 104 123 119 104 123 119 104 123 117 102 121 117 102 121 117 102 121 117 102 121 117 102 121 117 102 121 117 102 121 117 103 120 120 101 120 120 102 118 120 102 118 120 102 118 120 102 118 120 102 118 120 102 118 120 102 118 120 102 118 120 102 118 120 102 118 120 102 118 120 102 118 120 102 118 120 102 118 120 102 118 124 103 118 124 103 118 124 103 118 124 103 118 124 103 118 124 103 118 124 103 118 124 103 118 116 95 110 118 97 112 119 98 113 115 94 109 104 83 98 89 68 83 74 53 68 59 45 58 18 12 22 14 14 22 14 14 22 14 14 22 14 14 22 14 14 22 14 14 22 14 14 22 9 9 17 9 9 17 9 9 17 9 9 17 9 9 17 9 9 17 9 9 17 7 10 17 8 13 17 6 14 17 6 14 17 6 14 17 6 14 17 6 14 17 6 14 17 6 14 17 7 15 18 7 15 18 7 15 18 7 15 18 7 15 18 7 15 18 7 15 18 7 15 18 12 15 20 12 15 20 12 15 20 12 15 20 12 15 20 12 15 20 12 15 20 12 15 20 0 3 8 0 3 8 0 3 8 0 3 8 0 3 8 0 3 8 0 3 8 0 4 7 0 1 4 0 1 2 0 1 2 0 3 4 3 7 8 6 10 11 8 12 13 10 14 15 16 20 21 18 22 23 20 24 25 23 27 28 27 31 32 30 34 35 32 36 37 34 38 37 46 50 49 48 53 49 50 55 51 53 58 54 57 62 58 60 65 61 62 67 63 64 69 65 72 77 73 72 77 73 72 77 73 72 77 73 72 77 73 72 77 73 72 77 73 74 76 73 72 71 69 66 62 61 53 49 48 41 37 36 34 30 29 33 29 28 36 32 31 39 35 34 36 32 31 36 32 31 36 32 31 36 32 31 36 32 31 36 32 31 36 32 31 36 32 31 34 32 33 34 32 33 34 32 33 34 32 33 34 32 33 34 32 33 34 32 33 34 32 33 37 35 36 37 35 36 37 35 36 37 35 36 37 35 36 37 35 36 37 35 36 37 35 36
118 96 117 118 96 117 118 96 117 118 96 117 120 98 119 120 98 119 120 98 119 120 98 119 120 98 119 120 98 119 120 98 119 118 99 119 118 101 120 116 101 120 116 101 120 116 101 120 116 101 120 116 101 120 116 101 120 116 101 120 114 99 118 114 99 118 114 99 118 114 99 118 114 99 118 114 99 118 114 99 118 114 100 117 120 101 120 120 102 118 120 102 118 120 102 118 120 102 118 120 102 118 120 102 118 120 102 118 120 102 118 120 102 118 120 102 118 120 102 118 120 102 118 120 102 118 120 102 118 120 102 118 124 103 118 124 103 118 124 103 118 124 103 118 124 103 118 124 103 118 124 103 118 124 103 118 116 95 110 118 97 112 119 98 113 115 94 109 104 83 98 89 68 83 74 53 68 59 45 58 18 12 22 14 14 22 14 14 22 14 14 22 14 14 22 14 14 22 14 14 22 14 14 22 9 9 17 9 9 17 9 9 17 9 9 17 9 9 17 9 9 17 9 9 17 7 10 17 8 13 17 6 14 17 6 14 17 6 14 17 6 14 17 6 14 17 6 14 17 6 14 17 7 15 18 7 15 18 7 15 18 7 15 18 7 15 18 7 15 18 7 15 18 7 15 18 15 18 23 15 18 23 15 18 23 15 18 23 15 18 23 15 18 23 15 18 23 15 18 23 0 3 8 0 3 8 0 3 8 0 3 8 0 3 8 0 3 8 0 3 8 0 4 7 0 1 4 0 1 2 0 1 2 0 3 4 3 7 8 6 10 11 8 12 13 10 14 15 16 20 21 18 22 23 20 24 25 23 27 28 27 31 32 30 34 35 32 36 37 34 38 37 46 50 49 48 53 49 50 55 51 53 58 54 57 62 58 60 65 61 62 67 63 64 69 65 69 74 70 69 74 70 69 74 70 69 74 70 69 74 70 69 74 70 69 74 70 71 73 70 72 71 69 66 62 61 53 49 48 41 37 36 34 30 29 33 29 28 36 32 31 39 35 34 36 32 31 36 32 31 36 32 31 36 32 31 36 32 31 36 32 31 36 32 31 36 32 31 34 32 33 34 32 33 34 32 33 34 32 33 34 32 33 34 32 33 34 32 33 34 32 33 37 35 36 37 35 36 37 35 36 37 35 36 37 35 36 37 35 36 37 35 36 37 35 36
116 94 115 116 94 115 116 94 115 116 94 115 118 96 117 118 96 117 118 96 117 118 96 117 118 96 117 118 96 117 118 96 117 116 97 117 116 99 118 114 99 118 114 99 118 114 99 118 114 99 118 114 99 118 114 99 118 114 99 118 112 97 116 112 97 116 112 97 116 112 97 116 112 97 116 112 97 116 112 97 116 112 98 115 120 101 120 120 102 118 120 102 118 120 102 118 120 102 118 120 102 118 120 102 118 120 102 118 120 102 118 120 102 118 120 102 118 120 102 118 120 102 118 120 102 118 120 102 118 120 102 118 124 103 118 124 103 118 124 103 118 124 103 118 124 103 118 124 103 118 124 103 118 124 103 118 116 95 110 118 97 112 119 98 113 115 94 109 104 83 98 89 68 83 74 53 68 59 45 58 18 12 22 14 14 22 14 14 22 14 14 22 14 14 22 14 14 22 14 14 22 14 14 22 9 9 17 9 9 17 9 9 17 9 9 17 9 9 17 9 9 17 9 9 17 7 10 17 8 13 17 6 14 17 6 14 17 6 14 17 6 14 17 6 14 17 6 14 17 6 14 17 7 15 18 7 15 18 7 15 18 7 15 18 7 15 18 7 15 18 7 15 18 7 15 18 17 20 25 17 20 25 17 20 25 17 20 25 17 20 25 17 20 25 17 20 25 17 20 25 0 3 8 0 3 8 0 3 8 0 3 8 0 3 8 0 3 8 0 3 8 0 4 7 0 1 4 0 1 2 0 1 2 0 3 4 3 7 8 6 10 11 8 12 13 10 14 15 16 20 21 18 22 23 20 24 25 23 27 28 27 31 32 30 34 35 32 36 37 34 38 37 46 50 49 48 53 49 50 55 51 53 58 54 57 62 58 60 65 61 62 67 63 64 69 65 67 72 68 67 72 68 67 72 68 67 72 68 67 72 68 67 72 68 67 72 68 69 71 68 72 71 69 66 62 61 53 49 48 41 37 36 34 30 29 33 29 28 36 32 31 39 35 34 36 32 31 36 32 31 36 32 31 36 32 31 36 32 31 36 32 31 36 32 31 36 32 31 34 32 33 34 32 33 34 32 33 34 32 33 34 32 33 34 32 33 34 32 33 34 32 33 37 35 36 37 35 36 37 35 36 37 35 36 37 35 36 37 35 36 37 35 36 37 35 36
112 93 113 111 94 113 112 93 113 111 94 113 114 95 115 113 96 115 114 95 115 113 96 115 114 95 115 113 96 115 114 95 115 113 96 115 112 97 116 111 98 116 112 97 116 111 98 116 112 97 116 111 98 116 112 97 116 111 98 116 110 95 114 109 96 114 110 95 114 109 96 114 110 95 114 109 96 114 110 95 114 110 96 113 119 102 120 119 102 118 119 102 118 119 102 118 119 102 118 119 102 118 119 102 118 119 102 118 119 102 118 119 102 118 119 102 118 119 102 118 119 102 118 119 102 118 119 102 118 119 102 118 121 104 120 121 105 118 121 105 118 121 105 118 121 105 118 121 105 118 121 105 118 121 105 118 113 97 110 115 99 112 116 100 113 112 96 109 101 85 98 86 70 83 71 55 68 58 46 58 16 13 22 12 15 22 12 15 22 12 15 22 12 15 22 12 15 22 12 15 22 12 15 22 7 10 17 7 10 17 7 10 17 7 10 17 7 10 17 7 10 17 7 10 17 7 10 17 8 13 17 6 14 17 6 14 17 6 14 17 6 14 17 6 14 17 6 14 17 6 14 17 7 15 18 7 15 18 7 15 18 7 15 18 7 15 18 7 15 18 7 15 18 7 15 18 18 23 27 19 22 27 19 22 27 19 22 27 19 22 27 19 22 27 19 22 27 19 22 27 0 3 8 0 3 8 0 3 8 0 3 8 0 3 8 0 3 8 0 3 8 0 4 7 0 1 4 0 1 2 0 1 2 0 3 4 3 7 8 6 10 11 8 12 13 10 14 15 16 20 21 18 22 23 20 24 25 23 27 28 27 31 32 30 34 35 32 36 37 34 38 39 46 50 49 48 53 49 50 55 51 53 58 54 57 62 58 60 65 61 62 67 63 64 69 65 65 70 66 65 70 66 65 70 66 65 70 66 65 70 66 65 70 66 65 70 66 67 69 66 72 71 69 66 62 61 53 49 48 41 37 36 34 30 29 33 29 28 36 32 31 39 35 34 36 32 31 36 32 31 36 32 31 36 32 31 36 32 31 36 32 31 36 32 31 36 32 31 36 32 33 36 32 33 36 32 33 36 32 33 36 32 33 36 32 33 36 32 33 36 32 33 39 35 36 39 35 36 39 35 36 39 35 36 39 35 36 39 35 36 39 35 36 37 35 36
110 97 115 109 98 115 110 97 115 109 98 115 120 107 125 118 107 124 118 105 123 116 105 122 116 103 121 113 102 119 114 101 119 112 101 118 110 97 114 109 98 114 109 96 113 106 95 111 106 93 110 104 93 109 104 91 108 102 91 107 116 103 120 115 104 120 116 103 120 115 104 120 116 103 120 115 104 120 116 103 120 116 103 120 109 96 113 110 96 113 110 96 113 110 96 113 110 96 113 110 96 113 110 96 113 110 96 113 107 93 110 107 93 110 107 93 110 107 93 110 107 93 110 107 93 110 107 93 110 106 94 108 113 102 116 113 102 116 114 103 117 115 104 118 117 106 120 118 107 121 119 108 122 119 108 122 133 122 136 125 114 128 111 100 114 93 82 96 73 62 76 54 43 57 40 29 43 30 24 36 11 11 19 8 13 19 8 13 19 8 13 19 8 13 19 8 13 19 8 13 19 8 13 19 8 13 19 8 13 19 8 13 19 8 13 19 8 13 19 8 13 19 8 13 19 8 13 19 7 15 18 7 15 17 7 15 17 7 15 17 7 15 17 7 15 17 7 15 17 7 15 17 0 8 10 1 9 11 4 12 14 7 15 17 10 18 20 14 22 24 16 24 26 17 25 27 33 38 42 33 38 42 33 38 42 33 38 42 33 38 42 33 38 42 33 38 42 33 38 42 14 19 23 12 17 21 10 15 19 7 12 16 3 8 12 0 5 9 0 3 7 0 1 4 0 1 4 0 2 2 0 4 4 1 7 7 5 11 11 8 14 14 10 16 16 12 18 18 17 23 23 19 25 25 21 27 27 24 30 30 28 34 34 31 37 37 33 39 39 35 41 41 36 42 40 38 44 42 40 46 44 43 49 47 47 53 51 50 56 54 52 58 56 54 60 58 63 69 67 63 69 67 63 69 67 63 69 67 63 69 67 63 69 67 63 69 67 64 68 67 47 46 44 47 43 42 45 41 40 42 38 37 38 34 33 35 31 30 33 29 28 31 27 26 35 31 30 35 31 30 35 31 30 35 31 30 35 31 30 35 31 30 35 31 30 35 31 30 37 31 31 37 31 31 37 31 31 37 31 31 37 31 31 37 31 31 37 31 31 37 31 31 38 32 32 38 32 32 38 32 32 38 32 32 38 32 32 38 32 32 38 32 32 38 32 32
105 96 113 105 96 113 105 96 113 105 96 113 113 104 121 112 103 120 112 103 120 111 102 119 111 102 119 110 101 118 110 101 118 110 101 118 110 99 115 110 99 115 110 99 115 109 98 114 108 97 113 108 97 113 107 96 112 107 96 112 113 102 118 113 102 118 113 102 118 113 102 118 113 102 118 113 102 118 113 102 118 113 102 118 109 96 113 109 96 113 109 96 113 109 96 113 109 96 113 109 96 113 109 96 113 109 96 113 106 93 110 106 93 110 106 93 110 106 93 110 106 93 110 106 93 110 106 93 110 105 94 110 113 105 118 112 106 118 113 107 119 113 107 119 114 108 120 114 108 120 115 109 121 115 109 121 121 115 127 114 108 120 101 95 107 84 78 90 65 59 71 48 42 54 35 29 41 25 23 34 9 12 19 6 13 19 6 13 19 6 13 19 6 13 19 6 13 19 6 13 19 6 13 19 6 13 19 6 13 19 6 13 19 6 13 19 6 13 19 6 13 19 6 13 19 6 14 17 7 15 18 7 15 17 7 15 17 7 15 17 7 15 17 7 15 17 7 15 17 7 15 17 3 11 13 4 12 14 6 14 16 10 18 20 13 21 23 16 24 26 19 27 29 20 28 30 33 38 42 33 38 42 33 38 42 33 38 42 33 38 42 33 38 42 33 38 42 33 38 42 14 19 23 12 17 21 10 15 19 7 12 16 3 8 12 0 5 9 0 3 7 0 1 4 0 1 4 0 2 2 0 4 4 1 7 7 5 11 11 8 14 14 10 16 16 12 18 18 17 23 23 19 25 25 21 27 27 24 30 30 28 34 34 31 37 37 33 39 39 35 41 41 36 42 40 38 44 42 40 46 44 43 49 47 47 53 51 50 56 54 52 58 56 54 60 58 61 67 65 61 67 65 61 67 65 61 67 65 61 67 65 61 67 65 61 67 65 62 66 65 47 46 44 47 43 42 45 41 40 42 38 37 38 34 33 35 31 30 33 29 28 31 27 26 35 31 30 35 31 30 35 31 30 35 31 30 35 31 30 35 31 30 35 31 30 35 31 30 39 30 31 39 30 31 39 30 31 39 30 31 39 30 31 39 30 31 39 30 31 39 30 31 40 31 32 40 31 32 40 31 32 40 31 32 40 31 32 40 31 32 40 31 32 40 31 32
98 89 106 98 89 106 98 89 106 98 89 106 103 94 111 103 94 111 103 94 111 104 95 112 105 96 113 106 97 114 106 97 114 106 97 114 110 99 115 110 99 115 111 100 116 111 100 116 112 101 117 113 102 118 113 102 118 114 103 119 111 100 116 111 100 116 111 100 116 111 100 116 111 100 116 111 100 116 111 100 116 111 100 116 109 96 113 109 96 113 109 96 113 109 96 113 109 96 113 109 96 113 109 96 113 109 96 113 106 93 110 106 93 110 106 93 110 106 93 110 106 93 110 106 93 110 106 93 110 105 94 110 114 106 119 113 107 119 113 107 119 112 106 118 111 105 117 111 105 117 110 104 116 110 104 116 104 98 110 98 92 104 87 81 93 73 67 79 57 51 63 42 36 48 31 25 37 22 20 31 9 12 19 6 13 19 6 13 19 6 13 19 6 13 19 6 13 19 6 13 19 6 13 19 6 13 19 6 13 19 6 13 19 6 13 19 6 13 19 6 13 19 6 13 19 6 14 17 7 15 18 7 15 17 7 15 17 7 15 17 7 15 17 7 15 17 7 15 17 7 15 17 8 16 18 9 17 19 11 19 21 14 22 24 18 26 28 21 29 31 24 32 34 25 33 35 33 38 42 33 38 42 33 38 42 33 38 42 33 38 42 33 38 42 33 38 42 33 38 42 14 19 23 12 17 21 10 15 19 7 12 16 3 8 12 0 5 9 0 3 7 0 1 4 0 1 4 0 2 2 0 4 4 1 7 7 5 11 11 8 14 14 10 16 16 12 18 18 17 23 23 19 25 25 21 27 27 24 30 30 28 34 34 31 37 37 33 39 39 35 41 41 36 42 40 38 44 42 40 46 44 43 49 47 47 53 51 50 56 54 52 58 56 54 60 58 59 65 63 59 65 63 59 65 63 59 65 63 59 65 63 59 65 63 59 65 63 60 64 63 47 46 44 47 43 42 45 41 40 42 38 37 38 34 33 35 31 30 33 29 28 31 27 26 35 31 30 35 31 30 35 31 30 35 31 30 35 31 30 35 31 30 35 31 30 35 31 30 39 30 31 39 30 31 39 30 31 39 30 31 39 30 31 39 30 31 39 30 31 39 30 31 40 31 32 40 31 32 40 31 32 40 31 32 40 31 32 40 31 32 40 31 32 40 31 32
85 76 93 85 76 93 85 76 93 85 76 93 85 76 93 86 77 94 87 78 95 90 81 98 92 83 100 95 86 103 96 87 104 97 88 105 105 94 110 106 95 111 108 97 113 110 99 115 112 101 117 115 104 120 116 105 121 117 106 122 108 97 113 108 97 113 108 97 113 108 97 113 108 97 113 108 97 113 108 97 113 108 97 113 109 96 113 109 96 113 109 96 113 109 96 113 109 96 113 109 96 113 109 96 113 109 96 113 106 93 110 106 93 110 106 93 110 106 93 110 106 93 110 106 93 110 106 93 110 105 94 110 112 104 117 110 104 116 108 102 114 106 100 112 103 97 109 101 95 107 99 93 105 98 92 104 83 77 89 78 72 84 69 63 75 58 52 64 46 40 52 34 28 40 26 20 32 18 16 27 9 12 19 6 13 19 6 13 19 6 13 19 6 13 19 6 13 19 6 13 19 6 13 19 6 13 19 6 13 19 6 13 19 6 13 19 6 13 19 6 13 19 6 13 19 6 14 17 7 15 18 7 15 17 7 15 17 7 15 17 7 15 17 7 15 17 7 15 17 7 15 17 14 22 24 15 23 25 18 26 28 21 29 31 24 32 34 27 35 37 30 38 40 31 39 41 33 38 42 33 38 42 33 38 42 33 38 42 33 38 42 33 38 42 33 38 42 33 38 42 14 19 23 12 17 21 10 15 19 7 12 16 3 8 12 0 5 9 0 3 7 0 1 4 0 1 4 0 2 2 0 4 4 1 7 7 5 11 11 8 14 14 10 16 16 12 18 18 17 23 23 19 25 25 21 27 27 24 30 30 28 34 34 31 37 37 33 39 39 35 41 41 36 42 40 38 44 42 40 46 44 43 49 47 47 53 51 50 56 54 52 58 56 54 60 58 56 62 60 56 62 60 56 62 60 56 62 60 56 62 60 56 62 60 56 62 60 57 61 60 47 46 44 47 43 42 45 41 40 42 38 37 38 34 33 35 31 30 33 29 28 31 27 26 35 31 30 35 31 30 35 31 30 35 31 30 35 31 30 35 31 30 35 31 30 35 31 30 39 30 31 39 30 31 39 30 31 39 30 31 39 30 31 39 30 31 39 30 31 39 30 31 40 31 32 40 31 32 40 31 32 40 31 32 40 31 32 40 31 32 40 31 32 40 31 32
64 55 72 64 55 72 64 55 72 64 55 72 59 50 67 61 52 69 64 55 72 68 59 76 72 63 80 77 68 85 80 71 88 81 72 89 93 82 98 95 84 100 98 87 103 102 91 107 106 95 111 110 99 115 114 103 119 115 104 120 104 93 109 104 93 109 104 93 109 104 93 109 104 93 109 104 93 109 104 93 109 104 93 109 109 96 113 109 96 113 109 96 113 109 96 113 109 96 113 109 96 113 109 96 113 109 96 113 106 93 110 106 93 110 106 93 110 106 93 110 106 93 110 106 93 110 106 93 110 105 94 110 103 95 108 100 94 106 97 91 103 93 87 99 89 83 95 84 78 90 81 75 87 80 74 86 59 53 65 56 50 62 50 44 56 42 36 48 34 28 40 26 20 32 20 14 26 14 12 23 9 12 19 6 13 19 6 13 19 6 13 19 6 13 19 6 13 19 6 13 19 6 13 19 6 13 19 6 13 19 6 13 19 6 13 19 6 13 19 6 13 19 6 13 19 6 14 17 7 15 18 7 15 17 7 15 17 7 15 17 7 15 17 7 15 17 7 15 17 7 15 17 21 29 31 22 30 32 25 33 35 28 36 38 31 39 41 34 42 44 37 45 47 38 46 48 33 38 42 33 38 42 33 38 42 33 38 42 33 38 42 33 38 42 33 38 42 33 38 42 14 19 23 12 17 21 10 15 19 7 12 16 3 8 12 0 5 9 0 3 7 0 1 4 0 1 4 0 2 2 0 4 4 1 7 7 5 11 11 8 14 14 10 16 16 12 18 18 17 23 23 19 25 25 21 27 27 24 30 30 28 34 34 31 37 37 33 39 39 35 41 41 36 42 40 38 44 42 40 46 44 43 49 47 47 53 51 50 56 54 52 58 56 54 60 58 52 58 56 52 58 56 52 58 56 52 58 56 52 58 56 52 58 56 52 58 56 53 57 56 47 46 44 47 43 42 45 41 40 42 38 37 38 34 33 35 31 30 33 29 28 31 27 26 35 31 30 35 31 30 35 31 30 35 31 30 35 31 30 35 31 30 35 31 30 35 31 30 39 30 31 39 30 31 39 30 31 39 30 31 39 30 31 39 30 31 39 30 31 39 30 31 40 31 32 40 31 32 40 31 32 40 31 32 40 31 32 40 31 32 40 31 32 40 31 32
40 31 48 40 31 48 40 31 48 40 31 48 30 21 38 32 23 40 37 28 45 42 33 50 49 40 57 54 45 62 59 50 67 61 52 69 77 66 82 79 68 84 83 72 88 89 78 94 95 84 100 101 90 106 105 94 110 108 97 113 101 90 106 101 90 106 101 90 106 101 90 106 101 90 106 101 90 106 101 90 106 101 90 106 109 96 113 109 96 113 109 96 113 109 96 113 109 96 113 109 96 113 109 96 113 109 96 113 106 93 110 106 93 110 106 93 110 106 93 110 106 93 110 106 93 110 106 93 110 105 94 110 89 81 94 85 79 91 81 75 87 75 69 81 69 63 75 64 58 70 59 53 65 57 51 63 38 32 44 36 30 42 32 26 38 28 22 34 23 17 29 18 12 24 15 9 21 10 8 19 9 12 19 6 13 19 6 13 19 6 13 19 6 13 19 6 13 19 6 13 19 6 13 19 6 13 19 6 13 19 6 13 19 6 13 19 6 13 19 6 13 19 6 13 19 6 14 17 7 15 18 7 15 17 7 15 17 7 15 17 7 15 17 7 15 17 7 15 17 7 15 17 27 35 37 28 36 38 31 39 41 34 42 44 38 46 48 41 49 51 43 51 53 44 52 54 33 38 42 33 38 42 33 38 42 33 38 42 33 38 42 33 38 42 33 38 42 33 38 42 14 19 23 12 17 21 10 15 19 7 12 16 3 8 12 0 5 9 0 3 7 0 1 4 0 1 4 0 2 2 0 4 4 1 7 7 5 11 11 8 14 14 10 16 16 12 18 18 17 23 23 19 25 25 21 27 27 24 30 30 28 34 34 31 37 37 33 39 39 35 41 41 36 42 40 38 44 42 40 46 44 43 49 47 47 53 51 50 56 54 52 58 56 54 60 58 49 55 53 49 55 53 49 55 53 49 55 53 49 55 53 49 55 53 49 55 53 50 54 53 47 46 44 47 43 42 45 41 40 42 38 37 38 34 33 35 31 30 33 29 28 31 27 26 35 31 30 35 31 30 35 31 30 35 31 30 35 31 30 35 31 30 35 31 30 35 31 30 39 30 31 39 30 31 39 30 31 39 30 31 39 30 31 39 30 31 39 30 31 39 30 31 40 31 32 40 31 32 40 31 32 40 31 32 40 31 32 40 31 32 40 31 32 40 31 32
17 8 25 17 8 25 17 8 25 17 8 25 4 0 12 7 0 15 12 3 20 19 10 27 27 18 35 34 25 42 39 30 47 42 33 50 60 49 65 63 52 68 69 58 74 76 65 81 83 72 88 90 79 95 95 84 100 98 87 103 99 88 104 99 88 104 99 88 104 99 88 104 99 88 104 99 88 104 99 88 104 99 88 104 109 96 113 109 96 113 109 96 113 109 96 113 109 96 113 109 96 113 109 96 113 109 96 113 106 93 110 106 93 110 106 93 110 106 93 110 106 93 110 106 93 110 106 93 110 105 94 110 74 66 79 71 65 77 65 59 71 58 52 64 51 45 57 44 38 50 39 33 45 36 30 42 21 15 27 20 14 26 19 13 25 17 11 23 14 8 20 12 6 18 11 5 17 7 5 16 9 12 19 6 13 19 6 13 19 6 13 19 6 13 19 6 13 19 6 13 19 6 13 19 6 13 19 6 13 19 6 13 19 6 13 19 6 13 19 6 13 19 6 13 19 6 14 17 7 15 18 7 15 17 7 15 17 7 15 17 7 15 17 7 15 17 7 15 17 7 15 17 32 40 42 33 41 43 36 44 46 39 47 49 42 50 52 46 54 56 48 56 58 49 57 59 33 38 42 33 38 42 33 38 42 33 38 42 33 38 42 33 38 42 33 38 42 33 38 42 14 19 23 12 17 21 10 15 19 7 12 16 3 8 12 0 5 9 0 3 7 0 1 4 0 1 4 0 2 2 0 4 4 1 7 7 5 11 11 8 14 14 10 16 16 12 18 18 17 23 23 19 25 25 21 27 27 24 30 30 28 34 34 31 37 37 33 39 39 35 41 41 36 42 40 38 44 42 40 46 44 43 49 47 47 53 51 50 56 54 52 58 56 54 60 58 47 53 51 47 53 51 47 53 51 47 53 51 47 53 51 47 53 51 47 53 51 48 52 51 47 46 44 47 43 42 45 41 40 42 38 37 38 34 33 35 31 30 33 29 28 31 27 26 35 31 30 35 31 30 35 31 30 35 31 30 35 31 30 35 31 30 35 31 30 35 31 30 39 30 31 39 30 31 39 30 31 39 30 31 39 30 31 39 30 31 39 30 31 39 30 31 40 31 32 40 31 32 40 31 32 40 31 32 40 31 32 40 31 32 40 31 32 40 31 32
4 0 12 4 0 12 4 0 12 4 0 12 4 0 12 4 0 12 4 0 12 5 0 13 13 4 21 21 12 29 27 18 35 30 21 38 50 39 55 54 43 59 59 48 64 67 56 72 75 64 80 83 72 88 89 78 94 92 81 97 97 86 102 97 86 102 97 86 102 97 86 102 97 86 102 97 86 102 97 86 102 97 86 102 109 96 113 109 96 113 109 96 113 109 96 113 109 96 113 109 96 113 109 96 113 109 96 113 106 93 110 106 93 110 106 93 110 106 93 110 106 93 110 106 93 110 106 93 110 105 94 110 65 57 70 61 55 67 55 49 61 48 42 54 40 34 46 32 26 38 26 20 32 23 17 29 12 6 18 12 6 18 11 5 17 11 5 17 10 4 16 9 3 15 9 3 15 5 3 14 9 12 19 6 13 19 6 13 19 6 13 19 6 13 19 6 13 19 6 13 19 6 13 19 6 13 19 6 13 19 6 13 19 6 13 19 6 13 19 6 13 19 6 13 19 6 14 17 7 15 18 7 15 17 7 15 17 7 15 17 7 15 17 7 15 17 7 15 17 7 15 17 35 43 45 36 44 46 38 46 48 42 50 52 45 53 55 48 56 58 51 59 61 52 60 62 33 38 42 33 38 42 33 38 42 33 38 42 33 38 42 33 38 42 33 38 42 33 38 42 14 19 23 12 17 21 10 15 19 7 12 16 3 8 12 0 5 9 0 3 7 0 1 4 0 1 4 0 2 2 0 4 4 1 7 7 5 11 11 8 14 14 10 16 16 12 18 18 17 23 23 19 25 25 21 27 27 24 30 30 28 34 34 31 37 37 33 39 39 35 41 41 36 42 40 38 44 42 40 46 44 43 49 47 47 53 51 50 56 54 52 58 56 54 60 58 45 51 49 45 51 49 45 51 49 45 51 49 45 51 49 45 51 49 45 51 49 46 50 49 47 46 44 47 43 42 45 41 40 42 38 37 38 34 33 35 31 30 33 29 28 31 27 26 35 31 30 35 31 30 35 31 30 35 31 30 35 31 30 35 31 30 35 31 30 35 31 30 39 30 31 39 30 31 39 30 31 39 30 31 39 30 31 39 30 31 39 30 31 39 30 31 40 31 32 40 31 32 40 31 32 40 31 32 40 31 32 40 31 32 40 31 32 40 31 32
8 0 16 8 0 16 8 0 16 8 0 16 8 0 16 8 0 16 8 0 16 8 0 16 8 0 16 8 0 16 8 0 16 8 0 16 23 12 28 23 12 28 23 12 28 23 12 28 23 12 28 23 12 28 23 12 28 23 12 28 58 47 63 58 47 63 58 47 63 58 47 63 58 47 63 58 47 63 58 47 63 58 47 63 85 72 89 85 72 89 85 72 89 85 72 89 85 72 89 85 72 89 85 72 89 85 72 89 85 72 89 85 72 89 85 72 89 85 72 89 85 72 89 85 72 89 85 72 89 84 73 89 38 30 43 35 29 41 31 25 37 27 21 33 22 16 28 18 12 24 14 8 20 13 7 19 11 5 17 11 5 17 11 5 17 11 5 17 11 5 17 11 5 17 11 5 17 8 6 17 6 9 16 3 10 16 3 10 16 3 10 16 3 10 16 3 10 16 3 10 16 3 10 16 11 18 24 10 17 23 9 16 22 8 15 21 7 14 20 5 12 18 4 11 17 4 12 15 14 22 25 15 23 25 18 26 28 21 29 31 24 32 34 28 36 38 30 38 40 31 39 41 45 53 55 45 53 55 45 53 55 45 53 55 45 53 55 45 53 55 45 53 55 45 53 55 52 57 61 50 55 59 48 53 57 45 50 54 41 46 50 38 43 47 36 41 45 34 39 43 14 19 23 12 17 21 10 15 19 7 12 16 3 8 12 0 5 9 0 3 7 0 1 4 0 3 6 0 6 6 2 8 8 5 11 11 9 15 15 12 18 18 14 20 20 16 22 22 15 21 21 17 23 23 19 25 25 22 28 28 26 32 32 29 35 35 31 37 37 33 39 39 34 40 38 34 40 38 34 40 38 34 40 38 34 40 38 34 40 38 34 40 38 34 40 38 36 42 40 36 42 40 36 42 40 36 42 40 36 42 40 36 42 40 36 42 40 37 41 40 31 30 28 33 29 28 33 29 28 33 29 28 33 29 28 33 29 28 33 29 28 33 29 28 33 29 28 33 29 28 33 29 28 33 29 28 33 29 28 33 29 28 33 29 28 33 29 28 38 29 30 38 29 30 38 29 30 38 29 30 38 29 30 38 29 30 38 29 30 38 29 30 39 30 31 39 30 31 39 30 31 39 30 31 39 30 31 39 30 31 39 30 31 39 30 31
8 0 16 8 0 16 8 0 16 8 0 16 8 0 16 8 0 16 8 0 16 8 0 16 8 0 16 8 0 16 8 0 16 8 0 16 21 10 26 21 10 26 21 10 26 21 10 26 21 10 26 21 10 26 21 10 26 21 10 26 37 26 42 37 26 42 37 26 42 37 26 42 37 26 42 37 26 42 37 26 42 37 26 42 58 45 62 58 45 62 58 45 62 58 45 62 58 45 62 58 45 62 58 45 62 58 45 62 58 45 62 58 45 62 58 45 62 58 45 62 58 45 62 58 45 62 58 45 62 57 46 62 35 27 40 32 26 38 29 23 35 25 19 31 21 15 27 18 12 24 15 9 21 13 7 19 11 5 17 11 5 17 11 5 17 11 5 17 11 5 17 11 5 17 11 5 17 8 6 17 6 9 16 3 10 16 3 10 16 3 10 16 3 10 16 3 10 16 3 10 16 3 10 16 6 13 19 6 13 19 5 12 18 5 12 18 4 11 17 3 10 16 3 10 16 3 11 14 17 25 28 18 26 28 20 28 30 24 32 34 27 35 37 30 38 40 33 41 43 34 42 44 47 55 57 47 55 57 47 55 57 47 55 57 47 55 57 47 55 57 47 55 57 47 55 57 52 57 61 50 55 59 48 53 57 45 50 54 41 46 50 38 43 47 36 41 45 34 39 43 14 19 23 12 17 21 10 15 19 7 12 16 3 8 12 0 5 9 0 3 7 0 1 4 0 3 6 0 6 6 2 8 8 5 11 11 9 15 15 12 18 18 14 20 20 16 22 22 15 21 21 17 23 23 19 25 25 22 28 28 26 32 32 29 35 35 31 37 37 33 39 39 34 40 38 34 40 38 34 40 38 34 40 38 34 40 38 34 40 38 34 40 38 34 40 38 36 42 40 36 42 40 36 42 40 36 42 40 36 42 40 36 42 40 36 42 40 37 41 40 31 30 28 33 29 28 33 29 28 33 29 28 33 29 28 33 29 28 33 29 28 33 29 28 33 29 28 33 29 28 33 29 28 33 29 28 33 29 28 33 29 28 33 29 28 33 29 28 38 29 30 38 29 30 38 29 30 38 29 30 38 29 30 38 29 30 38 29 30 38 29 30 39 30 31 39 30 31 39 30 31 39 30 31 39 30 31 39 30 31 39 30 31 39 30 31
8 0 16 8 0 16 8 0 16 8 0 16 8 0 16 8 0 16 8 0 16 8 0 16 8 0 16 8 0 16 8 0 16 8 0 16 19 8 24 19 8 24 19 8 24 19 8 24 19 8 24 19 8 24 19 8 24 19 8 24 15 4 20 15 4 20 15 4 20 15 4 20 15 4 20 15 4 20 15 4 20 15 4 20 25 12 29 25 12 29 25 12 29 25 12 29 25 12 29 25 12 29 25 12 29 25 12 29 25 12 29 25 12 29 25 12 29 25 12 29 25 12 29 25 12 29 25 12 29 24 13 29 29 21 34 27 21 33 25 19 31 22 16 28 20 14 26 17 11 23 15 9 21 14 8 20 11 5 17 11 5 17 11 5 17 11 5 17 11 5 17 11 5 17 11 5 17 8 6 17 6 9 16 3 10 16 3 10 16 3 10 16 3 10 16 3 10 16 3 10 16 3 10 16 0 6 12 0 7 13 0 7 13 1 8 14 2 9 15 2 9 15 3 10 16 3 11 14 22 30 33 23 31 33 25 33 35 28 36 38 32 40 42 35 43 45 38 46 48 39 47 49 49 57 59 49 57 59 49 57 59 49 57 59 49 57 59 49 57 59 49 57 59 49 57 59 52 57 61 50 55 59 48 53 57 45 50 54 41 46 50 38 43 47 36 41 45 34 39 43 14 19 23 12 17 21 10 15 19 7 12 16 3 8 12 0 5 9 0 3 7 0 1 4 0 3 6 0 6 6 2 8 8 5 11 11 9 15 15 12 18 18 14 20 20 16 22 22 15 21 21 17 23 23 19 25 25 22 28 28 26 32 32 29 35 35 31 37 37 33 39 39 34 40 38 34 40 38 34 40 38 34 40 38 34 40 38 34 40 38 34 40 38 34 40 38 36 42 40 36 42 40 36 42 40 36 42 40 36 42 40 36 42 40 36 42 40 37 41 40 31 30 28 33 29 28 33 29 28 33 29 28 33 29 28 33 29 28 33 29 28 33 29 28 33 29 28 33 29 28 33 29 28 33 29 28 33 29 28 33 29 28 33 29 28 33 29 28 38 29 30 38 29 30 38 29 30 38 29 30 38 29 30 38 29 30 38 29 30 38 29 30 39 30 31 39 30 31 39 30 31 39 30 31 39 30 31 39 30 31 39 30 31 39 30 31
8 0 16 8 0 16 8 0 16 8 0 16 8 0 16 8 0 16 8 0 16 8 0 16 8 0 16 8 0 16 8 0 16 8 0 16 16 5 21 16 5 21 16 5 21 16 5 21 16 5 21 16 5 21 16 5 21 16 5 21 8 0 13 8 0 13 8 0 13 8 0 13 8 0 13 8 0 13 8 0 13 8 0 13 9 0 13 9 0 13 9 0 13 9 0 13 9 0 13 9 0 13 9 0 13 9 0 13 9 0 13 9 0 13 9 0 13 9 0 13 9 0 13 9 0 13 9 0 13 8 0 13 21 13 26 20 14 26 19 13 25 18 12 24 17 11 23 16 10 22 16 10 22 15 9 21 11 5 17 11 5 17 11 5 17 11 5 17 11 5 17 11 5 17 11 5 17 8 6 17 6 9 16 3 10 16 3 10 16 3 10 16 3 10 16 3 10 16 3 10 16 3 10 16 0 3 9 0 4 10 0 5 11 1 8 14 3 10 16 5 12 18 7 14 20 8 16 19 28 36 39 29 37 39 32 40 42 35 43 45 38 46 48 41 49 51 44 52 54 45 53 55 52 60 62 52 60 62 52 60 62 52 60 62 52 60 62 52 60 62 52 60 62 52 60 62 52 57 61 50 55 59 48 53 57 45 50 54 41 46 50 38 43 47 36 41 45 34 39 43 14 19 23 12 17 21 10 15 19 7 12 16 3 8 12 0 5 9 0 3 7 0 1 4 0 3 6 0 6 6 2 8 8 5 11 11 9 15 15 12 18 18 14 20 20 16 22 22 15 21 21 17 23 23 19 25 25 22 28 28 26 32 32 29 35 35 31 37 37 33 39 39 34 40 38 34 40 38 34 40 38 34 40 38 34 40 38 34 40 38 34 40 38 34 40 38 36 42 40 36 42 40 36 42 40 36 42 40 36 42 40 36 42 40 36 42 40 37 41 40 31 30 28 33 29 28 33 29 28 33 29 28 33 29 28 33 29 28 33 29 28 33 29 28 33 29 28 33 29 28 33 29 28 33 29 28 33 29 28 33 29 28 33 29 28 33 29 28 38 29 30 38 29 30 38 29 30 38 29 30 38 29 30 38 29 30 38 29 30 38 29 30 39 30 31 39 30 31 39 30 31 39 30 31 39 30 31 39 30 31 39 30 31 39 30 31
8 0 16 8 0 16 8 0 16 8 0 16 8 0 16 8 0 16 8 0 16 8 0 16 8 0 16 8 0 16 8 0 16 8 0 16 12 1 17 12 1 17 12 1 17 12 1 17 12 1 17 12 1 17 12 1 17 12 1 17 15 4 20 15 4 20 15 4 20 15 4 20 15 4 20 15 4 20 15 4 20 15 4 20 12 0 16 12 0 16 12 0 16 12 0 16 12 0 16 12 0 16 12 0 16 12 0 16 12 0 16 12 0 16 12 0 16 12 0 16 12 0 16 12 0 16 12 0 16 11 0 16 13 5 18 12 6 18 13 7 19 14 8 20 15 9 21 16 10 22 16 10 22 17 11 23 11 5 17 11 5 17 11 5 17 11 5 17 11 5 17 11 5 17 11 5 17 8 6 17 6 9 16 3 10 16 3 10 16 3 10 16 3 10 16 3 10 16 3 10 16 3 10 16 0 5 11 0 6 12 3 10 16 7 14 20 11 18 24 15 22 28 18 25 31 20 28 31 35 43 46 36 44 46 39 47 49 42 50 52 45 53 55 48 56 58 51 59 61 52 60 62 56 64 66 56 64 66 56 64 66 56 64 66 56 64 66 56 64 66 56 64 66 56 64 66 52 57 61 50 55 59 48 53 57 45 50 54 41 46 50 38 43 47 36 41 45 34 39 43 14 19 23 12 17 21 10 15 19 7 12 16 3 8 12 0 5 9 0 3 7 0 1 4 0 3 6 0 6 6 2 8 8 5 11 11 9 15 15 12 18 18 14 20 20 16 22 22 15 21 21 17 23 23 19 25 25 22 28 28 26 32 32 29 35 35 31 37 37 33 39 39 34 40 38 34 40 38 34 40 38 34 40 38 34 40 38 34 40 38 34 40 38 34 40 38 36 42 40 36 42 40 36 42 40 36 42 40 36 42 40 36 42 40 36 42 40 37 41 40 31 30 28 33 29 28 33 29 28 33 29 28 33 29 28 33 29 28 33 29 28 33 29 28 33 29 28 33 29 28 33 29 28 33 29 28 33 29 28 33 29 28 33 29 28 33 29 28 38 29 30 38 29 30 38 29 30 38 29 30 38 29 30 38 29 30 38 29 30 38 29 30 39 30 31 39 30 31 39 30 31 39 30 31 39 30 31 39 30 31 39 30 31 39 30 31
8 0 16 8 0 16 8 0 16 8 0 16 8 0 16 8 0 16 8 0 16 8 0 16 8 0 16 8 0 16 8 0 16 8 0 16 9 0 14 9 0 14 9 0 14 9 0 14 9 0 14 9 0 14 9 0 14 9 0 14 19 8 24 19 8 24 19 8 24 19 8 24 19 8 24 19 8 24 19 8 24 19 8 24 19 6 23 19 6 23 19 6 23 19 6 23 19 6 23 19 6 23 19 6 23 19 6 23 19 6 23 19 6 23 19 6 23 19 6 23 19 6 23 19 6 23 19 6 23 18 7 23 5 0 10 5 0 11 7 1 13 10 4 16 12 6 18 15 9 21 17 11 23 18 12 24 11 5 17 11 5 17 11 5 17 11 5 17 11 5 17 11 5 17 11 5 17 8 6 17 6 9 16 3 10 16 3 10 16 3 10 16 3 10 16 3 10 16 3 10 16 3 10 16 5 12 18 8 15 21 12 19 25 18 25 31 24 31 37 30 37 43 34 41 47 36 44 47 41 49 52 42 50 52 45 53 55 48 56 58 52 60 62 55 63 65 57 65 67 58 66 68 59 67 69 59 67 69 59 67 69 59 67 69 59 67 69 59 67 69 59 67 69 59 67 69 52 57 61 50 55 59 48 53 57 45 50 54 41 46 50 38 43 47 36 41 45 34 39 43 14 19 23 12 17 21 10 15 19 7 12 16 3 8 12 0 5 9 0 3 7 0 1 4 0 3 6 0 6 6 2 8 8 5 11 11 9 15 15 12 18 18 14 20 20 16 22 22 15 21 21 17 23 23 19 25 25 22 28 28 26 32 32 29 35 35 31 37 37 33 39 39 34 40 38 34 40 38 34 40 38 34 40 38 34 40 38 34 40 38 34 40 38 34 40 38 36 42 40 36 42 40 36 42 40 36 42 40 36 42 40 36 42 40 36 42 40 37 41 40 31 30 28 33 29 28 33 29 28 33 29 28 33 29 28 33 29 28 33 29 28 33 29 28 33 29 28 33 29 28 33 29 28 33 29 28 33 29 28 33 29 28 33 29 28 33 29 28 38 29 30 38 29 30 38 29 30 38 29 30 38 29 30 38 29 30 38 29 30 38 29 30 39 30 31 39 30 31 39 30 31 39 30 31 39 30 31 39 30 31 39 30 31 39 30 31
8 0 16 8 0 16 8 0 16 8 0 16 8 0 16 8 0 16 8 0 16 8 0 16 8 0 16 8 0 16 8 0 16 8 0 16 7 0 12 7 0 12 7 0 12 7 0 12 7 0 12 7 0 12 7 0 12 7 0 12 13 2 18 13 2 18 13 2 18 13 2 18 13 2 18 13 2 18 13 2 18 13 2 18 18 5 22 18 5 22 18 5 22 18 5 22 18 5 22 18 5 22 18 5 22 18 5 22 18 5 22 18 5 22 18 5 22 18 5 22 18 5 22 18 5 22 18 5 22 17 6 22 4 0 9 3 0 9 3 0 9 7 1 13 11 5 17 14 8 20 17 11 23 19 13 25 11 5 17 11 5 17 11 5 17 11 5 17 11 5 17 11 5 17 11 5 17 8 6 17 6 9 16 3 10 16 3 10 16 3 10 16 3 10 16 3 10 16 3 10 16 3 10 16 15 22 28 18 25 31 23 30 36 30 37 43 37 44 50 44 51 57 50 57 63 53 61 64 46 54 57 47 55 57 50 58 60 53 61 63 56 64 66 60 68 70 62 70 72 63 71 73 61 69 71 61 69 71 61 69 71 61 69 71 61 69 71 61 69 71 61 69 71 61 69 71 52 57 61 50 55 59 48 53 57 45 50 54 41 46 50 38 43 47 36 41 45 34 39 43 14 19 23 12 17 21 10 15 19 7 12 16 3 8 12 0 5 9 0 3 7 0 1 4 0 3 6 0 6 6 2 8 8 5 11 11 9 15 15 12 18 18 14 20 20 16 22 22 15 21 21 17 23 23 19 25 25 22 28 28 26 32 32 29 35 35 31 37 37 33 39 39 34 40 38 34 40 38 34 40 38 34 40 38 34 40 38 34 40 38 34 40 38 34 40 38 36 42 40 36 42 40 36 42 40 36 42 40 36 42 40 36 42 40 36 42 40 37 41 40 31 30 28 33 29 28 33 29 28 33 29 28 33 29 28 33 29 28 33 29 28 33 29 28 33 29 28 33 29 28 33 29 28 33 29 28 33 29 28 33 29 28 33 29 28 33 29 28 38 29 30 38 29 30 38 29 30 38 29 30 38 29 30 38 29 30 38 29 30 38 29 30 39 30 31 39 30 31 39 30 31 39 30 31 39 30 31 39 30 31 39 30 31 39 30 31
7 1 15 7 1 15 7 1 15 7 1 15 7 1 15 7 1 15 7 1 15 7 1 15 7 1 15 7 1 15 7 1 15 7 1 15 4 0 9 4 0 9 4 0 9 4 0 9 4 0 9 4 0 9 4 0 9 4 0 9 4 0 9 4 0 9 4 0 9 4 0 9 4 0 9 4 0 9 4 0 9 4 0 9 10 2 17 10 2 17 12 1 17 10 2 17 12 1 17 10 2 17 12 1 17 10 2 17 12 1 17 10 2 17 12 1 17 10 2 17 12 1 17 10 2 17 12 1 17 10 2 15 1 0 9 1 0 9 1 0 9 3 0 11 8 5 16 12 9 20 16 13 24 17 14 25 9 6 17 9 6 17 9 6 17 9 6 17 9 6 17 9 6 17 9 6 17 8 6 17 5 10 16 3 10 16 3 10 16 3 10 16 3 10 16 3 10 16 3 10 16 3 10 16 21 28 34 24 31 37 30 37 43 38 45 51 46 53 59 54 61 67 59 66 72 63 70 76 49 57 60 50 58 60 52 60 62 56 64 66 59 67 69 62 70 72 65 73 75 66 74 76 63 71 73 63 71 73 63 71 73 63 71 73 63 71 73 63 71 73 63 71 73 63 71 73 52 57 61 50 55 59 48 53 57 45 50 54 41 46 50 38 43 47 36 41 45 34 39 43 14 19 23 12 17 21 10 15 19 7 12 16 3 8 12 0 5 9 0 3 7 0 1 5 0 3 6 0 6 6 2 7 10 5 11 11 9 14 17 12 18 18 14 19 22 16 22 22 15 20 23 17 23 23 19 24 27 22 28 28 26 31 34 29 35 35 31 36 39 33 39 39 34 40 40 34 40 38 34 40 40 34 40 38 34 40 40 34 40 38 34 40 40 34 40 38 36 42 42 36 42 40 36 42 42 36 42 40 36 42 42 36 42 40 36 42 42 37 41 40 31 30 28 33 29 28 34 28 28 33 29 28 34 28 28 33 29 28 34 28 28 33 29 28 34 28 28 33 29 28 34 28 28 33 29 28 34 28 28 33 29 28 34 28 28 34 28 28 38 29 30 38 30 28 38 29 30 38 30 28 38 29 30 38 30 28 38 29 30 38 30 28 39 30 31 39 31 29 39 30 31 39 31 29 39 30 31 39 31 29 39 30 31 39 31 29
3 0 9 3 0 9 3 0 9 3 0 9 3 0 9 3 0 9 3 0 9 3 0 9 3 0 9 3 0 9 3 0 9 3 0 9 3 0 9 3 0 9 3 0 9 3 0 9 3 0 9 3 0 9 3 0 9 3 0 9 4 1 10 4 1 10 4 1 10 4 1 10 4 1 10 4 1 10 4 1 10 4 1 10 5 2 13 4 2 13 5 2 13 4 2 13 5 2 13 4 2 13 5 2 13 4 2 13 4 1 12 3 1 12 4 1 12 3 1 12 4 1 12 3 1 12 4 1 12 3 1 12 7 7 17 5 8 15 5 8 15 5 8 15 5 8 15 5 8 15 5 8 15 5 8 15 0 2 9 0 3 10 2 5 12 6 9 16 9 12 19 12 15 22 15 18 25 16 19 26 11 16 22 10 17 23 13 20 26 16 23 29 19 26 32 23 30 36 25 32 38 26 33 39 40 47 53 41 48 54 43 50 56 47 54 60 50 57 63 53 60 66 56 63 69 57 64 70 68 76 79 68 76 79 68 76 79 68 76 79 68 76 79 68 76 79 68 76 79 68 76 79 66 74 77 66 74 77 66 74 77 66 74 77 66 74 77 66 74 77 66 74 77 66 74 77 61 69 72 59 67 70 54 62 65 47 55 58 41 49 52 34 42 45 29 37 40 27 35 38 4 12 15 4 12 15 4 12 15 4 12 15 4 12 15 4 12 15 4 12 15 4 12 15 7 15 18 7 15 17 7 15 18 7 15 17 7 15 18 7 15 17 7 15 18 7 15 17 20 28 31 20 28 30 20 28 31 20 28 30 20 28 31 20 28 30 20 28 31 20 28 30 25 30 33 25 31 31 25 30 33 25 31 31 25 30 33 25 31 31 25 30 33 25 31 31 23 28 31 23 29 29 23 28 31 23 29 29 23 28 31 23 29 29 23 28 31 26 27 29 31 27 26 32 27 24 34 26 24 32 27 24 34 26 24 32 27 24 34 26 24 32 27 24 36 28 26 34 29 26 36 28 26 34 29 26 36 28 26 34 29 26 36 28 26 36 28 26 37 29 27 37 29 26 37 29 27 37 29 26 37 29 27 37 29 26 37 29 27 37 29 26 37 29 27 37 29 26 37 29 27 37 29 26 37 29 27 37 29 26 37 29 27 37 29 27
2 1 7 2 1 7 2 1 7 2 1 7 2 1 7 2 1 7 2 1 7 2 1 7 2 1 7 2 1 7 2 1 7 2 1 7 2 1 7 2 1 7 2 1 7 2 1 7 2 1 7 2 1 7 2 1 7 2 1 7 3 2 8 3 2 8 3 2 8 3 2 8 3 2 8 3 2 8 3 2 8 3 2 8 3 3 13 3 3 13 3 3 13 3 3 13 3 3 13 3 3 13 3 3 13 3 3 13 2 2 12 2 2 12 2 2 12 2 2 12 2 2 12 2 2 12 2 2 12 0 3 12 5 8 15 4 9 15 4 9 15 4 9 15 4 9 15 4 9 15 4 9 15 4 9 15 0 4 10 0 5 11 3 8 14 6 11 17 9 14 20 13 18 24 15 20 26 16 21 27 12 19 25 13 20 26 15 22 28 19 26 32 22 29 35 25 32 38 28 35 41 29 36 42 41 48 54 42 49 55 45 52 58 48 55 61 51 58 64 55 62 68 57 64 70 58 65 71 68 76 79 68 76 79 68 76 79 68 76 79 68 76 79 68 76 79 68 76 79 68 76 79 66 74 77 66 74 77 66 74 77 66 74 77 66 74 77 66 74 77 66 74 77 66 74 77 61 69 72 59 67 70 54 62 65 47 55 58 41 49 52 34 42 45 29 37 40 27 35 38 4 12 15 4 12 15 4 12 15 4 12 15 4 12 15 4 12 15 4 12 15 4 12 15 7 15 18 7 15 18 7 15 18 7 15 18 7 15 18 7 15 18 7 15 18 7 15 18 20 28 31 20 28 31 20 28 31 20 28 31 20 28 31 20 28 31 20 28 31 20 28 31 25 30 33 25 30 33 25 30 33 25 30 33 25 30 33 25 30 33 25 30 33 25 30 33 23 28 31 23 28 31 23 28 31 23 28 31 23 28 31 23 28 31 23 28 31 26 27 29 31 27 26 34 26 24 34 26 24 34 26 24 34 26 24 34 26 24 34 26 24 34 26 24 36 28 26 36 28 26 36 28 26 36 28 26 36 28 26 36 28 26 36 28 26 36 28 26 37 29 26 37 29 26 37 29 26 37 29 26 37 29 26 37 29 26 37 29 26 37 29 26 37 29 26 37 29 26 37 29 26 37 29 26 37 29 26 37 29 26 37 29 26 37 29 26
2 1 7 2 1 7 2 1 7 2 1 7 2 1 7 2 1 7 2 1 7 2 1 7 2 1 7 2 1 7 2 1 7 2 1 7 2 1 7 2 1 7 2 1 7 2 1 7 2 1 7 2 1 7 2 1 7 2 1 7 3 2 8 3 2 8 3 2 8 3 2 8 3 2 8 3 2 8 3 2 8 3 2 8 3 3 13 3 3 13 3 3 13 3 3 13 3 3 13 3 3 13 3 3 13 3 3 13 2 2 12 2 2 12 2 2 12 2 2 12 2 2 12 2 2 12 2 2 12 0 3 12 5 8 15 4 9 15 4 9 15 4 9 15 4 9 15 4 9 15 4 9 15 4 9 15 1 6 12 3 8 14 5 10 16 8 13 19 12 17 23 15 20 26 17 22 28 19 24 30 17 24 30 18 25 31 20 27 33 23 30 36 27 34 40 30 37 43 33 40 46 34 41 47 43 50 56 45 52 58 47 54 60 50 57 63 54 61 67 57 64 70 59 66 72 61 68 74 68 76 79 68 76 79 68 76 79 68 76 79 68 76 79 68 76 79 68 76 79 68 76 79 66 74 77 66 74 77 66 74 77 66 74 77 66 74 77 66 74 77 66 74 77 66 74 77 61 69 72 59 67 70 54 62 65 47 55 58 41 49 52 34 42 45 29 37 40 27 35 38 4 12 15 4 12 15 4 12 15 4 12 15 4 12 15 4 12 15 4 12 15 4 12 15 7 15 18 7 15 18 7 15 18 7 15 18 7 15 18 7 15 18 7 15 18 7 15 18 20 28 31 20 28 31 20 28 31 20 28 31 20 28 31 20 28 31 20 28 31 20 28 31 25 30 33 25 30 33 25 30 33 25 30 33 25 30 33 25 30 33 25 30 33 25 30 33 23 28 31 23 28 31 23 28 31 23 28 31 23 28 31 23 28 31 23 28 31 26 27 29 31 27 26 34 26 24 34 26 24 34 26 24 34 26 24 34 26 24 34 26 24 34 26 24 36 28 26 36 28 26 36 28 26 36 28 26 36 28 26 36 28 26 36 28 26 36 28 26 37 29 26 37 29 26 37 29 26 37 29 26 37 29 26 37 29 26 37 29 26 37 29 26 37 29 26 37 29 26 37 29 26 37 29 26 37 29 26 37 29 26 37 29 26 37 29 26
