P3
172 37
255
42 35 51 49 42 58 55 48 64 58 51 67 84 77 93 85 78 94 89 82 98 93 86 102 97 90 106 101 94 110 104 97 113 107 99 114 128 116 130 129 115 128 129 115 128 128 114 127 127 113 126 127 113 126 126 112 125 126 112 125 131 117 130 131 117 130 131 117 130 131 117 130 131 117 130 131 117 130 131 117 130 131 117 130 130 112 126 130 112 126 130 112 126 130 112 126 130 112 126 130 112 126 130 112 126 130 112 126 128 110 124 128 110 124 128 110 124 128 110 124 128 110 124 128 110 124 128 110 124 128 110 124 124 106 118 124 106 118 124 106 118 124 106 118 124 106 118 124 106 118 124 106 118 124 106 118 123 105 117 121 103 115 119 101 113 116 98 110 112 94 106 109 91 103 107 89 101 108 86 99 110 82 96 112 81 96 113 81 96 112 81 96 113 81 96 112 81 96 113 81 96 112 81 96 105 73 88 104 73 88 105 73 88 104 73 88 105 73 88 104 73 88 105 73 88 102 74 88 99 79 90 96 80 90 96 80 90 96 80 90 96 80 90 96 80 90 96 80 90 96 80 90 96 80 90 96 80 90 96 80 90 96 80 90 96 80 90 96 80 90 96 80 90 96 80 90 78 62 72 78 62 72 78 62 72 78 62 72 78 62 72 78 62 72 78 62 72 78 62 72 74 58 68 73 57 67 71 55 65 67 51 61 64 48 58 61 45 55 58 42 52 55 42 51 43 30 39 41 30 38 38 27 35 35 24 32 32 21 29 28 17 25 26 15 23 25 14 22 22 11 19 22 11 19 22 11 19 22 11 19 22 11 19 22 11 19 22 11 19 21 11 19 25 19 23 24 19 23 24 19 23 24 19 23 24 19 23 24 19 23 24 19 23 24 19 23 35 30 34 33 28 32 32 27 31 36 31 35 47 42 46 62 57 61 77 72 76 87 82 86 98 96 99 100 98 101 101 99 102 97 95 98 86 84 87 71 69 72 56 54 57 46 44 47 41 39 42 41 39 42 41 39 42 41 39 42 41 39 42 41 39 42 41 39 42 41 39 42 40 38 39 40 38 39 40 38 39 40 38 39 40 38 39 40 38 39 40 38 39 40 38 39 40 38 39 40 38 39 40 38 39 40 38 39 40 38 39 40 38 39 40 38 39 40 38 39
54 43 59 62 51 67 67 56 72 71 60 76 102 91 107 103 92 108 103 92 108 104 93 109 105 94 110 105 94 110 106 95 111 107 94 111 128 114 129 130 114 127 129 113 126 127 111 124 126 110 123 125 109 122 124 108 121 123 107 120 133 117 130 133 117 130 133 117 130 133 117 130 133 117 130 133 117 130 133 117 130 133 117 130 130 112 126 130 112 126 132 111 126 130 112 126 132 111 126 130 112 126 132 111 126 130 112 126 130 109 124 128 110 124 130 109 124 128 110 124 130 109 124 128 110 124 130 109 124 130 109 124 126 106 118 126 106 118 126 106 118 126 106 118 126 106 118 126 106 118 126 106 118 126 106 118 125 105 117 123 103 115 121 101 113 118 98 110 114 94 106 111 91 103 109 89 101 108 86 99 109 83 96 110 82 96 112 81 96 110 82 96 112 81 96 110 82 96 112 81 96 110 82 96 104 73 88 102 74 88 104 73 88 102 74 88 104 73 88 102 74 88 104 73 88 101 75 88 99 79 90 96 80 90 96 80 90 96 80 90 96 80 90 96 80 90 96 80 90 96 80 90 96 80 90 96 80 90 96 80 90 96 80 90 96 80 90 96 80 90 96 80 90 96 80 90 74 61 70 73 62 70 74 61 70 73 62 70 74 61 70 73 62 70 74 61 70 73 62 70 71 58 67 69 58 66 67 54 63 63 52 60 61 48 57 56 45 53 55 42 51 53 42 50 38 28 36 37 27 35 35 25 33 31 21 29 28 18 26 25 15 23 22 12 20 21 11 19 19 9 17 19 9 17 19 9 17 19 9 17 19 9 17 19 9 17 19 9 17 17 10 17 24 19 25 22 20 23 22 20 23 22 20 23 22 20 23 22 20 23 22 20 23 22 20 23 33 31 34 31 29 32 30 28 31 34 32 35 45 43 46 60 58 61 75 73 76 85 83 86 98 96 99 100 98 101 101 99 102 97 95 98 86 84 87 71 69 72 56 54 57 46 44 47 41 39 42 41 39 42 41 39 42 41 39 42 41 39 42 41 39 42 41 39 42 41 39 42 40 38 39 40 38 39 40 38 39 40 38 39 40 38 39 40 38 39 40 38 39 40 38 39 40 38 39 40 38 39 40 38 39 40 38 39 40 38 39 40 38 39 40 38 39 40 38 39
91 74 90 99 82 98 105 88 104 108 91 107 129 112 128 129 112 128 129 112 128 129 112 128 129 112 128 129 112 128 129 112 128 130 112 128 136 115 130 136 115 130 136 115 130 136 115 130 136 115 130 136 115 130 136 115 130 136 115 130 135 114 129 135 114 129 135 114 129 135 114 129 135 114 129 135 114 129 135 114 129 135 114 129 126 105 120 126 105 120 127 104 120 126 105 120 127 104 120 126 105 120 127 104 120 126 105 120 127 104 120 126 105 120 127 104 120 126 105 120 127 104 120 126 105 120 127 104 120 127 104 120 132 110 123 132 110 123 132 110 123 132 110 123 132 110 123 132 110 123 132 110 123 132 110 123 117 95 108 117 95 108 117 95 108 117 95 108 117 95 108 117 95 108 117 95 108 117 95 108 104 82 95 104 82 95 105 81 95 104 82 95 105 81 95 104 82 95 105 81 95 104 82 95 99 75 89 98 76 89 99 75 89 98 76 89 99 75 89 98 76 89 99 75 89 98 76 89 98 80 92 97 81 92 97 81 92 97 81 92 97 81 92 97 81 92 97 81 92 97 81 92 99 83 94 98 82 93 95 79 90 92 76 87 89 73 84 85 69 80 83 67 78 80 67 77 68 58 67 64 59 66 62 55 63 58 53 60 56 49 57 51 46 53 50 43 51 48 43 50 32 25 33 31 26 33 32 25 33 31 26 33 32 25 33 31 26 33 32 25 33 31 26 33 9 4 11 9 4 11 9 4 11 9 4 11 9 4 11 9 4 11 9 4 11 9 4 11 8 3 10 8 3 10 8 3 10 8 3 10 8 3 10 8 3 10 8 3 10 6 4 9 10 11 15 10 14 17 12 16 19 15 19 22 19 23 26 22 26 29 24 28 31 26 30 33 22 26 29 26 30 33 33 37 40 43 47 50 53 57 60 63 67 70 70 74 77 76 77 79 84 84 86 88 86 87 91 89 90 90 88 89 83 81 82 71 69 70 58 56 57 50 48 49 41 39 40 41 39 40 41 39 40 41 39 40 41 39 40 41 39 40 41 39 40 41 39 40 39 35 36 39 35 36 39 35 36 39 35 36 39 35 36 39 35 36 39 35 36 39 35 36 38 34 35 38 34 35 38 34 35 38 34 35 38 34 35 38 34 35 38 34 35 38 34 35
102 81 96 109 88 103 114 93 108 117 96 111 132 111 126 132 111 126 132 111 126 132 111 126 132 111 126 132 111 126 132 111 126 132 111 126 137 114 130 137 114 130 137 114 130 137 114 130 137 114 130 137 114 130 137 114 130 137 114 130 136 113 129 136 113 129 136 113 129 136 113 129 136 113 129 136 113 129 136 113 129 136 113 129 127 104 120 127 104 120 127 104 120 127 104 120 127 104 120 127 104 120 127 104 120 127 104 120 127 104 120 127 104 120 127 104 120 127 104 120 127 104 120 127 104 120 127 104 120 127 104 120 131 107 121 131 107 121 131 107 121 131 107 121 131 107 121 131 107 121 131 107 121 131 107 121 118 94 108 118 94 108 118 94 108 118 94 108 118 94 108 118 94 108 118 94 108 117 95 108 104 82 95 103 83 95 103 83 95 103 83 95 103 83 95 103 83 95 103 83 95 103 83 95 97 77 89 97 77 89 97 77 89 97 77 89 97 77 89 97 77 89 97 77 89 95 77 89 96 78 90 95 79 90 95 79 90 95 79 90 95 79 90 95 79 90 95 79 90 95 79 90 96 80 91 95 79 90 93 77 88 89 73 84 86 70 81 83 67 78 80 64 75 76 64 74 63 56 64 59 56 63 57 54 61 53 50 57 50 47 54 47 44 51 44 41 48 43 40 47 27 24 31 27 24 31 27 24 31 27 24 31 27 24 31 27 24 31 27 24 31 27 24 31 7 4 11 7 4 11 7 4 11 7 4 11 7 4 11 7 4 11 7 4 11 7 4 11 6 3 10 6 3 10 6 3 10 6 3 10 6 3 10 6 3 10 6 3 10 5 4 10 8 12 15 9 14 17 11 16 19 14 19 22 18 23 26 21 26 29 23 28 31 25 30 33 21 26 29 25 30 33 32 37 40 42 47 50 52 57 60 62 67 70 69 74 77 74 78 79 84 84 86 88 86 87 91 89 90 90 88 89 83 81 82 71 69 70 58 56 57 50 48 49 41 39 40 41 39 40 41 39 40 41 39 40 41 39 40 41 39 40 41 39 40 41 39 40 39 35 36 39 35 36 39 35 36 39 35 36 39 35 36 39 35 36 39 35 36 39 35 36 38 34 35 38 34 35 38 34 35 38 34 35 38 34 35 38 34 35 38 34 35 38 34 35
114 93 108 120 99 114 124 103 118 127 106 121 132 111 126 132 111 126 132 111 126 132 111 126 132 111 126 132 111 126 132 111 126 132 111 126 137 114 130 137 114 130 137 114 130 137 114 130 137 114 130 137 114 130 137 114 130 137 114 130 136 113 129 136 113 129 136 113 129 136 113 129 136 113 129 136 113 129 136 113 129 136 113 129 127 104 120 127 104 120 127 104 120 127 104 120 127 104 120 127 104 120 127 104 120 127 104 120 127 104 120 127 104 120 127 104 120 127 104 120 127 104 120 127 104 120 127 104 120 127 104 120 129 105 119 129 105 119 129 105 119 129 105 119 129 105 119 129 105 119 129 105 119 129 105 119 118 94 108 118 94 108 118 94 108 118 94 108 118 94 108 118 94 108 118 94 108 117 95 108 104 82 95 103 83 95 103 83 95 103 83 95 103 83 95 103 83 95 103 83 95 103 83 95 97 77 89 97 77 89 97 77 89 97 77 89 97 77 89 97 77 89 97 77 89 95 77 89 94 76 88 93 77 88 93 77 88 93 77 88 93 77 88 93 77 88 93 77 88 93 77 88 91 75 86 90 74 85 88 72 83 85 69 80 81 65 76 78 62 73 75 59 70 71 59 69 58 51 59 54 51 58 52 49 56 49 46 53 45 42 49 42 39 46 39 36 43 38 35 42 25 22 29 25 22 29 25 22 29 25 22 29 25 22 29 25 22 29 25 22 29 25 22 29 7 4 11 7 4 11 7 4 11 7 4 11 7 4 11 7 4 11 7 4 11 7 4 11 6 3 10 6 3 10 6 3 10 6 3 10 6 3 10 6 3 10 6 3 10 5 4 10 8 12 15 9 14 17 11 16 19 14 19 22 18 23 26 21 26 29 23 28 31 25 30 33 21 26 29 25 30 33 32 37 40 42 47 50 52 57 60 62 67 70 69 74 77 74 78 79 84 84 86 88 86 87 91 89 90 90 88 89 83 81 82 71 69 70 58 56 57 50 48 49 41 39 40 41 39 40 41 39 40 41 39 40 41 39 40 41 39 40 41 39 40 41 39 40 39 35 36 39 35 36 39 35 36 39 35 36 39 35 36 39 35 36 39 35 36 39 35 36 38 34 35 38 34 35 38 34 35 38 34 35 38 34 35 38 34 35 38 34 35 38 34 35
125 104 119 129 108 123 133 112 127 134 113 128 132 111 126 132 111 126 132 111 126 132 111 126 132 111 126 132 111 126 132 111 126 132 111 126 137 114 130 137 114 130 137 114 130 137 114 130 137 114 130 137 114 130 137 114 130 137 114 130 136 113 129 136 113 129 136 113 129 136 113 129 136 113 129 136 113 129 136 113 129 136 113 129 127 104 120 127 104 120 127 104 120 127 104 120 127 104 120 127 104 120 127 104 120 127 104 120 127 104 120 127 104 120 127 104 120 127 104 120 127 104 120 127 104 120 127 104 120 127 104 120 126 102 116 126 102 116 126 102 116 126 102 116 126 102 116 126 102 116 126 102 116 126 102 116 118 94 108 118 94 108 118 94 108 118 94 108 118 94 108 118 94 108 118 94 108 117 95 108 104 82 95 103 83 95 103 83 95 103 83 95 103 83 95 103 83 95 103 83 95 103 83 95 97 77 89 97 77 89 97 77 89 97 77 89 97 77 89 97 77 89 97 77 89 95 77 89 91 73 85 90 74 85 90 74 85 90 74 85 90 74 85 90 74 85 90 74 85 90 74 85 85 69 80 84 68 79 81 65 76 78 62 73 75 59 70 72 56 67 69 53 64 65 53 63 52 45 53 48 45 52 45 42 49 42 39 46 39 36 43 36 33 40 33 30 37 32 29 36 22 19 26 22 19 26 22 19 26 22 19 26 22 19 26 22 19 26 22 19 26 22 19 26 7 4 11 7 4 11 7 4 11 7 4 11 7 4 11 7 4 11 7 4 11 7 4 11 6 3 10 6 3 10 6 3 10 6 3 10 6 3 10 6 3 10 6 3 10 5 4 10 8 12 15 9 14 17 11 16 19 14 19 22 18 23 26 21 26 29 23 28 31 25 30 33 21 26 29 25 30 33 32 37 40 42 47 50 52 57 60 62 67 70 69 74 77 74 78 79 84 84 86 88 86 87 91 89 90 90 88 89 83 81 82 71 69 70 58 56 57 50 48 49 41 39 40 41 39 40 41 39 40 41 39 40 41 39 40 41 39 40 41 39 40 41 39 40 39 35 36 39 35 36 39 35 36 39 35 36 39 35 36 39 35 36 39 35 36 39 35 36 38 34 35 38 34 35 38 34 35 38 34 35 38 34 35 38 34 35 38 34 35 38 34 35
131 110 125 134 113 128 135 114 129 136 115 130 132 111 126 132 111 126 132 111 126 132 111 126 132 111 126 132 111 126 132 111 126 132 111 126 137 114 130 137 114 130 137 114 130 137 114 130 137 114 130 137 114 130 137 114 130 137 114 130 136 113 129 136 113 129 136 113 129 136 113 129 136 113 129 136 113 129 136 113 129 136 113 129 127 104 120 127 104 120 127 104 120 127 104 120 127 104 120 127 104 120 127 104 120 127 104 120 127 104 120 127 104 120 127 104 120 127 104 120 127 104 120 127 104 120 127 104 120 127 104 120 122 98 112 122 98 112 122 98 112 122 98 112 122 98 112 122 98 112 122 98 112 122 98 112 118 94 108 118 94 108 118 94 108 118 94 108 118 94 108 118 94 108 118 94 108 117 95 108 104 82 95 103 83 95 103 83 95 103 83 95 103 83 95 103 83 95 103 83 95 103 83 95 97 77 89 97 77 89 97 77 89 97 77 89 97 77 89 97 77 89 97 77 89 95 77 89 87 69 81 86 70 81 86 70 81 86 70 81 86 70 81 86 70 81 86 70 81 86 70 81 78 62 73 77 61 72 74 58 69 71 55 66 68 52 63 65 49 60 62 46 57 58 46 56 45 38 46 41 38 45 38 35 42 35 32 39 32 29 36 29 26 33 26 23 30 25 22 29 18 15 22 18 15 22 18 15 22 18 15 22 18 15 22 18 15 22 18 15 22 18 15 22 7 4 11 7 4 11 7 4 11 7 4 11 7 4 11 7 4 11 7 4 11 7 4 11 6 3 10 6 3 10 6 3 10 6 3 10 6 3 10 6 3 10 6 3 10 5 4 10 8 12 15 9 14 17 11 16 19 14 19 22 18 23 26 21 26 29 23 28 31 25 30 33 21 26 29 25 30 33 32 37 40 42 47 50 52 57 60 62 67 70 69 74 77 74 78 79 84 84 86 88 86 87 91 89 90 90 88 89 83 81 82 71 69 70 58 56 57 50 48 49 41 39 40 41 39 40 41 39 40 41 39 40 41 39 40 41 39 40 41 39 40 41 39 40 39 35 36 39 35 36 39 35 36 39 35 36 39 35 36 39 35 36 39 35 36 39 35 36 38 34 35 38 34 35 38 34 35 38 34 35 38 34 35 38 34 35 38 34 35 38 34 35
131 110 125 132 111 126 132 111 126 133 112 127 132 111 126 132 111 126 132 111 126 132 111 126 132 111 126 132 111 126 132 111 126 132 111 126 137 114 130 137 114 130 137 114 130 137 114 130 137 114 130 137 114 130 137 114 130 137 114 130 136 113 129 136 113 129 136 113 129 136 113 129 136 113 129 136 113 129 136 113 129 136 113 129 127 104 120 127 104 120 127 104 120 127 104 120 127 104 120 127 104 120 127 104 120 127 104 120 127 104 120 127 104 120 127 104 120 127 104 120 127 104 120 127 104 120 127 104 120 127 104 120 119 95 109 119 95 109 119 95 109 119 95 109 119 95 109 119 95 109 119 95 109 119 95 109 118 94 108 118 94 108 118 94 108 118 94 108 118 94 108 118 94 108 118 94 108 117 95 108 104 82 95 103 83 95 103 83 95 103 83 95 103 83 95 103 83 95 103 83 95 103 83 95 97 77 89 97 77 89 97 77 89 97 77 89 97 77 89 97 77 89 97 77 89 95 77 89 84 66 78 83 67 78 83 67 78 83 67 78 83 67 78 83 67 78 83 67 78 83 67 78 72 56 67 71 55 66 68 52 63 65 49 60 61 45 56 58 42 53 56 40 51 52 40 50 39 32 40 35 32 39 32 29 36 29 26 33 25 22 29 22 19 26 20 17 24 19 16 23 15 12 19 15 12 19 15 12 19 15 12 19 15 12 19 15 12 19 15 12 19 15 12 19 7 4 11 7 4 11 7 4 11 7 4 11 7 4 11 7 4 11 7 4 11 7 4 11 6 3 10 6 3 10 6 3 10 6 3 10 6 3 10 6 3 10 6 3 10 5 4 10 8 12 15 9 14 17 11 16 19 14 19 22 18 23 26 21 26 29 23 28 31 25 30 33 21 26 29 25 30 33 32 37 40 42 47 50 52 57 60 62 67 70 69 74 77 74 78 79 84 84 86 88 86 87 91 89 90 90 88 89 83 81 82 71 69 70 58 56 57 50 48 49 41 39 40 41 39 40 41 39 40 41 39 40 41 39 40 41 39 40 41 39 40 41 39 40 39 35 36 39 35 36 39 35 36 39 35 36 39 35 36 39 35 36 39 35 36 39 35 36 38 34 35 38 34 35 38 34 35 38 34 35 38 34 35 38 34 35 38 34 35 38 34 35
127 106 121 127 106 121 126 105 120 126 105 120 132 111 126 132 111 126 132 111 126 132 111 126 132 111 126 132 111 126 132 111 126 132 111 126 137 114 130 137 114 130 137 114 130 137 114 130 137 114 130 137 114 130 137 114 130 137 114 130 136 113 129 136 113 129 136 113 129 136 113 129 136 113 129 136 113 129 136 113 129 136 113 129 127 104 120 127 104 120 127 104 120 127 104 120 127 104 120 127 104 120 127 104 120 127 104 120 127 104 120 127 104 120 127 104 120 127 104 120 127 104 120 127 104 120 127 104 120 127 104 120 117 93 107 117 93 107 117 93 107 117 93 107 117 93 107 117 93 107 117 93 107 117 93 107 118 94 108 118 94 108 118 94 108 118 94 108 118 94 108 118 94 108 118 94 108 117 95 108 104 82 95 103 83 95 103 83 95 103 83 95 103 83 95 103 83 95 103 83 95 103 83 95 97 77 89 97 77 89 97 77 89 97 77 89 97 77 89 97 77 89 97 77 89 95 77 89 82 64 76 81 65 76 81 65 76 81 65 76 81 65 76 81 65 76 81 65 76 81 65 76 67 51 62 66 50 61 63 47 58 60 44 55 57 41 52 53 37 48 51 35 46 47 35 45 34 27 35 30 27 34 27 24 31 24 21 28 21 18 25 17 14 21 15 12 19 14 11 18 13 10 17 13 10 17 13 10 17 13 10 17 13 10 17 13 10 17 13 10 17 13 10 17 7 4 11 7 4 11 7 4 11 7 4 11 7 4 11 7 4 11 7 4 11 7 4 11 6 3 10 6 3 10 6 3 10 6 3 10 6 3 10 6 3 10 6 3 10 5 4 10 8 12 15 9 14 17 11 16 19 14 19 22 18 23 26 21 26 29 23 28 31 25 30 33 21 26 29 25 30 33 32 37 40 42 47 50 52 57 60 62 67 70 69 74 77 74 78 79 84 84 86 88 86 87 91 89 90 90 88 89 83 81 82 71 69 70 58 56 57 50 48 49 41 39 40 41 39 40 41 39 40 41 39 40 41 39 40 41 39 40 41 39 40 41 39 40 39 35 36 39 35 36 39 35 36 39 35 36 39 35 36 39 35 36 39 35 36 39 35 36 38 34 35 38 34 35 38 34 35 38 34 35 38 34 35 38 34 35 38 34 35 38 34 35
124 103 118 123 102 117 122 101 116 121 100 115 132 111 126 132 111 126 132 111 126 132 111 126 132 111 126 132 111 126 132 111 126 132 111 126 137 114 130 137 114 130 137 114 130 137 114 130 137 114 130 137 114 130 137 114 130 137 114 130 136 113 129 136 113 129 136 113 129 136 113 129 136 113 129 136 113 129 136 113 129 136 113 129 127 104 120 127 104 120 127 104 120 127 104 120 127 104 120 127 104 120 127 104 120 127 104 120 127 104 120 127 104 120 127 104 120 127 104 120 127 104 120 127 104 120 127 104 120 127 104 120 115 91 105 115 91 105 115 91 105 115 91 105 115 91 105 115 91 105 115 91 105 115 91 105 118 94 108 118 94 108 118 94 108 118 94 108 118 94 108 118 94 108 118 94 108 117 95 108 104 82 95 103 83 95 103 83 95 103 83 95 103 83 95 103 83 95 103 83 95 103 83 95 97 77 89 97 77 89 97 77 89 97 77 89 97 77 89 97 77 89 97 77 89 95 77 89 80 62 74 79 63 74 79 63 74 79 63 74 79 63 74 79 63 74 79 63 74 79 63 74 64 48 59 63 47 58 61 45 56 57 41 52 54 38 49 51 35 46 48 32 43 44 32 42 31 24 32 27 24 31 25 22 29 21 18 25 18 15 22 15 12 19 12 9 16 11 8 15 11 8 15 11 8 15 11 8 15 11 8 15 11 8 15 11 8 15 11 8 15 11 8 15 7 4 11 7 4 11 7 4 11 7 4 11 7 4 11 7 4 11 7 4 11 7 4 11 6 3 10 6 3 10 6 3 10 6 3 10 6 3 10 6 3 10 6 3 10 5 4 10 8 12 15 9 14 17 11 16 19 14 19 22 18 23 26 21 26 29 23 28 31 25 30 33 21 26 29 25 30 33 32 37 40 42 47 50 52 57 60 62 67 70 69 74 77 74 78 79 84 84 86 88 86 87 91 89 90 90 88 89 83 81 82 71 69 70 58 56 57 50 48 49 41 39 40 41 39 40 41 39 40 41 39 40 41 39 40 41 39 40 41 39 40 41 39 40 39 35 36 39 35 36 39 35 36 39 35 36 39 35 36 39 35 36 39 35 36 39 35 36 38 34 35 38 34 35 38 34 35 38 34 35 38 34 35 38 34 35 38 34 35 38 34 35
129 108 123 129 108 123 129 108 123 129 108 123 128 107 122 128 107 122 128 107 122 128 107 122 128 107 122 128 107 122 128 107 122 128 107 122 130 107 123 130 107 123 130 107 123 130 107 123 130 107 123 130 107 123 130 107 123 130 107 123 132 109 125 132 109 125 132 109 125 132 109 125 132 109 125 132 109 125 132 109 125 132 109 125 126 103 119 126 103 119 126 103 119 126 103 119 126 103 119 126 103 119 126 103 119 126 103 119 121 98 114 121 98 114 121 98 114 121 98 114 121 98 114 121 98 114 121 98 114 121 98 114 114 90 104 114 90 104 114 90 104 114 90 104 114 90 104 114 90 104 114 90 104 114 90 104 110 86 100 110 86 100 110 86 100 110 86 100 110 86 100 110 86 100 110 86 100 109 87 100 113 91 104 111 91 103 109 89 101 105 85 97 102 82 94 99 79 91 96 76 88 95 75 87 105 85 97 103 83 95 98 78 90 91 71 83 85 65 77 78 58 70 73 53 65 69 51 63 60 42 54 59 43 54 59 43 54 59 43 54 59 43 54 59 43 54 59 43 54 59 43 54 31 15 26 31 15 26 31 15 26 31 15 26 31 15 26 31 15 26 31 15 26 28 16 26 15 8 16 12 9 16 12 9 16 12 9 16 12 9 16 12 9 16 12 9 16 12 9 16 16 13 20 16 13 20 16 13 20 16 13 20 16 13 20 16 13 20 16 13 20 16 13 20 2 0 6 2 0 6 2 0 6 2 0 6 2 0 6 2 0 6 2 0 6 2 0 6 3 0 7 3 0 7 3 0 7 3 0 7 3 0 7 3 0 7 3 0 7 2 1 7 11 15 18 12 17 20 14 19 22 17 22 25 21 26 29 24 29 32 26 31 34 28 33 36 29 34 37 31 36 39 36 41 44 43 48 51 49 54 57 56 61 64 61 66 69 64 68 69 72 72 74 77 75 76 83 81 82 85 83 84 82 80 81 73 71 72 62 60 61 55 53 54 37 35 36 37 35 36 37 35 36 37 35 36 37 35 36 37 35 36 37 35 36 37 35 36 37 33 34 37 33 34 37 33 34 37 33 34 37 33 34 37 33 34 37 33 34 37 33 34 39 35 36 39 35 36 39 35 36 39 35 36 39 35 36 39 35 36 39 35 36 39 35 36
129 108 123 129 108 123 129 108 123 129 108 123 128 107 122 128 107 122 128 107 122 128 107 122 128 107 122 128 107 122 128 107 122 128 107 122 130 107 123 130 107 123 130 107 123 130 107 123 130 107 123 130 107 123 130 107 123 130 107 123 132 109 125 132 109 125 132 109 125 132 109 125 132 109 125 132 109 125 132 109 125 132 109 125 126 103 119 126 103 119 126 103 119 126 103 119 126 103 119 126 103 119 126 103 119 126 103 119 121 98 114 121 98 114 121 98 114 121 98 114 121 98 114 121 98 114 121 98 114 121 98 114 114 90 104 114 90 104 114 90 104 114 90 104 114 90 104 114 90 104 114 90 104 114 90 104 110 86 100 110 86 100 110 86 100 110 86 100 110 86 100 110 86 100 110 86 100 109 87 100 112 90 103 110 90 102 107 87 99 104 84 96 101 81 93 97 77 89 95 75 87 94 74 86 101 81 93 99 79 91 94 74 86 88 68 80 81 61 73 74 54 66 69 49 61 65 47 59 52 34 46 51 35 46 51 35 46 51 35 46 51 35 46 51 35 46 51 35 46 51 35 46 29 13 24 29 13 24 29 13 24 29 13 24 29 13 24 29 13 24 29 13 24 26 14 24 15 8 16 12 9 16 12 9 16 12 9 16 12 9 16 12 9 16 12 9 16 12 9 16 16 13 20 16 13 20 16 13 20 16 13 20 16 13 20 16 13 20 16 13 20 16 13 20 2 0 6 2 0 6 2 0 6 2 0 6 2 0 6 2 0 6 2 0 6 2 0 6 3 0 7 3 0 7 3 0 7 3 0 7 3 0 7 3 0 7 3 0 7 2 1 7 11 15 18 12 17 20 14 19 22 17 22 25 21 26 29 24 29 32 26 31 34 28 33 36 29 34 37 31 36 39 36 41 44 43 48 51 49 54 57 56 61 64 61 66 69 64 68 69 70 70 72 76 74 75 81 79 80 84 82 83 80 78 79 71 69 70 61 59 60 54 52 53 37 35 36 37 35 36 37 35 36 37 35 36 37 35 36 37 35 36 37 35 36 37 35 36 37 33 34 37 33 34 37 33 34 37 33 34 37 33 34 37 33 34 37 33 34 37 33 34 39 35 36 39 35 36 39 35 36 39 35 36 39 35 36 39 35 36 39 35 36 39 35 36
129 108 123 129 108 123 129 108 123 129 108 123 128 107 122 128 107 122 128 107 122 128 107 122 128 107 122 128 107 122 128 107 122 128 107 122 130 107 123 130 107 123 130 107 123 130 107 123 130 107 123 130 107 123 130 107 123 130 107 123 132 109 125 132 109 125 132 109 125 132 109 125 132 109 125 132 109 125 132 109 125 132 109 125 126 103 119 126 103 119 126 103 119 126 103 119 126 103 119 126 103 119 126 103 119 126 103 119 121 98 114 121 98 114 121 98 114 121 98 114 121 98 114 121 98 114 121 98 114 121 98 114 114 90 104 114 90 104 114 90 104 114 90 104 114 90 104 114 90 104 114 90 104 114 90 104 110 86 100 110 86 100 110 86 100 110 86 100 110 86 100 110 86 100 110 86 100 109 87 100 110 88 101 107 87 99 105 85 97 102 82 94 98 78 90 95 75 87 93 73 85 91 71 83 94 74 86 91 71 83 87 67 79 80 60 72 73 53 65 67 47 59 62 42 54 57 39 51 39 21 33 38 22 33 38 22 33 38 22 33 38 22 33 38 22 33 38 22 33 38 22 33 27 11 22 27 11 22 27 11 22 27 11 22 27 11 22 27 11 22 27 11 22 24 12 22 15 8 16 12 9 16 12 9 16 12 9 16 12 9 16 12 9 16 12 9 16 12 9 16 16 13 20 16 13 20 16 13 20 16 13 20 16 13 20 16 13 20 16 13 20 16 13 20 2 0 6 2 0 6 2 0 6 2 0 6 2 0 6 2 0 6 2 0 6 2 0 6 3 0 7 3 0 7 3 0 7 3 0 7 3 0 7 3 0 7 3 0 7 2 1 7 11 15 18 12 17 20 14 19 22 17 22 25 21 26 29 24 29 32 26 31 34 28 33 36 29 34 37 31 36 39 36 41 44 43 48 51 49 54 57 56 61 64 61 66 69 64 68 69 68 68 70 73 71 72 79 77 78 81 79 80 78 76 77 69 67 68 59 57 58 52 50 51 37 35 36 37 35 36 37 35 36 37 35 36 37 35 36 37 35 36 37 35 36 37 35 36 37 33 34 37 33 34 37 33 34 37 33 34 37 33 34 37 33 34 37 33 34 37 33 34 39 35 36 39 35 36 39 35 36 39 35 36 39 35 36 39 35 36 39 35 36 39 35 36
129 108 123 129 108 123 129 108 123 129 108 123 128 107 122 128 107 122 128 107 122 128 107 122 128 107 122 128 107 122 128 107 122 128 107 122 130 107 123 130 107 123 130 107 123 130 107 123 130 107 123 130 107 123 130 107 123 130 107 123 132 109 125 132 109 125 132 109 125 132 109 125 132 109 125 132 109 125 132 109 125 132 109 125 126 103 119 126 103 119 126 103 119 126 103 119 126 103 119 126 103 119 126 103 119 126 103 119 121 98 114 121 98 114 121 98 114 121 98 114 121 98 114 121 98 114 121 98 114 121 98 114 114 90 104 114 90 104 114 90 104 114 90 104 114 90 104 114 90 104 114 90 104 114 90 104 110 86 100 110 86 100 110 86 100 110 86 100 110 86 100 110 86 100 110 86 100 109 87 100 106 84 97 104 84 96 102 82 94 98 78 90 95 75 87 92 72 84 89 69 81 88 68 80 85 65 77 82 62 74 77 57 69 71 51 63 64 44 56 57 37 49 52 32 44 48 30 42 27 9 21 26 10 21 26 10 21 26 10 21 26 10 21 26 10 21 26 10 21 26 10 21 24 8 19 24 8 19 24 8 19 24 8 19 24 8 19 24 8 19 24 8 19 21 9 19 15 8 16 12 9 16 12 9 16 12 9 16 12 9 16 12 9 16 12 9 16 12 9 16 16 13 20 16 13 20 16 13 20 16 13 20 16 13 20 16 13 20 16 13 20 16 13 20 2 0 6 2 0 6 2 0 6 2 0 6 2 0 6 2 0 6 2 0 6 2 0 6 3 0 7 3 0 7 3 0 7 3 0 7 3 0 7 3 0 7 3 0 7 2 1 7 11 15 18 12 17 20 14 19 22 17 22 25 21 26 29 24 29 32 26 31 34 28 33 36 29 34 37 31 36 39 36 41 44 43 48 51 49 54 57 56 61 64 61 66 69 64 68 69 65 65 67 70 68 69 76 74 75 78 76 77 75 73 74 66 64 65 55 53 54 48 46 47 37 35 36 37 35 36 37 35 36 37 35 36 37 35 36 37 35 36 37 35 36 37 35 36 37 33 34 37 33 34 37 33 34 37 33 34 37 33 34 37 33 34 37 33 34 37 33 34 39 35 36 39 35 36 39 35 36 39 35 36 39 35 36 39 35 36 39 35 36 39 35 36
129 108 123 129 108 123 129 108 123 129 108 123 128 107 122 128 107 122 128 107 122 128 107 122 128 107 122 128 107 122 128 107 122 128 107 122 130 107 123 130 107 123 130 107 123 130 107 123 130 107 123 130 107 123 130 107 123 130 107 123 132 109 125 132 109 125 132 109 125 132 109 125 132 109 125 132 109 125 132 109 125 132 109 125 126 103 119 126 103 119 126 103 119 126 103 119 126 103 119 126 103 119 126 103 119 126 103 119 121 98 114 121 98 114 121 98 114 121 98 114 121 98 114 121 98 114 121 98 114 121 98 114 114 90 104 114 90 104 114 90 104 114 90 104 114 90 104 114 90 104 114 90 104 114 90 104 110 86 100 110 86 100 110 86 100 110 86 100 110 86 100 110 86 100 110 86 100 109 87 100 103 81 94 101 81 93 98 78 90 95 75 87 92 72 84 88 68 80 86 66 78 85 65 77 74 54 66 72 52 64 67 47 59 60 40 52 53 33 45 47 27 39 42 22 34 37 19 31 20 2 14 19 3 14 19 3 14 19 3 14 19 3 14 19 3 14 19 3 14 19 3 14 20 4 15 20 4 15 20 4 15 20 4 15 20 4 15 20 4 15 20 4 15 17 5 15 15 8 16 12 9 16 12 9 16 12 9 16 12 9 16 12 9 16 12 9 16 12 9 16 16 13 20 16 13 20 16 13 20 16 13 20 16 13 20 16 13 20 16 13 20 16 13 20 2 0 6 2 0 6 2 0 6 2 0 6 2 0 6 2 0 6 2 0 6 2 0 6 3 0 7 3 0 7 3 0 7 3 0 7 3 0 7 3 0 7 3 0 7 2 1 7 11 15 18 12 17 20 14 19 22 17 22 25 21 26 29 24 29 32 26 31 34 28 33 36 29 34 37 31 36 39 36 41 44 43 48 51 49 54 57 56 61 64 61 66 69 64 68 69 61 61 63 67 65 66 72 70 71 75 73 74 71 69 70 62 60 61 52 50 51 45 43 44 37 35 36 37 35 36 37 35 36 37 35 36 37 35 36 37 35 36 37 35 36 37 35 36 37 33 34 37 33 34 37 33 34 37 33 34 37 33 34 37 33 34 37 33 34 37 33 34 39 35 36 39 35 36 39 35 36 39 35 36 39 35 36 39 35 36 39 35 36 39 35 36
129 108 123 129 108 123 129 108 123 129 108 123 128 107 122 128 107 122 128 107 122 128 107 122 128 107 122 128 107 122 128 107 122 128 107 122 130 107 123 130 107 123 130 107 123 130 107 123 130 107 123 130 107 123 130 107 123 130 107 123 132 109 125 132 109 125 132 109 125 132 109 125 132 109 125 132 109 125 132 109 125 132 109 125 126 103 119 126 103 119 126 103 119 126 103 119 126 103 119 126 103 119 126 103 119 126 103 119 121 98 114 121 98 114 121 98 114 121 98 114 121 98 114 121 98 114 121 98 114 121 98 114 114 90 104 114 90 104 114 90 104 114 90 104 114 90 104 114 90 104 114 90 104 114 90 104 110 86 100 110 86 100 110 86 100 110 86 100 110 86 100 110 86 100 110 86 100 109 87 100 100 78 91 97 77 89 95 75 87 92 72 84 88 68 80 85 65 77 83 63 75 81 61 73 65 45 57 62 42 54 57 37 49 51 31 43 44 24 36 37 17 29 33 13 25 28 10 22 19 1 13 18 2 13 18 2 13 18 2 13 18 2 13 18 2 13 18 2 13 18 2 13 17 1 12 17 1 12 17 1 12 17 1 12 17 1 12 17 1 12 17 1 12 14 2 12 15 8 16 12 9 16 12 9 16 12 9 16 12 9 16 12 9 16 12 9 16 12 9 16 16 13 20 16 13 20 16 13 20 16 13 20 16 13 20 16 13 20 16 13 20 16 13 20 2 0 6 2 0 6 2 0 6 2 0 6 2 0 6 2 0 6 2 0 6 2 0 6 3 0 7 3 0 7 3 0 7 3 0 7 3 0 7 3 0 7 3 0 7 2 1 7 11 15 18 12 17 20 14 19 22 17 22 25 21 26 29 24 29 32 26 31 34 28 33 36 29 34 37 31 36 39 36 41 44 43 48 51 49 54 57 56 61 64 61 66 69 64 68 69 58 58 60 63 61 62 69 67 68 71 69 70 68 66 67 59 57 58 49 47 48 42 40 41 37 35 36 37 35 36 37 35 36 37 35 36 37 35 36 37 35 36 37 35 36 37 35 36 37 33 34 37 33 34 37 33 34 37 33 34 37 33 34 37 33 34 37 33 34 37 33 34 39 35 36 39 35 36 39 35 36 39 35 36 39 35 36 39 35 36 39 35 36 39 35 36
129 108 123 129 108 123 129 108 123 129 108 123 128 107 122 128 107 122 128 107 122 128 107 122 128 107 122 128 107 122 128 107 122 128 107 122 130 107 123 130 107 123 130 107 123 130 107 123 130 107 123 130 107 123 130 107 123 130 107 123 132 109 125 132 109 125 132 109 125 132 109 125 132 109 125 132 109 125 132 109 125 132 109 125 126 103 119 126 103 119 126 103 119 126 103 119 126 103 119 126 103 119 126 103 119 126 103 119 121 98 114 121 98 114 121 98 114 121 98 114 121 98 114 121 98 114 121 98 114 121 98 114 114 90 104 114 90 104 114 90 104 114 90 104 114 90 104 114 90 104 114 90 104 114 90 104 110 86 100 110 86 100 110 86 100 110 86 100 110 86 100 110 86 100 110 86 100 109 87 100 97 75 88 95 75 87 93 73 85 89 69 81 86 66 78 83 63 75 80 60 72 79 59 71 57 37 49 55 35 47 50 30 42 43 23 35 36 16 28 30 10 22 25 5 17 21 3 15 22 4 16 21 5 16 21 5 16 21 5 16 21 5 16 21 5 16 21 5 16 21 5 16 15 0 10 15 0 10 15 0 10 15 0 10 15 0 10 15 0 10 15 0 10 12 0 10 15 8 16 12 9 16 12 9 16 12 9 16 12 9 16 12 9 16 12 9 16 12 9 16 16 13 20 16 13 20 16 13 20 16 13 20 16 13 20 16 13 20 16 13 20 16 13 20 2 0 6 2 0 6 2 0 6 2 0 6 2 0 6 2 0 6 2 0 6 2 0 6 3 0 7 3 0 7 3 0 7 3 0 7 3 0 7 3 0 7 3 0 7 2 1 7 11 15 18 12 17 20 14 19 22 17 22 25 21 26 29 24 29 32 26 31 34 28 33 36 29 34 37 31 36 39 36 41 44 43 48 51 49 54 57 56 61 64 61 66 69 64 68 69 56 56 58 61 59 60 67 65 66 69 67 68 66 64 65 57 55 56 46 44 45 39 37 38 37 35 36 37 35 36 37 35 36 37 35 36 37 35 36 37 35 36 37 35 36 37 35 36 37 33 34 37 33 34 37 33 34 37 33 34 37 33 34 37 33 34 37 33 34 37 33 34 39 35 36 39 35 36 39 35 36 39 35 36 39 35 36 39 35 36 39 35 36 39 35 36
130 107 123 129 108 123 130 107 123 129 108 123 129 106 122 128 107 122 129 106 122 128 107 122 129 106 122 128 107 122 129 106 122 129 106 122 130 107 123 130 107 123 130 107 123 130 107 123 130 107 123 130 107 123 130 107 123 130 107 123 132 109 125 132 109 125 132 109 125 132 109 125 132 109 125 132 109 125 132 109 125 132 109 125 126 103 119 126 103 119 126 103 119 126 103 119 126 103 119 126 103 119 126 103 119 126 103 119 121 98 114 121 98 114 121 98 114 121 98 114 121 98 114 121 98 114 121 98 114 121 98 114 113 91 104 113 91 104 113 91 104 113 91 104 113 91 104 113 91 104 113 91 104 113 91 104 109 87 100 109 87 100 109 87 100 109 87 100 109 87 100 109 87 100 109 87 100 108 88 100 93 75 87 91 75 86 88 72 83 85 69 80 82 66 77 78 62 73 76 60 71 75 59 70 50 34 45 48 32 43 43 27 38 36 20 31 30 14 25 23 7 18 18 2 13 14 1 11 21 9 19 20 10 19 21 9 19 20 10 19 21 9 19 20 10 19 21 9 19 20 10 19 10 0 8 9 0 8 10 0 8 9 0 8 10 0 8 9 0 8 10 0 8 7 0 8 12 9 16 11 10 16 11 10 16 11 10 16 11 10 16 11 10 16 11 10 16 11 10 16 15 14 20 15 14 20 15 14 20 15 14 20 15 14 20 15 14 20 15 14 20 15 14 20 1 0 6 1 0 6 1 0 6 1 0 6 1 0 6 1 0 6 1 0 6 1 0 6 2 1 7 2 1 7 2 1 7 2 1 7 2 1 7 2 1 7 2 1 7 1 2 6 11 15 18 12 17 20 14 19 22 17 22 25 21 26 29 24 29 32 26 31 34 28 33 36 29 34 37 31 36 39 36 41 44 43 48 51 49 54 57 56 61 64 61 66 69 64 68 69 54 54 54 60 58 59 65 63 64 68 66 67 64 62 63 55 53 54 45 43 44 38 36 37 37 35 36 37 35 36 37 35 36 37 35 36 37 35 36 37 35 36 37 35 36 37 35 36 37 33 34 37 33 32 37 33 34 37 33 32 37 33 34 37 33 32 37 33 34 37 33 32 39 35 36 39 35 34 39 35 36 39 35 34 39 35 36 39 35 34 39 35 36 39 35 34
121 97 113 120 97 113 121 97 113 120 97 113 125 101 117 124 101 117 125 101 117 124 101 117 125 101 117 124 101 117 125 101 117 124 101 117 136 113 129 136 113 129 136 113 129 136 113 129 136 113 129 136 113 129 136 113 129 136 113 129 142 119 135 142 119 135 142 119 135 142 119 135 142 119 135 142 119 135 142 119 135 142 119 135 131 107 123 131 107 123 131 107 123 131 107 123 131 107 123 131 107 123 131 107 123 131 107 123 115 91 107 115 91 107 115 91 107 115 91 107 115 91 107 115 91 107 115 91 107 114 91 107 105 87 101 104 88 101 104 88 101 104 88 101 104 88 101 104 88 101 104 88 101 104 88 101 108 92 105 107 91 104 105 89 102 103 87 100 101 85 98 99 83 96 98 82 95 95 81 94 95 85 96 88 82 92 79 73 83 68 62 72 57 51 61 46 40 50 38 32 42 33 27 37 10 4 14 10 4 14 10 4 14 10 4 14 10 4 14 10 4 14 10 4 14 10 4 14 10 9 17 9 9 17 10 9 17 9 9 17 10 9 17 9 9 17 10 9 17 9 9 17 12 11 19 11 11 19 12 11 19 11 11 19 12 11 19 11 11 19 12 11 19 11 11 19 2 5 10 3 6 11 5 8 13 9 12 17 12 15 20 15 18 23 18 21 26 19 22 27 32 35 40 30 33 38 28 31 36 25 28 33 21 24 29 18 21 26 16 19 24 14 17 22 2 3 7 2 3 7 2 3 7 2 3 7 2 3 7 2 3 7 2 3 7 2 3 7 0 0 4 0 1 5 2 3 7 5 6 10 9 10 14 12 13 17 14 15 19 14 18 21 12 17 20 14 20 20 16 22 22 19 25 25 23 29 29 26 32 32 28 34 34 30 36 36 33 39 39 35 41 41 37 43 43 40 46 46 44 50 50 47 53 53 49 55 55 52 56 57 50 52 51 51 51 51 51 51 51 51 51 51 51 51 51 51 51 51 51 51 51 51 51 51 33 33 33 33 33 33 33 33 33 33 33 33 33 33 33 33 33 33 33 33 33 34 32 33 36 32 31 37 32 29 37 31 31 37 32 29 37 31 31 37 32 29 37 31 31 37 32 29 38 32 32 38 33 30 38 32 32 38 33 30 38 32 32 38 33 30 38 32 32 38 33 30
123 99 115 123 99 115 123 99 115 123 99 115 127 103 119 127 103 119 127 103 119 127 103 119 127 103 119 127 103 119 127 103 119 127 103 119 136 113 129 136 113 129 136 113 129 136 113 129 136 113 129 136 113 129 136 113 129 136 113 129 140 117 133 140 117 133 140 117 133 140 117 133 140 117 133 140 117 133 140 117 133 140 117 133 129 105 121 129 105 121 129 105 121 129 105 121 129 105 121 129 105 121 129 105 121 129 105 121 115 91 107 115 91 107 115 91 107 115 91 107 115 91 107 115 91 107 115 91 107 114 91 107 104 88 101 102 88 101 102 88 101 102 88 101 102 88 101 102 88 101 102 88 101 102 88 101 105 91 104 104 90 103 102 88 101 99 85 98 96 82 95 94 80 93 92 78 91 89 79 90 81 75 85 73 72 80 66 65 73 56 55 63 45 44 52 34 33 41 27 26 34 23 22 30 7 6 14 7 6 14 7 6 14 7 6 14 7 6 14 7 6 14 7 6 14 6 6 14 7 10 17 6 11 17 6 11 17 6 11 17 6 11 17 6 11 17 6 11 17 6 11 17 8 13 19 8 13 19 8 13 19 8 13 19 8 13 19 8 13 19 8 13 19 8 13 19 2 7 11 3 8 12 6 11 15 9 14 18 12 17 21 16 21 25 18 23 27 19 24 28 31 36 40 29 34 38 27 32 36 24 29 33 20 25 29 17 22 26 15 20 24 13 18 22 0 4 7 0 4 7 0 4 7 0 4 7 0 4 7 0 4 7 0 4 7 0 4 7 0 1 4 0 2 5 0 4 7 3 7 10 7 11 14 10 14 17 12 16 19 14 18 21 12 18 18 14 20 20 16 22 22 19 25 25 23 29 29 26 32 32 28 34 34 30 36 36 33 39 39 35 41 41 37 43 43 40 46 46 44 50 50 47 53 53 49 55 55 52 56 57 50 52 51 51 51 51 51 51 51 51 51 51 51 51 51 51 51 51 51 51 51 51 51 51 33 33 33 33 33 33 33 33 33 33 33 33 33 33 33 33 33 33 33 33 33 34 33 31 36 32 31 37 32 29 37 32 29 37 32 29 37 32 29 37 32 29 37 32 29 37 32 29 38 33 30 38 33 30 38 33 30 38 33 30 38 33 30 38 33 30 38 33 30 38 33 30
125 101 117 125 101 117 125 101 117 125 101 117 129 105 121 129 105 121 129 105 121 129 105 121 129 105 121 129 105 121 129 105 121 129 105 121 136 113 129 136 113 129 136 113 129 136 113 129 136 113 129 136 113 129 136 113 129 136 113 129 138 115 131 138 115 131 138 115 131 138 115 131 138 115 131 138 115 131 138 115 131 138 115 131 127 103 119 127 103 119 127 103 119 127 103 119 127 103 119 127 103 119 127 103 119 127 103 119 115 91 107 115 91 107 115 91 107 115 91 107 115 91 107 115 91 107 115 91 107 114 91 107 104 88 101 102 88 101 102 88 101 102 88 101 102 88 101 102 88 101 102 88 101 102 88 101 103 89 102 102 88 101 99 85 98 95 81 94 91 77 90 87 73 86 84 70 83 80 70 81 62 56 66 55 54 62 48 47 55 40 39 47 30 29 37 21 20 28 14 13 21 11 10 18 7 6 14 7 6 14 7 6 14 7 6 14 7 6 14 7 6 14 7 6 14 6 6 14 7 10 17 6 11 17 6 11 17 6 11 17 6 11 17 6 11 17 6 11 17 6 11 17 8 13 19 8 13 19 8 13 19 8 13 19 8 13 19 8 13 19 8 13 19 8 13 19 4 9 13 6 11 15 8 13 17 11 16 20 15 20 24 18 23 27 20 25 29 22 27 31 31 36 40 29 34 38 27 32 36 24 29 33 20 25 29 17 22 26 15 20 24 13 18 22 0 4 7 0 4 7 0 4 7 0 4 7 0 4 7 0 4 7 0 4 7 0 4 7 0 1 4 0 2 5 0 4 7 3 7 10 7 11 14 10 14 17 12 16 19 14 18 21 12 18 18 14 20 20 16 22 22 19 25 25 23 29 29 26 32 32 28 34 34 30 36 36 33 39 39 35 41 41 37 43 43 40 46 46 44 50 50 47 53 53 49 55 55 52 56 57 50 52 51 51 51 51 51 51 51 51 51 51 51 51 51 51 51 51 51 51 51 51 51 51 33 33 33 33 33 33 33 33 33 33 33 33 33 33 33 33 33 33 33 33 33 34 33 31 36 32 31 37 32 29 37 32 29 37 32 29 37 32 29 37 32 29 37 32 29 37 32 29 38 33 30 38 33 30 38 33 30 38 33 30 38 33 30 38 33 30 38 33 30 38 33 30
128 104 120 128 104 120 128 104 120 128 104 120 132 108 124 132 108 124 132 108 124 132 108 124 132 108 124 132 108 124 132 108 124 132 108 124 136 113 129 136 113 129 136 113 129 136 113 129 136 113 129 136 113 129 136 113 129 136 113 129 135 112 128 135 112 128 135 112 128 135 112 128 135 112 128 135 112 128 135 112 128 135 112 128 124 100 116 124 100 116 124 100 116 124 100 116 124 100 116 124 100 116 124 100 116 124 100 116 115 91 107 115 91 107 115 91 107 115 91 107 115 91 107 115 91 107 115 91 107 114 91 107 104 88 101 102 88 101 102 88 101 102 88 101 102 88 101 102 88 101 102 88 101 102 88 101 101 87 100 99 85 98 95 81 94 89 75 88 83 69 82 78 64 77 74 60 73 69 59 70 42 36 46 36 35 43 31 30 38 23 22 30 16 15 23 8 7 15 3 2 10 0 0 7 7 6 14 7 6 14 7 6 14 7 6 14 7 6 14 7 6 14 7 6 14 6 6 14 7 10 17 6 11 17 6 11 17 6 11 17 6 11 17 6 11 17 6 11 17 6 11 17 8 13 19 8 13 19 8 13 19 8 13 19 8 13 19 8 13 19 8 13 19 8 13 19 8 13 17 9 14 18 11 16 20 15 20 24 18 23 27 21 26 30 24 29 33 25 30 34 31 36 40 29 34 38 27 32 36 24 29 33 20 25 29 17 22 26 15 20 24 13 18 22 0 4 7 0 4 7 0 4 7 0 4 7 0 4 7 0 4 7 0 4 7 0 4 7 0 1 4 0 2 5 0 4 7 3 7 10 7 11 14 10 14 17 12 16 19 14 18 21 12 18 18 14 20 20 16 22 22 19 25 25 23 29 29 26 32 32 28 34 34 30 36 36 33 39 39 35 41 41 37 43 43 40 46 46 44 50 50 47 53 53 49 55 55 52 56 57 50 52 51 51 51 51 51 51 51 51 51 51 51 51 51 51 51 51 51 51 51 51 51 51 33 33 33 33 33 33 33 33 33 33 33 33 33 33 33 33 33 33 33 33 33 34 33 31 36 32 31 37 32 29 37 32 29 37 32 29 37 32 29 37 32 29 37 32 29 37 32 29 38 33 30 38 33 30 38 33 30 38 33 30 38 33 30 38 33 30 38 33 30 38 33 30
132 108 124 132 108 124 132 108 124 132 108 124 136 112 128 136 112 128 136 112 128 136 112 128 136 112 128 136 112 128 136 112 128 136 112 128 136 113 129 136 113 129 136 113 129 136 113 129 136 113 129 136 113 129 136 113 129 136 113 129 131 108 124 131 108 124 131 108 124 131 108 124 131 108 124 131 108 124 131 108 124 131 108 124 120 96 112 120 96 112 120 96 112 120 96 112 120 96 112 120 96 112 120 96 112 120 96 112 115 91 107 115 91 107 115 91 107 115 91 107 115 91 107 115 91 107 115 91 107 114 91 107 104 88 101 102 88 101 102 88 101 102 88 101 102 88 101 102 88 101 102 88 101 102 88 101 99 85 98 96 82 95 91 77 90 83 69 82 76 62 75 68 54 67 63 49 62 58 48 59 27 21 31 22 21 29 18 17 25 12 11 19 6 5 13 1 0 8 0 0 7 0 0 7 7 6 14 7 6 14 7 6 14 7 6 14 7 6 14 7 6 14 7 6 14 6 6 14 7 10 17 6 11 17 6 11 17 6 11 17 6 11 17 6 11 17 6 11 17 6 11 17 8 13 19 8 13 19 8 13 19 8 13 19 8 13 19 8 13 19 8 13 19 8 13 19 11 16 20 12 17 21 15 20 24 18 23 27 21 26 30 25 30 34 27 32 36 28 33 37 31 36 40 29 34 38 27 32 36 24 29 33 20 25 29 17 22 26 15 20 24 13 18 22 0 4 7 0 4 7 0 4 7 0 4 7 0 4 7 0 4 7 0 4 7 0 4 7 0 1 4 0 2 5 0 4 7 3 7 10 7 11 14 10 14 17 12 16 19 14 18 21 12 18 18 14 20 20 16 22 22 19 25 25 23 29 29 26 32 32 28 34 34 30 36 36 33 39 39 35 41 41 37 43 43 40 46 46 44 50 50 47 53 53 49 55 55 52 56 57 50 52 51 51 51 51 51 51 51 51 51 51 51 51 51 51 51 51 51 51 51 51 51 51 33 33 33 33 33 33 33 33 33 33 33 33 33 33 33 33 33 33 33 33 33 34 33 31 36 32 31 37 32 29 37 32 29 37 32 29 37 32 29 37 32 29 37 32 29 37 32 29 38 33 30 38 33 30 38 33 30 38 33 30 38 33 30 38 33 30 38 33 30 38 33 30
135 111 127 135 111 127 135 111 127 135 111 127 139 115 131 139 115 131 139 115 131 139 115 131 139 115 131 139 115 131 139 115 131 139 115 131 136 113 129 136 113 129 136 113 129 136 113 129 136 113 129 136 113 129 136 113 129 136 113 129 128 105 121 128 105 121 128 105 121 128 105 121 128 105 121 128 105 121 128 105 121 128 105 121 117 93 109 117 93 109 117 93 109 117 93 109 117 93 109 117 93 109 117 93 109 117 93 109 115 91 107 115 91 107 115 91 107 115 91 107 115 91 107 115 91 107 115 91 107 114 91 107 104 88 101 102 88 101 102 88 101 102 88 101 102 88 101 102 88 101 102 88 101 102 88 101 97 83 96 94 80 93 87 73 86 78 64 77 68 54 67 60 46 59 53 39 52 47 37 48 19 13 23 14 13 21 11 10 18 7 6 14 3 2 10 0 0 7 0 0 7 0 0 7 7 6 14 7 6 14 7 6 14 7 6 14 7 6 14 7 6 14 7 6 14 6 6 14 7 10 17 6 11 17 6 11 17 6 11 17 6 11 17 6 11 17 6 11 17 6 11 17 8 13 19 8 13 19 8 13 19 8 13 19 8 13 19 8 13 19 8 13 19 8 13 19 14 19 23 16 21 25 18 23 27 21 26 30 25 30 34 28 33 37 30 35 39 32 37 41 31 36 40 29 34 38 27 32 36 24 29 33 20 25 29 17 22 26 15 20 24 13 18 22 0 4 7 0 4 7 0 4 7 0 4 7 0 4 7 0 4 7 0 4 7 0 4 7 0 1 4 0 2 5 0 4 7 3 7 10 7 11 14 10 14 17 12 16 19 14 18 21 12 18 18 14 20 20 16 22 22 19 25 25 23 29 29 26 32 32 28 34 34 30 36 36 33 39 39 35 41 41 37 43 43 40 46 46 44 50 50 47 53 53 49 55 55 52 56 57 50 52 51 51 51 51 51 51 51 51 51 51 51 51 51 51 51 51 51 51 51 51 51 51 33 33 33 33 33 33 33 33 33 33 33 33 33 33 33 33 33 33 33 33 33 34 33 31 36 32 31 37 32 29 37 32 29 37 32 29 37 32 29 37 32 29 37 32 29 37 32 29 38 33 30 38 33 30 38 33 30 38 33 30 38 33 30 38 33 30 38 33 30 38 33 30
137 113 129 137 113 129 137 113 129 137 113 129 141 117 133 141 117 133 141 117 133 141 117 133 141 117 133 141 117 133 141 117 133 141 117 133 136 113 129 136 113 129 136 113 129 136 113 129 136 113 129 136 113 129 136 113 129 136 113 129 126 103 119 126 103 119 126 103 119 126 103 119 126 103 119 126 103 119 126 103 119 126 103 119 115 91 107 115 91 107 115 91 107 115 91 107 115 91 107 115 91 107 115 91 107 115 91 107 115 91 107 115 91 107 115 91 107 115 91 107 115 91 107 115 91 107 115 91 107 114 91 107 104 88 101 102 88 101 102 88 101 102 88 101 102 88 101 102 88 101 102 88 101 102 88 101 96 82 95 92 78 91 84 70 83 74 60 73 63 49 62 53 39 52 45 31 44 39 29 40 16 10 20 12 11 19 10 9 17 7 6 14 5 4 12 2 1 9 0 0 7 0 0 7 7 6 14 7 6 14 7 6 14 7 6 14 7 6 14 7 6 14 7 6 14 6 6 14 7 10 17 6 11 17 6 11 17 6 11 17 6 11 17 6 11 17 6 11 17 6 11 17 8 13 19 8 13 19 8 13 19 8 13 19 8 13 19 8 13 19 8 13 19 8 13 19 17 22 26 18 23 27 20 25 29 24 29 33 27 32 36 30 35 39 33 38 42 34 39 43 31 36 40 29 34 38 27 32 36 24 29 33 20 25 29 17 22 26 15 20 24 13 18 22 0 4 7 0 4 7 0 4 7 0 4 7 0 4 7 0 4 7 0 4 7 0 4 7 0 1 4 0 2 5 0 4 7 3 7 10 7 11 14 10 14 17 12 16 19 14 18 21 12 18 18 14 20 20 16 22 22 19 25 25 23 29 29 26 32 32 28 34 34 30 36 36 33 39 39 35 41 41 37 43 43 40 46 46 44 50 50 47 53 53 49 55 55 52 56 57 50 52 51 51 51 51 51 51 51 51 51 51 51 51 51 51 51 51 51 51 51 51 51 51 33 33 33 33 33 33 33 33 33 33 33 33 33 33 33 33 33 33 33 33 33 34 33 31 36 32 31 37 32 29 37 32 29 37 32 29 37 32 29 37 32 29 37 32 29 37 32 29 38 33 30 38 33 30 38 33 30 38 33 30 38 33 30 38 33 30 38 33 30 38 33 30
139 115 131 139 115 131 139 115 131 139 115 131 143 119 135 143 119 135 143 119 135 143 119 135 143 119 135 143 119 135 143 119 135 143 119 135 136 113 129 136 113 129 136 113 129 136 113 129 136 113 129 136 113 129 136 113 129 136 113 129 124 101 117 124 101 117 124 101 117 124 101 117 124 101 117 124 101 117 124 101 117 124 101 117 113 89 105 113 89 105 113 89 105 113 89 105 113 89 105 113 89 105 113 89 105 113 89 105 115 91 107 115 91 107 115 91 107 115 91 107 115 91 107 115 91 107 115 91 107 114 91 107 104 88 101 102 88 101 102 88 101 102 88 101 102 88 101 102 88 101 102 88 101 102 88 101 95 81 94 91 77 90 82 68 81 71 57 70 60 46 59 49 35 48 41 27 40 34 24 35 16 10 20 12 11 19 11 10 18 9 8 16 7 6 14 5 4 12 3 2 10 2 1 9 7 6 14 7 6 14 7 6 14 7 6 14 7 6 14 7 6 14 7 6 14 6 6 14 7 10 17 6 11 17 6 11 17 6 11 17 6 11 17 6 11 17 6 11 17 6 11 17 8 13 19 8 13 19 8 13 19 8 13 19 8 13 19 8 13 19 8 13 19 8 13 19 18 23 27 19 24 28 22 27 31 25 30 34 28 33 37 32 37 41 34 39 43 35 40 44 31 36 40 29 34 38 27 32 36 24 29 33 20 25 29 17 22 26 15 20 24 13 18 22 0 4 7 0 4 7 0 4 7 0 4 7 0 4 7 0 4 7 0 4 7 0 4 7 0 1 4 0 2 5 0 4 7 3 7 10 7 11 14 10 14 17 12 16 19 14 18 21 12 18 18 14 20 20 16 22 22 19 25 25 23 29 29 26 32 32 28 34 34 30 36 36 33 39 39 35 41 41 37 43 43 40 46 46 44 50 50 47 53 53 49 55 55 52 56 57 50 52 51 51 51 51 51 51 51 51 51 51 51 51 51 51 51 51 51 51 51 51 51 51 33 33 33 33 33 33 33 33 33 33 33 33 33 33 33 33 33 33 33 33 33 34 33 31 36 32 31 37 32 29 37 32 29 37 32 29 37 32 29 37 32 29 37 32 29 37 32 29 38 33 30 38 33 30 38 33 30 38 33 30 38 33 30 38 33 30 38 33 30 38 33 30
139 115 131 139 115 131 139 115 131 139 115 131 134 110 126 134 110 126 134 110 126 134 110 126 134 110 126 134 110 126 134 110 126 134 110 126 122 99 115 122 99 115 122 99 115 122 99 115 122 99 115 122 99 115 122 99 115 122 99 115 118 95 111 118 95 111 118 95 111 118 95 111 118 95 111 118 95 111 118 95 111 118 95 111 116 92 108 116 92 108 116 92 108 116 92 108 116 92 108 116 92 108 116 92 108 116 92 108 113 89 105 113 89 105 113 89 105 113 89 105 113 89 105 113 89 105 113 89 105 112 89 105 100 84 97 98 84 97 96 82 95 94 80 93 92 78 91 90 76 89 88 74 87 88 74 87 59 45 58 56 42 55 50 36 49 42 28 41 34 20 33 27 13 26 21 7 20 16 6 17 9 3 13 6 5 13 6 5 13 6 5 13 6 5 13 6 5 13 6 5 13 6 5 13 7 6 14 7 6 14 7 6 14 7 6 14 7 6 14 7 6 14 7 6 14 6 6 14 5 8 15 4 9 15 4 9 15 4 9 15 4 9 15 4 9 15 4 9 15 4 9 15 7 12 18 6 11 17 5 10 16 4 9 15 3 8 14 1 6 12 1 6 12 0 5 11 39 44 48 39 44 48 39 44 48 39 44 48 39 44 48 39 44 48 39 44 48 39 44 48 33 38 42 31 36 40 29 34 38 26 31 35 22 27 31 19 24 28 17 22 26 15 20 24 0 3 6 0 3 6 0 3 6 0 3 6 0 3 6 0 3 6 0 3 6 0 3 6 0 1 4 0 2 5 0 4 7 3 7 10 7 11 14 10 14 17 12 16 19 14 18 21 14 20 20 16 22 22 18 24 24 21 27 27 25 31 31 28 34 34 30 36 36 32 38 38 34 40 40 34 40 40 34 40 40 34 40 40 34 40 40 34 40 40 34 40 40 35 39 40 37 39 38 38 38 38 38 38 38 38 38 38 38 38 38 38 38 38 38 38 38 38 38 38 31 31 31 31 31 31 31 31 31 31 31 31 31 31 31 31 31 31 31 31 31 32 31 29 34 30 29 35 30 27 35 30 27 35 30 27 35 30 27 35 30 27 35 30 27 35 30 27 37 32 29 37 32 29 37 32 29 37 32 29 37 32 29 37 32 29 37 32 29 37 32 29
137 113 129 137 113 129 137 113 129 137 113 129 132 108 124 132 108 124 132 108 124 132 108 124 132 108 124 132 108 124 132 108 124 132 108 124 118 95 111 118 95 111 118 95 111 118 95 111 118 95 111 118 95 111 118 95 111 118 95 111 118 95 111 118 95 111 118 95 111 118 95 111 118 95 111 118 95 111 118 95 111 118 95 111 116 92 108 116 92 108 116 92 108 116 92 108 116 92 108 116 92 108 116 92 108 116 92 108 111 87 103 111 87 103 111 87 103 111 87 103 111 87 103 111 87 103 111 87 103 110 87 103 98 82 95 95 81 94 93 79 92 90 76 89 88 74 87 85 71 84 83 69 82 82 68 81 50 36 49 47 33 46 42 28 41 35 21 34 28 14 27 21 7 20 15 1 14 10 0 11 9 3 13 6 5 13 6 5 13 6 5 13 6 5 13 6 5 13 6 5 13 6 5 13 7 6 14 7 6 14 7 6 14 7 6 14 7 6 14 7 6 14 7 6 14 6 6 14 5 8 15 4 9 15 4 9 15 4 9 15 4 9 15 4 9 15 4 9 15 4 9 15 6 11 17 6 11 17 6 11 17 5 10 16 4 9 15 4 9 15 3 8 14 3 8 14 39 44 48 39 44 48 39 44 48 39 44 48 39 44 48 39 44 48 39 44 48 39 44 48 33 38 42 31 36 40 29 34 38 26 31 35 22 27 31 19 24 28 17 22 26 15 20 24 0 3 6 0 3 6 0 3 6 0 3 6 0 3 6 0 3 6 0 3 6 0 3 6 0 1 4 0 2 5 0 4 7 3 7 10 7 11 14 10 14 17 12 16 19 14 18 21 14 20 20 16 22 22 18 24 24 21 27 27 25 31 31 28 34 34 30 36 36 32 38 38 34 40 40 34 40 40 34 40 40 34 40 40 34 40 40 34 40 40 34 40 40 35 39 40 37 39 38 38 38 38 38 38 38 38 38 38 38 38 38 38 38 38 38 38 38 38 38 38 31 31 31 31 31 31 31 31 31 31 31 31 31 31 31 31 31 31 31 31 31 32 31 29 34 30 29 35 30 27 35 30 27 35 30 27 35 30 27 35 30 27 35 30 27 35 30 27 37 32 29 37 32 29 37 32 29 37 32 29 37 32 29 37 32 29 37 32 29 37 32 29
135 111 127 135 111 127 135 111 127 135 111 127 130 106 122 130 106 122 130 106 122 130 106 122 130 106 122 130 106 122 130 106 122 130 106 122 112 89 105 112 89 105 112 89 105 112 89 105 112 89 105 112 89 105 112 89 105 112 89 105 118 95 111 118 95 111 118 95 111 118 95 111 118 95 111 118 95 111 118 95 111 118 95 111 116 92 108 116 92 108 116 92 108 116 92 108 116 92 108 116 92 108 116 92 108 116 92 108 109 85 101 109 85 101 109 85 101 109 85 101 109 85 101 109 85 101 109 85 101 108 85 101 94 78 91 91 77 90 88 74 87 84 70 83 80 66 79 76 62 75 73 59 72 71 57 70 36 22 35 34 20 33 30 16 29 24 10 23 18 4 17 12 0 11 8 0 7 6 0 7 9 3 13 6 5 13 6 5 13 6 5 13 6 5 13 6 5 13 6 5 13 6 5 13 7 6 14 7 6 14 7 6 14 7 6 14 7 6 14 7 6 14 7 6 14 6 6 14 5 8 15 4 9 15 4 9 15 4 9 15 4 9 15 4 9 15 4 9 15 4 9 15 5 10 16 6 11 17 6 11 17 7 12 18 7 12 18 8 13 19 9 14 20 9 14 20 39 44 48 39 44 48 39 44 48 39 44 48 39 44 48 39 44 48 39 44 48 39 44 48 33 38 42 31 36 40 29 34 38 26 31 35 22 27 31 19 24 28 17 22 26 15 20 24 0 3 6 0 3 6 0 3 6 0 3 6 0 3 6 0 3 6 0 3 6 0 3 6 0 1 4 0 2 5 0 4 7 3 7 10 7 11 14 10 14 17 12 16 19 14 18 21 14 20 20 16 22 22 18 24 24 21 27 27 25 31 31 28 34 34 30 36 36 32 38 38 34 40 40 34 40 40 34 40 40 34 40 40 34 40 40 34 40 40 34 40 40 35 39 40 37 39 38 38 38 38 38 38 38 38 38 38 38 38 38 38 38 38 38 38 38 38 38 38 31 31 31 31 31 31 31 31 31 31 31 31 31 31 31 31 31 31 31 31 31 32 31 29 34 30 29 35 30 27 35 30 27 35 30 27 35 30 27 35 30 27 35 30 27 35 30 27 37 32 29 37 32 29 37 32 29 37 32 29 37 32 29 37 32 29 37 32 29 37 32 29
132 108 124 132 108 124 132 108 124 132 108 124 127 103 119 127 103 119 127 103 119 127 103 119 127 103 119 127 103 119 127 103 119 127 103 119 110 87 103 110 87 103 110 87 103 110 87 103 110 87 103 110 87 103 110 87 103 110 87 103 118 95 111 118 95 111 118 95 111 118 95 111 118 95 111 118 95 111 118 95 111 118 95 111 116 92 108 116 92 108 116 92 108 116 92 108 116 92 108 116 92 108 116 92 108 116 92 108 106 82 98 106 82 98 106 82 98 106 82 98 106 82 98 106 82 98 106 82 98 105 82 98 89 73 86 85 71 84 81 67 80 75 61 74 69 55 68 64 50 63 60 46 59 57 43 56 23 9 22 21 7 20 18 4 17 14 0 13 10 0 9 8 0 7 8 0 7 6 0 7 9 3 13 6 5 13 6 5 13 6 5 13 6 5 13 6 5 13 6 5 13 6 5 13 7 6 14 7 6 14 7 6 14 7 6 14 7 6 14 7 6 14 7 6 14 6 6 14 5 8 15 4 9 15 4 9 15 4 9 15 4 9 15 4 9 15 4 9 15 4 9 15 4 9 15 5 10 16 7 12 18 9 14 20 12 17 23 14 19 25 16 21 27 17 22 28 39 44 48 39 44 48 39 44 48 39 44 48 39 44 48 39 44 48 39 44 48 39 44 48 33 38 42 31 36 40 29 34 38 26 31 35 22 27 31 19 24 28 17 22 26 15 20 24 0 3 6 0 3 6 0 3 6 0 3 6 0 3 6 0 3 6 0 3 6 0 3 6 0 1 4 0 2 5 0 4 7 3 7 10 7 11 14 10 14 17 12 16 19 14 18 21 14 20 20 16 22 22 18 24 24 21 27 27 25 31 31 28 34 34 30 36 36 32 38 38 34 40 40 34 40 40 34 40 40 34 40 40 34 40 40 34 40 40 34 40 40 35 39 40 37 39 38 38 38 38 38 38 38 38 38 38 38 38 38 38 38 38 38 38 38 38 38 38 31 31 31 31 31 31 31 31 31 31 31 31 31 31 31 31 31 31 31 31 31 32 31 29 34 30 29 35 30 27 35 30 27 35 30 27 35 30 27 35 30 27 35 30 27 35 30 27 37 32 29 37 32 29 37 32 29 37 32 29 37 32 29 37 32 29 37 32 29 37 32 29
128 104 120 128 104 120 128 104 120 128 104 120 123 99 115 123 99 115 123 99 115 123 99 115 123 99 115 123 99 115 123 99 115 123 99 115 113 90 106 113 90 106 113 90 106 113 90 106 113 90 106 113 90 106 113 90 106 113 90 106 118 95 111 118 95 111 118 95 111 118 95 111 118 95 111 118 95 111 118 95 111 118 95 111 116 92 108 116 92 108 116 92 108 116 92 108 116 92 108 116 92 108 116 92 108 116 92 108 102 78 94 102 78 94 102 78 94 102 78 94 102 78 94 102 78 94 102 78 94 101 78 94 84 68 81 79 65 78 73 59 72 66 52 65 58 44 57 51 37 50 45 31 44 42 28 41 15 1 14 14 0 13 12 0 11 10 0 9 8 0 7 8 0 7 8 0 7 6 0 7 9 3 13 6 5 13 6 5 13 6 5 13 6 5 13 6 5 13 6 5 13 6 5 13 7 6 14 7 6 14 7 6 14 7 6 14 7 6 14 7 6 14 7 6 14 6 6 14 5 8 15 4 9 15 4 9 15 4 9 15 4 9 15 4 9 15 4 9 15 4 9 15 3 8 14 4 9 15 7 12 18 12 17 23 16 21 27 20 25 31 23 28 34 25 30 36 39 44 48 39 44 48 39 44 48 39 44 48 39 44 48 39 44 48 39 44 48 39 44 48 33 38 42 31 36 40 29 34 38 26 31 35 22 27 31 19 24 28 17 22 26 15 20 24 0 3 6 0 3 6 0 3 6 0 3 6 0 3 6 0 3 6 0 3 6 0 3 6 0 1 4 0 2 5 0 4 7 3 7 10 7 11 14 10 14 17 12 16 19 14 18 21 14 20 20 16 22 22 18 24 24 21 27 27 25 31 31 28 34 34 30 36 36 32 38 38 34 40 40 34 40 40 34 40 40 34 40 40 34 40 40 34 40 40 34 40 40 35 39 40 37 39 38 38 38 38 38 38 38 38 38 38 38 38 38 38 38 38 38 38 38 38 38 38 31 31 31 31 31 31 31 31 31 31 31 31 31 31 31 31 31 31 31 31 31 32 31 29 34 30 29 35 30 27 35 30 27 35 30 27 35 30 27 35 30 27 35 30 27 35 30 27 37 32 29 37 32 29 37 32 29 37 32 29 37 32 29 37 32 29 37 32 29 37 32 29
125 101 117 125 101 117 125 101 117 125 101 117 120 96 112 120 96 112 120 96 112 120 96 112 120 96 112 120 96 112 120 96 112 120 96 112 122 99 115 122 99 115 122 99 115 122 99 115 122 99 115 122 99 115 122 99 115 122 99 115 118 95 111 118 95 111 118 95 111 118 95 111 118 95 111 118 95 111 118 95 111 118 95 111 116 92 108 116 92 108 116 92 108 116 92 108 116 92 108 116 92 108 116 92 108 116 92 108 99 75 91 99 75 91 99 75 91 99 75 91 99 75 91 99 75 91 99 75 91 98 75 91 78 62 75 73 59 72 66 52 65 57 43 56 47 33 46 39 25 38 32 18 31 28 14 27 13 0 12 13 0 12 12 0 11 11 0 10 11 0 10 10 0 9 10 0 9 7 0 8 9 3 13 6 5 13 6 5 13 6 5 13 6 5 13 6 5 13 6 5 13 6 5 13 7 6 14 7 6 14 7 6 14 7 6 14 7 6 14 7 6 14 7 6 14 6 6 14 5 8 15 4 9 15 4 9 15 4 9 15 4 9 15 4 9 15 4 9 15 4 9 15 1 6 12 4 9 15 8 13 19 14 19 25 20 25 31 26 31 37 30 35 41 32 37 43 39 44 48 39 44 48 39 44 48 39 44 48 39 44 48 39 44 48 39 44 48 39 44 48 33 38 42 31 36 40 29 34 38 26 31 35 22 27 31 19 24 28 17 22 26 15 20 24 0 3 6 0 3 6 0 3 6 0 3 6 0 3 6 0 3 6 0 3 6 0 3 6 0 1 4 0 2 5 0 4 7 3 7 10 7 11 14 10 14 17 12 16 19 14 18 21 14 20 20 16 22 22 18 24 24 21 27 27 25 31 31 28 34 34 30 36 36 32 38 38 34 40 40 34 40 40 34 40 40 34 40 40 34 40 40 34 40 40 34 40 40 35 39 40 37 39 38 38 38 38 38 38 38 38 38 38 38 38 38 38 38 38 38 38 38 38 38 38 31 31 31 31 31 31 31 31 31 31 31 31 31 31 31 31 31 31 31 31 31 32 31 29 34 30 29 35 30 27 35 30 27 35 30 27 35 30 27 35 30 27 35 30 27 35 30 27 37 32 29 37 32 29 37 32 29 37 32 29 37 32 29 37 32 29 37 32 29 37 32 29
123 99 115 123 99 115 123 99 115 123 99 115 118 94 110 118 94 110 118 94 110 118 94 110 118 94 110 118 94 110 118 94 110 118 94 110 132 109 125 132 109 125 132 109 125 132 109 125 132 109 125 132 109 125 132 109 125 132 109 125 118 95 111 118 95 111 118 95 111 118 95 111 118 95 111 118 95 111 118 95 111 118 95 111 116 92 108 116 92 108 116 92 108 116 92 108 116 92 108 116 92 108 116 92 108 116 92 108 97 73 89 97 73 89 97 73 89 97 73 89 97 73 89 97 73 89 97 73 89 96 73 89 74 58 71 68 54 67 61 47 60 50 36 49 39 25 38 29 15 28 22 8 21 17 3 16 15 1 14 15 1 14 16 2 15 16 2 15 17 3 16 18 4 17 18 4 17 16 6 17 9 3 13 6 5 13 6 5 13 6 5 13 6 5 13 6 5 13 6 5 13 6 5 13 7 6 14 7 6 14 7 6 14 7 6 14 7 6 14 7 6 14 7 6 14 6 6 14 5 8 15 4 9 15 4 9 15 4 9 15 4 9 15 4 9 15 4 9 15 4 9 15 0 5 11 3 8 14 9 14 20 16 21 27 23 28 34 30 35 41 35 40 46 38 43 49 39 44 48 39 44 48 39 44 48 39 44 48 39 44 48 39 44 48 39 44 48 39 44 48 33 38 42 31 36 40 29 34 38 26 31 35 22 27 31 19 24 28 17 22 26 15 20 24 0 3 6 0 3 6 0 3 6 0 3 6 0 3 6 0 3 6 0 3 6 0 3 6 0 1 4 0 2 5 0 4 7 3 7 10 7 11 14 10 14 17 12 16 19 14 18 21 14 20 20 16 22 22 18 24 24 21 27 27 25 31 31 28 34 34 30 36 36 32 38 38 34 40 40 34 40 40 34 40 40 34 40 40 34 40 40 34 40 40 34 40 40 35 39 40 37 39 38 38 38 38 38 38 38 38 38 38 38 38 38 38 38 38 38 38 38 38 38 38 31 31 31 31 31 31 31 31 31 31 31 31 31 31 31 31 31 31 31 31 31 32 31 29 34 30 29 35 30 27 35 30 27 35 30 27 35 30 27 35 30 27 35 30 27 35 30 27 37 32 29 37 32 29 37 32 29 37 32 29 37 32 29 37 32 29 37 32 29 37 32 29
123 96 113 123 96 113 123 96 113 123 96 113 118 91 108 118 91 108 118 91 108 118 91 108 118 91 108 118 91 108 118 91 108 116 92 108 138 117 132 136 118 132 136 118 132 136 118 132 136 118 132 136 118 132 136 118 132 136 118 132 115 97 111 115 97 111 115 97 111 115 97 111 115 97 111 115 97 111 115 97 111 115 97 111 114 93 108 114 93 108 114 93 108 114 93 108 114 93 108 114 93 108 114 93 108 114 93 108 93 72 87 93 72 87 93 72 87 93 72 87 93 72 87 93 72 87 93 72 87 91 73 87 69 57 67 64 54 63 56 46 55 45 35 44 33 23 32 22 12 21 14 4 13 10 0 9 16 6 15 16 6 15 17 7 16 18 8 17 20 10 19 21 11 20 22 12 21 20 13 21 7 4 11 5 6 11 6 5 11 5 6 11 6 5 11 5 6 11 6 5 11 5 6 11 7 6 12 6 7 12 7 6 12 6 7 12 7 6 12 6 7 12 7 6 12 6 7 12 4 9 13 4 9 13 4 9 15 4 9 13 4 9 15 4 9 13 4 9 15 4 9 13 0 5 11 3 8 12 9 14 20 17 22 26 25 30 36 32 37 41 38 43 49 41 46 50 39 44 48 39 44 48 39 44 48 39 44 48 39 44 48 39 44 48 39 44 48 39 44 48 33 38 42 31 36 40 29 34 38 26 31 35 22 27 31 19 24 28 17 22 26 15 20 24 0 3 6 0 3 6 0 3 6 0 3 6 0 3 6 0 3 6 0 3 6 0 3 6 0 1 4 0 2 5 0 4 7 2 7 10 7 11 14 9 14 17 12 16 19 13 18 21 14 19 22 16 22 22 18 24 24 21 27 27 25 31 31 28 34 34 30 36 36 32 38 38 34 40 40 34 40 40 34 40 40 34 40 40 34 40 40 34 40 40 34 40 40 35 39 40 38 38 38 38 38 38 39 37 38 38 38 38 39 37 38 38 38 38 39 37 38 38 38 38 32 30 31 31 31 31 32 30 31 31 31 31 32 30 31 31 31 31 32 30 31 32 31 29 35 30 27 35 30 27 35 30 27 35 30 27 35 30 27 35 30 27 35 30 27 35 30 27 37 32 29 37 32 29 37 32 29 37 32 29 37 32 29 37 32 29 37 32 29 37 32 29
114 86 101 114 86 101 114 86 101 114 86 101 124 96 111 126 98 113 129 101 116 134 106 121 138 110 125 143 115 130 146 118 133 145 121 135 129 113 126 125 113 125 122 110 122 119 107 119 116 104 116 112 100 112 110 98 110 109 97 109 112 100 112 112 100 112 112 100 112 112 100 112 112 100 112 112 100 112 112 100 112 112 100 112 107 97 108 106 96 107 103 93 104 100 90 101 97 87 98 93 83 94 91 81 92 90 80 91 79 69 80 76 66 77 70 60 71 63 53 64 55 45 56 47 37 48 41 31 42 36 29 37 10 5 11 8 6 11 8 6 11 8 6 11 8 6 11 8 6 11 8 6 11 8 6 11 8 6 11 8 6 11 8 6 11 8 6 11 8 6 11 8 6 11 8 6 11 7 6 11 3 4 8 1 5 8 3 4 8 1 5 8 3 4 8 1 5 8 3 4 8 1 5 8 6 7 11 4 8 11 6 7 11 4 8 11 6 7 11 4 8 11 6 7 11 4 8 11 4 9 12 1 9 11 0 8 11 0 7 9 0 6 9 0 4 6 0 4 7 0 3 5 12 20 23 15 23 25 21 29 32 28 36 38 36 44 47 44 52 54 50 58 61 53 61 63 38 46 48 38 46 48 38 46 48 38 46 48 38 46 48 38 46 48 38 46 48 38 46 48 40 48 50 37 45 47 32 40 42 26 34 36 19 27 29 13 21 23 8 16 18 5 13 15 8 16 19 7 15 18 6 11 15 1 9 12 0 5 9 0 2 5 0 1 5 0 2 5 9 14 18 7 15 18 9 14 18 7 15 18 9 14 18 7 15 18 9 14 18 9 14 17 21 26 29 21 26 29 21 26 29 21 26 29 21 26 29 21 26 29 21 26 29 21 26 29 26 31 34 26 31 34 26 31 34 26 31 34 26 31 34 26 31 34 26 31 34 27 31 32 27 27 27 28 26 27 30 26 27 28 26 27 30 26 27 28 26 27 30 26 27 28 26 27 32 28 29 30 28 29 32 28 29 30 28 29 32 28 29 30 28 29 32 28 29 32 28 27 34 29 26 36 28 25 36 28 25 36 28 25 36 28 25 36 28 25 36 28 25 36 28 25 38 30 27 38 30 27 38 30 27 38 30 27 38 30 27 38 30 27 38 30 27 38 30 27
120 89 105 118 90 105 120 89 105 118 90 105 128 97 113 128 100 115 133 102 118 134 106 121 140 109 125 142 114 129 147 116 132 144 120 134 125 111 124 119 111 122 117 109 120 114 106 117 110 102 113 107 99 110 105 97 108 103 95 106 101 93 104 101 93 104 101 93 104 101 93 104 101 93 104 101 93 104 101 93 104 101 93 104 97 91 101 96 90 100 94 88 98 90 84 94 87 81 91 84 78 88 81 75 85 80 74 84 65 59 69 62 56 66 57 51 61 50 44 54 42 36 46 35 29 39 30 24 34 25 22 29 7 6 11 6 7 9 6 7 9 6 7 9 6 7 9 6 7 9 6 7 9 6 7 9 6 7 9 6 7 9 6 7 9 6 7 9 6 7 9 6 7 9 6 7 9 6 7 9 1 5 6 1 5 6 1 5 6 1 5 6 1 5 6 1 5 6 1 5 6 1 5 6 4 8 9 4 8 9 4 8 9 4 8 9 4 8 9 4 8 9 4 8 9 3 9 9 3 8 11 1 9 11 1 9 11 0 8 10 0 7 9 0 7 9 0 6 8 0 6 8 15 23 25 18 26 28 23 31 33 30 38 40 37 45 47 44 52 54 50 58 60 53 61 63 40 48 50 40 48 50 40 48 50 40 48 50 40 48 50 40 48 50 40 48 50 40 48 50 41 49 51 38 46 48 33 41 43 27 35 37 20 28 30 14 22 24 9 17 19 6 14 16 9 17 20 8 16 19 6 14 17 2 10 13 0 7 10 0 4 7 0 2 5 0 2 5 7 15 18 7 15 18 7 15 18 7 15 18 7 15 18 7 15 18 7 15 18 7 15 18 21 26 29 21 26 29 21 26 29 21 26 29 21 26 29 21 26 29 21 26 29 21 26 29 26 31 34 26 31 34 26 31 34 26 31 34 26 31 34 26 31 34 26 31 34 27 31 32 28 26 29 30 26 27 30 26 27 30 26 27 30 26 27 30 26 27 30 26 27 30 26 27 32 28 29 32 28 29 32 28 29 32 28 29 32 28 29 32 28 29 32 28 29 32 28 27 36 28 26 36 28 25 36 28 25 36 28 25 36 28 25 36 28 25 36 28 25 36 28 25 38 30 27 38 30 27 38 30 27 38 30 27 38 30 27 38 30 27 38 30 27 38 30 27
124 96 111 123 96 111 124 96 111 123 96 111 128 100 115 128 101 116 131 103 118 132 105 120 136 108 123 137 110 125 140 112 127 137 115 128 117 105 117 113 105 116 110 102 113 107 99 110 104 96 107 101 93 104 98 90 101 97 89 100 86 78 89 86 78 89 86 78 89 86 78 89 86 78 89 86 78 89 86 78 89 86 78 89 85 79 89 84 78 88 81 75 85 78 72 82 75 69 79 72 66 76 69 63 73 68 62 72 46 40 50 44 38 48 40 34 44 34 28 38 28 22 32 22 16 26 18 12 22 13 10 17 7 6 11 6 7 9 6 7 9 6 7 9 6 7 9 6 7 9 6 7 9 6 7 9 6 7 9 6 7 9 6 7 9 6 7 9 6 7 9 6 7 9 6 7 9 6 7 9 1 5 6 1 5 6 1 5 6 1 5 6 1 5 6 1 5 6 1 5 6 1 5 6 4 8 9 4 8 9 4 8 9 4 8 9 4 8 9 4 8 9 4 8 9 3 9 9 2 7 10 1 9 11 1 9 11 2 10 12 2 10 12 3 11 13 4 12 14 4 12 14 21 29 31 23 31 33 27 35 37 33 41 43 39 47 49 45 53 55 49 57 59 52 60 62 42 50 52 42 50 52 42 50 52 42 50 52 42 50 52 42 50 52 42 50 52 42 50 52 43 51 53 41 49 51 36 44 46 30 38 40 23 31 33 16 24 26 11 19 21 9 17 19 12 20 23 10 18 21 8 16 19 5 13 16 1 9 12 0 6 9 0 4 7 0 2 5 7 15 18 7 15 18 7 15 18 7 15 18 7 15 18 7 15 18 7 15 18 7 15 18 21 26 29 21 26 29 21 26 29 21 26 29 21 26 29 21 26 29 21 26 29 21 26 29 26 31 34 26 31 34 26 31 34 26 31 34 26 31 34 26 31 34 26 31 34 27 31 32 28 26 29 30 26 27 30 26 27 30 26 27 30 26 27 30 26 27 30 26 27 30 26 27 32 28 29 32 28 29 32 28 29 32 28 29 32 28 29 32 28 29 32 28 29 32 28 27 36 28 26 36 28 25 36 28 25 36 28 25 36 28 25 36 28 25 36 28 25 36 28 25 38 30 27 38 30 27 38 30 27 38 30 27 38 30 27 38 30 27 38 30 27 38 30 27
