P3
172 37
255
109 94 123 109 95 121 109 94 123 109 95 121 91 76 105 91 77 103 91 76 105 91 77 103 91 76 105 91 77 103 91 76 105 90 77 103 76 66 93 74 66 90 71 62 89 68 60 84 65 56 83 61 53 77 59 50 77 58 50 74 57 48 75 54 46 70 49 40 67 42 34 58 34 25 52 27 19 43 22 13 40 19 11 32 17 9 20 16 9 16 16 6 14 10 3 10 9 0 7 4 0 4 6 0 4 4 0 4 10 0 8 8 1 8 10 0 8 8 1 8 10 0 8 8 1 8 10 0 8 7 1 11 0 0 17 0 0 20 0 0 22 0 0 20 0 0 22 0 0 20 0 0 22 0 0 20 1 6 28 1 6 26 1 6 28 1 6 26 1 6 28 1 6 26 1 6 28 0 8 23 0 11 13 0 13 10 0 13 10 0 13 10 0 13 10 0 13 10 0 13 10 0 13 10 0 12 9 0 12 9 0 12 9 0 12 9 0 12 9 0 12 9 0 12 9 0 13 9 0 16 10 0 17 10 0 17 10 0 17 10 0 17 10 0 17 10 0 17 10 0 17 10 0 18 11 0 18 11 0 18 11 0 18 11 0 18 11 0 18 11 0 18 11 0 18 9 0 14 6 0 14 4 0 14 4 0 14 4 0 14 4 0 14 4 0 14 4 0 14 4 0 9 0 0 9 0 0 9 0 0 9 0 0 9 0 0 9 0 0 9 0 0 8 0 0 9 2 0 8 2 0 8 2 0 8 2 0 8 2 0 8 2 0 8 2 0 8 2 1 12 6 3 14 8 5 16 10 8 19 13 12 23 17 15 26 20 17 28 22 16 31 24 22 44 32 23 49 36 30 56 43 40 66 53 50 76 63 60 86 73 67 93 80 71 97 84 85 111 98 91 117 104 99 125 112 104 130 117 104 130 117 99 125 112 91 117 104 85 111 98 51 73 61 44 66 54 34 56 44 25 47 35 22 44 32 24 46 34 30 52 40 34 56 44 26 48 36 26 48 36 26 48 36 26 48 36 26 48 36 26 48 36 26 48 36 26 48 36 21 45 32 21 45 32 21 45 32 21 45 32 21 45 32 21 45 32 21 45 32 21 45 32 26 50 37 26 50 37 26 50 37 26 50 37 26 50 37 26 50 37 26 50 37 26 50 37
105 97 121 105 97 121 105 97 121 105 97 121 85 77 101 85 77 101 85 77 101 85 77 101 85 77 101 85 77 101 85 77 101 83 78 101 69 65 88 67 65 86 65 63 85 61 59 80 58 56 78 55 53 74 52 50 72 51 49 70 45 43 65 42 40 61 36 34 56 28 26 47 20 18 40 13 11 32 7 5 27 5 2 21 12 4 17 13 3 12 10 0 9 7 0 6 6 0 5 6 0 5 6 0 5 6 0 5 13 3 12 13 3 12 13 3 12 13 3 12 13 3 12 13 3 12 13 3 12 10 4 16 0 0 16 0 0 18 0 0 19 0 0 18 0 0 19 0 0 18 0 0 19 0 0 18 3 5 26 3 6 25 3 5 26 3 6 25 3 5 26 3 6 25 3 5 26 0 8 21 0 11 15 0 13 10 0 13 11 0 13 10 0 13 11 0 13 10 0 13 11 0 13 10 0 12 10 0 12 9 0 12 10 0 12 9 0 12 10 0 12 9 0 12 10 0 12 9 0 16 12 0 17 12 0 16 12 0 17 12 0 16 12 0 17 12 0 16 12 0 17 12 0 17 13 0 18 13 0 17 13 0 18 13 0 17 13 0 18 13 0 17 13 0 17 11 0 14 6 0 14 4 0 14 6 0 14 4 0 14 6 0 14 4 0 14 6 0 14 4 0 9 1 0 9 0 0 9 1 0 9 0 0 9 1 0 9 0 0 9 1 0 8 0 0 9 2 0 8 2 0 7 2 0 8 2 0 7 2 0 8 2 0 7 2 0 8 2 2 11 6 3 14 8 6 15 10 8 19 13 13 22 17 15 26 20 18 27 22 18 31 24 22 43 34 23 49 36 30 56 43 40 66 53 50 76 63 60 86 73 67 93 80 71 97 84 84 110 97 89 115 102 97 123 110 103 129 116 103 129 116 97 123 110 89 115 102 86 110 97 51 73 61 44 66 54 35 55 46 25 47 35 23 43 34 24 46 34 31 51 42 34 56 44 27 47 38 26 48 36 27 47 38 26 48 36 27 47 38 26 48 36 27 47 38 26 48 36 22 44 32 22 44 32 22 44 32 22 44 32 22 44 32 22 44 32 22 44 32 22 44 32 27 49 37 27 49 37 27 49 37 27 49 37 27 49 37 27 49 37 27 49 37 27 49 37
83 79 96 83 79 96 83 79 96 83 79 96 69 65 82 68 64 81 66 62 79 62 58 75 59 55 72 56 52 69 53 49 66 52 48 65 31 28 45 31 29 43 31 28 45 31 29 43 31 28 45 31 29 43 31 28 45 31 29 43 6 3 20 6 4 18 6 3 20 6 4 18 6 3 20 6 4 18 6 3 20 6 4 18 5 1 15 7 1 15 7 1 15 7 1 15 7 1 15 7 1 15 7 1 15 7 1 15 6 0 14 6 0 14 6 0 14 6 0 14 6 0 14 6 0 14 6 0 14 4 0 14 4 3 17 2 4 17 2 4 19 2 4 17 2 4 19 2 4 17 2 4 19 2 4 17 2 4 19 2 4 17 2 4 19 2 4 17 2 4 19 2 4 17 2 4 19 1 5 16 0 7 15 0 9 11 0 8 13 0 9 11 0 8 13 0 9 11 0 8 13 0 9 11 0 9 14 0 10 12 0 9 14 0 10 12 0 9 14 0 10 12 0 9 14 0 9 14 0 8 13 0 9 13 0 8 13 0 9 13 0 8 13 0 9 13 0 8 13 0 9 13 0 9 14 0 10 14 0 9 14 0 10 14 0 9 14 0 10 14 0 9 14 0 10 12 0 9 8 0 10 6 0 9 8 0 10 6 0 9 8 0 10 6 0 9 8 0 10 6 0 5 4 0 6 2 0 5 4 0 6 2 0 5 4 0 6 2 0 5 4 0 6 2 0 6 3 0 6 3 0 5 3 0 6 3 0 5 3 0 6 3 0 5 3 0 6 3 7 13 11 7 16 13 11 17 15 12 21 18 18 24 22 19 28 25 23 29 27 23 32 27 36 47 41 37 50 43 42 55 48 49 62 55 55 68 61 62 75 68 67 80 73 69 82 75 101 114 107 101 114 107 101 114 107 101 114 107 101 114 107 101 114 107 101 114 107 102 113 107 70 76 72 62 68 64 50 54 53 37 43 39 31 35 34 29 35 31 33 37 36 35 41 37 36 40 39 35 41 37 36 40 39 35 41 37 36 40 39 35 41 37 36 40 39 35 41 37 32 38 34 32 38 34 32 38 34 32 38 34 32 38 34 32 38 34 32 38 34 32 38 34 32 38 34 32 38 34 32 38 34 32 38 34 32 38 34 32 38 34 32 38 34 32 38 34
72 68 83 72 68 83 72 68 83 72 68 83 60 56 71 58 54 69 56 52 67 53 49 64 49 45 60 46 42 57 44 40 55 42 38 53 24 22 35 24 22 35 24 22 35 24 22 35 24 22 35 24 22 35 24 22 35 24 22 35 6 4 17 6 4 17 6 4 17 6 4 17 6 4 17 6 4 17 6 4 17 6 4 17 5 1 16 5 1 16 5 1 16 5 1 16 5 1 16 5 1 16 5 1 16 5 1 16 4 0 15 4 0 15 4 0 15 4 0 15 4 0 15 4 0 15 4 0 15 3 1 15 5 3 16 4 4 16 4 4 16 4 4 16 4 4 16 4 4 16 4 4 16 4 4 16 4 4 16 4 4 16 4 4 16 4 4 16 4 4 16 4 4 16 4 4 16 4 4 14 3 6 15 3 6 13 3 6 13 3 6 13 3 6 13 3 6 13 3 6 13 3 6 13 4 7 14 4 7 14 4 7 14 4 7 14 4 7 14 4 7 14 4 7 14 4 7 14 3 6 15 3 6 15 3 6 15 3 6 15 3 6 15 3 6 15 3 6 15 3 6 15 4 7 16 4 7 16 4 7 16 4 7 16 4 7 16 4 7 16 4 7 16 4 7 14 3 7 10 3 7 8 3 7 8 3 7 8 3 7 8 3 7 8 3 7 8 3 7 8 0 3 4 0 3 4 0 3 4 0 3 4 0 3 4 0 3 4 0 3 4 0 3 4 0 5 3 0 5 3 0 5 3 0 5 3 0 5 3 0 5 3 0 5 3 0 5 3 7 13 11 9 15 13 11 17 15 14 20 18 18 24 22 21 27 25 23 29 27 25 31 29 39 45 41 41 47 43 46 52 48 53 59 55 59 65 61 66 72 68 71 77 73 73 79 75 103 109 105 103 109 105 103 109 105 103 109 105 103 109 105 103 109 105 103 109 105 104 109 105 74 74 74 67 65 66 54 52 53 42 40 41 35 33 34 34 32 33 37 35 36 40 38 39 40 38 39 40 38 39 40 38 39 40 38 39 40 38 39 40 38 39 40 38 39 40 38 39 37 36 34 37 36 34 37 36 34 37 36 34 37 36 34 37 36 34 37 36 34 37 36 34 37 36 34 37 36 34 37 36 34 37 36 34 37 36 34 37 36 34 37 36 34 37 36 34
55 51 66 55 51 66 55 51 66 55 51 66 44 40 55 43 39 54 41 37 52 37 33 48 34 30 45 31 27 42 28 24 39 27 23 38 14 12 25 14 12 25 14 12 25 14 12 25 14 12 25 14 12 25 14 12 25 14 12 25 6 4 17 6 4 17 6 4 17 6 4 17 6 4 17 6 4 17 6 4 17 6 4 17 5 1 16 5 1 16 5 1 16 5 1 16 5 1 16 5 1 16 5 1 16 5 1 16 4 0 15 4 0 15 4 0 15 4 0 15 4 0 15 4 0 15 4 0 15 3 1 15 5 3 16 4 4 16 4 4 16 4 4 16 4 4 16 4 4 16 4 4 16 4 4 16 4 4 16 4 4 16 4 4 16 4 4 16 4 4 16 4 4 16 4 4 16 4 4 14 3 6 15 3 6 13 3 6 13 3 6 13 3 6 13 3 6 13 3 6 13 3 6 13 4 7 14 4 7 14 4 7 14 4 7 14 4 7 14 4 7 14 4 7 14 4 7 14 3 6 15 3 6 15 3 6 15 3 6 15 3 6 15 3 6 15 3 6 15 3 6 15 4 7 16 4 7 16 4 7 16 4 7 16 4 7 16 4 7 16 4 7 16 4 7 14 3 7 10 3 7 8 3 7 8 3 7 8 3 7 8 3 7 8 3 7 8 3 7 8 0 3 4 0 3 4 0 3 4 0 3 4 0 3 4 0 3 4 0 3 4 0 3 4 0 5 3 0 5 3 0 5 3 0 5 3 0 5 3 0 5 3 0 5 3 0 5 3 7 13 11 9 15 13 11 17 15 14 20 18 18 24 22 21 27 25 23 29 27 25 31 29 39 45 41 41 47 43 46 52 48 53 59 55 59 65 61 66 72 68 71 77 73 73 79 75 101 107 103 101 107 103 101 107 103 101 107 103 101 107 103 101 107 103 101 107 103 102 107 103 74 74 74 67 65 66 54 52 53 42 40 41 35 33 34 34 32 33 37 35 36 40 38 39 40 38 39 40 38 39 40 38 39 40 38 39 40 38 39 40 38 39 40 38 39 40 38 39 37 36 34 37 36 34 37 36 34 37 36 34 37 36 34 37 36 34 37 36 34 37 36 34 37 36 34 37 36 34 37 36 34 37 36 34 37 36 34 37 36 34 37 36 34 37 36 34
36 32 47 36 32 47 36 32 47 36 32 47 29 25 40 28 24 39 25 21 36 22 18 33 19 15 30 16 12 27 13 9 24 12 8 23 5 3 16 5 3 16 5 3 16 5 3 16 5 3 16 5 3 16 5 3 16 5 3 16 6 4 17 6 4 17 6 4 17 6 4 17 6 4 17 6 4 17 6 4 17 6 4 17 5 1 16 5 1 16 5 1 16 5 1 16 5 1 16 5 1 16 5 1 16 5 1 16 4 0 15 4 0 15 4 0 15 4 0 15 4 0 15 4 0 15 4 0 15 3 1 15 5 3 16 4 4 16 4 4 16 4 4 16 4 4 16 4 4 16 4 4 16 4 4 16 4 4 16 4 4 16 4 4 16 4 4 16 4 4 16 4 4 16 4 4 16 4 4 14 3 6 15 3 6 13 3 6 13 3 6 13 3 6 13 3 6 13 3 6 13 3 6 13 4 7 14 4 7 14 4 7 14 4 7 14 4 7 14 4 7 14 4 7 14 4 7 14 3 6 15 3 6 15 3 6 15 3 6 15 3 6 15 3 6 15 3 6 15 3 6 15 4 7 16 4 7 16 4 7 16 4 7 16 4 7 16 4 7 16 4 7 16 4 7 14 3 7 10 3 7 8 3 7 8 3 7 8 3 7 8 3 7 8 3 7 8 3 7 8 0 3 4 0 3 4 0 3 4 0 3 4 0 3 4 0 3 4 0 3 4 0 3 4 0 5 3 0 5 3 0 5 3 0 5 3 0 5 3 0 5 3 0 5 3 0 5 3 7 13 11 9 15 13 11 17 15 14 20 18 18 24 22 21 27 25 23 29 27 25 31 29 39 45 41 41 47 43 46 52 48 53 59 55 59 65 61 66 72 68 71 77 73 73 79 75 98 104 100 98 104 100 98 104 100 98 104 100 98 104 100 98 104 100 98 104 100 99 104 100 74 74 74 67 65 66 54 52 53 42 40 41 35 33 34 34 32 33 37 35 36 40 38 39 40 38 39 40 38 39 40 38 39 40 38 39 40 38 39 40 38 39 40 38 39 40 38 39 37 36 34 37 36 34 37 36 34 37 36 34 37 36 34 37 36 34 37 36 34 37 36 34 37 36 34 37 36 34 37 36 34 37 36 34 37 36 34 37 36 34 37 36 34 37 36 34
22 18 33 22 18 33 22 18 33 22 18 33 19 15 30 18 14 29 15 11 26 12 8 23 8 4 19 5 1 16 3 0 14 2 0 13 2 0 13 2 0 13 2 0 13 2 0 13 2 0 13 2 0 13 2 0 13 2 0 13 6 4 17 6 4 17 6 4 17 6 4 17 6 4 17 6 4 17 6 4 17 6 4 17 5 1 16 5 1 16 5 1 16 5 1 16 5 1 16 5 1 16 5 1 16 5 1 16 4 0 15 4 0 15 4 0 15 4 0 15 4 0 15 4 0 15 4 0 15 3 1 15 5 3 16 4 4 16 4 4 16 4 4 16 4 4 16 4 4 16 4 4 16 4 4 16 4 4 16 4 4 16 4 4 16 4 4 16 4 4 16 4 4 16 4 4 16 4 4 14 3 6 15 3 6 13 3 6 13 3 6 13 3 6 13 3 6 13 3 6 13 3 6 13 4 7 14 4 7 14 4 7 14 4 7 14 4 7 14 4 7 14 4 7 14 4 7 14 3 6 15 3 6 15 3 6 15 3 6 15 3 6 15 3 6 15 3 6 15 3 6 15 4 7 16 4 7 16 4 7 16 4 7 16 4 7 16 4 7 16 4 7 16 4 7 14 3 7 10 3 7 8 3 7 8 3 7 8 3 7 8 3 7 8 3 7 8 3 7 8 0 3 4 0 3 4 0 3 4 0 3 4 0 3 4 0 3 4 0 3 4 0 3 4 0 5 3 0 5 3 0 5 3 0 5 3 0 5 3 0 5 3 0 5 3 0 5 3 7 13 11 9 15 13 11 17 15 14 20 18 18 24 22 21 27 25 23 29 27 25 31 29 39 45 41 41 47 43 46 52 48 53 59 55 59 65 61 66 72 68 71 77 73 73 79 75 94 100 96 94 100 96 94 100 96 94 100 96 94 100 96 94 100 96 94 100 96 95 100 96 74 74 74 67 65 66 54 52 53 42 40 41 35 33 34 34 32 33 37 35 36 40 38 39 40 38 39 40 38 39 40 38 39 40 38 39 40 38 39 40 38 39 40 38 39 40 38 39 37 36 34 37 36 34 37 36 34 37 36 34 37 36 34 37 36 34 37 36 34 37 36 34 37 36 34 37 36 34 37 36 34 37 36 34 37 36 34 37 36 34 37 36 34 37 36 34
15 11 26 15 11 26 15 11 26 15 11 26 15 11 26 14 10 25 11 7 22 8 4 19 5 1 16 1 0 12 1 0 12 1 0 12 4 2 15 4 2 15 4 2 15 4 2 15 4 2 15 4 2 15 4 2 15 4 2 15 6 4 17 6 4 17 6 4 17 6 4 17 6 4 17 6 4 17 6 4 17 6 4 17 5 1 16 5 1 16 5 1 16 5 1 16 5 1 16 5 1 16 5 1 16 5 1 16 4 0 15 4 0 15 4 0 15 4 0 15 4 0 15 4 0 15 4 0 15 3 1 15 5 3 16 4 4 16 4 4 16 4 4 16 4 4 16 4 4 16 4 4 16 4 4 16 4 4 16 4 4 16 4 4 16 4 4 16 4 4 16 4 4 16 4 4 16 4 4 14 3 6 15 3 6 13 3 6 13 3 6 13 3 6 13 3 6 13 3 6 13 3 6 13 4 7 14 4 7 14 4 7 14 4 7 14 4 7 14 4 7 14 4 7 14 4 7 14 3 6 15 3 6 15 3 6 15 3 6 15 3 6 15 3 6 15 3 6 15 3 6 15 4 7 16 4 7 16 4 7 16 4 7 16 4 7 16 4 7 16 4 7 16 4 7 14 3 7 10 3 7 8 3 7 8 3 7 8 3 7 8 3 7 8 3 7 8 3 7 8 0 3 4 0 3 4 0 3 4 0 3 4 0 3 4 0 3 4 0 3 4 0 3 4 0 5 3 0 5 3 0 5 3 0 5 3 0 5 3 0 5 3 0 5 3 0 5 3 7 13 11 9 15 13 11 17 15 14 20 18 18 24 22 21 27 25 23 29 27 25 31 29 39 45 41 41 47 43 46 52 48 53 59 55 59 65 61 66 72 68 71 77 73 73 79 75 91 97 93 91 97 93 91 97 93 91 97 93 91 97 93 91 97 93 91 97 93 92 97 93 74 74 74 67 65 66 54 52 53 42 40 41 35 33 34 34 32 33 37 35 36 40 38 39 40 38 39 40 38 39 40 38 39 40 38 39 40 38 39 40 38 39 40 38 39 40 38 39 37 36 34 37 36 34 37 36 34 37 36 34 37 36 34 37 36 34 37 36 34 37 36 34 37 36 34 37 36 34 37 36 34 37 36 34 37 36 34 37 36 34 37 36 34 37 36 34
14 10 25 14 10 25 14 10 25 14 10 25 16 12 27 14 10 25 12 8 23 9 5 20 5 1 16 2 0 13 1 0 12 1 0 12 10 8 21 10 8 21 10 8 21 10 8 21 10 8 21 10 8 21 10 8 21 10 8 21 6 4 17 6 4 17 6 4 17 6 4 17 6 4 17 6 4 17 6 4 17 6 4 17 5 1 16 5 1 16 5 1 16 5 1 16 5 1 16 5 1 16 5 1 16 5 1 16 4 0 15 4 0 15 4 0 15 4 0 15 4 0 15 4 0 15 4 0 15 3 1 15 5 3 16 4 4 16 4 4 16 4 4 16 4 4 16 4 4 16 4 4 16 4 4 16 4 4 16 4 4 16 4 4 16 4 4 16 4 4 16 4 4 16 4 4 16 4 4 14 3 6 15 3 6 13 3 6 13 3 6 13 3 6 13 3 6 13 3 6 13 3 6 13 4 7 14 4 7 14 4 7 14 4 7 14 4 7 14 4 7 14 4 7 14 4 7 14 3 6 15 3 6 15 3 6 15 3 6 15 3 6 15 3 6 15 3 6 15 3 6 15 4 7 16 4 7 16 4 7 16 4 7 16 4 7 16 4 7 16 4 7 16 4 7 14 3 7 10 3 7 8 3 7 8 3 7 8 3 7 8 3 7 8 3 7 8 3 7 8 0 3 4 0 3 4 0 3 4 0 3 4 0 3 4 0 3 4 0 3 4 0 3 4 0 5 3 0 5 3 0 5 3 0 5 3 0 5 3 0 5 3 0 5 3 0 5 3 7 13 11 9 15 13 11 17 15 14 20 18 18 24 22 21 27 25 23 29 27 25 31 29 39 45 41 41 47 43 46 52 48 53 59 55 59 65 61 66 72 68 71 77 73 73 79 75 89 95 91 89 95 91 89 95 91 89 95 91 89 95 91 89 95 91 89 95 91 90 95 91 74 74 74 67 65 66 54 52 53 42 40 41 35 33 34 34 32 33 37 35 36 40 38 39 40 38 39 40 38 39 40 38 39 40 38 39 40 38 39 40 38 39 40 38 39 40 38 39 37 36 34 37 36 34 37 36 34 37 36 34 37 36 34 37 36 34 37 36 34 37 36 34 37 36 34 37 36 34 37 36 34 37 36 34 37 36 34 37 36 34 37 36 34 37 36 34
14 10 25 14 10 25 14 10 25 14 10 25 17 13 28 16 12 27 14 10 25 10 6 21 7 3 18 4 0 15 1 0 12 1 0 12 14 12 25 14 12 25 14 12 25 14 12 25 14 12 25 14 12 25 14 12 25 14 12 25 6 4 17 6 4 17 6 4 17 6 4 17 6 4 17 6 4 17 6 4 17 6 4 17 5 1 16 5 1 16 5 1 16 5 1 16 5 1 16 5 1 16 5 1 16 5 1 16 4 0 15 4 0 15 4 0 15 4 0 15 4 0 15 4 0 15 4 0 15 3 1 15 5 3 16 4 4 16 4 4 16 4 4 16 4 4 16 4 4 16 4 4 16 4 4 16 4 4 16 4 4 16 4 4 16 4 4 16 4 4 16 4 4 16 4 4 16 4 4 14 3 6 15 3 6 13 3 6 13 3 6 13 3 6 13 3 6 13 3 6 13 3 6 13 4 7 14 4 7 14 4 7 14 4 7 14 4 7 14 4 7 14 4 7 14 4 7 14 3 6 15 3 6 15 3 6 15 3 6 15 3 6 15 3 6 15 3 6 15 3 6 15 4 7 16 4 7 16 4 7 16 4 7 16 4 7 16 4 7 16 4 7 16 4 7 14 3 7 10 3 7 8 3 7 8 3 7 8 3 7 8 3 7 8 3 7 8 3 7 8 0 3 4 0 3 4 0 3 4 0 3 4 0 3 4 0 3 4 0 3 4 0 3 4 0 5 3 0 5 3 0 5 3 0 5 3 0 5 3 0 5 3 0 5 3 0 5 3 7 13 11 9 15 13 11 17 15 14 20 18 18 24 22 21 27 25 23 29 27 25 31 29 39 45 41 41 47 43 46 52 48 53 59 55 59 65 61 66 72 68 71 77 73 73 79 75 87 93 89 87 93 89 87 93 89 87 93 89 87 93 89 87 93 89 87 93 89 88 93 89 74 74 74 67 65 66 54 52 53 42 40 41 35 33 34 34 32 33 37 35 36 40 38 39 40 38 39 40 38 39 40 38 39 40 38 39 40 38 39 40 38 39 40 38 39 40 38 39 37 36 34 37 36 34 37 36 34 37 36 34 37 36 34 37 36 34 37 36 34 37 36 34 37 36 34 37 36 34 37 36 34 37 36 34 37 36 34 37 36 34 37 36 34 37 36 34
5 1 16 5 1 16 5 1 16 5 1 16 4 0 15 4 0 15 4 0 15 4 0 15 4 0 15 4 0 15 4 0 15 4 0 15 4 2 15 4 2 15 4 2 15 4 2 15 4 2 15 4 2 15 4 2 15 4 2 15 4 2 15 4 2 15 4 2 15 4 2 15 4 2 15 4 2 15 4 2 15 4 2 15 6 2 17 6 2 17 6 2 17 6 2 17 6 2 17 6 2 17 6 2 17 6 2 17 7 3 18 7 3 18 7 3 18 7 3 18 7 3 18 7 3 18 7 3 18 6 4 18 5 3 16 4 4 16 4 4 16 4 4 16 4 4 16 4 4 16 4 4 16 4 4 16 4 4 16 4 4 16 4 4 16 4 4 16 4 4 16 4 4 16 4 4 16 4 4 14 2 5 14 2 5 12 2 5 12 2 5 12 2 5 12 2 5 12 2 5 12 2 5 12 3 6 13 3 6 13 3 6 13 3 6 13 3 6 13 3 6 13 3 6 13 3 6 13 4 7 16 4 7 16 4 7 16 4 7 16 4 7 16 4 7 16 4 7 16 4 7 16 2 5 14 2 5 14 2 5 14 2 5 14 2 5 14 2 5 14 2 5 14 2 5 12 0 1 4 0 1 2 0 1 2 5 9 10 13 17 18 21 25 26 27 31 32 30 34 35 21 25 26 14 18 19 4 8 9 0 1 2 0 1 2 0 1 2 0 4 5 4 8 9 0 5 3 0 5 3 0 5 3 0 5 3 0 5 3 0 5 3 0 5 3 0 5 3 10 16 14 12 18 16 14 20 18 17 23 21 21 27 25 24 30 28 26 32 30 28 34 32 42 48 44 44 50 46 46 52 48 49 55 51 53 59 55 56 62 58 58 64 60 60 66 62 82 88 84 82 88 84 82 88 84 82 88 84 82 88 84 82 88 84 82 88 84 83 88 84 69 69 69 62 60 61 49 47 48 37 35 36 30 28 29 29 27 28 32 30 31 35 33 34 33 31 32 33 31 32 33 31 32 33 31 32 33 31 32 33 31 32 33 31 32 33 31 32 33 32 30 33 32 30 33 32 30 33 32 30 33 32 30 33 32 30 33 32 30 33 32 30 37 36 34 37 36 34 37 36 34 37 36 34 37 36 34 37 36 34 37 36 34 37 36 34
5 1 16 5 1 16 5 1 16 5 1 16 4 0 15 4 0 15 4 0 15 4 0 15 4 0 15 4 0 15 4 0 15 4 0 15 4 2 15 4 2 15 4 2 15 4 2 15 4 2 15 4 2 15 4 2 15 4 2 15 4 2 15 4 2 15 4 2 15 4 2 15 4 2 15 4 2 15 4 2 15 4 2 15 6 2 17 6 2 17 6 2 17 6 2 17 6 2 17 6 2 17 6 2 17 6 2 17 7 3 18 7 3 18 7 3 18 7 3 18 7 3 18 7 3 18 7 3 18 6 4 18 5 3 16 4 4 16 4 4 16 4 4 16 4 4 16 4 4 16 4 4 16 4 4 16 4 4 16 4 4 16 4 4 16 4 4 16 4 4 16 4 4 16 4 4 16 4 4 14 2 5 14 2 5 12 2 5 12 2 5 12 2 5 12 2 5 12 2 5 12 2 5 12 3 6 13 3 6 13 3 6 13 3 6 13 3 6 13 3 6 13 3 6 13 3 6 13 4 7 16 4 7 16 4 7 16 4 7 16 4 7 16 4 7 16 4 7 16 4 7 16 2 5 14 2 5 14 2 5 14 2 5 14 2 5 14 2 5 14 2 5 14 2 5 12 0 1 4 0 1 2 0 2 3 5 9 10 13 17 18 20 24 25 25 29 30 28 32 33 21 25 26 14 18 19 4 8 9 0 1 2 0 1 2 0 1 2 0 4 5 4 8 9 0 5 3 0 5 3 0 5 3 0 5 3 0 5 3 0 5 3 0 5 3 0 5 3 10 16 14 12 18 16 14 20 18 17 23 21 21 27 25 24 30 28 26 32 30 28 34 32 42 48 44 44 50 46 46 52 48 49 55 51 53 59 55 56 62 58 58 64 60 60 66 62 80 86 82 80 86 82 80 86 82 80 86 82 80 86 82 80 86 82 80 86 82 81 86 82 69 69 69 62 60 61 49 47 48 37 35 36 30 28 29 29 27 28 32 30 31 35 33 34 33 31 32 33 31 32 33 31 32 33 31 32 33 31 32 33 31 32 33 31 32 33 31 32 33 32 30 33 32 30 33 32 30 33 32 30 33 32 30 33 32 30 33 32 30 33 32 30 37 36 34 37 36 34 37 36 34 37 36 34 37 36 34 37 36 34 37 36 34 37 36 34
5 1 16 5 1 16 5 1 16 5 1 16 4 0 15 4 0 15 4 0 15 4 0 15 4 0 15 4 0 15 4 0 15 4 0 15 4 2 15 4 2 15 4 2 15 4 2 15 4 2 15 4 2 15 4 2 15 4 2 15 4 2 15 4 2 15 4 2 15 4 2 15 4 2 15 4 2 15 4 2 15 4 2 15 6 2 17 6 2 17 6 2 17 6 2 17 6 2 17 6 2 17 6 2 17 6 2 17 7 3 18 7 3 18 7 3 18 7 3 18 7 3 18 7 3 18 7 3 18 6 4 18 5 3 16 4 4 16 4 4 16 4 4 16 4 4 16 4 4 16 4 4 16 4 4 16 4 4 16 4 4 16 4 4 16 4 4 16 4 4 16 4 4 16 4 4 16 4 4 14 2 5 14 2 5 12 2 5 12 2 5 12 2 5 12 2 5 12 2 5 12 2 5 12 3 6 13 3 6 13 3 6 13 3 6 13 3 6 13 3 6 13 3 6 13 3 6 13 4 7 16 4 7 16 4 7 16 4 7 16 4 7 16 4 7 16 4 7 16 4 7 16 2 5 14 2 5 14 2 5 14 2 5 14 2 5 14 2 5 14 2 5 14 2 5 12 0 1 4 0 1 2 0 4 5 6 10 11 12 16 17 18 22 23 22 26 27 24 28 29 21 25 26 14 18 19 4 8 9 0 1 2 0 1 2 0 1 2 0 4 5 4 8 9 0 5 3 0 5 3 0 5 3 0 5 3 0 5 3 0 5 3 0 5 3 0 5 3 10 16 14 12 18 16 14 20 18 17 23 21 21 27 25 24 30 28 26 32 30 28 34 32 42 48 44 44 50 46 46 52 48 49 55 51 53 59 55 56 62 58 58 64 60 60 66 62 78 84 80 78 84 80 78 84 80 78 84 80 78 84 80 78 84 80 78 84 80 79 84 80 69 69 69 62 60 61 49 47 48 37 35 36 30 28 29 29 27 28 32 30 31 35 33 34 33 31 32 33 31 32 33 31 32 33 31 32 33 31 32 33 31 32 33 31 32 33 31 32 33 32 30 33 32 30 33 32 30 33 32 30 33 32 30 33 32 30 33 32 30 33 32 30 37 36 34 37 36 34 37 36 34 37 36 34 37 36 34 37 36 34 37 36 34 37 36 34
5 1 16 5 1 16 5 1 16 5 1 16 4 0 15 4 0 15 4 0 15 4 0 15 4 0 15 4 0 15 4 0 15 4 0 15 4 2 15 4 2 15 4 2 15 4 2 15 4 2 15 4 2 15 4 2 15 4 2 15 4 2 15 4 2 15 4 2 15 4 2 15 4 2 15 4 2 15 4 2 15 4 2 15 6 2 17 6 2 17 6 2 17 6 2 17 6 2 17 6 2 17 6 2 17 6 2 17 7 3 18 7 3 18 7 3 18 7 3 18 7 3 18 7 3 18 7 3 18 6 4 18 5 3 16 4 4 16 4 4 16 4 4 16 4 4 16 4 4 16 4 4 16 4 4 16 4 4 16 4 4 16 4 4 16 4 4 16 4 4 16 4 4 16 4 4 16 4 4 14 2 5 14 2 5 12 2 5 12 2 5 12 2 5 12 2 5 12 2 5 12 2 5 12 3 6 13 3 6 13 3 6 13 3 6 13 3 6 13 3 6 13 3 6 13 3 6 13 4 7 16 4 7 16 4 7 16 4 7 16 4 7 16 4 7 16 4 7 16 4 7 16 2 5 14 2 5 14 2 5 14 2 5 14 2 5 14 2 5 14 2 5 14 2 5 12 0 2 5 0 4 5 3 7 8 7 11 12 11 15 16 15 19 20 18 22 23 20 24 25 21 25 26 14 18 19 4 8 9 0 1 2 0 1 2 0 1 2 0 4 5 4 8 9 0 5 3 0 5 3 0 5 3 0 5 3 0 5 3 0 5 3 0 5 3 0 5 3 10 16 14 12 18 16 14 20 18 17 23 21 21 27 25 24 30 28 26 32 30 28 34 32 42 48 44 44 50 46 46 52 48 49 55 51 53 59 55 56 62 58 58 64 60 60 66 62 75 81 77 75 81 77 75 81 77 75 81 77 75 81 77 75 81 77 75 81 77 76 81 77 69 69 69 62 60 61 49 47 48 37 35 36 30 28 29 29 27 28 32 30 31 35 33 34 33 31 32 33 31 32 33 31 32 33 31 32 33 31 32 33 31 32 33 31 32 33 31 32 33 32 30 33 32 30 33 32 30 33 32 30 33 32 30 33 32 30 33 32 30 33 32 30 37 36 34 37 36 34 37 36 34 37 36 34 37 36 34 37 36 34 37 36 34 37 36 34
5 1 16 5 1 16 5 1 16 5 1 16 4 0 15 4 0 15 4 0 15 4 0 15 4 0 15 4 0 15 4 0 15 4 0 15 4 2 15 4 2 15 4 2 15 4 2 15 4 2 15 4 2 15 4 2 15 4 2 15 4 2 15 4 2 15 4 2 15 4 2 15 4 2 15 4 2 15 4 2 15 4 2 15 6 2 17 6 2 17 6 2 17 6 2 17 6 2 17 6 2 17 6 2 17 6 2 17 7 3 18 7 3 18 7 3 18 7 3 18 7 3 18 7 3 18 7 3 18 6 4 18 5 3 16 4 4 16 4 4 16 4 4 16 4 4 16 4 4 16 4 4 16 4 4 16 4 4 16 4 4 16 4 4 16 4 4 16 4 4 16 4 4 16 4 4 16 4 4 14 2 5 14 2 5 12 2 5 12 2 5 12 2 5 12 2 5 12 2 5 12 2 5 12 3 6 13 3 6 13 3 6 13 3 6 13 3 6 13 3 6 13 3 6 13 3 6 13 4 7 16 4 7 16 4 7 16 4 7 16 4 7 16 4 7 16 4 7 16 4 7 16 2 5 14 2 5 14 2 5 14 2 5 14 2 5 14 2 5 14 2 5 14 2 5 12 3 7 10 4 8 9 5 9 10 8 12 13 10 14 15 13 17 18 14 18 19 15 19 20 21 25 26 14 18 19 4 8 9 0 1 2 0 1 2 0 1 2 0 4 5 4 8 9 0 5 3 0 5 3 0 5 3 0 5 3 0 5 3 0 5 3 0 5 3 0 5 3 10 16 14 12 18 16 14 20 18 17 23 21 21 27 25 24 30 28 26 32 30 28 34 32 42 48 44 44 50 46 46 52 48 49 55 51 53 59 55 56 62 58 58 64 60 60 66 62 71 77 73 71 77 73 71 77 73 71 77 73 71 77 73 71 77 73 71 77 73 72 77 73 69 69 69 62 60 61 49 47 48 37 35 36 30 28 29 29 27 28 32 30 31 35 33 34 33 31 32 33 31 32 33 31 32 33 31 32 33 31 32 33 31 32 33 31 32 33 31 32 33 32 30 33 32 30 33 32 30 33 32 30 33 32 30 33 32 30 33 32 30 33 32 30 37 36 34 37 36 34 37 36 34 37 36 34 37 36 34 37 36 34 37 36 34 37 36 34
5 1 16 5 1 16 5 1 16 5 1 16 4 0 15 4 0 15 4 0 15 4 0 15 4 0 15 4 0 15 4 0 15 4 0 15 4 2 15 4 2 15 4 2 15 4 2 15 4 2 15 4 2 15 4 2 15 4 2 15 4 2 15 4 2 15 4 2 15 4 2 15 4 2 15 4 2 15 4 2 15 4 2 15 6 2 17 6 2 17 6 2 17 6 2 17 6 2 17 6 2 17 6 2 17 6 2 17 7 3 18 7 3 18 7 3 18 7 3 18 7 3 18 7 3 18 7 3 18 6 4 18 5 3 16 4 4 16 4 4 16 4 4 16 4 4 16 4 4 16 4 4 16 4 4 16 4 4 16 4 4 16 4 4 16 4 4 16 4 4 16 4 4 16 4 4 16 4 4 14 2 5 14 2 5 12 2 5 12 2 5 12 2 5 12 2 5 12 2 5 12 2 5 12 3 6 13 3 6 13 3 6 13 3 6 13 3 6 13 3 6 13 3 6 13 3 6 13 4 7 16 4 7 16 4 7 16 4 7 16 4 7 16 4 7 16 4 7 16 4 7 16 2 5 14 2 5 14 2 5 14 2 5 14 2 5 14 2 5 14 2 5 14 2 5 12 7 11 14 7 11 12 8 12 13 9 13 14 9 13 14 10 14 15 11 15 16 11 15 16 21 25 26 14 18 19 4 8 9 0 1 2 0 1 2 0 1 2 0 4 5 4 8 9 0 5 3 0 5 3 0 5 3 0 5 3 0 5 3 0 5 3 0 5 3 0 5 3 10 16 14 12 18 16 14 20 18 17 23 21 21 27 25 24 30 28 26 32 30 28 34 32 42 48 44 44 50 46 46 52 48 49 55 51 53 59 55 56 62 58 58 64 60 60 66 62 68 74 70 68 74 70 68 74 70 68 74 70 68 74 70 68 74 70 68 74 70 69 74 70 69 69 69 62 60 61 49 47 48 37 35 36 30 28 29 29 27 28 32 30 31 35 33 34 33 31 32 33 31 32 33 31 32 33 31 32 33 31 32 33 31 32 33 31 32 33 31 32 33 32 30 33 32 30 33 32 30 33 32 30 33 32 30 33 32 30 33 32 30 33 32 30 37 36 34 37 36 34 37 36 34 37 36 34 37 36 34 37 36 34 37 36 34 37 36 34
5 1 16 5 1 16 5 1 16 5 1 16 4 0 15 4 0 15 4 0 15 4 0 15 4 0 15 4 0 15 4 0 15 4 0 15 4 2 15 4 2 15 4 2 15 4 2 15 4 2 15 4 2 15 4 2 15 4 2 15 4 2 15 4 2 15 4 2 15 4 2 15 4 2 15 4 2 15 4 2 15 4 2 15 6 2 17 6 2 17 6 2 17 6 2 17 6 2 17 6 2 17 6 2 17 6 2 17 7 3 18 7 3 18 7 3 18 7 3 18 7 3 18 7 3 18 7 3 18 6 4 18 5 3 16 4 4 16 4 4 16 4 4 16 4 4 16 4 4 16 4 4 16 4 4 16 4 4 16 4 4 16 4 4 16 4 4 16 4 4 16 4 4 16 4 4 16 4 4 14 2 5 14 2 5 12 2 5 12 2 5 12 2 5 12 2 5 12 2 5 12 2 5 12 3 6 13 3 6 13 3 6 13 3 6 13 3 6 13 3 6 13 3 6 13 3 6 13 4 7 16 4 7 16 4 7 16 4 7 16 4 7 16 4 7 16 4 7 16 4 7 16 2 5 14 2 5 14 2 5 14 2 5 14 2 5 14 2 5 14 2 5 14 2 5 12 11 15 18 10 14 15 10 14 15 9 13 14 9 13 14 8 12 13 8 12 13 7 11 12 21 25 26 14 18 19 4 8 9 0 1 2 0 1 2 0 1 2 0 4 5 4 8 9 0 5 3 0 5 3 0 5 3 0 5 3 0 5 3 0 5 3 0 5 3 0 5 3 10 16 14 12 18 16 14 20 18 17 23 21 21 27 25 24 30 28 26 32 30 28 34 32 42 48 44 44 50 46 46 52 48 49 55 51 53 59 55 56 62 58 58 64 60 60 66 62 66 72 68 66 72 68 66 72 68 66 72 68 66 72 68 66 72 68 66 72 68 67 72 68 69 69 69 62 60 61 49 47 48 37 35 36 30 28 29 29 27 28 32 30 31 35 33 34 33 31 32 33 31 32 33 31 32 33 31 32 33 31 32 33 31 32 33 31 32 33 31 32 33 32 30 33 32 30 33 32 30 33 32 30 33 32 30 33 32 30 33 32 30 33 32 30 37 36 34 37 36 34 37 36 34 37 36 34 37 36 34 37 36 34 37 36 34 37 36 34
5 1 16 5 1 15 5 1 16 5 1 15 4 0 15 4 0 14 4 0 15 4 0 14 4 0 15 4 0 14 4 0 15 4 0 14 4 2 15 4 2 13 4 2 15 4 2 13 4 2 15 4 2 13 4 2 15 4 2 13 4 2 15 4 2 13 4 2 15 4 2 13 4 2 15 4 2 13 4 2 15 4 2 15 6 2 16 6 2 16 6 2 16 6 2 16 6 2 16 6 2 16 6 2 16 6 2 16 7 3 17 7 3 17 7 3 17 7 3 17 7 3 17 7 3 17 7 3 17 6 4 17 5 3 16 4 4 14 4 4 16 4 4 14 4 4 16 4 4 14 4 4 16 4 4 14 4 4 16 4 4 14 4 4 16 4 4 14 4 4 16 4 4 14 4 4 16 4 4 14 4 4 12 2 5 12 2 5 12 2 5 12 2 5 12 2 5 12 2 5 12 2 5 12 3 6 13 3 6 13 3 6 13 3 6 13 3 6 13 3 6 13 3 6 13 3 6 13 4 7 16 3 7 16 4 7 16 3 7 16 4 7 16 3 7 16 4 7 16 3 7 16 2 5 14 1 5 14 2 5 14 1 5 14 2 5 14 1 5 14 2 5 14 2 5 12 12 16 19 12 16 17 11 15 16 10 14 15 8 12 13 7 11 12 6 10 11 6 10 11 21 25 26 14 18 19 4 8 9 0 1 2 0 1 2 0 1 2 0 4 5 4 8 9 0 5 3 0 5 3 0 5 3 0 5 3 0 5 3 0 5 3 0 5 3 0 5 3 10 16 14 12 18 16 14 20 18 17 23 21 21 27 25 24 30 28 26 32 30 28 34 32 42 48 46 44 50 46 46 52 48 49 55 51 53 59 55 56 62 58 58 64 60 60 66 62 64 70 66 64 70 66 64 70 66 64 70 66 64 70 66 64 70 66 64 70 66 65 70 66 69 69 67 62 61 59 49 47 48 37 36 34 30 28 29 29 28 26 32 30 31 35 34 32 33 31 32 33 32 30 33 31 32 33 32 30 33 31 32 33 32 30 33 31 32 33 32 30 33 32 30 33 32 28 35 31 30 33 32 28 35 31 30 33 32 28 35 31 30 33 32 28 39 35 34 37 36 32 39 35 34 37 36 32 39 35 34 37 36 32 39 35 34 37 36 34
4 0 14 4 1 12 4 0 14 4 1 12 3 0 13 3 0 11 3 0 13 3 0 11 3 0 13 3 0 11 3 0 13 3 0 11 4 2 13 4 3 11 4 2 13 4 3 11 4 2 13 4 3 11 4 2 13 4 3 11 5 3 14 5 4 12 5 3 14 5 4 12 5 3 14 5 4 12 5 3 14 5 3 14 4 2 13 4 2 13 4 2 13 4 2 13 4 2 13 4 2 13 4 2 13 4 2 13 5 3 14 5 3 14 5 3 14 5 3 14 5 3 14 5 3 14 5 3 14 5 3 14 3 1 12 3 2 10 3 1 12 3 2 10 3 1 12 3 2 10 3 1 12 3 2 10 2 0 11 2 1 9 2 0 11 2 1 9 2 0 11 2 1 9 2 0 11 1 1 9 4 4 12 4 4 12 4 4 12 4 4 12 4 4 12 4 4 12 4 4 12 4 4 12 6 6 14 6 6 14 6 6 14 6 6 14 6 6 14 6 6 14 6 6 14 4 7 14 4 9 15 2 9 15 4 9 15 2 9 15 4 9 15 2 9 15 4 9 15 2 9 15 2 7 13 1 8 14 5 10 16 7 14 20 12 17 23 13 20 26 18 23 29 19 24 28 37 42 45 35 41 41 30 36 36 23 29 29 17 23 23 10 16 16 5 11 11 3 9 9 0 4 4 0 4 4 0 4 4 0 4 4 0 4 4 0 4 4 0 4 4 0 4 4 0 5 5 0 5 5 0 5 5 0 5 5 0 5 5 0 5 5 0 5 5 0 5 5 12 18 18 14 20 20 16 22 22 19 25 25 23 29 29 26 32 32 28 34 34 30 36 34 36 42 40 38 44 42 40 46 44 43 49 47 47 53 51 50 56 54 52 58 56 54 60 58 64 70 68 64 70 68 64 70 68 64 70 68 64 70 68 64 70 68 64 70 68 65 70 66 47 46 44 47 43 40 45 41 40 42 38 35 38 34 33 35 31 28 33 29 28 31 27 24 33 29 28 33 29 26 33 29 28 33 29 26 33 29 28 33 29 26 33 29 28 33 29 26 34 30 27 34 31 26 35 30 27 34 31 26 35 30 27 34 31 26 35 30 27 34 31 26 37 32 29 36 33 28 37 32 29 36 33 28 37 32 29 36 33 28 37 32 29 36 32 29
4 1 12 4 1 12 4 1 12 4 1 12 3 0 11 3 0 11 3 0 11 3 0 11 3 0 11 3 0 11 3 0 11 3 0 11 4 3 11 4 3 11 4 3 11 4 3 11 4 3 11 4 3 11 4 3 11 4 3 11 5 4 12 5 4 12 5 4 12 5 4 12 5 4 12 5 4 12 5 4 12 5 4 12 4 3 11 4 3 11 4 3 11 4 3 11 4 3 11 4 3 11 4 3 11 4 3 11 5 4 12 5 4 12 5 4 12 5 4 12 5 4 12 5 4 12 5 4 12 5 4 12 3 2 10 3 2 10 3 2 10 3 2 10 3 2 10 3 2 10 3 2 10 3 2 10 2 1 9 2 1 9 2 1 9 2 1 9 2 1 9 2 1 9 2 1 9 2 1 9 4 4 12 4 4 12 4 4 12 4 4 12 4 4 12 4 4 12 4 4 12 4 4 12 6 6 14 6 6 14 6 6 14 6 6 14 6 6 14 6 6 14 6 6 14 4 7 14 4 9 15 2 9 15 2 9 15 2 9 15 2 9 15 2 9 15 2 9 15 2 9 15 1 8 14 2 9 15 5 12 18 8 15 21 11 18 24 15 22 28 17 24 30 18 26 29 37 42 45 35 41 41 30 36 36 23 29 29 17 23 23 10 16 16 5 11 11 3 9 9 0 4 4 0 4 4 0 4 4 0 4 4 0 4 4 0 4 4 0 4 4 0 4 4 0 5 5 0 5 5 0 5 5 0 5 5 0 5 5 0 5 5 0 5 5 0 5 5 12 18 18 14 20 20 16 22 22 19 25 25 23 29 29 26 32 32 28 34 34 30 36 36 36 42 40 38 44 42 40 46 44 43 49 47 47 53 51 50 56 54 52 58 56 54 60 58 62 68 66 62 68 66 62 68 66 62 68 66 62 68 66 62 68 66 62 68 66 63 68 64 47 46 44 47 43 40 45 41 38 42 38 35 38 34 31 35 31 28 33 29 26 31 27 24 33 29 26 33 29 26 33 29 26 33 29 26 33 29 26 33 29 26 33 29 26 33 29 26 35 30 26 35 30 26 35 30 26 35 30 26 35 30 26 35 30 26 35 30 26 35 30 26 37 32 28 37 32 28 37 32 28 37 32 28 37 32 28 37 32 28 37 32 28 37 32 28
4 1 12 4 1 12 4 1 12 4 1 12 3 0 11 3 0 11 3 0 11 3 0 11 3 0 11 3 0 11 3 0 11 3 0 11 4 3 11 4 3 11 4 3 11 4 3 11 4 3 11 4 3 11 4 3 11 4 3 11 5 4 12 5 4 12 5 4 12 5 4 12 5 4 12 5 4 12 5 4 12 5 4 12 4 3 11 4 3 11 4 3 11 4 3 11 4 3 11 4 3 11 4 3 11 4 3 11 5 4 12 5 4 12 5 4 12 5 4 12 5 4 12 5 4 12 5 4 12 5 4 12 3 2 10 3 2 10 3 2 10 3 2 10 3 2 10 3 2 10 3 2 10 3 2 10 2 1 9 2 1 9 2 1 9 2 1 9 2 1 9 2 1 9 2 1 9 2 1 9 4 4 12 4 4 12 4 4 12 4 4 12 4 4 12 4 4 12 4 4 12 4 4 12 6 6 14 6 6 14 6 6 14 6 6 14 6 6 14 6 6 14 6 6 14 4 7 14 4 9 15 2 9 15 2 9 15 2 9 15 2 9 15 2 9 15 2 9 15 2 9 15 3 10 16 5 12 18 7 14 20 10 17 23 14 21 27 17 24 30 19 26 32 21 29 32 37 42 45 35 41 41 30 36 36 23 29 29 17 23 23 10 16 16 5 11 11 3 9 9 0 4 4 0 4 4 0 4 4 0 4 4 0 4 4 0 4 4 0 4 4 0 4 4 0 5 5 0 5 5 0 5 5 0 5 5 0 5 5 0 5 5 0 5 5 0 5 5 12 18 18 14 20 20 16 22 22 19 25 25 23 29 29 26 32 32 28 34 34 30 36 36 36 42 40 38 44 42 40 46 44 43 49 47 47 53 51 50 56 54 52 58 56 54 60 58 60 66 64 60 66 64 60 66 64 60 66 64 60 66 64 60 66 64 60 66 64 61 66 62 47 46 44 47 43 40 45 41 38 42 38 35 38 34 31 35 31 28 33 29 26 31 27 24 33 29 26 33 29 26 33 29 26 33 29 26 33 29 26 33 29 26 33 29 26 33 29 26 35 30 26 35 30 26 35 30 26 35 30 26 35 30 26 35 30 26 35 30 26 35 30 26 37 32 28 37 32 28 37 32 28 37 32 28 37 32 28 37 32 28 37 32 28 37 32 28
4 1 12 4 1 12 4 1 12 4 1 12 3 0 11 3 0 11 3 0 11 3 0 11 3 0 11 3 0 11 3 0 11 3 0 11 4 3 11 4 3 11 4 3 11 4 3 11 4 3 11 4 3 11 4 3 11 4 3 11 5 4 12 5 4 12 5 4 12 5 4 12 5 4 12 5 4 12 5 4 12 5 4 12 4 3 11 4 3 11 4 3 11 4 3 11 4 3 11 4 3 11 4 3 11 4 3 11 5 4 12 5 4 12 5 4 12 5 4 12 5 4 12 5 4 12 5 4 12 5 4 12 3 2 10 3 2 10 3 2 10 3 2 10 3 2 10 3 2 10 3 2 10 3 2 10 2 1 9 2 1 9 2 1 9 2 1 9 2 1 9 2 1 9 2 1 9 2 1 9 4 4 12 4 4 12 4 4 12 4 4 12 4 4 12 4 4 12 4 4 12 4 4 12 6 6 14 6 6 14 6 6 14 6 6 14 6 6 14 6 6 14 6 6 14 4 7 14 4 9 15 2 9 15 2 9 15 2 9 15 2 9 15 2 9 15 2 9 15 2 9 15 7 14 20 8 15 21 10 17 23 14 21 27 17 24 30 20 27 33 23 30 36 24 32 35 37 42 45 35 41 41 30 36 36 23 29 29 17 23 23 10 16 16 5 11 11 3 9 9 0 4 4 0 4 4 0 4 4 0 4 4 0 4 4 0 4 4 0 4 4 0 4 4 0 5 5 0 5 5 0 5 5 0 5 5 0 5 5 0 5 5 0 5 5 0 5 5 12 18 18 14 20 20 16 22 22 19 25 25 23 29 29 26 32 32 28 34 34 30 36 36 36 42 40 38 44 42 40 46 44 43 49 47 47 53 51 50 56 54 52 58 56 54 60 58 57 63 61 57 63 61 57 63 61 57 63 61 57 63 61 57 63 61 57 63 61 58 63 59 47 46 44 47 43 40 45 41 38 42 38 35 38 34 31 35 31 28 33 29 26 31 27 24 33 29 26 33 29 26 33 29 26 33 29 26 33 29 26 33 29 26 33 29 26 33 29 26 35 30 26 35 30 26 35 30 26 35 30 26 35 30 26 35 30 26 35 30 26 35 30 26 37 32 28 37 32 28 37 32 28 37 32 28 37 32 28 37 32 28 37 32 28 37 32 28
4 1 12 4 1 12 4 1 12 4 1 12 3 0 11 3 0 11 3 0 11 3 0 11 3 0 11 3 0 11 3 0 11 3 0 11 4 3 11 4 3 11 4 3 11 4 3 11 4 3 11 4 3 11 4 3 11 4 3 11 5 4 12 5 4 12 5 4 12 5 4 12 5 4 12 5 4 12 5 4 12 5 4 12 4 3 11 4 3 11 4 3 11 4 3 11 4 3 11 4 3 11 4 3 11 4 3 11 5 4 12 5 4 12 5 4 12 5 4 12 5 4 12 5 4 12 5 4 12 5 4 12 3 2 10 3 2 10 3 2 10 3 2 10 3 2 10 3 2 10 3 2 10 3 2 10 2 1 9 2 1 9 2 1 9 2 1 9 2 1 9 2 1 9 2 1 9 2 1 9 4 4 12 4 4 12 4 4 12 4 4 12 4 4 12 4 4 12 4 4 12 4 4 12 6 6 14 6 6 14 6 6 14 6 6 14 6 6 14 6 6 14 6 6 14 4 7 14 4 9 15 2 9 15 2 9 15 2 9 15 2 9 15 2 9 15 2 9 15 2 9 15 10 17 23 11 18 24 14 21 27 17 24 30 20 27 33 24 31 37 26 33 39 27 35 38 37 42 45 35 41 41 30 36 36 23 29 29 17 23 23 10 16 16 5 11 11 3 9 9 0 4 4 0 4 4 0 4 4 0 4 4 0 4 4 0 4 4 0 4 4 0 4 4 0 5 5 0 5 5 0 5 5 0 5 5 0 5 5 0 5 5 0 5 5 0 5 5 12 18 18 14 20 20 16 22 22 19 25 25 23 29 29 26 32 32 28 34 34 30 36 36 36 42 40 38 44 42 40 46 44 43 49 47 47 53 51 50 56 54 52 58 56 54 60 58 53 59 57 53 59 57 53 59 57 53 59 57 53 59 57 53 59 57 53 59 57 54 59 55 47 46 44 47 43 40 45 41 38 42 38 35 38 34 31 35 31 28 33 29 26 31 27 24 33 29 26 33 29 26 33 29 26 33 29 26 33 29 26 33 29 26 33 29 26 33 29 26 35 30 26 35 30 26 35 30 26 35 30 26 35 30 26 35 30 26 35 30 26 35 30 26 37 32 28 37 32 28 37 32 28 37 32 28 37 32 28 37 32 28 37 32 28 37 32 28
4 1 12 4 1 12 4 1 12 4 1 12 3 0 11 3 0 11 3 0 11 3 0 11 3 0 11 3 0 11 3 0 11 3 0 11 4 3 11 4 3 11 4 3 11 4 3 11 4 3 11 4 3 11 4 3 11 4 3 11 5 4 12 5 4 12 5 4 12 5 4 12 5 4 12 5 4 12 5 4 12 5 4 12 4 3 11 4 3 11 4 3 11 4 3 11 4 3 11 4 3 11 4 3 11 4 3 11 5 4 12 5 4 12 5 4 12 5 4 12 5 4 12 5 4 12 5 4 12 5 4 12 3 2 10 3 2 10 3 2 10 3 2 10 3 2 10 3 2 10 3 2 10 3 2 10 2 1 9 2 1 9 2 1 9 2 1 9 2 1 9 2 1 9 2 1 9 2 1 9 4 4 12 4 4 12 4 4 12 4 4 12 4 4 12 4 4 12 4 4 12 4 4 12 6 6 14 6 6 14 6 6 14 6 6 14 6 6 14 6 6 14 6 6 14 4 7 14 4 9 15 2 9 15 2 9 15 2 9 15 2 9 15 2 9 15 2 9 15 2 9 15 13 20 26 15 22 28 17 24 30 20 27 33 24 31 37 27 34 40 29 36 42 31 39 42 37 42 45 35 41 41 30 36 36 23 29 29 17 23 23 10 16 16 5 11 11 3 9 9 0 4 4 0 4 4 0 4 4 0 4 4 0 4 4 0 4 4 0 4 4 0 4 4 0 5 5 0 5 5 0 5 5 0 5 5 0 5 5 0 5 5 0 5 5 0 5 5 12 18 18 14 20 20 16 22 22 19 25 25 23 29 29 26 32 32 28 34 34 30 36 36 36 42 40 38 44 42 40 46 44 43 49 47 47 53 51 50 56 54 52 58 56 54 60 58 50 56 54 50 56 54 50 56 54 50 56 54 50 56 54 50 56 54 50 56 54 51 56 52 47 46 44 47 43 40 45 41 38 42 38 35 38 34 31 35 31 28 33 29 26 31 27 24 33 29 26 33 29 26 33 29 26 33 29 26 33 29 26 33 29 26 33 29 26 33 29 26 35 30 26 35 30 26 35 30 26 35 30 26 35 30 26 35 30 26 35 30 26 35 30 26 37 32 28 37 32 28 37 32 28 37 32 28 37 32 28 37 32 28 37 32 28 37 32 28
4 1 12 4 1 12 4 1 12 4 1 12 3 0 11 3 0 11 3 0 11 3 0 11 3 0 11 3 0 11 3 0 11 3 0 11 4 3 11 4 3 11 4 3 11 4 3 11 4 3 11 4 3 11 4 3 11 4 3 11 5 4 12 5 4 12 5 4 12 5 4 12 5 4 12 5 4 12 5 4 12 5 4 12 4 3 11 4 3 11 4 3 11 4 3 11 4 3 11 4 3 11 4 3 11 4 3 11 5 4 12 5 4 12 5 4 12 5 4 12 5 4 12 5 4 12 5 4 12 5 4 12 3 2 10 3 2 10 3 2 10 3 2 10 3 2 10 3 2 10 3 2 10 3 2 10 2 1 9 2 1 9 2 1 9 2 1 9 2 1 9 2 1 9 2 1 9 2 1 9 4 4 12 4 4 12 4 4 12 4 4 12 4 4 12 4 4 12 4 4 12 4 4 12 6 6 14 6 6 14 6 6 14 6 6 14 6 6 14 6 6 14 6 6 14 4 7 14 4 9 15 2 9 15 2 9 15 2 9 15 2 9 15 2 9 15 2 9 15 2 9 15 16 23 29 17 24 30 19 26 32 23 30 36 26 33 39 29 36 42 32 39 45 33 41 44 37 42 45 35 41 41 30 36 36 23 29 29 17 23 23 10 16 16 5 11 11 3 9 9 0 4 4 0 4 4 0 4 4 0 4 4 0 4 4 0 4 4 0 4 4 0 4 4 0 5 5 0 5 5 0 5 5 0 5 5 0 5 5 0 5 5 0 5 5 0 5 5 12 18 18 14 20 20 16 22 22 19 25 25 23 29 29 26 32 32 28 34 34 30 36 36 36 42 40 38 44 42 40 46 44 43 49 47 47 53 51 50 56 54 52 58 56 54 60 58 48 54 52 48 54 52 48 54 52 48 54 52 48 54 52 48 54 52 48 54 52 49 54 50 47 46 44 47 43 40 45 41 38 42 38 35 38 34 31 35 31 28 33 29 26 31 27 24 33 29 26 33 29 26 33 29 26 33 29 26 33 29 26 33 29 26 33 29 26 33 29 26 35 30 26 35 30 26 35 30 26 35 30 26 35 30 26 35 30 26 35 30 26 35 30 26 37 32 28 37 32 28 37 32 28 37 32 28 37 32 28 37 32 28 37 32 28 37 32 28
4 1 12 4 1 12 4 1 12 4 1 12 3 0 11 3 0 11 3 0 11 3 0 11 3 0 11 3 0 11 3 0 11 3 0 11 4 3 11 4 3 11 4 3 11 4 3 11 4 3 11 4 3 11 4 3 11 4 3 11 5 4 12 5 4 12 5 4 12 5 4 12 5 4 12 5 4 12 5 4 12 5 4 12 4 3 11 4 3 11 4 3 11 4 3 11 4 3 11 4 3 11 4 3 11 4 3 11 5 4 12 5 4 12 5 4 12 5 4 12 5 4 12 5 4 12 5 4 12 5 4 12 3 2 10 3 2 10 3 2 10 3 2 10 3 2 10 3 2 10 3 2 10 3 2 10 2 1 9 2 1 9 2 1 9 2 1 9 2 1 9 2 1 9 2 1 9 2 1 9 4 4 12 4 4 12 4 4 12 4 4 12 4 4 12 4 4 12 4 4 12 4 4 12 6 6 14 6 6 14 6 6 14 6 6 14 6 6 14 6 6 14 6 6 14 4 7 14 4 9 15 2 9 15 2 9 15 2 9 15 2 9 15 2 9 15 2 9 15 2 9 15 17 24 30 18 25 31 21 28 34 24 31 37 27 34 40 31 38 44 33 40 46 34 42 45 37 42 45 35 41 41 30 36 36 23 29 29 17 23 23 10 16 16 5 11 11 3 9 9 0 4 4 0 4 4 0 4 4 0 4 4 0 4 4 0 4 4 0 4 4 0 4 4 0 5 5 0 5 5 0 5 5 0 5 5 0 5 5 0 5 5 0 5 5 0 5 5 12 18 18 14 20 20 16 22 22 19 25 25 23 29 29 26 32 32 28 34 34 30 36 36 36 42 40 38 44 42 40 46 44 43 49 47 47 53 51 50 56 54 52 58 56 54 60 58 46 52 50 46 52 50 46 52 50 46 52 50 46 52 50 46 52 50 46 52 50 47 52 48 47 46 44 47 43 40 45 41 38 42 38 35 38 34 31 35 31 28 33 29 26 31 27 24 33 29 26 33 29 26 33 29 26 33 29 26 33 29 26 33 29 26 33 29 26 33 29 26 35 30 26 35 30 26 35 30 26 35 30 26 35 30 26 35 30 26 35 30 26 35 30 26 37 32 28 37 32 28 37 32 28 37 32 28 37 32 28 37 32 28 37 32 28 37 32 28
4 1 12 4 1 12 4 1 12 4 1 12 3 0 11 3 0 11 3 0 11 3 0 11 3 0 11 3 0 11 3 0 11 3 0 11 2 1 9 2 1 9 2 1 9 2 1 9 2 1 9 2 1 9 2 1 9 2 1 9 3 2 10 3 2 10 3 2 10 3 2 10 3 2 10 3 2 10 3 2 10 3 2 10 4 3 11 4 3 11 4 3 11 4 3 11 4 3 11 4 3 11 4 3 11 4 3 11 5 4 12 5 4 12 5 4 12 5 4 12 5 4 12 5 4 12 5 4 12 5 4 12 3 2 10 3 2 10 3 2 10 3 2 10 3 2 10 3 2 10 3 2 10 3 2 10 2 1 9 2 1 9 2 1 9 2 1 9 2 1 9 2 1 9 2 1 9 2 1 9 2 2 10 2 2 10 2 2 10 2 2 10 2 2 10 2 2 10 2 2 10 2 2 10 6 6 14 6 6 14 6 6 14 6 6 14 6 6 14 6 6 14 6 6 14 4 7 14 0 1 7 0 1 7 0 1 7 0 6 12 6 13 19 12 19 25 17 24 30 20 27 33 40 47 53 40 47 53 40 47 53 40 47 53 40 47 53 40 47 53 40 47 53 40 48 51 32 37 40 30 36 36 28 34 34 25 31 31 21 27 27 18 24 24 16 22 22 14 20 20 0 4 4 0 4 4 0 4 4 0 4 4 0 4 4 0 4 4 0 4 4 0 4 4 0 2 2 0 2 2 0 2 2 0 5 5 3 9 9 6 12 12 8 14 14 10 16 16 11 17 17 13 19 19 15 21 21 18 24 24 22 28 28 25 31 31 27 33 33 29 35 35 35 41 39 35 41 39 35 41 39 35 41 39 35 41 39 35 41 39 35 41 39 35 41 39 49 55 53 49 55 53 49 55 53 49 55 53 49 55 53 49 55 53 49 55 53 50 55 51 42 41 39 42 38 35 40 36 33 37 33 30 33 29 26 30 26 23 28 24 21 26 22 19 32 28 25 32 28 25 32 28 25 32 28 25 32 28 25 32 28 25 32 28 25 32 28 25 35 30 26 35 30 26 35 30 26 35 30 26 35 30 26 35 30 26 35 30 26 35 30 26 35 30 26 35 30 26 35 30 26 35 30 26 35 30 26 35 30 26 35 30 26 35 30 26
4 1 12 4 1 12 4 1 12 4 1 12 3 0 11 3 0 11 3 0 11 3 0 11 3 0 11 3 0 11 3 0 11 3 0 11 2 1 9 2 1 9 2 1 9 2 1 9 2 1 9 2 1 9 2 1 9 2 1 9 3 2 10 3 2 10 3 2 10 3 2 10 3 2 10 3 2 10 3 2 10 3 2 10 4 3 11 4 3 11 4 3 11 4 3 11 4 3 11 4 3 11 4 3 11 4 3 11 5 4 12 5 4 12 5 4 12 5 4 12 5 4 12 5 4 12 5 4 12 5 4 12 3 2 10 3 2 10 3 2 10 3 2 10 3 2 10 3 2 10 3 2 10 3 2 10 2 1 9 2 1 9 2 1 9 2 1 9 2 1 9 2 1 9 2 1 9 2 1 9 2 2 10 2 2 10 2 2 10 2 2 10 2 2 10 2 2 10 2 2 10 2 2 10 6 6 14 6 6 14 6 6 14 6 6 14 6 6 14 6 6 14 6 6 14 4 7 14 0 1 7 0 1 7 0 2 8 2 9 15 9 16 22 15 22 28 20 27 33 23 30 36 40 47 53 40 47 53 40 47 53 40 47 53 40 47 53 40 47 53 40 47 53 40 48 51 32 37 40 30 36 36 28 34 34 25 31 31 21 27 27 18 24 24 16 22 22 14 20 20 0 4 4 0 4 4 0 4 4 0 4 4 0 4 4 0 4 4 0 4 4 0 4 4 0 2 2 0 2 2 0 2 2 0 5 5 3 9 9 6 12 12 8 14 14 10 16 16 11 17 17 13 19 19 15 21 21 18 24 24 22 28 28 25 31 31 27 33 33 29 35 35 35 41 39 35 41 39 35 41 39 35 41 39 35 41 39 35 41 39 35 41 39 35 41 39 47 53 51 47 53 51 47 53 51 47 53 51 47 53 51 47 53 51 47 53 51 48 53 49 42 41 39 42 38 35 40 36 33 37 33 30 33 29 26 30 26 23 28 24 21 26 22 19 32 28 25 32 28 25 32 28 25 32 28 25 32 28 25 32 28 25 32 28 25 32 28 25 35 30 26 35 30 26 35 30 26 35 30 26 35 30 26 35 30 26 35 30 26 35 30 26 35 30 26 35 30 26 35 30 26 35 30 26 35 30 26 35 30 26 35 30 26 35 30 26
4 1 12 4 1 12 4 1 12 4 1 12 3 0 11 3 0 11 3 0 11 3 0 11 3 0 11 3 0 11 3 0 11 3 0 11 2 1 9 2 1 9 2 1 9 2 1 9 2 1 9 2 1 9 2 1 9 2 1 9 3 2 10 3 2 10 3 2 10 3 2 10 3 2 10 3 2 10 3 2 10 3 2 10 4 3 11 4 3 11 4 3 11 4 3 11 4 3 11 4 3 11 4 3 11 4 3 11 5 4 12 5 4 12 5 4 12 5 4 12 5 4 12 5 4 12 5 4 12 5 4 12 3 2 10 3 2 10 3 2 10 3 2 10 3 2 10 3 2 10 3 2 10 3 2 10 2 1 9 2 1 9 2 1 9 2 1 9 2 1 9 2 1 9 2 1 9 2 1 9 2 2 10 2 2 10 2 2 10 2 2 10 2 2 10 2 2 10 2 2 10 2 2 10 6 6 14 6 6 14 6 6 14 6 6 14 6 6 14 6 6 14 6 6 14 4 7 14 0 1 7 0 2 8 0 7 13 7 14 20 14 21 27 20 27 33 25 32 38 28 35 41 40 47 53 40 47 53 40 47 53 40 47 53 40 47 53 40 47 53 40 47 53 40 48 51 32 37 40 30 36 36 28 34 34 25 31 31 21 27 27 18 24 24 16 22 22 14 20 20 0 4 4 0 4 4 0 4 4 0 4 4 0 4 4 0 4 4 0 4 4 0 4 4 0 2 2 0 2 2 0 2 2 0 5 5 3 9 9 6 12 12 8 14 14 10 16 16 11 17 17 13 19 19 15 21 21 18 24 24 22 28 28 25 31 31 27 33 33 29 35 35 35 41 39 35 41 39 35 41 39 35 41 39 35 41 39 35 41 39 35 41 39 35 41 39 45 51 49 45 51 49 45 51 49 45 51 49 45 51 49 45 51 49 45 51 49 46 51 47 42 41 39 42 38 35 40 36 33 37 33 30 33 29 26 30 26 23 28 24 21 26 22 19 32 28 25 32 28 25 32 28 25 32 28 25 32 28 25 32 28 25 32 28 25 32 28 25 35 30 26 35 30 26 35 30 26 35 30 26 35 30 26 35 30 26 35 30 26 35 30 26 35 30 26 35 30 26 35 30 26 35 30 26 35 30 26 35 30 26 35 30 26 35 30 26
4 1 12 4 1 12 4 1 12 4 1 12 3 0 11 3 0 11 3 0 11 3 0 11 3 0 11 3 0 11 3 0 11 3 0 11 2 1 9 2 1 9 2 1 9 2 1 9 2 1 9 2 1 9 2 1 9 2 1 9 3 2 10 3 2 10 3 2 10 3 2 10 3 2 10 3 2 10 3 2 10 3 2 10 4 3 11 4 3 11 4 3 11 4 3 11 4 3 11 4 3 11 4 3 11 4 3 11 5 4 12 5 4 12 5 4 12 5 4 12 5 4 12 5 4 12 5 4 12 5 4 12 3 2 10 3 2 10 3 2 10 3 2 10 3 2 10 3 2 10 3 2 10 3 2 10 2 1 9 2 1 9 2 1 9 2 1 9 2 1 9 2 1 9 2 1 9 2 1 9 2 2 10 2 2 10 2 2 10 2 2 10 2 2 10 2 2 10 2 2 10 2 2 10 6 6 14 6 6 14 6 6 14 6 6 14 6 6 14 6 6 14 6 6 14 4 7 14 1 6 12 2 9 15 7 14 20 13 20 26 20 27 33 26 33 39 31 38 44 34 41 47 40 47 53 40 47 53 40 47 53 40 47 53 40 47 53 40 47 53 40 47 53 40 48 51 32 37 40 30 36 36 28 34 34 25 31 31 21 27 27 18 24 24 16 22 22 14 20 20 0 4 4 0 4 4 0 4 4 0 4 4 0 4 4 0 4 4 0 4 4 0 4 4 0 2 2 0 2 2 0 2 2 0 5 5 3 9 9 6 12 12 8 14 14 10 16 16 11 17 17 13 19 19 15 21 21 18 24 24 22 28 28 25 31 31 27 33 33 29 35 35 35 41 39 35 41 39 35 41 39 35 41 39 35 41 39 35 41 39 35 41 39 35 41 39 42 48 46 42 48 46 42 48 46 42 48 46 42 48 46 42 48 46 42 48 46 43 48 44 42 41 39 42 38 35 40 36 33 37 33 30 33 29 26 30 26 23 28 24 21 26 22 19 32 28 25 32 28 25 32 28 25 32 28 25 32 28 25 32 28 25 32 28 25 32 28 25 35 30 26 35 30 26 35 30 26 35 30 26 35 30 26 35 30 26 35 30 26 35 30 26 35 30 26 35 30 26 35 30 26 35 30 26 35 30 26 35 30 26 35 30 26 35 30 26
4 1 12 4 1 12 4 1 12 4 1 12 3 0 11 3 0 11 3 0 11 3 0 11 3 0 11 3 0 11 3 0 11 3 0 11 2 1 9 2 1 9 2 1 9 2 1 9 2 1 9 2 1 9 2 1 9 2 1 9 3 2 10 3 2 10 3 2 10 3 2 10 3 2 10 3 2 10 3 2 10 3 2 10 4 3 11 4 3 11 4 3 11 4 3 11 4 3 11 4 3 11 4 3 11 4 3 11 5 4 12 5 4 12 5 4 12 5 4 12 5 4 12 5 4 12 5 4 12 5 4 12 3 2 10 3 2 10 3 2 10 3 2 10 3 2 10 3 2 10 3 2 10 3 2 10 2 1 9 2 1 9 2 1 9 2 1 9 2 1 9 2 1 9 2 1 9 2 1 9 2 2 10 2 2 10 2 2 10 2 2 10 2 2 10 2 2 10 2 2 10 2 2 10 6 6 14 6 6 14 6 6 14 6 6 14 6 6 14 6 6 14 6 6 14 4 7 14 8 13 19 9 16 22 14 21 27 20 27 33 27 34 40 33 40 46 38 45 51 41 48 54 40 47 53 40 47 53 40 47 53 40 47 53 40 47 53 40 47 53 40 47 53 40 48 51 32 37 40 30 36 36 28 34 34 25 31 31 21 27 27 18 24 24 16 22 22 14 20 20 0 4 4 0 4 4 0 4 4 0 4 4 0 4 4 0 4 4 0 4 4 0 4 4 0 2 2 0 2 2 0 2 2 0 5 5 3 9 9 6 12 12 8 14 14 10 16 16 11 17 17 13 19 19 15 21 21 18 24 24 22 28 28 25 31 31 27 33 33 29 35 35 35 41 39 35 41 39 35 41 39 35 41 39 35 41 39 35 41 39 35 41 39 35 41 39 38 44 42 38 44 42 38 44 42 38 44 42 38 44 42 38 44 42 38 44 42 39 44 40 42 41 39 42 38 35 40 36 33 37 33 30 33 29 26 30 26 23 28 24 21 26 22 19 32 28 25 32 28 25 32 28 25 32 28 25 32 28 25 32 28 25 32 28 25 32 28 25 35 30 26 35 30 26 35 30 26 35 30 26 35 30 26 35 30 26 35 30 26 35 30 26 35 30 26 35 30 26 35 30 26 35 30 26 35 30 26 35 30 26 35 30 26 35 30 26
4 1 12 4 1 12 4 1 12 4 1 12 3 0 11 3 0 11 3 0 11 3 0 11 3 0 11 3 0 11 3 0 11 3 0 11 2 1 9 2 1 9 2 1 9 2 1 9 2 1 9 2 1 9 2 1 9 2 1 9 3 2 10 3 2 10 3 2 10 3 2 10 3 2 10 3 2 10 3 2 10 3 2 10 4 3 11 4 3 11 4 3 11 4 3 11 4 3 11 4 3 11 4 3 11 4 3 11 5 4 12 5 4 12 5 4 12 5 4 12 5 4 12 5 4 12 5 4 12 5 4 12 3 2 10 3 2 10 3 2 10 3 2 10 3 2 10 3 2 10 3 2 10 3 2 10 2 1 9 2 1 9 2 1 9 2 1 9 2 1 9 2 1 9 2 1 9 2 1 9 2 2 10 2 2 10 2 2 10 2 2 10 2 2 10 2 2 10 2 2 10 2 2 10 6 6 14 6 6 14 6 6 14 6 6 14 6 6 14 6 6 14 6 6 14 4 7 14 14 19 25 15 22 28 20 27 33 26 33 39 33 40 46 40 47 53 45 52 58 47 54 60 40 47 53 40 47 53 40 47 53 40 47 53 40 47 53 40 47 53 40 47 53 40 48 51 32 37 40 30 36 36 28 34 34 25 31 31 21 27 27 18 24 24 16 22 22 14 20 20 0 4 4 0 4 4 0 4 4 0 4 4 0 4 4 0 4 4 0 4 4 0 4 4 0 2 2 0 2 2 0 2 2 0 5 5 3 9 9 6 12 12 8 14 14 10 16 16 11 17 17 13 19 19 15 21 21 18 24 24 22 28 28 25 31 31 27 33 33 29 35 35 35 41 39 35 41 39 35 41 39 35 41 39 35 41 39 35 41 39 35 41 39 35 41 39 35 41 39 35 41 39 35 41 39 35 41 39 35 41 39 35 41 39 35 41 39 36 41 37 42 41 39 42 38 35 40 36 33 37 33 30 33 29 26 30 26 23 28 24 21 26 22 19 32 28 25 32 28 25 32 28 25 32 28 25 32 28 25 32 28 25 32 28 25 32 28 25 35 30 26 35 30 26 35 30 26 35 30 26 35 30 26 35 30 26 35 30 26 35 30 26 35 30 26 35 30 26 35 30 26 35 30 26 35 30 26 35 30 26 35 30 26 35 30 26
4 1 12 4 1 12 4 1 12 4 1 12 3 0 11 3 0 11 3 0 11 3 0 11 3 0 11 3 0 11 3 0 11 3 0 11 2 1 9 2 1 9 2 1 9 2 1 9 2 1 9 2 1 9 2 1 9 2 1 9 3 2 10 3 2 10 3 2 10 3 2 10 3 2 10 3 2 10 3 2 10 3 2 10 4 3 11 4 3 11 4 3 11 4 3 11 4 3 11 4 3 11 4 3 11 4 3 11 5 4 12 5 4 12 5 4 12 5 4 12 5 4 12 5 4 12 5 4 12 5 4 12 3 2 10 3 2 10 3 2 10 3 2 10 3 2 10 3 2 10 3 2 10 3 2 10 2 1 9 2 1 9 2 1 9 2 1 9 2 1 9 2 1 9 2 1 9 2 1 9 2 2 10 2 2 10 2 2 10 2 2 10 2 2 10 2 2 10 2 2 10 2 2 10 6 6 14 6 6 14 6 6 14 6 6 14 6 6 14 6 6 14 6 6 14 4 7 14 19 24 30 20 27 33 25 32 38 31 38 44 38 45 51 45 52 58 49 56 62 52 59 65 40 47 53 40 47 53 40 47 53 40 47 53 40 47 53 40 47 53 40 47 53 40 48 51 32 37 40 30 36 36 28 34 34 25 31 31 21 27 27 18 24 24 16 22 22 14 20 20 0 4 4 0 4 4 0 4 4 0 4 4 0 4 4 0 4 4 0 4 4 0 4 4 0 2 2 0 2 2 0 2 2 0 5 5 3 9 9 6 12 12 8 14 14 10 16 16 11 17 17 13 19 19 15 21 21 18 24 24 22 28 28 25 31 31 27 33 33 29 35 35 35 41 39 35 41 39 35 41 39 35 41 39 35 41 39 35 41 39 35 41 39 35 41 39 33 39 37 33 39 37 33 39 37 33 39 37 33 39 37 33 39 37 33 39 37 34 39 35 42 41 39 42 38 35 40 36 33 37 33 30 33 29 26 30 26 23 28 24 21 26 22 19 32 28 25 32 28 25 32 28 25 32 28 25 32 28 25 32 28 25 32 28 25 32 28 25 35 30 26 35 30 26 35 30 26 35 30 26 35 30 26 35 30 26 35 30 26 35 30 26 35 30 26 35 30 26 35 30 26 35 30 26 35 30 26 35 30 26 35 30 26 35 30 26
4 1 12 4 1 10 4 1 12 4 1 10 3 0 11 3 0 9 3 0 11 3 0 9 3 0 11 3 0 9 3 0 11 3 0 9 2 1 9 2 1 7 2 1 9 2 1 7 2 1 9 2 1 7 2 1 9 2 1 7 3 2 10 3 2 8 3 2 10 3 2 8 3 2 10 3 2 8 3 2 10 3 2 10 4 3 11 4 3 11 4 3 11 4 3 11 4 3 11 4 3 11 4 3 11 4 3 11 5 4 12 5 4 12 5 4 12 5 4 12 5 4 12 5 4 12 5 4 12 5 4 12 3 2 10 3 2 10 3 2 10 3 2 10 3 2 10 3 2 10 3 2 10 3 2 10 2 1 9 2 1 9 2 1 9 2 1 9 2 1 9 2 1 9 2 1 9 2 1 9 2 2 10 0 3 10 2 2 10 0 3 10 2 2 10 0 3 10 2 2 10 0 3 10 6 6 14 4 7 14 6 6 14 4 7 14 6 6 14 4 7 14 6 6 14 4 7 14 22 27 33 23 31 34 28 35 41 34 42 45 41 48 54 47 55 58 52 59 65 55 63 66 40 47 53 40 48 51 40 47 53 40 48 51 40 47 53 40 48 51 40 47 53 40 48 51 32 37 40 30 36 36 28 34 34 25 31 31 21 27 27 18 24 24 16 22 22 14 20 20 0 4 4 0 4 4 0 4 4 0 4 4 0 4 4 0 4 4 0 4 4 0 4 4 0 2 2 0 2 2 0 1 4 0 5 5 3 8 11 6 12 12 8 13 16 10 16 16 11 16 19 13 19 19 15 20 23 18 24 24 22 27 30 25 31 31 27 32 35 29 35 35 35 41 41 35 41 39 35 41 41 35 41 39 35 41 41 35 41 39 35 41 41 35 41 39 31 37 37 31 37 35 31 37 37 31 37 35 31 37 37 31 37 35 31 37 37 32 36 35 42 41 39 42 38 35 40 36 33 37 33 30 33 29 26 30 26 23 28 24 21 26 22 19 32 28 25 32 28 25 32 28 25 32 28 25 32 28 25 32 28 25 32 28 25 33 28 25 35 30 26 35 30 26 37 29 26 35 30 26 37 29 26 35 30 26 37 29 26 35 30 26 37 29 26 35 30 26 37 29 26 35 30 26 37 29 26 35 30 26 37 29 26 35 30 27
2 1 9 2 1 7 2 1 9 2 1 7 3 2 10 3 2 8 3 2 10 3 2 8 3 2 10 3 2 8 3 2 10 3 2 8 1 0 6 1 0 5 1 0 6 1 0 5 1 0 6 1 0 5 1 0 6 1 0 5 2 1 7 2 1 6 2 1 7 2 1 6 2 1 7 2 1 6 2 1 7 2 1 7 2 1 7 2 1 7 2 1 7 2 1 7 2 1 7 2 1 7 2 1 7 2 1 7 3 2 8 3 2 8 3 2 8 3 2 8 3 2 8 3 2 8 3 2 8 3 2 8 2 1 9 2 1 9 2 1 9 2 1 9 2 1 9 2 1 9 2 1 9 2 1 9 5 4 12 5 4 12 5 4 12 5 4 12 5 4 12 5 4 12 5 4 12 4 4 12 0 0 7 0 2 8 0 3 10 2 7 13 7 10 17 9 14 20 12 15 22 13 18 24 0 0 7 0 4 10 5 8 15 10 15 21 18 21 28 23 28 34 29 32 39 31 36 42 50 58 61 50 58 60 50 58 61 50 58 60 50 58 61 50 58 60 50 58 61 50 58 60 36 44 47 36 44 46 36 44 47 36 44 46 36 44 47 36 44 46 36 44 47 36 44 46 38 43 46 35 40 43 30 35 38 24 29 32 17 22 25 11 16 19 6 11 14 3 8 11 6 11 14 5 10 13 2 7 10 0 4 7 0 1 4 0 1 4 0 1 4 0 1 4 0 2 4 0 2 4 0 4 7 0 7 9 3 11 14 6 14 16 8 16 19 10 18 20 18 26 29 18 26 28 18 26 29 18 26 28 18 26 29 18 26 28 18 26 29 18 26 28 27 32 35 27 33 33 27 32 35 27 33 33 27 32 35 27 33 33 27 32 35 27 33 33 29 34 37 29 35 35 29 34 37 29 35 35 29 34 37 29 35 35 29 34 37 30 34 35 29 28 26 32 27 24 32 27 24 32 27 24 32 27 24 32 27 24 32 27 24 32 27 24 33 28 25 33 28 25 33 28 25 33 28 25 33 28 25 33 28 25 33 28 25 33 28 25 36 28 26 36 28 26 37 27 26 36 28 26 37 27 26 36 28 26 37 27 26 36 28 26 38 28 27 37 29 27 38 28 27 37 29 27 38 28 27 37 29 27 38 28 27 37 29 27
2 1 7 2 1 7 2 1 7 2 1 7 3 2 8 3 2 8 3 2 8 3 2 8 3 2 8 3 2 8 3 2 8 3 2 8 1 0 5 1 0 5 1 0 5 1 0 5 1 0 5 1 0 5 1 0 5 1 0 5 2 1 6 2 1 6 2 1 6 2 1 6 2 1 6 2 1 6 2 1 6 2 1 6 2 1 7 2 1 7 2 1 7 2 1 7 2 1 7 2 1 7 2 1 7 2 1 7 3 2 8 3 2 8 3 2 8 3 2 8 3 2 8 3 2 8 3 2 8 3 2 8 2 1 9 2 1 9 2 1 9 2 1 9 2 1 9 2 1 9 2 1 9 2 1 9 5 4 12 5 4 12 5 4 12 5 4 12 5 4 12 5 4 12 5 4 12 4 4 12 0 0 7 0 2 8 0 4 10 2 7 13 6 11 17 9 14 20 11 16 22 13 18 24 0 4 10 2 7 13 6 11 17 13 18 24 20 25 31 26 31 37 31 36 42 34 39 43 50 58 61 50 58 60 50 58 60 50 58 60 50 58 60 50 58 60 50 58 60 50 58 60 38 46 48 38 46 48 38 46 48 38 46 48 38 46 48 38 46 48 38 46 48 38 46 48 39 44 47 36 41 44 31 36 39 25 30 33 18 23 26 12 17 20 7 12 15 4 9 12 7 12 15 6 11 14 4 9 12 0 5 8 0 2 5 0 1 4 0 1 4 0 1 4 0 2 5 0 2 5 0 4 7 0 7 10 3 11 14 6 14 17 8 16 19 10 18 21 18 26 29 18 26 29 18 26 29 18 26 29 18 26 29 18 26 29 18 26 29 18 26 29 27 32 35 27 32 35 27 32 35 27 32 35 27 32 35 27 32 35 27 32 35 27 32 35 29 34 37 29 34 37 29 34 37 29 34 37 29 34 37 29 34 37 29 34 37 30 34 35 31 27 26 32 27 24 32 27 24 32 27 24 32 27 24 32 27 24 32 27 24 32 27 24 33 28 25 33 28 25 33 28 25 33 28 25 33 28 25 33 28 25 33 28 25 33 28 25 37 27 26 37 27 26 37 27 26 37 27 26 37 27 26 37 27 26 37 27 26 37 27 26 38 28 27 38 28 27 38 28 27 38 28 27 38 28 27 38 28 27 38 28 27 37 29 27
2 1 7 2 1 7 2 1 7 2 1 7 3 2 8 3 2 8 3 2 8 3 2 8 3 2 8 3 2 8 3 2 8 3 2 8 1 0 5 1 0 5 1 0 5 1 0 5 1 0 5 1 0 5 1 0 5 1 0 5 2 1 6 2 1 6 2 1 6 2 1 6 2 1 6 2 1 6 2 1 6 2 1 6 2 1 7 2 1 7 2 1 7 2 1 7 2 1 7 2 1 7 2 1 7 2 1 7 3 2 8 3 2 8 3 2 8 3 2 8 3 2 8 3 2 8 3 2 8 3 2 8 2 1 9 2 1 9 2 1 9 2 1 9 2 1 9 2 1 9 2 1 9 2 1 9 5 4 12 5 4 12 5 4 12 5 4 12 5 4 12 5 4 12 5 4 12 4 4 12 0 0 7 0 2 8 0 4 10 2 7 13 6 11 17 9 14 20 11 16 22 13 18 24 4 9 15 6 11 17 11 16 22 18 23 29 25 30 36 31 36 42 36 41 47 39 44 48 50 58 61 50 58 60 50 58 60 50 58 60 50 58 60 50 58 60 50 58 60 50 58 60 40 48 50 40 48 50 40 48 50 40 48 50 40 48 50 40 48 50 40 48 50 40 48 50 41 46 49 39 44 47 34 39 42 28 33 36 21 26 29 14 19 22 9 14 17 7 12 15 10 15 18 8 13 16 6 11 14 3 8 11 0 4 7 0 1 4 0 1 4 0 1 4 0 2 5 0 2 5 0 4 7 0 7 10 3 11 14 6 14 17 8 16 19 10 18 21 18 26 29 18 26 29 18 26 29 18 26 29 18 26 29 18 26 29 18 26 29 18 26 29 27 32 35 27 32 35 27 32 35 27 32 35 27 32 35 27 32 35 27 32 35 27 32 35 29 34 37 29 34 37 29 34 37 29 34 37 29 34 37 29 34 37 29 34 37 30 34 35 31 27 26 32 27 24 32 27 24 32 27 24 32 27 24 32 27 24 32 27 24 32 27 24 33 28 25 33 28 25 33 28 25 33 28 25 33 28 25 33 28 25 33 28 25 33 28 25 37 27 26 37 27 26 37 27 26 37 27 26 37 27 26 37 27 26 37 27 26 37 27 26 38 28 27 38 28 27 38 28 27 38 28 27 38 28 27 38 28 27 38 28 27 37 29 27
