P3
172 37
255
0 0 0 0 0 0 0 0 0 0 0 0 0 0 0 0 0 0 0 0 0 0 0 0 0 0 0 0 0 0 0 0 0 0 0 0 0 0 0 0 0 0 0 0 0 0 0 0 0 0 0 0 0 0 0 0 0 0 0 0 0 0 0 0 0 0 0 0 0 0 0 0 0 0 0 0 0 0 0 0 0 0 0 0 0 0 0 0 0 0 0 0 0 0 0 0 0 0 0 0 0 0 0 0 0 0 0 0 0 0 0 0 0 0 0 0 0 0 0 0 0 0 0 0 0 0 0 0 0 0 0 0 0 0 0 0 0 0 0 0 0 0 0 0 0 0 0 0 0 0 0 0 0 0 0 0 0 0 0 0 0 0 0 0 0 0 0 0 0 0 0 0 0 0 0 0 0 0 0 0 0 0 0 0 0 0 0 0 0 0 0 0 0 0 0 0 0 0 0 0 0 0 0 0 0 0 0 0 0 0 0 0 0 0 0 0 0 0 0 0 0 0 0 0 0 0 0 0 0 0 0 0 0 0 0 0 0 0 0 0 0 0 0 0 0 0 0 0 0 0 0 0 0 0 0 0 0 0 0 0 0 0 0 0 0 0 0 0 0 0 0 0 0 0 1 0 1 2 4 1 5 6 3 7 8 6 10 11 10 14 15 13 17 18 15 19 20 17 21 22 20 24 25 18 22 23 16 20 21 13 17 18 9 13 14 6 10 11 4 8 9 2 6 7 0 1 0 0 1 0 0 1 0 0 1 0 0 1 0 0 1 0 0 1 0 0 1 0 6 8 7 8 10 9 13 15 14 20 22 21 26 28 27 33 35 34 38 40 39 41 41 41 58 53 59 61 54 61 63 56 63 66 59 66 70 63 70 73 66 73 75 68 75 77 70 77 73 66 73 75 68 75 77 70 77 80 73 80 84 77 84 87 80 87 89 82 89 93 83 91 94 80 93 96 80 93 96 80 93 96 80 93 96 80 93 96 80 93 96 80 93 96 80 93 99 83 96 99 83 96 99 83 96 99 83 96 99 83 96 99 83 96 99 83 96 99 83 94 91 78 88 91 78 87 91 78 87 91 78 87 91 78 87 91 78 87 91 78 87 91 78 87 90 77 86 90 77 86 90 77 86 90 77 86 90 77 86 90 77 86 90 77 86 90 77 86
0 0 0 0 0 0 0 0 0 0 0 0 0 0 0 0 0 0 0 0 0 0 0 0 0 0 0 0 0 0 0 0 0 0 0 0 0 0 0 0 0 0 0 0 0 0 0 0 0 0 0 0 0 0 0 0 0 0 0 0 0 0 0 0 0 0 0 0 0 0 0 0 0 0 0 0 0 0 0 0 0 0 0 0 0 0 0 0 0 0 0 0 0 0 0 0 0 0 0 0 0 0 0 0 0 0 0 0 0 0 0 0 0 0 0 0 0 0 0 0 0 0 0 0 0 0 0 0 0 0 0 0 0 0 0 0 0 0 0 0 0 0 0 0 0 0 0 0 0 0 0 0 0 0 0 0 0 0 0 0 0 0 0 0 0 0 0 0 0 0 0 0 0 0 0 0 0 0 0 0 0 0 0 0 0 0 0 0 0 0 0 0 0 0 0 0 0 0 0 0 0 0 0 0 0 0 0 0 0 0 0 0 0 0 0 0 0 0 0 0 0 0 0 0 0 0 0 0 0 0 0 0 0 0 0 0 0 0 0 0 0 0 0 0 0 0 0 0 0 0 0 0 0 0 0 0 0 0 0 0 0 0 0 0 0 0 0 0 0 0 0 0 0 0 1 0 0 3 4 0 6 6 3 7 8 5 11 11 10 14 15 12 18 18 15 19 20 16 22 22 20 24 25 17 23 23 16 20 21 12 18 18 9 13 14 5 11 11 4 8 9 2 6 7 0 1 0 0 1 0 0 1 0 0 1 0 0 1 0 0 1 0 0 1 0 0 1 0 6 8 7 8 10 9 13 15 14 20 22 21 26 28 27 33 35 34 38 40 39 41 41 41 56 54 57 60 55 59 62 57 63 65 60 64 69 64 70 72 67 71 74 69 75 76 71 75 72 67 73 74 69 73 76 71 77 79 74 78 83 78 84 86 81 85 88 83 89 91 84 91 94 81 91 96 80 91 96 80 91 96 80 91 96 80 91 96 80 91 96 80 91 96 80 91 99 83 94 99 83 94 99 83 94 99 83 94 99 83 94 99 83 94 99 83 94 99 83 94 93 77 87 93 78 85 93 78 85 93 78 85 93 78 85 93 78 85 93 78 85 93 78 85 92 77 84 92 77 84 92 77 84 92 77 84 92 77 84 92 77 84 92 77 84 92 77 84
0 0 0 0 0 0 0 0 0 0 0 0 0 0 0 0 0 0 0 0 0 0 0 0 0 0 0 0 0 0 0 0 0 0 0 0 0 0 0 0 0 0 0 0 0 0 0 0 0 0 0 0 0 0 0 0 0 0 0 0 0 0 0 0 0 0 0 0 0 0 0 0 0 0 0 0 0 0 0 0 0 0 0 0 0 0 0 0 0 0 0 0 0 0 0 0 0 0 0 0 0 0 0 0 0 0 0 0 0 0 0 0 0 0 0 0 0 0 0 0 0 0 0 0 0 0 0 0 0 0 0 0 0 0 0 0 0 0 0 0 0 0 0 0 0 0 0 0 0 0 0 0 0 0 0 0 0 0 0 0 0 0 0 0 0 0 0 0 0 0 0 0 0 0 0 0 0 0 0 0 0 0 0 0 0 0 0 0 0 0 0 0 0 0 0 0 0 0 0 0 0 0 0 0 0 0 0 0 0 0 0 0 0 0 0 0 0 0 0 0 0 0 0 0 0 0 0 0 0 0 0 0 0 0 0 0 0 0 0 0 0 0 0 0 0 0 0 0 0 0 0 0 1 1 1 1 1 1 1 1 1 1 1 1 1 1 1 1 1 1 1 1 1 0 2 1 0 6 6 0 9 8 4 10 10 5 14 13 11 17 17 12 21 20 16 22 22 16 25 24 14 20 20 10 19 18 10 16 16 5 14 13 3 9 9 0 7 6 0 4 4 0 2 2 0 1 0 0 1 0 0 1 0 0 1 0 0 1 0 0 1 0 0 1 0 0 1 0 0 1 0 1 3 2 6 8 7 13 15 14 19 21 20 26 28 27 31 33 32 33 35 34 45 45 45 48 46 47 50 48 51 53 51 52 57 55 58 60 58 59 62 60 63 64 62 63 70 68 71 70 68 69 70 68 71 70 68 69 70 68 71 70 68 69 70 68 71 72 67 71 84 73 79 87 71 81 87 71 81 87 71 81 87 71 81 87 71 81 87 71 81 87 71 81 90 74 84 90 74 84 90 74 84 90 74 84 90 74 84 90 74 84 90 74 84 90 75 82 88 71 77 88 71 77 88 71 77 88 71 77 88 71 77 88 71 77 88 71 77 88 71 77 95 78 84 95 78 84 95 78 84 95 78 84 95 78 84 95 78 84 95 78 84 95 78 84
0 0 0 0 0 0 0 0 0 0 0 0 0 0 0 0 0 0 0 0 0 0 0 0 0 0 0 0 0 0 0 0 0 0 0 0 0 0 0 0 0 0 0 0 0 0 0 0 0 0 0 0 0 0 0 0 0 0 0 0 0 0 0 0 0 0 0 0 0 0 0 0 0 0 0 0 0 0 0 0 0 0 0 0 0 0 0 0 0 0 0 0 0 0 0 0 0 0 0 0 0 0 0 0 0 0 0 0 0 0 0 0 0 0 0 0 0 0 0 0 0 0 0 0 0 0 0 0 0 0 0 0 0 0 0 0 0 0 0 0 0 0 0 0 0 0 0 0 0 0 0 0 0 0 0 0 0 0 0 0 0 0 0 0 0 0 0 0 0 0 0 0 0 0 0 0 0 0 0 0 0 0 0 0 0 0 0 0 0 0 0 0 0 0 0 0 0 0 0 0 0 0 0 0 0 0 0 0 0 0 0 0 0 0 0 0 0 0 0 0 0 0 0 0 0 0 0 0 0 0 0 0 0 0 0 0 0 0 0 0 0 0 0 0 0 0 0 0 0 0 0 0 1 1 1 1 1 1 1 1 1 1 1 1 1 1 1 1 1 1 1 1 1 0 2 1 0 6 6 0 9 8 2 11 10 5 14 13 9 18 17 12 21 20 14 23 22 16 25 24 12 21 20 10 19 18 8 17 16 5 14 13 1 10 9 0 7 6 0 5 4 0 2 2 0 1 0 0 1 0 0 1 0 0 1 0 0 1 0 0 1 0 0 1 0 0 1 0 0 1 0 1 3 2 6 8 7 13 15 14 19 21 20 26 28 27 31 33 32 33 35 34 45 45 45 47 47 47 49 49 49 52 52 52 56 56 56 59 59 59 61 61 61 63 63 63 69 69 69 69 69 69 69 69 69 69 69 69 69 69 69 69 69 69 69 69 69 72 68 69 84 73 79 87 72 79 87 72 79 87 72 79 87 72 79 87 72 79 87 72 79 87 72 79 90 75 82 90 75 82 90 75 82 90 75 82 90 75 82 90 75 82 90 75 82 90 75 80 90 71 77 90 71 75 90 71 75 90 71 75 90 71 75 90 71 75 90 71 75 90 71 75 97 78 82 97 78 82 97 78 82 97 78 82 97 78 82 97 78 82 97 78 82 97 78 82
0 0 0 0 0 0 0 0 0 0 0 0 0 0 0 0 0 0 0 0 0 0 0 0 0 0 0 0 0 0 0 0 0 0 0 0 0 0 0 0 0 0 0 0 0 0 0 0 0 0 0 0 0 0 0 0 0 0 0 0 0 0 0 0 0 0 0 0 0 0 0 0 0 0 0 0 0 0 0 0 0 0 0 0 0 0 0 0 0 0 0 0 0 0 0 0 0 0 0 0 0 0 0 0 0 0 0 0 0 0 0 0 0 0 0 0 0 0 0 0 0 0 0 0 0 0 0 0 0 0 0 0 0 0 0 0 0 0 0 0 0 0 0 0 0 0 0 0 0 0 0 0 0 0 0 0 0 0 0 0 0 0 0 0 0 0 0 0 0 0 0 0 0 0 0 0 0 0 0 0 0 0 0 0 0 0 0 0 0 0 0 0 0 0 0 0 0 0 0 0 0 0 0 0 0 0 0 0 0 0 0 0 0 0 0 0 0 0 0 0 0 0 0 0 0 0 0 0 0 0 0 0 0 0 0 0 0 0 0 0 0 0 0 0 0 0 0 0 0 0 0 0 1 1 1 1 1 1 1 1 1 1 1 1 1 1 1 1 1 1 1 1 1 0 2 1 0 6 6 0 9 8 2 11 10 5 14 13 9 18 17 12 21 20 14 23 22 16 25 24 12 21 20 10 19 18 8 17 16 5 14 13 1 10 9 0 7 6 0 5 4 0 2 2 0 1 0 0 1 0 0 1 0 0 1 0 0 1 0 0 1 0 0 1 0 0 1 0 0 1 0 1 3 2 6 8 7 13 15 14 19 21 20 26 28 27 31 33 32 33 35 34 45 45 45 47 47 47 49 49 49 52 52 52 56 56 56 59 59 59 61 61 61 63 63 63 69 69 69 69 69 69 69 69 69 69 69 69 69 69 69 69 69 69 69 69 69 72 68 69 84 73 79 87 72 79 87 72 79 87 72 79 87 72 79 87 72 79 87 72 79 87 72 79 90 75 82 90 75 82 90 75 82 90 75 82 90 75 82 90 75 82 90 75 82 90 75 80 90 71 77 90 71 75 90 71 75 90 71 75 90 71 75 90 71 75 90 71 75 90 71 75 97 78 82 97 78 82 97 78 82 97 78 82 97 78 82 97 78 82 97 78 82 97 78 82
0 0 0 0 0 0 0 0 0 0 0 0 0 0 0 0 0 0 0 0 0 0 0 0 0 0 0 0 0 0 0 0 0 0 0 0 0 0 0 0 0 0 0 0 0 0 0 0 0 0 0 0 0 0 0 0 0 0 0 0 0 0 0 0 0 0 0 0 0 0 0 0 0 0 0 0 0 0 0 0 0 0 0 0 0 0 0 0 0 0 0 0 0 0 0 0 0 0 0 0 0 0 0 0 0 0 0 0 0 0 0 0 0 0 0 0 0 0 0 0 0 0 0 0 0 0 0 0 0 0 0 0 0 0 0 0 0 0 0 0 0 0 0 0 0 0 0 0 0 0 0 0 0 0 0 0 0 0 0 0 0 0 0 0 0 0 0 0 0 0 0 0 0 0 0 0 0 0 0 0 0 0 0 0 0 0 0 0 0 0 0 0 0 0 0 0 0 0 0 0 0 0 0 0 0 0 0 0 0 0 0 0 0 0 0 0 0 0 0 0 0 0 0 0 0 0 0 0 0 0 0 0 0 0 0 0 0 0 0 0 0 0 0 0 0 0 0 0 0 0 0 0 1 1 1 1 1 1 1 1 1 1 1 1 1 1 1 1 1 1 1 1 1 0 2 1 0 6 6 0 9 8 2 11 10 5 14 13 9 18 17 12 21 20 14 23 22 16 25 24 12 21 20 10 19 18 8 17 16 5 14 13 1 10 9 0 7 6 0 5 4 0 2 2 0 1 0 0 1 0 0 1 0 0 1 0 0 1 0 0 1 0 0 1 0 0 1 0 0 1 0 1 3 2 6 8 7 13 15 14 19 21 20 26 28 27 31 33 32 33 35 34 45 45 45 47 47 47 49 49 49 52 52 52 56 56 56 59 59 59 61 61 61 63 63 63 69 69 69 69 69 69 69 69 69 69 69 69 69 69 69 69 69 69 69 69 69 72 68 69 84 73 79 87 72 79 87 72 79 87 72 79 87 72 79 87 72 79 87 72 79 87 72 79 90 75 82 90 75 82 90 75 82 90 75 82 90 75 82 90 75 82 90 75 82 90 75 80 90 71 77 90 71 75 90 71 75 90 71 75 90 71 75 90 71 75 90 71 75 90 71 75 97 78 82 97 78 82 97 78 82 97 78 82 97 78 82 97 78 82 97 78 82 97 78 82
0 0 0 0 0 0 0 0 0 0 0 0 0 0 0 0 0 0 0 0 0 0 0 0 0 0 0 0 0 0 0 0 0 0 0 0 0 0 0 0 0 0 0 0 0 0 0 0 0 0 0 0 0 0 0 0 0 0 0 0 0 0 0 0 0 0 0 0 0 0 0 0 0 0 0 0 0 0 0 0 0 0 0 0 0 0 0 0 0 0 0 0 0 0 0 0 0 0 0 0 0 0 0 0 0 0 0 0 0 0 0 0 0 0 0 0 0 0 0 0 0 0 0 0 0 0 0 0 0 0 0 0 0 0 0 0 0 0 0 0 0 0 0 0 0 0 0 0 0 0 0 0 0 0 0 0 0 0 0 0 0 0 0 0 0 0 0 0 0 0 0 0 0 0 0 0 0 0 0 0 0 0 0 0 0 0 0 0 0 0 0 0 0 0 0 0 0 0 0 0 0 0 0 0 0 0 0 0 0 0 0 0 0 0 0 0 0 0 0 0 0 0 0 0 0 0 0 0 0 0 0 0 0 0 0 0 0 0 0 0 0 0 0 0 0 0 0 0 0 0 0 0 1 1 1 1 1 1 1 1 1 1 1 1 1 1 1 1 1 1 1 1 1 0 2 1 0 6 6 0 9 8 2 11 10 5 14 13 9 18 17 12 21 20 14 23 22 16 25 24 12 21 20 10 19 18 8 17 16 5 14 13 1 10 9 0 7 6 0 5 4 0 2 2 0 1 0 0 1 0 0 1 0 0 1 0 0 1 0 0 1 0 0 1 0 0 1 0 0 1 0 1 3 2 6 8 7 13 15 14 19 21 20 26 28 27 31 33 32 33 35 34 45 45 45 47 47 47 49 49 49 52 52 52 56 56 56 59 59 59 61 61 61 63 63 63 69 69 69 69 69 69 69 69 69 69 69 69 69 69 69 69 69 69 69 69 69 72 68 69 84 73 79 87 72 79 87 72 79 87 72 79 87 72 79 87 72 79 87 72 79 87 72 79 90 75 82 90 75 82 90 75 82 90 75 82 90 75 82 90 75 82 90 75 82 90 75 80 90 71 77 90 71 75 90 71 75 90 71 75 90 71 75 90 71 75 90 71 75 90 71 75 97 78 82 97 78 82 97 78 82 97 78 82 97 78 82 97 78 82 97 78 82 97 78 82
0 0 0 0 0 0 0 0 0 0 0 0 0 0 0 0 0 0 0 0 0 0 0 0 0 0 0 0 0 0 0 0 0 0 0 0 0 0 0 0 0 0 0 0 0 0 0 0 0 0 0 0 0 0 0 0 0 0 0 0 0 0 0 0 0 0 0 0 0 0 0 0 0 0 0 0 0 0 0 0 0 0 0 0 0 0 0 0 0 0 0 0 0 0 0 0 0 0 0 0 0 0 0 0 0 0 0 0 0 0 0 0 0 0 0 0 0 0 0 0 0 0 0 0 0 0 0 0 0 0 0 0 0 0 0 0 0 0 0 0 0 0 0 0 0 0 0 0 0 0 0 0 0 0 0 0 0 0 0 0 0 0 0 0 0 0 0 0 0 0 0 0 0 0 0 0 0 0 0 0 0 0 0 0 0 0 0 0 0 0 0 0 0 0 0 0 0 0 0 0 0 0 0 0 0 0 0 0 0 0 0 0 0 0 0 0 0 0 0 0 0 0 0 0 0 0 0 0 0 0 0 0 0 0 0 0 0 0 0 0 0 0 0 0 0 0 0 0 0 0 0 0 1 1 1 1 1 1 1 1 1 1 1 1 1 1 1 1 1 1 1 1 1 0 2 1 0 6 6 0 9 8 2 11 10 5 14 13 9 18 17 12 21 20 14 23 22 16 25 24 12 21 20 10 19 18 8 17 16 5 14 13 1 10 9 0 7 6 0 5 4 0 2 2 0 1 0 0 1 0 0 1 0 0 1 0 0 1 0 0 1 0 0 1 0 0 1 0 0 1 0 1 3 2 6 8 7 13 15 14 19 21 20 26 28 27 31 33 32 33 35 34 45 45 45 47 47 47 49 49 49 52 52 52 56 56 56 59 59 59 61 61 61 63 63 63 69 69 69 69 69 69 69 69 69 69 69 69 69 69 69 69 69 69 69 69 69 72 68 69 84 73 79 87 72 79 87 72 79 87 72 79 87 72 79 87 72 79 87 72 79 87 72 79 90 75 82 90 75 82 90 75 82 90 75 82 90 75 82 90 75 82 90 75 82 90 75 80 90 71 77 90 71 75 90 71 75 90 71 75 90 71 75 90 71 75 90 71 75 90 71 75 97 78 82 97 78 82 97 78 82 97 78 82 97 78 82 97 78 82 97 78 82 97 78 82
0 0 0 0 0 0 0 0 0 0 0 0 0 0 0 0 0 0 0 0 0 0 0 0 0 0 0 0 0 0 0 0 0 0 0 0 0 0 0 0 0 0 0 0 0 0 0 0 0 0 0 0 0 0 0 0 0 0 0 0 0 0 0 0 0 0 0 0 0 0 0 0 0 0 0 0 0 0 0 0 0 0 0 0 0 0 0 0 0 0 0 0 0 0 0 0 0 0 0 0 0 0 0 0 0 0 0 0 0 0 0 0 0 0 0 0 0 0 0 0 0 0 0 0 0 0 0 0 0 0 0 0 0 0 0 0 0 0 0 0 0 0 0 0 0 0 0 0 0 0 0 0 0 0 0 0 0 0 0 0 0 0 0 0 0 0 0 0 0 0 0 0 0 0 0 0 0 0 0 0 0 0 0 0 0 0 0 0 0 0 0 0 0 0 0 0 0 0 0 0 0 0 0 0 0 0 0 0 0 0 0 0 0 0 0 0 0 0 0 0 0 0 0 0 0 0 0 0 0 0 0 0 0 0 0 0 0 0 0 0 0 0 0 0 0 0 0 0 0 0 0 0 1 1 1 1 1 1 1 1 1 1 1 1 1 1 1 1 1 1 1 1 1 0 2 1 0 6 6 0 9 8 2 11 10 5 14 13 9 18 17 12 21 20 14 23 22 16 25 24 12 21 20 10 19 18 8 17 16 5 14 13 1 10 9 0 7 6 0 5 4 0 2 2 0 1 0 0 1 0 0 1 0 0 1 0 0 1 0 0 1 0 0 1 0 0 1 0 0 1 0 1 3 2 6 8 7 13 15 14 19 21 20 26 28 27 31 33 32 33 35 34 45 45 45 47 47 47 49 49 49 52 52 52 56 56 56 59 59 59 61 61 61 63 63 63 69 69 69 69 69 69 69 69 69 69 69 69 69 69 69 69 69 69 69 69 69 72 68 69 84 73 79 87 72 79 87 72 79 87 72 79 87 72 79 87 72 79 87 72 79 87 72 79 90 75 82 90 75 82 90 75 82 90 75 82 90 75 82 90 75 82 90 75 82 90 75 80 90 71 77 90 71 75 90 71 75 90 71 75 90 71 75 90 71 75 90 71 75 90 71 75 97 78 82 97 78 82 97 78 82 97 78 82 97 78 82 97 78 82 97 78 82 97 78 82
0 0 0 0 0 0 0 0 0 0 0 0 0 0 0 0 0 0 0 0 0 0 0 0 0 0 0 0 0 0 0 0 0 0 0 0 0 0 0 0 0 0 0 0 0 0 0 0 0 0 0 0 0 0 0 0 0 0 0 0 0 0 0 0 0 0 0 0 0 0 0 0 0 0 0 0 0 0 0 0 0 0 0 0 0 0 0 0 0 0 0 0 0 0 0 0 0 0 0 0 0 0 0 0 0 0 0 0 0 0 0 0 0 0 0 0 0 0 0 0 0 0 0 0 0 0 0 0 0 0 0 0 0 0 0 0 0 0 0 0 0 0 0 0 0 0 0 0 0 0 0 0 0 0 0 0 0 0 0 0 0 0 0 0 0 0 0 0 0 0 0 0 0 0 0 0 0 0 0 0 0 0 0 0 0 0 0 0 0 0 0 0 0 0 0 0 0 0 0 0 0 0 0 0 0 0 0 0 0 0 0 0 0 0 0 0 0 0 0 0 0 0 0 0 0 0 0 0 0 0 0 0 0 0 0 0 0 0 0 0 0 0 0 0 0 0 0 0 0 0 0 0 1 1 1 1 1 1 1 1 1 1 1 1 1 1 1 1 1 1 1 1 1 0 2 1 0 6 6 0 9 8 2 11 10 5 14 13 9 18 17 12 21 20 14 23 22 16 25 24 12 21 20 10 19 18 8 17 16 5 14 13 1 10 9 0 7 6 0 5 4 0 2 2 0 1 0 0 1 0 0 1 0 0 1 0 0 1 0 0 1 0 0 1 0 0 1 0 0 1 0 1 3 2 6 8 7 13 15 14 19 21 20 26 28 27 31 33 32 33 35 34 45 45 45 47 47 47 49 49 49 52 52 52 56 56 56 59 59 59 61 61 61 63 63 63 69 69 69 69 69 69 69 69 69 69 69 69 69 69 69 69 69 69 69 69 69 72 68 69 84 73 79 87 72 79 87 72 79 87 72 79 87 72 79 87 72 79 87 72 79 87 72 79 90 75 82 90 75 82 90 75 82 90 75 82 90 75 82 90 75 82 90 75 82 90 75 80 90 71 77 90 71 75 90 71 75 90 71 75 90 71 75 90 71 75 90 71 75 90 71 75 97 78 82 97 78 82 97 78 82 97 78 82 97 78 82 97 78 82 97 78 82 97 78 82
0 0 0 0 0 0 0 0 0 0 0 0 0 0 0 0 0 0 0 0 0 0 0 0 0 0 0 0 0 0 0 0 0 0 0 0 0 0 0 0 0 0 0 0 0 0 0 0 0 0 0 0 0 0 0 0 0 0 0 0 0 0 0 0 0 0 0 0 0 0 0 0 0 0 0 0 0 0 0 0 0 0 0 0 0 0 0 0 0 0 0 0 0 0 0 0 0 0 0 0 0 0 0 0 0 0 0 0 0 0 0 0 0 0 0 0 0 0 0 0 0 0 0 0 0 0 0 0 0 0 0 0 0 0 0 0 0 0 0 0 0 0 0 0 0 0 0 0 0 0 0 0 0 0 0 0 0 0 0 0 0 0 0 0 0 0 0 0 0 0 0 0 0 0 0 0 0 0 0 0 0 0 0 0 0 0 0 0 0 0 0 0 0 0 0 0 0 0 0 0 0 0 0 0 0 0 0 0 0 0 0 0 0 0 0 0 0 0 0 0 0 0 0 0 0 0 0 0 0 0 0 0 0 0 0 0 0 0 0 0 0 0 0 0 0 0 0 0 0 0 0 0 3 3 3 3 3 3 3 3 3 3 3 3 3 3 3 3 3 3 3 3 3 2 4 3 11 17 17 9 18 17 9 18 17 9 18 17 9 18 17 9 18 17 9 18 17 9 18 17 7 16 15 11 20 19 17 26 25 19 28 27 16 25 24 7 16 15 0 6 5 0 2 2 0 1 0 0 1 0 0 1 0 0 1 0 0 1 0 0 1 0 0 1 0 0 1 0 1 3 2 3 5 4 5 7 6 8 10 9 12 14 13 15 17 16 17 19 18 19 21 20 34 34 34 36 36 36 38 38 38 41 41 41 45 45 45 48 48 48 50 50 50 52 52 52 58 58 58 58 58 58 58 58 58 58 58 58 58 58 58 58 58 58 58 58 58 61 57 58 73 62 68 76 61 68 76 61 68 76 61 68 76 61 68 76 61 68 76 61 68 76 61 68 82 67 74 82 67 74 82 67 74 82 67 74 82 67 74 82 67 74 82 67 74 82 67 72 87 68 74 87 68 72 87 68 72 87 68 72 87 68 72 87 68 72 87 68 72 87 68 72 98 79 83 98 79 83 98 79 83 98 79 83 98 79 83 98 79 83 98 79 83 98 79 83
0 0 0 0 0 0 0 0 0 0 0 0 0 0 0 0 0 0 0 0 0 0 0 0 0 0 0 0 0 0 0 0 0 0 0 0 0 0 0 0 0 0 0 0 0 0 0 0 0 0 0 0 0 0 0 0 0 0 0 0 0 0 0 0 0 0 0 0 0 0 0 0 0 0 0 0 0 0 0 0 0 0 0 0 0 0 0 0 0 0 0 0 0 0 0 0 0 0 0 0 0 0 0 0 0 0 0 0 0 0 0 0 0 0 0 0 0 0 0 0 0 0 0 0 0 0 0 0 0 0 0 0 0 0 0 0 0 0 0 0 0 0 0 0 0 0 0 0 0 0 0 0 0 0 0 0 0 0 0 0 0 0 0 0 0 0 0 0 0 0 0 0 0 0 0 0 0 0 0 0 0 0 0 0 0 0 0 0 0 0 0 0 0 0 0 0 0 0 0 0 0 0 0 0 0 0 0 0 0 0 0 0 0 0 0 0 0 0 0 0 0 0 0 0 0 0 0 0 0 0 0 0 0 0 0 0 0 0 0 0 0 0 0 0 0 0 0 0 0 0 0 0 3 3 3 3 3 3 3 3 3 3 3 3 3 3 3 3 3 3 3 3 3 2 4 3 11 17 17 9 18 17 9 18 17 9 18 17 9 18 17 9 18 17 9 18 17 9 18 17 7 16 15 11 20 19 17 26 25 19 28 27 16 25 24 7 16 15 0 6 5 0 2 2 0 1 0 0 1 0 0 1 0 0 1 0 0 1 0 0 1 0 0 1 0 0 1 0 1 3 2 3 5 4 5 7 6 8 10 9 12 14 13 15 17 16 17 19 18 19 21 20 34 34 34 36 36 36 38 38 38 41 41 41 45 45 45 48 48 48 50 50 50 52 52 52 58 58 58 58 58 58 58 58 58 58 58 58 58 58 58 58 58 58 58 58 58 61 57 58 73 62 68 76 61 68 76 61 68 76 61 68 76 61 68 76 61 68 76 61 68 76 61 68 82 67 74 82 67 74 82 67 74 82 67 74 82 67 74 82 67 74 82 67 74 82 67 72 87 68 74 87 68 72 87 68 72 87 68 72 87 68 72 87 68 72 87 68 72 87 68 72 98 79 83 98 79 83 98 79 83 98 79 83 98 79 83 98 79 83 98 79 83 98 79 83
0 0 0 0 0 0 0 0 0 0 0 0 0 0 0 0 0 0 0 0 0 0 0 0 0 0 0 0 0 0 0 0 0 0 0 0 0 0 0 0 0 0 0 0 0 0 0 0 0 0 0 0 0 0 0 0 0 0 0 0 0 0 0 0 0 0 0 0 0 0 0 0 0 0 0 0 0 0 0 0 0 0 0 0 0 0 0 0 0 0 0 0 0 0 0 0 0 0 0 0 0 0 0 0 0 0 0 0 0 0 0 0 0 0 0 0 0 0 0 0 0 0 0 0 0 0 0 0 0 0 0 0 0 0 0 0 0 0 0 0 0 0 0 0 0 0 0 0 0 0 0 0 0 0 0 0 0 0 0 0 0 0 0 0 0 0 0 0 0 0 0 0 0 0 0 0 0 0 0 0 0 0 0 0 0 0 0 0 0 0 0 0 0 0 0 0 0 0 0 0 0 0 0 0 0 0 0 0 0 0 0 0 0 0 0 0 0 0 0 0 0 0 0 0 0 0 0 0 0 0 0 0 0 0 0 0 0 0 0 0 0 0 0 0 0 0 0 0 0 0 0 0 3 3 3 3 3 3 3 3 3 3 3 3 3 3 3 3 3 3 3 3 3 2 4 3 11 17 17 9 18 17 9 18 17 9 18 17 9 18 17 9 18 17 9 18 17 9 18 17 7 16 15 11 20 19 17 26 25 19 28 27 16 25 24 7 16 15 0 6 5 0 2 2 0 1 0 0 1 0 0 1 0 0 1 0 0 1 0 0 1 0 0 1 0 0 1 0 1 3 2 3 5 4 5 7 6 8 10 9 12 14 13 15 17 16 17 19 18 19 21 20 34 34 34 36 36 36 38 38 38 41 41 41 45 45 45 48 48 48 50 50 50 52 52 52 58 58 58 58 58 58 58 58 58 58 58 58 58 58 58 58 58 58 58 58 58 61 57 58 73 62 68 76 61 68 76 61 68 76 61 68 76 61 68 76 61 68 76 61 68 76 61 68 82 67 74 82 67 74 82 67 74 82 67 74 82 67 74 82 67 74 82 67 74 82 67 72 87 68 74 87 68 72 87 68 72 87 68 72 87 68 72 87 68 72 87 68 72 87 68 72 98 79 83 98 79 83 98 79 83 98 79 83 98 79 83 98 79 83 98 79 83 98 79 83
0 0 0 0 0 0 0 0 0 0 0 0 0 0 0 0 0 0 0 0 0 0 0 0 0 0 0 0 0 0 0 0 0 0 0 0 0 0 0 0 0 0 0 0 0 0 0 0 0 0 0 0 0 0 0 0 0 0 0 0 0 0 0 0 0 0 0 0 0 0 0 0 0 0 0 0 0 0 0 0 0 0 0 0 0 0 0 0 0 0 0 0 0 0 0 0 0 0 0 0 0 0 0 0 0 0 0 0 0 0 0 0 0 0 0 0 0 0 0 0 0 0 0 0 0 0 0 0 0 0 0 0 0 0 0 0 0 0 0 0 0 0 0 0 0 0 0 0 0 0 0 0 0 0 0 0 0 0 0 0 0 0 0 0 0 0 0 0 0 0 0 0 0 0 0 0 0 0 0 0 0 0 0 0 0 0 0 0 0 0 0 0 0 0 0 0 0 0 0 0 0 0 0 0 0 0 0 0 0 0 0 0 0 0 0 0 0 0 0 0 0 0 0 0 0 0 0 0 0 0 0 0 0 0 0 0 0 0 0 0 0 0 0 0 0 0 0 0 0 0 0 0 3 3 3 3 3 3 3 3 3 3 3 3 3 3 3 3 3 3 3 3 3 2 4 3 11 17 17 9 18 17 9 18 17 9 18 17 9 18 17 9 18 17 9 18 17 9 18 17 7 16 15 11 20 19 17 26 25 19 28 27 16 25 24 7 16 15 0 6 5 0 2 2 0 1 0 0 1 0 0 1 0 0 1 0 0 1 0 0 1 0 0 1 0 0 1 0 1 3 2 3 5 4 5 7 6 8 10 9 12 14 13 15 17 16 17 19 18 19 21 20 34 34 34 36 36 36 38 38 38 41 41 41 45 45 45 48 48 48 50 50 50 52 52 52 58 58 58 58 58 58 58 58 58 58 58 58 58 58 58 58 58 58 58 58 58 61 57 58 73 62 68 76 61 68 76 61 68 76 61 68 76 61 68 76 61 68 76 61 68 76 61 68 82 67 74 82 67 74 82 67 74 82 67 74 82 67 74 82 67 74 82 67 74 82 67 72 87 68 74 87 68 72 87 68 72 87 68 72 87 68 72 87 68 72 87 68 72 87 68 72 98 79 83 98 79 83 98 79 83 98 79 83 98 79 83 98 79 83 98 79 83 98 79 83
0 0 0 0 0 0 0 0 0 0 0 0 0 0 0 0 0 0 0 0 0 0 0 0 0 0 0 0 0 0 0 0 0 0 0 0 0 0 0 0 0 0 0 0 0 0 0 0 0 0 0 0 0 0 0 0 0 0 0 0 0 0 0 0 0 0 0 0 0 0 0 0 0 0 0 0 0 0 0 0 0 0 0 0 0 0 0 0 0 0 0 0 0 0 0 0 0 0 0 0 0 0 0 0 0 0 0 0 0 0 0 0 0 0 0 0 0 0 0 0 0 0 0 0 0 0 0 0 0 0 0 0 0 0 0 0 0 0 0 0 0 0 0 0 0 0 0 0 0 0 0 0 0 0 0 0 0 0 0 0 0 0 0 0 0 0 0 0 0 0 0 0 0 0 0 0 0 0 0 0 0 0 0 0 0 0 0 0 0 0 0 0 0 0 0 0 0 0 0 0 0 0 0 0 0 0 0 0 0 0 0 0 0 0 0 0 0 0 0 0 0 0 0 0 0 0 0 0 0 0 0 0 0 0 0 0 0 0 0 0 0 0 0 0 0 0 0 0 0 0 0 0 3 3 3 3 3 3 3 3 3 3 3 3 3 3 3 3 3 3 3 3 3 2 4 3 11 17 17 9 18 17 9 18 17 9 18 17 9 18 17 9 18 17 9 18 17 9 18 17 7 16 15 11 20 19 17 26 25 19 28 27 16 25 24 7 16 15 0 6 5 0 2 2 0 1 0 0 1 0 0 1 0 0 1 0 0 1 0 0 1 0 0 1 0 0 1 0 1 3 2 3 5 4 5 7 6 8 10 9 12 14 13 15 17 16 17 19 18 19 21 20 34 34 34 36 36 36 38 38 38 41 41 41 45 45 45 48 48 48 50 50 50 52 52 52 58 58 58 58 58 58 58 58 58 58 58 58 58 58 58 58 58 58 58 58 58 61 57 58 73 62 68 76 61 68 76 61 68 76 61 68 76 61 68 76 61 68 76 61 68 76 61 68 82 67 74 82 67 74 82 67 74 82 67 74 82 67 74 82 67 74 82 67 74 82 67 72 87 68 74 87 68 72 87 68 72 87 68 72 87 68 72 87 68 72 87 68 72 87 68 72 98 79 83 98 79 83 98 79 83 98 79 83 98 79 83 98 79 83 98 79 83 98 79 83
0 0 0 0 0 0 0 0 0 0 0 0 0 0 0 0 0 0 0 0 0 0 0 0 0 0 0 0 0 0 0 0 0 0 0 0 0 0 0 0 0 0 0 0 0 0 0 0 0 0 0 0 0 0 0 0 0 0 0 0 0 0 0 0 0 0 0 0 0 0 0 0 0 0 0 0 0 0 0 0 0 0 0 0 0 0 0 0 0 0 0 0 0 0 0 0 0 0 0 0 0 0 0 0 0 0 0 0 0 0 0 0 0 0 0 0 0 0 0 0 0 0 0 0 0 0 0 0 0 0 0 0 0 0 0 0 0 0 0 0 0 0 0 0 0 0 0 0 0 0 0 0 0 0 0 0 0 0 0 0 0 0 0 0 0 0 0 0 0 0 0 0 0 0 0 0 0 0 0 0 0 0 0 0 0 0 0 0 0 0 0 0 0 0 0 0 0 0 0 0 0 0 0 0 0 0 0 0 0 0 0 0 0 0 0 0 0 0 0 0 0 0 0 0 0 0 0 0 0 0 0 0 0 0 0 0 0 0 0 0 0 0 0 0 0 0 0 0 0 0 0 0 3 3 3 3 3 3 3 3 3 3 3 3 3 3 3 3 3 3 3 3 3 2 4 3 11 17 17 9 18 17 9 18 17 9 18 17 9 18 17 9 18 17 9 18 17 9 18 17 7 16 15 11 20 19 17 26 25 19 28 27 16 25 24 7 16 15 0 6 5 0 2 2 0 1 0 0 1 0 0 1 0 0 1 0 0 1 0 0 1 0 0 1 0 0 1 0 1 3 2 3 5 4 5 7 6 8 10 9 12 14 13 15 17 16 17 19 18 19 21 20 34 34 34 36 36 36 38 38 38 41 41 41 45 45 45 48 48 48 50 50 50 52 52 52 58 58 58 58 58 58 58 58 58 58 58 58 58 58 58 58 58 58 58 58 58 61 57 58 73 62 68 76 61 68 76 61 68 76 61 68 76 61 68 76 61 68 76 61 68 76 61 68 82 67 74 82 67 74 82 67 74 82 67 74 82 67 74 82 67 74 82 67 74 82 67 72 87 68 74 87 68 72 87 68 72 87 68 72 87 68 72 87 68 72 87 68 72 87 68 72 98 79 83 98 79 83 98 79 83 98 79 83 98 79 83 98 79 83 98 79 83 98 79 83
0 0 0 0 0 0 0 0 0 0 0 0 0 0 0 0 0 0 0 0 0 0 0 0 0 0 0 0 0 0 0 0 0 0 0 0 0 0 0 0 0 0 0 0 0 0 0 0 0 0 0 0 0 0 0 0 0 0 0 0 0 0 0 0 0 0 0 0 0 0 0 0 0 0 0 0 0 0 0 0 0 0 0 0 0 0 0 0 0 0 0 0 0 0 0 0 0 0 0 0 0 0 0 0 0 0 0 0 0 0 0 0 0 0 0 0 0 0 0 0 0 0 0 0 0 0 0 0 0 0 0 0 0 0 0 0 0 0 0 0 0 0 0 0 0 0 0 0 0 0 0 0 0 0 0 0 0 0 0 0 0 0 0 0 0 0 0 0 0 0 0 0 0 0 0 0 0 0 0 0 0 0 0 0 0 0 0 0 0 0 0 0 0 0 0 0 0 0 0 0 0 0 0 0 0 0 0 0 0 0 0 0 0 0 0 0 0 0 0 0 0 0 0 0 0 0 0 0 0 0 0 0 0 0 0 0 0 0 0 0 0 0 0 0 0 0 0 0 0 0 0 0 3 3 3 3 3 3 3 3 3 3 3 3 3 3 3 3 3 3 3 3 3 2 4 3 11 17 17 9 18 17 9 18 17 9 18 17 9 18 17 9 18 17 9 18 17 9 18 17 7 16 15 11 20 19 17 26 25 19 28 27 16 25 24 7 16 15 0 6 5 0 2 2 0 1 0 0 1 0 0 1 0 0 1 0 0 1 0 0 1 0 0 1 0 0 1 0 1 3 2 3 5 4 5 7 6 8 10 9 12 14 13 15 17 16 17 19 18 19 21 20 34 34 34 36 36 36 38 38 38 41 41 41 45 45 45 48 48 48 50 50 50 52 52 52 58 58 58 58 58 58 58 58 58 58 58 58 58 58 58 58 58 58 58 58 58 61 57 58 73 62 68 76 61 68 76 61 68 76 61 68 76 61 68 76 61 68 76 61 68 76 61 68 82 67 74 82 67 74 82 67 74 82 67 74 82 67 74 82 67 74 82 67 74 82 67 72 87 68 74 87 68 72 87 68 72 87 68 72 87 68 72 87 68 72 87 68 72 87 68 72 98 79 83 98 79 83 98 79 83 98 79 83 98 79 83 98 79 83 98 79 83 98 79 83
0 0 0 0 0 0 0 0 0 0 0 0 0 0 0 0 0 0 0 0 0 0 0 0 0 0 0 0 0 0 0 0 0 0 0 0 0 0 0 0 0 0 0 0 0 0 0 0 0 0 0 0 0 0 0 0 0 0 0 0 0 0 0 0 0 0 0 0 0 0 0 0 0 0 0 0 0 0 0 0 0 0 0 0 0 0 0 0 0 0 0 0 0 0 0 0 0 0 0 0 0 0 0 0 0 0 0 0 0 0 0 0 0 0 0 0 0 0 0 0 0 0 0 0 0 0 0 0 0 0 0 0 0 0 0 0 0 0 0 0 0 0 0 0 0 0 0 0 0 0 0 0 0 0 0 0 0 0 0 0 0 0 0 0 0 0 0 0 0 0 0 0 0 0 0 0 0 0 0 0 0 0 0 0 0 0 0 0 0 0 0 0 0 0 0 0 0 0 0 0 0 0 0 0 0 0 0 0 0 0 0 0 0 0 0 0 0 0 0 0 0 0 0 0 0 0 0 0 0 0 0 0 1 0 0 0 2 0 1 0 0 0 2 0 1 0 0 0 2 0 1 0 3 3 5 2 4 3 3 3 5 2 4 3 3 3 5 2 4 3 3 3 5 2 3 5 11 17 17 9 18 17 9 18 17 9 18 17 9 18 17 9 18 17 9 18 17 9 18 17 7 16 15 11 20 19 17 26 25 19 28 27 16 25 24 7 16 15 0 6 5 0 2 2 0 1 0 0 1 0 0 1 0 0 1 0 0 1 0 0 1 0 0 1 0 0 1 0 1 3 2 3 5 4 5 7 6 8 10 9 12 14 13 15 17 16 17 19 18 19 21 20 33 35 34 35 37 36 38 38 38 40 42 41 45 45 45 47 49 48 50 50 50 51 53 52 58 58 58 57 59 58 58 58 58 57 59 58 58 58 58 57 59 58 58 58 58 59 57 58 73 62 68 74 61 68 74 61 68 74 61 68 74 61 68 74 61 68 74 61 68 74 61 68 80 67 74 80 67 74 80 67 74 80 67 74 80 67 74 80 67 74 80 67 74 82 67 72 85 68 74 87 68 72 87 68 72 87 68 72 87 68 72 87 68 72 87 68 72 87 68 72 98 79 83 98 79 83 98 79 83 98 79 83 98 79 83 98 79 83 98 79 83 98 79 85
0 0 0 0 0 0 0 0 0 0 0 0 0 0 0 0 0 0 0 0 0 0 0 0 0 0 0 0 0 0 0 0 0 0 0 0 0 0 0 0 0 0 0 0 0 0 0 0 0 0 0 0 0 0 0 0 0 0 0 0 0 0 0 0 0 0 0 0 0 0 0 0 0 0 0 0 0 0 0 0 0 0 0 0 0 0 0 0 0 0 0 0 0 0 0 0 0 0 0 0 0 0 0 0 0 0 0 0 0 0 0 0 0 0 0 0 0 0 0 0 0 0 0 0 0 0 0 0 0 0 0 0 0 0 0 0 0 0 0 0 0 0 0 0 0 0 0 0 0 0 0 0 0 0 0 0 0 0 0 0 0 0 0 0 0 0 0 0 0 0 0 0 0 0 0 0 0 0 0 0 0 0 0 0 0 0 0 0 0 0 0 0 0 0 0 0 0 0 0 0 0 0 0 0 0 0 0 0 0 0 0 0 0 0 0 0 0 0 0 0 0 0 0 0 0 0 0 0 0 0 2 0 1 2 0 0 4 0 1 2 0 0 4 0 1 2 0 0 4 0 1 2 0 0 4 0 1 2 0 1 5 1 5 6 7 8 12 8 12 13 12 13 17 12 16 17 15 21 21 15 21 21 15 21 21 15 21 21 15 21 21 15 21 21 15 21 21 15 21 21 33 39 39 31 37 37 26 32 32 19 25 25 13 19 19 6 12 12 1 7 7 0 5 5 0 1 2 0 0 2 0 0 2 0 0 2 0 0 2 0 0 2 0 0 2 0 0 2 0 0 2 0 0 2 0 1 3 3 4 6 7 8 10 10 11 13 12 13 15 14 15 17 22 24 23 22 26 25 26 28 27 27 31 30 33 35 34 34 38 37 38 40 39 38 42 41 45 47 46 43 47 46 45 47 46 43 47 46 45 47 46 43 47 46 45 47 46 46 46 46 53 47 49 58 47 51 60 49 53 63 52 56 67 56 60 70 59 63 72 61 65 74 63 67 75 64 68 75 64 68 75 64 68 75 64 68 75 64 68 75 64 68 75 64 68 76 64 68 85 70 75 86 69 75 86 69 75 86 69 75 86 69 75 86 69 75 86 69 75 86 69 75 97 80 86 97 80 86 97 80 86 97 80 86 97 80 86 97 80 86 97 80 86 99 80 86
0 0 0 0 0 0 0 0 0 0 0 0 0 0 0 0 0 0 0 0 0 0 0 0 0 0 0 0 0 0 0 0 0 0 0 0 0 0 0 0 0 0 0 0 0 0 0 0 0 0 0 0 0 0 0 0 0 0 0 0 0 0 0 0 0 0 0 0 0 0 0 0 0 0 0 0 0 0 0 0 0 0 0 0 0 0 0 0 0 0 0 0 0 0 0 0 0 0 0 0 0 0 0 0 0 0 0 0 0 0 0 0 0 0 0 0 0 0 0 0 0 0 0 0 0 0 0 0 0 0 0 0 0 0 0 0 0 0 0 0 0 0 0 0 0 0 0 0 0 0 0 0 0 0 0 0 0 0 0 0 0 0 0 0 0 0 0 0 0 0 0 0 0 0 0 0 0 0 0 0 0 0 0 0 0 0 0 0 0 0 0 0 0 0 0 0 0 0 0 0 0 0 0 0 0 0 0 0 0 0 0 0 0 0 0 0 0 0 0 0 0 0 0 0 0 0 1 0 0 0 4 0 1 4 0 1 4 0 1 4 0 1 4 0 1 4 0 1 4 0 1 4 0 1 4 0 1 4 0 2 5 1 5 8 5 9 12 8 12 15 10 14 17 12 16 19 17 23 23 17 23 23 17 23 23 17 23 23 17 23 23 17 23 23 17 23 23 17 23 23 33 39 39 31 37 37 26 32 32 19 25 25 13 19 19 6 12 12 1 7 7 0 5 5 0 0 2 0 0 2 0 0 2 0 0 2 0 0 2 0 0 2 0 0 2 0 0 2 0 0 2 0 0 2 0 1 3 3 4 6 7 8 10 10 11 13 12 13 15 14 15 17 20 24 23 22 26 25 24 28 27 27 31 30 31 35 34 34 38 37 36 40 39 38 42 41 43 47 46 43 47 46 43 47 46 43 47 46 43 47 46 43 47 46 43 47 46 45 47 46 53 47 49 57 48 51 59 50 53 62 53 56 66 57 60 69 60 63 71 62 65 73 64 67 74 65 68 74 65 68 74 65 68 74 65 68 74 65 68 74 65 68 74 65 68 75 64 68 85 70 75 86 69 75 86 69 75 86 69 75 86 69 75 86 69 75 86 69 75 86 69 75 97 80 86 97 80 86 97 80 86 97 80 86 97 80 86 97 80 86 97 80 86 97 80 86
0 0 0 0 0 0 0 0 0 0 0 0 0 0 0 0 0 0 0 0 0 0 0 0 0 0 0 0 0 0 0 0 0 0 0 0 0 0 0 0 0 0 0 0 0 0 0 0 0 0 0 0 0 0 0 0 0 0 0 0 0 0 0 0 0 0 0 0 0 0 0 0 0 0 0 0 0 0 0 0 0 0 0 0 0 0 0 0 0 0 0 0 0 0 0 0 0 0 0 0 0 0 0 0 0 0 0 0 0 0 0 0 0 0 0 0 0 0 0 0 0 0 0 0 0 0 0 0 0 0 0 0 0 0 0 0 0 0 0 0 0 0 0 0 0 0 0 0 0 0 0 0 0 0 0 0 0 0 0 0 0 0 0 0 0 0 0 0 0 0 0 0 0 0 0 0 0 0 0 0 0 0 0 0 0 0 0 0 0 0 0 0 0 0 0 0 0 0 0 0 0 0 0 0 0 0 0 0 0 0 0 0 0 0 0 0 0 0 0 0 0 0 0 0 0 0 1 0 0 0 4 0 1 4 0 1 4 0 1 4 0 1 4 0 1 4 0 1 4 0 1 4 0 1 4 0 1 4 0 2 5 1 5 8 5 9 12 8 12 15 10 14 17 12 16 19 19 25 25 19 25 25 19 25 25 19 25 25 19 25 25 19 25 25 19 25 25 19 25 25 33 39 39 31 37 37 26 32 32 19 25 25 13 19 19 6 12 12 1 7 7 0 5 5 0 0 2 0 0 2 0 0 2 0 0 2 0 0 2 0 0 2 0 0 2 0 0 2 0 0 2 0 0 2 0 1 3 3 4 6 7 8 10 10 11 13 12 13 15 14 15 17 20 24 23 22 26 25 24 28 27 27 31 30 31 35 34 34 38 37 36 40 39 38 42 41 43 47 46 43 47 46 43 47 46 43 47 46 43 47 46 43 47 46 43 47 46 45 47 46 53 47 49 57 48 51 59 50 53 62 53 56 66 57 60 69 60 63 71 62 65 73 64 67 74 65 68 74 65 68 74 65 68 74 65 68 74 65 68 74 65 68 74 65 68 75 64 68 85 70 75 86 69 75 86 69 75 86 69 75 86 69 75 86 69 75 86 69 75 86 69 75 97 80 86 97 80 86 97 80 86 97 80 86 97 80 86 97 80 86 97 80 86 97 80 86
0 0 0 0 0 0 0 0 0 0 0 0 0 0 0 0 0 0 0 0 0 0 0 0 0 0 0 0 0 0 0 0 0 0 0 0 0 0 0 0 0 0 0 0 0 0 0 0 0 0 0 0 0 0 0 0 0 0 0 0 0 0 0 0 0 0 0 0 0 0 0 0 0 0 0 0 0 0 0 0 0 0 0 0 0 0 0 0 0 0 0 0 0 0 0 0 0 0 0 0 0 0 0 0 0 0 0 0 0 0 0 0 0 0 0 0 0 0 0 0 0 0 0 0 0 0 0 0 0 0 0 0 0 0 0 0 0 0 0 0 0 0 0 0 0 0 0 0 0 0 0 0 0 0 0 0 0 0 0 0 0 0 0 0 0 0 0 0 0 0 0 0 0 0 0 0 0 0 0 0 0 0 0 0 0 0 0 0 0 0 0 0 0 0 0 0 0 0 0 0 0 0 0 0 0 0 0 0 0 0 0 0 0 0 0 0 0 0 0 0 0 0 0 0 0 0 1 0 0 0 4 0 1 4 0 1 4 0 1 4 0 1 4 0 1 4 0 1 4 0 1 4 0 1 4 0 1 4 0 2 5 1 5 8 5 9 12 8 12 15 10 14 17 12 16 19 22 28 28 22 28 28 22 28 28 22 28 28 22 28 28 22 28 28 22 28 28 22 28 28 33 39 39 31 37 37 26 32 32 19 25 25 13 19 19 6 12 12 1 7 7 0 5 5 0 0 2 0 0 2 0 0 2 0 0 2 0 0 2 0 0 2 0 0 2 0 0 2 0 0 2 0 0 2 0 1 3 3 4 6 7 8 10 10 11 13 12 13 15 14 15 17 20 24 23 22 26 25 24 28 27 27 31 30 31 35 34 34 38 37 36 40 39 38 42 41 43 47 46 43 47 46 43 47 46 43 47 46 43 47 46 43 47 46 43 47 46 45 47 46 53 47 49 57 48 51 59 50 53 62 53 56 66 57 60 69 60 63 71 62 65 73 64 67 74 65 68 74 65 68 74 65 68 74 65 68 74 65 68 74 65 68 74 65 68 75 64 68 85 70 75 86 69 75 86 69 75 86 69 75 86 69 75 86 69 75 86 69 75 86 69 75 97 80 86 97 80 86 97 80 86 97 80 86 97 80 86 97 80 86 97 80 86 97 80 86
0 0 0 0 0 0 0 0 0 0 0 0 0 0 0 0 0 0 0 0 0 0 0 0 0 0 0 0 0 0 0 0 0 0 0 0 0 0 0 0 0 0 0 0 0 0 0 0 0 0 0 0 0 0 0 0 0 0 0 0 0 0 0 0 0 0 0 0 0 0 0 0 0 0 0 0 0 0 0 0 0 0 0 0 0 0 0 0 0 0 0 0 0 0 0 0 0 0 0 0 0 0 0 0 0 0 0 0 0 0 0 0 0 0 0 0 0 0 0 0 0 0 0 0 0 0 0 0 0 0 0 0 0 0 0 0 0 0 0 0 0 0 0 0 0 0 0 0 0 0 0 0 0 0 0 0 0 0 0 0 0 0 0 0 0 0 0 0 0 0 0 0 0 0 0 0 0 0 0 0 0 0 0 0 0 0 0 0 0 0 0 0 0 0 0 0 0 0 0 0 0 0 0 0 0 0 0 0 0 0 0 0 0 0 0 0 0 0 0 0 0 0 0 0 0 0 1 0 0 0 4 0 1 4 0 1 4 0 1 4 0 1 4 0 1 4 0 1 4 0 1 4 0 1 4 0 1 4 0 2 5 1 5 8 5 9 12 8 12 15 10 14 17 12 16 19 26 32 32 26 32 32 26 32 32 26 32 32 26 32 32 26 32 32 26 32 32 26 32 32 33 39 39 31 37 37 26 32 32 19 25 25 13 19 19 6 12 12 1 7 7 0 5 5 0 0 2 0 0 2 0 0 2 0 0 2 0 0 2 0 0 2 0 0 2 0 0 2 0 0 2 0 0 2 0 1 3 3 4 6 7 8 10 10 11 13 12 13 15 14 15 17 20 24 23 22 26 25 24 28 27 27 31 30 31 35 34 34 38 37 36 40 39 38 42 41 43 47 46 43 47 46 43 47 46 43 47 46 43 47 46 43 47 46 43 47 46 45 47 46 53 47 49 57 48 51 59 50 53 62 53 56 66 57 60 69 60 63 71 62 65 73 64 67 74 65 68 74 65 68 74 65 68 74 65 68 74 65 68 74 65 68 74 65 68 75 64 68 85 70 75 86 69 75 86 69 75 86 69 75 86 69 75 86 69 75 86 69 75 86 69 75 97 80 86 97 80 86 97 80 86 97 80 86 97 80 86 97 80 86 97 80 86 97 80 86
0 0 0 0 0 0 0 0 0 0 0 0 0 0 0 0 0 0 0 0 0 0 0 0 0 0 0 0 0 0 0 0 0 0 0 0 0 0 0 0 0 0 0 0 0 0 0 0 0 0 0 0 0 0 0 0 0 0 0 0 0 0 0 0 0 0 0 0 0 0 0 0 0 0 0 0 0 0 0 0 0 0 0 0 0 0 0 0 0 0 0 0 0 0 0 0 0 0 0 0 0 0 0 0 0 0 0 0 0 0 0 0 0 0 0 0 0 0 0 0 0 0 0 0 0 0 0 0 0 0 0 0 0 0 0 0 0 0 0 0 0 0 0 0 0 0 0 0 0 0 0 0 0 0 0 0 0 0 0 0 0 0 0 0 0 0 0 0 0 0 0 0 0 0 0 0 0 0 0 0 0 0 0 0 0 0 0 0 0 0 0 0 0 0 0 0 0 0 0 0 0 0 0 0 0 0 0 0 0 0 0 0 0 0 0 0 0 0 0 0 0 0 0 0 0 0 1 0 0 0 4 0 1 4 0 1 4 0 1 4 0 1 4 0 1 4 0 1 4 0 1 4 0 1 4 0 1 4 0 2 5 1 5 8 5 9 12 8 12 15 10 14 17 12 16 19 29 35 35 29 35 35 29 35 35 29 35 35 29 35 35 29 35 35 29 35 35 29 35 35 33 39 39 31 37 37 26 32 32 19 25 25 13 19 19 6 12 12 1 7 7 0 5 5 0 0 2 0 0 2 0 0 2 0 0 2 0 0 2 0 0 2 0 0 2 0 0 2 0 0 2 0 0 2 0 1 3 3 4 6 7 8 10 10 11 13 12 13 15 14 15 17 20 24 23 22 26 25 24 28 27 27 31 30 31 35 34 34 38 37 36 40 39 38 42 41 43 47 46 43 47 46 43 47 46 43 47 46 43 47 46 43 47 46 43 47 46 45 47 46 53 47 49 57 48 51 59 50 53 62 53 56 66 57 60 69 60 63 71 62 65 73 64 67 74 65 68 74 65 68 74 65 68 74 65 68 74 65 68 74 65 68 74 65 68 75 64 68 85 70 75 86 69 75 86 69 75 86 69 75 86 69 75 86 69 75 86 69 75 86 69 75 97 80 86 97 80 86 97 80 86 97 80 86 97 80 86 97 80 86 97 80 86 97 80 86
0 0 0 0 0 0 0 0 0 0 0 0 0 0 0 0 0 0 0 0 0 0 0 0 0 0 0 0 0 0 0 0 0 0 0 0 0 0 0 0 0 0 0 0 0 0 0 0 0 0 0 0 0 0 0 0 0 0 0 0 0 0 0 0 0 0 0 0 0 0 0 0 0 0 0 0 0 0 0 0 0 0 0 0 0 0 0 0 0 0 0 0 0 0 0 0 0 0 0 0 0 0 0 0 0 0 0 0 0 0 0 0 0 0 0 0 0 0 0 0 0 0 0 0 0 0 0 0 0 0 0 0 0 0 0 0 0 0 0 0 0 0 0 0 0 0 0 0 0 0 0 0 0 0 0 0 0 0 0 0 0 0 0 0 0 0 0 0 0 0 0 0 0 0 0 0 0 0 0 0 0 0 0 0 0 0 0 0 0 0 0 0 0 0 0 0 0 0 0 0 0 0 0 0 0 0 0 0 0 0 0 0 0 0 0 0 0 0 0 0 0 0 0 0 0 0 1 0 0 0 4 0 1 4 0 1 4 0 1 4 0 1 4 0 1 4 0 1 4 0 1 4 0 1 4 0 1 4 0 2 5 1 5 8 5 9 12 8 12 15 10 14 17 12 16 19 31 37 37 31 37 37 31 37 37 31 37 37 31 37 37 31 37 37 31 37 37 31 37 37 33 39 39 31 37 37 26 32 32 19 25 25 13 19 19 6 12 12 1 7 7 0 5 5 0 0 2 0 0 2 0 0 2 0 0 2 0 0 2 0 0 2 0 0 2 0 0 2 0 0 2 0 0 2 0 1 3 3 4 6 7 8 10 10 11 13 12 13 15 14 15 17 20 24 23 22 26 25 24 28 27 27 31 30 31 35 34 34 38 37 36 40 39 38 42 41 43 47 46 43 47 46 43 47 46 43 47 46 43 47 46 43 47 46 43 47 46 45 47 46 53 47 49 57 48 51 59 50 53 62 53 56 66 57 60 69 60 63 71 62 65 73 64 67 74 65 68 74 65 68 74 65 68 74 65 68 74 65 68 74 65 68 74 65 68 75 64 68 85 70 75 86 69 75 86 69 75 86 69 75 86 69 75 86 69 75 86 69 75 86 69 75 97 80 86 97 80 86 97 80 86 97 80 86 97 80 86 97 80 86 97 80 86 97 80 86
0 0 0 0 0 0 0 0 0 0 0 0 0 0 0 0 0 0 0 0 0 0 0 0 0 0 0 0 0 0 0 0 0 0 0 0 0 0 0 0 0 0 0 0 0 0 0 0 0 0 0 0 0 0 0 0 0 0 0 0 0 0 0 0 0 0 0 0 0 0 0 0 0 0 0 0 0 0 0 0 0 0 0 0 0 0 0 0 0 0 0 0 0 0 0 0 0 0 0 0 0 0 0 0 0 0 0 0 0 0 0 0 0 0 0 0 0 0 0 0 0 0 0 0 0 0 0 0 0 0 0 0 0 0 0 0 0 0 0 0 0 0 0 0 0 0 0 0 0 0 0 0 0 0 0 0 0 0 0 0 0 0 0 0 0 0 0 0 0 0 0 0 0 0 0 0 0 0 0 0 0 0 0 0 0 0 0 0 0 0 0 0 0 0 0 0 0 0 0 0 0 0 0 0 0 0 0 0 0 0 0 0 0 0 0 0 0 0 0 0 0 0 0 0 0 0 1 0 0 0 4 0 1 4 0 1 4 0 1 4 0 1 4 0 1 4 0 1 4 0 1 4 0 1 4 0 1 4 0 2 5 1 5 8 5 9 12 8 12 15 10 14 17 12 16 19 33 39 39 33 39 39 33 39 39 33 39 39 33 39 39 33 39 39 33 39 39 33 39 39 33 39 39 31 37 37 26 32 32 19 25 25 13 19 19 6 12 12 1 7 7 0 5 5 0 0 2 0 0 2 0 0 2 0 0 2 0 0 2 0 0 2 0 0 2 0 0 2 0 0 2 0 0 2 0 1 3 3 4 6 7 8 10 10 11 13 12 13 15 14 15 17 20 24 23 22 26 25 24 28 27 27 31 30 31 35 34 34 38 37 36 40 39 38 42 41 43 47 46 43 47 46 43 47 46 43 47 46 43 47 46 43 47 46 43 47 46 45 47 46 53 47 49 57 48 51 59 50 53 62 53 56 66 57 60 69 60 63 71 62 65 73 64 67 74 65 68 74 65 68 74 65 68 74 65 68 74 65 68 74 65 68 74 65 68 75 64 68 85 70 75 86 69 75 86 69 75 86 69 75 86 69 75 86 69 75 86 69 75 86 69 75 97 80 86 97 80 86 97 80 86 97 80 86 97 80 86 97 80 86 97 80 86 97 80 86
0 0 0 0 0 0 0 0 0 0 0 0 0 0 0 0 0 0 0 0 0 0 0 0 0 0 0 0 0 0 0 0 0 0 0 0 0 0 0 0 0 0 0 0 0 0 0 0 0 0 0 0 0 0 0 0 0 0 0 0 0 0 0 0 0 0 0 0 0 0 0 0 0 0 0 0 0 0 0 0 0 0 0 0 0 0 0 0 0 0 0 0 0 0 0 0 0 0 0 0 0 0 0 0 0 0 0 0 0 0 0 0 0 0 0 0 0 0 0 0 0 0 0 0 0 0 0 0 0 0 0 0 0 0 0 0 0 0 0 0 0 0 0 0 0 0 0 0 0 0 0 0 0 0 0 0 0 0 0 0 0 0 0 0 0 0 0 0 0 0 0 0 0 0 0 0 0 0 0 0 0 0 0 0 0 0 0 0 0 0 0 0 0 0 0 0 0 0 0 0 0 0 0 0 0 0 0 0 0 0 0 0 0 0 0 0 0 0 0 0 0 0 0 0 0 0 1 0 4 5 9 2 6 9 2 6 9 2 6 9 2 6 9 2 6 9 2 6 9 2 6 9 0 1 4 0 1 4 5 9 12 16 20 23 24 28 31 26 30 33 26 30 33 24 28 31 72 78 78 69 75 75 64 70 70 56 62 62 49 55 55 42 48 48 36 42 42 33 39 39 35 41 41 33 39 39 28 34 34 21 27 27 15 21 21 8 14 14 3 9 9 1 7 7 2 3 5 2 3 5 2 3 5 2 3 5 2 3 5 2 3 5 2 3 5 2 3 5 0 0 2 0 0 2 1 2 4 4 5 7 8 9 11 11 12 14 13 14 16 15 16 18 9 13 12 11 15 14 13 17 16 16 20 19 20 24 23 23 27 26 25 29 28 27 31 30 29 33 32 29 33 32 29 33 32 29 33 32 29 33 32 29 33 32 29 33 32 31 33 32 40 34 36 44 35 38 46 37 40 49 40 43 53 44 47 56 47 50 58 49 52 60 51 54 62 53 56 64 55 58 66 57 60 69 60 63 73 64 67 76 67 70 78 69 72 81 70 74 86 71 76 87 70 76 87 70 76 87 70 76 87 70 76 87 70 76 87 70 76 87 70 76 98 81 87 98 81 87 98 81 87 98 81 87 98 81 87 98 81 87 98 81 87 98 81 87
0 0 0 0 0 0 0 0 0 0 0 0 0 0 0 0 0 0 0 0 0 0 0 0 0 0 0 0 0 0 0 0 0 0 0 0 0 0 0 0 0 0 0 0 0 0 0 0 0 0 0 0 0 0 0 0 0 0 0 0 0 0 0 0 0 0 0 0 0 0 0 0 0 0 0 0 0 0 0 0 0 0 0 0 0 0 0 0 0 0 0 0 0 0 0 0 0 0 0 0 0 0 0 0 0 0 0 0 0 0 0 0 0 0 0 0 0 0 0 0 0 0 0 0 0 0 0 0 0 0 0 0 0 0 0 0 0 0 0 0 0 0 0 0 0 0 0 0 0 0 0 0 0 0 0 0 0 0 0 0 0 0 0 0 0 0 0 0 0 0 0 0 0 0 0 0 0 0 0 0 0 0 0 0 0 0 0 0 0 0 0 0 0 0 0 0 0 0 0 0 0 0 0 0 0 0 0 0 0 0 0 0 0 0 0 0 0 0 0 0 0 0 0 0 0 0 1 0 4 5 9 2 6 9 2 6 9 2 6 9 2 6 9 2 6 9 2 6 9 2 6 9 0 1 4 0 3 6 4 8 11 11 15 18 20 24 27 30 34 37 38 42 45 43 47 50 96 102 102 92 98 98 84 90 90 73 79 79 62 68 68 52 58 58 44 50 50 39 45 45 35 41 41 33 39 39 28 34 34 21 27 27 15 21 21 8 14 14 3 9 9 1 7 7 2 3 5 2 3 5 2 3 5 2 3 5 2 3 5 2 3 5 2 3 5 2 3 5 0 0 2 0 0 2 1 2 4 4 5 7 8 9 11 11 12 14 13 14 16 15 16 18 9 13 12 11 15 14 13 17 16 16 20 19 20 24 23 23 27 26 25 29 28 27 31 30 29 33 32 29 33 32 29 33 32 29 33 32 29 33 32 29 33 32 29 33 32 31 33 32 40 34 36 44 35 38 46 37 40 49 40 43 53 44 47 56 47 50 58 49 52 60 51 54 62 53 56 64 55 58 66 57 60 69 60 63 73 64 67 76 67 70 78 69 72 81 70 74 86 71 76 87 70 76 87 70 76 87 70 76 87 70 76 87 70 76 87 70 76 87 70 76 98 81 87 98 81 87 98 81 87 98 81 87 98 81 87 98 81 87 98 81 87 98 81 87
0 0 0 0 0 0 0 0 0 0 0 0 0 0 0 0 0 0 0 0 0 0 0 0 0 0 0 0 0 0 0 0 0 0 0 0 0 0 0 0 0 0 0 0 0 0 0 0 0 0 0 0 0 0 0 0 0 0 0 0 0 0 0 0 0 0 0 0 0 0 0 0 0 0 0 0 0 0 0 0 0 0 0 0 0 0 0 0 0 0 0 0 0 0 0 0 0 0 0 0 0 0 0 0 0 0 0 0 0 0 0 0 0 0 0 0 0 0 0 0 0 0 0 0 0 0 0 0 0 0 0 0 0 0 0 0 0 0 0 0 0 0 0 0 0 0 0 0 0 0 0 0 0 0 0 0 0 0 0 0 0 0 0 0 0 0 0 0 0 0 0 0 0 0 0 0 0 0 0 0 0 0 0 0 0 0 0 0 0 0 0 0 0 0 0 0 0 0 0 0 0 0 0 0 0 0 0 0 0 0 0 0 0 0 0 0 0 0 0 0 0 0 0 0 0 0 1 0 4 5 9 2 6 9 2 6 9 2 6 9 2 6 9 2 6 9 2 6 9 2 6 9 14 18 21 9 13 16 4 8 11 5 9 12 16 20 23 37 41 44 60 64 67 74 78 81 123 129 129 117 123 123 105 111 111 90 96 96 74 80 80 59 65 65 47 53 53 41 47 47 35 41 41 33 39 39 28 34 34 21 27 27 15 21 21 8 14 14 3 9 9 1 7 7 2 3 5 2 3 5 2 3 5 2 3 5 2 3 5 2 3 5 2 3 5 2 3 5 0 0 2 0 0 2 1 2 4 4 5 7 8 9 11 11 12 14 13 14 16 15 16 18 9 13 12 11 15 14 13 17 16 16 20 19 20 24 23 23 27 26 25 29 28 27 31 30 29 33 32 29 33 32 29 33 32 29 33 32 29 33 32 29 33 32 29 33 32 31 33 32 40 34 36 44 35 38 46 37 40 49 40 43 53 44 47 56 47 50 58 49 52 60 51 54 62 53 56 64 55 58 66 57 60 69 60 63 73 64 67 76 67 70 78 69 72 81 70 74 86 71 76 87 70 76 87 70 76 87 70 76 87 70 76 87 70 76 87 70 76 87 70 76 98 81 87 98 81 87 98 81 87 98 81 87 98 81 87 98 81 87 98 81 87 98 81 87
0 0 0 0 0 0 0 0 0 0 0 0 0 0 0 0 0 0 0 0 0 0 0 0 0 0 0 0 0 0 0 0 0 0 0 0 0 0 0 0 0 0 0 0 0 0 0 0 0 0 0 0 0 0 0 0 0 0 0 0 0 0 0 0 0 0 0 0 0 0 0 0 0 0 0 0 0 0 0 0 0 0 0 0 0 0 0 0 0 0 0 0 0 0 0 0 0 0 0 0 0 0 0 0 0 0 0 0 0 0 0 0 0 0 0 0 0 0 0 0 0 0 0 0 0 0 0 0 0 0 0 0 0 0 0 0 0 0 0 0 0 0 0 0 0 0 0 0 0 0 0 0 0 0 0 0 0 0 0 0 0 0 0 0 0 0 0 0 0 0 0 0 0 0 0 0 0 0 0 0 0 0 0 0 0 0 0 0 0 0 0 0 0 0 0 0 0 0 0 0 0 0 0 0 0 0 0 0 0 0 0 0 0 0 0 0 0 0 0 0 0 0 0 0 0 0 1 0 4 5 9 2 6 9 2 6 9 2 6 9 2 6 9 2 6 9 2 6 9 2 6 9 28 32 35 19 23 26 7 11 14 6 10 13 21 25 28 51 55 58 84 88 91 106 110 113 133 139 139 126 132 132 112 118 118 93 99 99 73 79 79 55 61 61 41 47 47 33 39 39 35 41 41 33 39 39 28 34 34 21 27 27 15 21 21 8 14 14 3 9 9 1 7 7 2 3 5 2 3 5 2 3 5 2 3 5 2 3 5 2 3 5 2 3 5 2 3 5 0 0 2 0 0 2 1 2 4 4 5 7 8 9 11 11 12 14 13 14 16 15 16 18 9 13 12 11 15 14 13 17 16 16 20 19 20 24 23 23 27 26 25 29 28 27 31 30 29 33 32 29 33 32 29 33 32 29 33 32 29 33 32 29 33 32 29 33 32 31 33 32 40 34 36 44 35 38 46 37 40 49 40 43 53 44 47 56 47 50 58 49 52 60 51 54 62 53 56 64 55 58 66 57 60 69 60 63 73 64 67 76 67 70 78 69 72 81 70 74 86 71 76 87 70 76 87 70 76 87 70 76 87 70 76 87 70 76 87 70 76 87 70 76 98 81 87 98 81 87 98 81 87 98 81 87 98 81 87 98 81 87 98 81 87 98 81 87
0 0 0 0 0 0 0 0 0 0 0 0 0 0 0 0 0 0 0 0 0 0 0 0 0 0 0 0 0 0 0 0 0 0 0 0 0 0 0 0 0 0 0 0 0 0 0 0 0 0 0 0 0 0 0 0 0 0 0 0 0 0 0 0 0 0 0 0 0 0 0 0 0 0 0 0 0 0 0 0 0 0 0 0 0 0 0 0 0 0 0 0 0 0 0 0 0 0 0 0 0 0 0 0 0 0 0 0 0 0 0 0 0 0 0 0 0 0 0 0 0 0 0 0 0 0 0 0 0 0 0 0 0 0 0 0 0 0 0 0 0 0 0 0 0 0 0 0 0 0 0 0 0 0 0 0 0 0 0 0 0 0 0 0 0 0 0 0 0 0 0 0 0 0 0 0 0 0 0 0 0 0 0 0 0 0 0 0 0 0 0 0 0 0 0 0 0 0 0 0 0 0 0 0 0 0 0 0 0 0 0 0 0 0 0 0 0 0 0 0 0 0 0 0 0 0 1 0 4 5 9 2 6 9 2 6 9 2 6 9 2 6 9 2 6 9 2 6 9 2 6 9 33 37 40 24 28 31 16 20 23 17 21 24 37 41 44 70 74 77 106 110 113 129 133 136 127 133 133 119 125 125 105 111 111 87 93 93 67 73 73 48 54 54 34 40 40 27 33 33 35 41 41 33 39 39 28 34 34 21 27 27 15 21 21 8 14 14 3 9 9 1 7 7 2 3 5 2 3 5 2 3 5 2 3 5 2 3 5 2 3 5 2 3 5 2 3 5 0 0 2 0 0 2 1 2 4 4 5 7 8 9 11 11 12 14 13 14 16 15 16 18 9 13 12 11 15 14 13 17 16 16 20 19 20 24 23 23 27 26 25 29 28 27 31 30 29 33 32 29 33 32 29 33 32 29 33 32 29 33 32 29 33 32 29 33 32 31 33 32 40 34 36 44 35 38 46 37 40 49 40 43 53 44 47 56 47 50 58 49 52 60 51 54 62 53 56 64 55 58 66 57 60 69 60 63 73 64 67 76 67 70 78 69 72 81 70 74 86 71 76 87 70 76 87 70 76 87 70 76 87 70 76 87 70 76 87 70 76 87 70 76 98 81 87 98 81 87 98 81 87 98 81 87 98 81 87 98 81 87 98 81 87 98 81 87
0 0 0 0 0 0 0 0 0 0 0 0 0 0 0 0 0 0 0 0 0 0 0 0 0 0 0 0 0 0 0 0 0 0 0 0 0 0 0 0 0 0 0 0 0 0 0 0 0 0 0 0 0 0 0 0 0 0 0 0 0 0 0 0 0 0 0 0 0 0 0 0 0 0 0 0 0 0 0 0 0 0 0 0 0 0 0 0 0 0 0 0 0 0 0 0 0 0 0 0 0 0 0 0 0 0 0 0 0 0 0 0 0 0 0 0 0 0 0 0 0 0 0 0 0 0 0 0 0 0 0 0 0 0 0 0 0 0 0 0 0 0 0 0 0 0 0 0 0 0 0 0 0 0 0 0 0 0 0 0 0 0 0 0 0 0 0 0 0 0 0 0 0 0 0 0 0 0 0 0 0 0 0 0 0 0 0 0 0 0 0 0 0 0 0 0 0 0 0 0 0 0 0 0 0 0 0 0 0 0 0 0 0 0 0 0 0 0 0 0 0 0 0 0 0 0 1 0 4 5 9 2 6 9 2 6 9 2 6 9 2 6 9 2 6 9 2 6 9 2 6 9 26 30 33 25 29 32 27 31 34 39 43 46 61 65 68 92 96 99 122 126 129 140 144 147 119 125 125 113 119 119 101 107 107 86 92 92 70 76 76 55 61 61 43 49 49 37 43 43 35 41 41 33 39 39 28 34 34 21 27 27 15 21 21 8 14 14 3 9 9 1 7 7 2 3 5 2 3 5 2 3 5 2 3 5 2 3 5 2 3 5 2 3 5 2 3 5 0 0 2 0 0 2 1 2 4 4 5 7 8 9 11 11 12 14 13 14 16 15 16 18 9 13 12 11 15 14 13 17 16 16 20 19 20 24 23 23 27 26 25 29 28 27 31 30 29 33 32 29 33 32 29 33 32 29 33 32 29 33 32 29 33 32 29 33 32 31 33 32 40 34 36 44 35 38 46 37 40 49 40 43 53 44 47 56 47 50 58 49 52 60 51 54 62 53 56 64 55 58 66 57 60 69 60 63 73 64 67 76 67 70 78 69 72 81 70 74 86 71 76 87 70 76 87 70 76 87 70 76 87 70 76 87 70 76 87 70 76 87 70 76 98 81 87 98 81 87 98 81 87 98 81 87 98 81 87 98 81 87 98 81 87 98 81 87
0 0 0 0 0 0 0 0 0 0 0 0 0 0 0 0 0 0 0 0 0 0 0 0 0 0 0 0 0 0 0 0 0 0 0 0 0 0 0 0 0 0 0 0 0 0 0 0 0 0 0 0 0 0 0 0 0 0 0 0 0 0 0 0 0 0 0 0 0 0 0 0 0 0 0 0 0 0 0 0 0 0 0 0 0 0 0 0 0 0 0 0 0 0 0 0 0 0 0 0 0 0 0 0 0 0 0 0 0 0 0 0 0 0 0 0 0 0 0 0 0 0 0 0 0 0 0 0 0 0 0 0 0 0 0 0 0 0 0 0 0 0 0 0 0 0 0 0 0 0 0 0 0 0 0 0 0 0 0 0 0 0 0 0 0 0 0 0 0 0 0 0 0 0 0 0 0 0 0 0 0 0 0 0 0 0 0 0 0 0 0 0 0 0 0 0 0 0 0 0 0 0 0 0 0 0 0 0 0 0 0 0 0 0 0 0 0 0 0 0 0 0 0 0 0 0 1 0 4 5 9 2 6 9 2 6 9 2 6 9 2 6 9 2 6 9 2 6 9 2 6 9 15 19 22 23 27 30 39 43 46 61 65 68 87 91 94 111 115 118 131 135 138 143 147 150 121 127 127 116 122 122 108 114 114 98 104 104 87 93 93 76 82 82 68 74 74 64 70 70 35 41 41 33 39 39 28 34 34 21 27 27 15 21 21 8 14 14 3 9 9 1 7 7 2 3 5 2 3 5 2 3 5 2 3 5 2 3 5 2 3 5 2 3 5 2 3 5 0 0 2 0 0 2 1 2 4 4 5 7 8 9 11 11 12 14 13 14 16 15 16 18 9 13 12 11 15 14 13 17 16 16 20 19 20 24 23 23 27 26 25 29 28 27 31 30 29 33 32 29 33 32 29 33 32 29 33 32 29 33 32 29 33 32 29 33 32 31 33 32 40 34 36 44 35 38 46 37 40 49 40 43 53 44 47 56 47 50 58 49 52 60 51 54 62 53 56 64 55 58 66 57 60 69 60 63 73 64 67 76 67 70 78 69 72 81 70 74 86 71 76 87 70 76 87 70 76 87 70 76 87 70 76 87 70 76 87 70 76 87 70 76 98 81 87 98 81 87 98 81 87 98 81 87 98 81 87 98 81 87 98 81 87 98 81 87
0 0 0 0 0 0 0 0 0 0 0 0 0 0 0 0 0 0 0 0 0 0 0 0 0 0 0 0 0 0 0 0 0 0 0 0 0 0 0 0 0 0 0 0 0 0 0 0 0 0 0 0 0 0 0 0 0 0 0 0 0 0 0 0 0 0 0 0 0 0 0 0 0 0 0 0 0 0 0 0 0 0 0 0 0 0 0 0 0 0 0 0 0 0 0 0 0 0 0 0 0 0 0 0 0 0 0 0 0 0 0 0 0 0 0 0 0 0 0 0 0 0 0 0 0 0 0 0 0 0 0 0 0 0 0 0 0 0 0 0 0 0 0 0 0 0 0 0 0 0 0 0 0 0 0 0 0 0 0 0 0 0 0 0 0 0 0 0 0 0 0 0 0 0 0 0 0 0 0 0 0 0 0 0 0 0 0 0 0 0 0 0 0 0 0 0 0 0 0 0 0 0 0 0 0 0 0 0 0 0 0 0 0 0 0 0 0 0 0 0 0 0 0 0 0 0 1 0 2 6 7 2 6 7 2 6 9 2 6 7 2 6 9 2 6 7 2 6 9 2 6 7 7 11 14 21 25 26 47 51 54 76 80 81 103 107 110 123 127 128 136 140 143 141 145 146 128 132 133 124 130 128 119 123 122 111 117 115 105 109 108 96 102 100 92 96 95 88 94 92 36 40 39 33 39 37 29 33 32 21 27 25 16 20 19 8 14 12 4 8 7 2 6 5 0 4 5 0 4 5 2 3 5 0 4 5 2 3 5 0 4 5 2 3 5 0 4 5 0 0 2 0 1 2 1 2 4 2 6 7 8 9 11 9 13 14 13 14 16 13 17 18 9 13 12 11 15 14 13 17 16 16 20 19 20 24 23 23 27 26 25 29 28 27 31 30 29 33 32 29 33 32 29 33 32 29 33 32 29 33 32 29 33 32 29 33 32 31 33 32 39 35 36 44 35 38 46 37 40 49 40 43 53 44 47 56 47 50 58 49 52 60 51 54 62 53 56 64 55 58 66 57 60 69 60 63 73 64 67 76 67 70 78 69 72 81 70 74 86 71 76 87 70 76 87 70 76 87 70 76 87 70 76 87 70 76 87 70 76 87 70 76 98 81 87 98 81 87 98 81 87 98 81 87 98 81 87 98 81 87 98 81 87 100 81 87
0 0 0 0 0 0 0 0 0 0 0 0 0 0 0 0 0 0 0 0 0 0 0 0 0 0 0 0 0 0 0 0 0 0 0 0 0 0 0 0 0 0 0 0 0 0 0 0 0 0 0 0 0 0 0 0 0 0 0 0 0 0 0 0 0 0 0 0 0 0 0 0 0 0 0 0 0 0 0 0 0 0 0 0 0 0 0 0 0 0 0 0 0 0 0 0 0 0 0 0 0 0 0 0 0 0 0 0 0 0 0 0 0 0 0 0 0 0 0 0 0 0 0 0 0 0 0 0 0 0 0 0 0 0 0 0 0 0 0 0 0 0 0 0 0 0 0 0 0 0 0 0 0 0 0 0 0 0 0 0 0 0 0 0 0 0 0 0 0 0 0 0 0 0 0 0 0 0 0 0 0 1 0 0 1 0 0 1 0 0 1 0 0 1 0 0 1 0 0 1 0 0 1 0 1 3 2 1 3 2 1 3 2 1 3 2 1 3 2 1 3 2 1 3 2 1 3 2 10 14 13 6 10 9 1 5 6 0 3 2 3 7 8 13 17 16 24 28 29 31 35 34 58 62 63 77 81 80 106 110 111 132 136 135 144 148 149 140 144 143 127 131 132 117 121 120 133 138 134 132 137 133 131 133 130 126 131 127 125 127 124 119 124 120 119 121 118 116 121 117 105 107 104 69 74 70 32 34 31 14 19 15 21 23 20 21 26 22 10 12 9 0 2 0 1 5 4 0 6 6 1 5 6 0 6 6 1 5 6 0 6 6 1 5 6 0 6 6 9 13 14 8 14 14 9 13 14 8 14 14 9 13 14 8 14 14 9 13 14 8 14 14 14 20 20 14 20 20 14 20 20 14 20 20 14 20 20 14 20 20 14 20 20 14 20 20 17 23 23 17 23 23 17 23 23 17 23 23 17 23 23 17 23 23 17 23 23 20 21 23 21 17 18 26 17 20 31 22 25 38 29 32 44 35 38 51 42 45 56 47 50 58 49 52 72 63 66 72 63 66 72 63 66 72 63 66 72 63 66 72 63 66 72 63 66 73 62 66 88 71 77 90 71 77 90 71 77 90 71 77 90 71 77 90 71 77 90 71 77 90 71 77 99 80 86 99 80 86 99 80 86 99 80 86 99 80 86 99 80 86 99 80 86 99 80 86
0 0 0 0 0 0 0 0 0 0 0 0 0 0 0 0 0 0 0 0 0 0 0 0 0 0 0 0 0 0 0 0 0 0 0 0 0 0 0 0 0 0 0 0 0 0 0 0 0 0 0 0 0 0 0 0 0 0 0 0 0 0 0 0 0 0 0 0 0 0 0 0 0 0 0 0 0 0 0 0 0 0 0 0 0 0 0 0 0 0 0 0 0 0 0 0 0 0 0 0 0 0 0 0 0 0 0 0 0 0 0 0 0 0 0 0 0 0 0 0 0 0 0 0 0 0 0 0 0 0 0 0 0 0 0 0 0 0 0 0 0 0 0 0 0 0 0 0 0 0 0 0 0 0 0 0 0 0 0 0 0 0 0 0 0 0 0 0 0 0 0 0 0 0 0 0 0 0 0 0 0 1 0 0 1 0 0 1 0 0 1 0 0 1 0 0 1 0 0 1 0 0 1 0 1 3 2 1 3 2 1 3 2 1 3 2 1 3 2 1 3 2 1 3 2 1 3 2 6 10 9 2 6 5 0 2 1 0 2 1 4 8 7 15 19 18 27 31 30 35 39 38 65 69 68 83 87 86 109 113 112 133 137 136 143 147 146 140 144 143 129 133 132 120 125 121 136 138 135 135 137 132 133 135 130 129 131 126 126 128 123 123 125 120 120 122 117 119 121 116 106 108 103 76 78 73 41 43 38 25 27 22 25 27 22 24 26 21 11 13 8 0 2 0 3 7 6 2 8 8 2 8 8 2 8 8 2 8 8 2 8 8 2 8 8 2 8 8 8 14 14 8 14 14 8 14 14 8 14 14 8 14 14 8 14 14 8 14 14 8 14 14 14 20 20 14 20 20 14 20 20 14 20 20 14 20 20 14 20 20 14 20 20 14 20 20 17 23 23 17 23 23 17 23 23 17 23 23 17 23 23 17 23 23 17 23 23 20 21 23 21 17 18 26 17 20 31 22 25 38 29 32 44 35 38 51 42 45 56 47 50 58 49 52 72 63 66 72 63 66 72 63 66 72 63 66 72 63 66 72 63 66 72 63 66 73 62 66 88 71 77 90 71 77 90 71 77 90 71 77 90 71 77 90 71 77 90 71 77 90 71 77 99 80 86 99 80 86 99 80 86 99 80 86 99 80 86 99 80 86 99 80 86 99 80 86
0 0 0 0 0 0 0 0 0 0 0 0 0 0 0 0 0 0 0 0 0 0 0 0 0 0 0 0 0 0 0 0 0 0 0 0 0 0 0 0 0 0 0 0 0 0 0 0 0 0 0 0 0 0 0 0 0 0 0 0 0 0 0 0 0 0 0 0 0 0 0 0 0 0 0 0 0 0 0 0 0 0 0 0 0 0 0 0 0 0 0 0 0 0 0 0 0 0 0 0 0 0 0 0 0 0 0 0 0 0 0 0 0 0 0 0 0 0 0 0 0 0 0 0 0 0 0 0 0 0 0 0 0 0 0 0 0 0 0 0 0 0 0 0 0 0 0 0 0 0 0 0 0 0 0 0 0 0 0 0 0 0 0 0 0 0 0 0 0 0 0 0 0 0 0 0 0 0 0 0 0 1 0 0 1 0 0 1 0 0 1 0 0 1 0 0 1 0 0 1 0 0 1 0 1 3 2 1 3 2 1 3 2 1 3 2 1 3 2 1 3 2 1 3 2 1 3 2 1 5 4 0 3 2 0 1 0 0 3 2 7 11 10 20 24 23 34 38 37 43 47 46 78 82 81 92 96 95 114 118 117 134 138 137 143 147 146 141 145 144 133 137 136 126 131 127 139 141 138 137 139 134 135 137 132 132 134 129 128 130 125 125 127 122 123 125 120 121 123 118 108 110 105 85 87 82 57 59 54 40 42 37 33 35 30 26 28 23 13 15 10 0 3 0 5 9 8 4 10 10 4 10 10 4 10 10 4 10 10 4 10 10 4 10 10 4 10 10 8 14 14 8 14 14 8 14 14 8 14 14 8 14 14 8 14 14 8 14 14 8 14 14 14 20 20 14 20 20 14 20 20 14 20 20 14 20 20 14 20 20 14 20 20 14 20 20 17 23 23 17 23 23 17 23 23 17 23 23 17 23 23 17 23 23 17 23 23 20 21 23 21 17 18 26 17 20 31 22 25 38 29 32 44 35 38 51 42 45 56 47 50 58 49 52 72 63 66 72 63 66 72 63 66 72 63 66 72 63 66 72 63 66 72 63 66 73 62 66 88 71 77 90 71 77 90 71 77 90 71 77 90 71 77 90 71 77 90 71 77 90 71 77 99 80 86 99 80 86 99 80 86 99 80 86 99 80 86 99 80 86 99 80 86 99 80 86
