P3
172 37
255
8 4 18 8 4 18 8 4 18 8 4 18 10 6 20 10 6 20 10 6 20 10 6 20 10 6 20 10 6 20 10 6 20 10 6 20 3 0 11 3 0 11 3 0 11 3 0 11 3 0 11 3 0 11 3 0 11 3 0 11 6 3 14 6 3 14 6 3 14 6 3 14 6 3 14 6 3 14 6 3 14 6 3 14 4 1 10 4 1 10 4 1 10 4 1 10 4 1 10 4 1 10 4 1 10 4 1 10 4 1 10 4 1 10 4 1 10 4 1 10 4 1 10 4 1 10 4 1 10 4 1 10 4 1 10 4 1 10 4 1 10 4 1 10 4 1 10 4 1 10 4 1 10 4 1 10 5 2 11 5 2 11 5 2 11 5 2 11 5 2 11 5 2 11 5 2 11 5 2 11 3 2 10 3 2 10 3 2 10 3 2 10 3 2 10 3 2 10 3 2 10 3 2 10 4 3 11 4 3 11 4 3 11 4 3 11 4 3 11 4 3 11 4 3 11 4 3 11 3 1 12 3 1 12 3 1 12 3 1 12 3 1 12 3 1 12 3 1 12 3 1 12 5 3 14 5 3 14 5 3 14 5 3 14 5 3 14 5 3 14 5 3 14 5 4 12 5 6 11 5 6 10 5 6 10 5 6 10 5 6 10 5 6 10 5 6 10 5 6 10 0 1 5 0 1 5 0 1 5 0 1 5 0 1 5 0 1 5 0 1 5 0 1 5 0 1 5 0 1 5 0 1 5 0 1 5 0 1 5 0 1 5 0 1 5 0 1 5 9 10 14 11 12 16 13 14 18 16 17 21 20 21 25 23 24 28 25 26 30 27 28 30 43 43 45 47 47 47 54 54 54 64 64 64 74 74 74 84 84 84 91 91 91 95 95 95 91 91 91 98 98 98 109 109 109 118 118 118 121 121 121 119 119 119 113 113 113 109 109 109 94 94 94 84 84 84 69 69 69 54 54 54 43 43 43 39 39 39 40 40 40 42 42 42 38 38 38 38 38 38 38 38 38 38 38 38 38 38 38 38 38 38 38 38 38 38 38 38 36 34 35 36 34 35 36 34 35 36 34 35 36 34 35 36 34 35 36 34 35 36 34 35 39 37 38 39 37 38 39 37 38 39 37 38 39 37 38 39 37 38 39 37 38 39 37 38
12 9 20 12 9 20 12 9 20 12 9 20 14 11 22 14 11 22 14 11 22 14 11 22 14 11 22 14 11 22 14 11 22 14 11 22 1 0 9 1 0 9 1 0 9 1 0 9 1 0 9 1 0 9 1 0 9 1 0 9 6 3 14 6 3 14 6 3 14 6 3 14 6 3 14 6 3 14 6 3 14 6 3 14 4 1 10 4 1 10 4 1 10 4 1 10 4 1 10 4 1 10 4 1 10 4 1 10 4 1 10 4 1 10 4 1 10 4 1 10 4 1 10 4 1 10 4 1 10 4 1 10 4 1 10 4 1 10 4 1 10 4 1 10 4 1 10 4 1 10 4 1 10 4 1 10 5 2 11 5 2 11 5 2 11 5 2 11 5 2 11 5 2 11 5 2 11 5 2 11 3 2 10 3 2 10 3 2 10 3 2 10 3 2 10 3 2 10 3 2 10 3 2 10 4 3 11 4 3 11 4 3 11 4 3 11 4 3 11 4 3 11 4 3 11 4 3 11 3 2 10 3 2 10 3 1 12 3 2 10 3 1 12 3 2 10 3 1 12 3 2 10 5 3 14 5 4 12 5 3 14 5 4 12 5 3 14 5 4 12 5 3 14 5 4 12 5 6 11 5 6 10 5 6 10 5 6 10 5 6 10 5 6 10 5 6 10 5 6 10 0 1 5 0 1 5 0 1 5 0 1 5 0 1 5 0 1 5 0 1 5 0 1 5 0 1 5 0 1 3 0 1 5 0 1 3 0 1 5 0 1 3 0 1 5 0 1 3 9 10 14 11 12 14 13 14 18 16 17 19 20 21 25 23 24 26 25 26 30 27 28 30 42 44 43 46 48 45 54 54 54 63 65 62 74 74 74 83 85 82 91 91 91 94 96 93 90 90 90 96 98 95 107 107 107 115 117 114 120 120 120 116 118 115 112 112 112 107 107 105 94 94 94 84 84 82 69 69 69 54 54 52 43 43 43 39 39 37 40 40 40 42 42 40 38 38 38 38 38 36 38 38 38 38 38 36 38 38 38 38 38 36 38 38 38 38 38 38 36 34 35 36 34 35 36 34 35 36 34 35 36 34 35 36 34 35 36 34 35 36 34 35 39 37 38 39 37 38 39 37 38 39 37 38 39 37 38 39 37 38 39 37 38 39 37 38
3 2 10 3 2 10 3 2 10 3 2 10 2 1 9 2 1 9 2 1 9 2 1 9 2 1 9 2 1 9 2 1 9 2 1 9 1 0 8 1 0 8 1 0 8 1 0 8 1 0 8 1 0 8 1 0 8 1 0 8 3 2 10 3 2 10 3 2 10 3 2 10 3 2 10 3 2 10 3 2 10 3 2 10 2 1 9 2 1 9 2 1 9 2 1 9 2 1 9 2 1 9 2 1 9 2 1 9 3 2 10 3 2 10 3 2 10 3 2 10 3 2 10 3 2 10 3 2 10 3 2 10 3 2 10 3 2 10 3 2 10 3 2 10 3 2 10 3 2 10 3 2 10 3 2 10 3 2 10 3 2 10 3 2 10 3 2 10 3 2 10 3 2 10 3 2 10 3 2 10 4 3 9 4 3 9 4 3 9 4 3 9 4 3 9 4 3 9 4 3 9 4 3 9 1 0 6 1 0 6 1 0 6 1 0 6 1 0 6 1 0 6 1 0 6 1 0 6 2 1 7 2 1 7 2 1 9 2 1 7 2 1 9 2 1 7 2 1 9 2 1 7 6 5 13 6 5 11 6 5 13 6 5 11 6 5 13 6 5 11 6 5 13 6 5 11 6 7 11 4 8 11 4 8 11 4 8 11 4 8 11 4 8 11 4 8 11 4 8 11 10 14 17 8 12 15 6 10 13 3 7 10 0 3 6 0 1 4 0 1 4 0 1 4 0 2 3 0 2 1 0 2 3 0 2 1 0 2 3 0 2 1 0 2 3 0 2 1 2 6 7 4 8 7 9 13 14 16 20 19 22 26 27 29 33 32 34 38 39 36 40 39 41 46 42 43 48 42 50 52 49 55 60 54 63 65 62 68 73 67 75 77 74 75 80 74 94 96 93 93 98 92 98 100 97 99 104 98 104 106 103 106 111 105 110 112 109 111 113 108 90 90 88 81 80 76 66 65 63 51 50 46 40 39 37 36 35 31 37 36 34 39 38 34 37 36 34 37 36 32 37 36 34 37 36 32 37 36 34 37 36 32 37 36 34 37 36 34 36 34 35 36 34 35 36 34 35 36 34 35 36 34 35 36 34 35 36 34 35 36 34 35 35 33 34 35 33 34 35 33 34 35 33 34 35 33 34 35 33 34 35 33 34 35 33 34
3 2 8 3 2 8 3 2 8 3 2 8 2 1 7 2 1 7 2 1 7 2 1 7 2 1 7 2 1 7 2 1 7 2 1 7 1 0 8 1 0 8 1 0 8 1 0 8 1 0 8 1 0 8 1 0 8 1 0 8 3 2 10 3 2 10 3 2 10 3 2 10 3 2 10 3 2 10 3 2 10 3 2 10 2 1 9 2 1 9 2 1 9 2 1 9 2 1 9 2 1 9 2 1 9 2 1 9 3 2 10 3 2 10 3 2 10 3 2 10 3 2 10 3 2 10 3 2 10 3 2 10 3 2 10 3 2 10 3 2 10 3 2 10 3 2 10 3 2 10 3 2 10 3 2 10 3 2 10 3 2 10 3 2 10 3 2 10 3 2 10 3 2 10 3 2 10 3 2 10 4 3 9 4 3 9 4 3 9 4 3 9 4 3 9 4 3 9 4 3 9 4 3 9 1 0 6 1 0 6 1 0 6 1 0 6 1 0 6 1 0 6 1 0 6 1 0 6 2 1 7 2 1 7 2 1 7 2 1 7 2 1 7 2 1 7 2 1 7 2 1 7 6 5 11 6 5 11 6 5 11 6 5 11 6 5 11 6 5 11 6 5 11 5 6 11 6 7 11 4 8 11 4 8 11 4 8 11 4 8 11 4 8 11 4 8 11 4 8 11 10 14 17 8 12 15 6 10 13 3 7 10 0 3 6 0 1 4 0 1 4 0 1 2 0 2 3 0 2 1 0 2 1 0 2 1 0 2 1 0 2 1 0 2 1 0 2 1 2 6 5 4 8 7 9 13 12 16 20 19 22 26 25 29 33 32 34 38 37 36 41 37 41 46 42 43 48 42 48 53 47 55 60 54 61 66 60 68 73 67 73 78 72 75 80 74 91 96 90 92 97 91 94 99 93 98 103 97 101 106 100 104 109 103 107 112 106 110 112 107 90 91 86 81 80 76 66 65 61 51 50 46 40 39 35 36 35 31 37 36 32 39 38 34 37 36 32 37 36 32 37 36 32 37 36 32 37 36 32 37 36 32 37 36 32 37 36 32 36 34 35 36 34 35 36 34 35 36 34 35 36 34 35 36 34 35 36 34 35 36 34 35 35 33 34 35 33 34 35 33 34 35 33 34 35 33 34 35 33 34 35 33 34 35 33 34
3 2 8 3 2 8 3 2 8 3 2 8 2 1 7 2 1 7 2 1 7 2 1 7 2 1 7 2 1 7 2 1 7 2 1 7 1 0 8 1 0 8 1 0 8 1 0 8 1 0 8 1 0 8 1 0 8 1 0 8 3 2 10 3 2 10 3 2 10 3 2 10 3 2 10 3 2 10 3 2 10 3 2 10 2 1 9 2 1 9 2 1 9 2 1 9 2 1 9 2 1 9 2 1 9 2 1 9 3 2 10 3 2 10 3 2 10 3 2 10 3 2 10 3 2 10 3 2 10 3 2 10 3 2 10 3 2 10 3 2 10 3 2 10 3 2 10 3 2 10 3 2 10 3 2 10 3 2 10 3 2 10 3 2 10 3 2 10 3 2 10 3 2 10 3 2 10 3 2 10 4 3 9 4 3 9 4 3 9 4 3 9 4 3 9 4 3 9 4 3 9 4 3 9 1 0 6 1 0 6 1 0 6 1 0 6 1 0 6 1 0 6 1 0 6 1 0 6 2 1 7 2 1 7 2 1 7 2 1 7 2 1 7 2 1 7 2 1 7 2 1 7 6 5 11 6 5 11 6 5 11 6 5 11 6 5 11 6 5 11 6 5 11 5 6 11 6 7 11 4 8 11 4 8 11 4 8 11 4 8 11 4 8 11 4 8 11 4 8 11 10 14 17 8 12 15 6 10 13 3 7 10 0 3 6 0 1 4 0 1 4 0 1 2 0 2 3 0 2 1 0 2 1 0 2 1 0 2 1 0 2 1 0 2 1 0 2 1 2 6 5 4 8 7 9 13 12 16 20 19 22 26 25 29 33 32 34 38 37 36 41 37 41 46 42 43 48 42 48 53 47 55 60 54 61 66 60 68 73 67 73 78 72 75 80 74 88 93 87 90 95 89 92 97 91 95 100 94 99 104 98 102 107 101 104 109 103 108 110 105 90 91 86 81 80 76 66 65 61 51 50 46 40 39 35 36 35 31 37 36 32 39 38 34 37 36 32 37 36 32 37 36 32 37 36 32 37 36 32 37 36 32 37 36 32 37 36 32 36 34 35 36 34 35 36 34 35 36 34 35 36 34 35 36 34 35 36 34 35 36 34 35 35 33 34 35 33 34 35 33 34 35 33 34 35 33 34 35 33 34 35 33 34 35 33 34
3 2 8 3 2 8 3 2 8 3 2 8 2 1 7 2 1 7 2 1 7 2 1 7 2 1 7 2 1 7 2 1 7 2 1 7 1 0 8 1 0 8 1 0 8 1 0 8 1 0 8 1 0 8 1 0 8 1 0 8 3 2 10 3 2 10 3 2 10 3 2 10 3 2 10 3 2 10 3 2 10 3 2 10 2 1 9 2 1 9 2 1 9 2 1 9 2 1 9 2 1 9 2 1 9 2 1 9 3 2 10 3 2 10 3 2 10 3 2 10 3 2 10 3 2 10 3 2 10 3 2 10 3 2 10 3 2 10 3 2 10 3 2 10 3 2 10 3 2 10 3 2 10 3 2 10 3 2 10 3 2 10 3 2 10 3 2 10 3 2 10 3 2 10 3 2 10 3 2 10 4 3 9 4 3 9 4 3 9 4 3 9 4 3 9 4 3 9 4 3 9 4 3 9 1 0 6 1 0 6 1 0 6 1 0 6 1 0 6 1 0 6 1 0 6 1 0 6 2 1 7 2 1 7 2 1 7 2 1 7 2 1 7 2 1 7 2 1 7 2 1 7 6 5 11 6 5 11 6 5 11 6 5 11 6 5 11 6 5 11 6 5 11 5 6 11 6 7 11 4 8 11 4 8 11 4 8 11 4 8 11 4 8 11 4 8 11 4 8 11 10 14 17 8 12 15 6 10 13 3 7 10 0 3 6 0 1 4 0 1 4 0 1 2 0 2 3 0 2 1 0 2 1 0 2 1 0 2 1 0 2 1 0 2 1 0 2 1 2 6 5 4 8 7 9 13 12 16 20 19 22 26 25 29 33 32 34 38 37 36 41 37 41 46 42 43 48 42 48 53 47 55 60 54 61 66 60 68 73 67 73 78 72 75 80 74 85 90 84 86 91 85 89 94 88 92 97 91 95 100 94 99 104 98 101 106 100 104 106 101 90 91 86 81 80 76 66 65 61 51 50 46 40 39 35 36 35 31 37 36 32 39 38 34 37 36 32 37 36 32 37 36 32 37 36 32 37 36 32 37 36 32 37 36 32 37 36 32 36 34 35 36 34 35 36 34 35 36 34 35 36 34 35 36 34 35 36 34 35 36 34 35 35 33 34 35 33 34 35 33 34 35 33 34 35 33 34 35 33 34 35 33 34 35 33 34
3 2 8 3 2 8 3 2 8 3 2 8 2 1 7 2 1 7 2 1 7 2 1 7 2 1 7 2 1 7 2 1 7 2 1 7 1 0 8 1 0 8 1 0 8 1 0 8 1 0 8 1 0 8 1 0 8 1 0 8 3 2 10 3 2 10 3 2 10 3 2 10 3 2 10 3 2 10 3 2 10 3 2 10 2 1 9 2 1 9 2 1 9 2 1 9 2 1 9 2 1 9 2 1 9 2 1 9 3 2 10 3 2 10 3 2 10 3 2 10 3 2 10 3 2 10 3 2 10 3 2 10 3 2 10 3 2 10 3 2 10 3 2 10 3 2 10 3 2 10 3 2 10 3 2 10 3 2 10 3 2 10 3 2 10 3 2 10 3 2 10 3 2 10 3 2 10 3 2 10 4 3 9 4 3 9 4 3 9 4 3 9 4 3 9 4 3 9 4 3 9 4 3 9 1 0 6 1 0 6 1 0 6 1 0 6 1 0 6 1 0 6 1 0 6 1 0 6 2 1 7 2 1 7 2 1 7 2 1 7 2 1 7 2 1 7 2 1 7 2 1 7 6 5 11 6 5 11 6 5 11 6 5 11 6 5 11 6 5 11 6 5 11 5 6 11 6 7 11 4 8 11 4 8 11 4 8 11 4 8 11 4 8 11 4 8 11 4 8 11 10 14 17 8 12 15 6 10 13 3 7 10 0 3 6 0 1 4 0 1 4 0 1 2 0 2 3 0 2 1 0 2 1 0 2 1 0 2 1 0 2 1 0 2 1 0 2 1 2 6 5 4 8 7 9 13 12 16 20 19 22 26 25 29 33 32 34 38 37 36 41 37 41 46 42 43 48 42 48 53 47 55 60 54 61 66 60 68 73 67 73 78 72 75 80 74 82 87 81 83 88 82 85 90 84 89 94 88 92 97 91 95 100 94 98 103 97 101 103 98 90 91 86 81 80 76 66 65 61 51 50 46 40 39 35 36 35 31 37 36 32 39 38 34 37 36 32 37 36 32 37 36 32 37 36 32 37 36 32 37 36 32 37 36 32 37 36 32 36 34 35 36 34 35 36 34 35 36 34 35 36 34 35 36 34 35 36 34 35 36 34 35 35 33 34 35 33 34 35 33 34 35 33 34 35 33 34 35 33 34 35 33 34 35 33 34
3 2 8 3 2 8 3 2 8 3 2 8 2 1 7 2 1 7 2 1 7 2 1 7 2 1 7 2 1 7 2 1 7 2 1 7 1 0 8 1 0 8 1 0 8 1 0 8 1 0 8 1 0 8 1 0 8 1 0 8 3 2 10 3 2 10 3 2 10 3 2 10 3 2 10 3 2 10 3 2 10 3 2 10 2 1 9 2 1 9 2 1 9 2 1 9 2 1 9 2 1 9 2 1 9 2 1 9 3 2 10 3 2 10 3 2 10 3 2 10 3 2 10 3 2 10 3 2 10 3 2 10 3 2 10 3 2 10 3 2 10 3 2 10 3 2 10 3 2 10 3 2 10 3 2 10 3 2 10 3 2 10 3 2 10 3 2 10 3 2 10 3 2 10 3 2 10 3 2 10 4 3 9 4 3 9 4 3 9 4 3 9 4 3 9 4 3 9 4 3 9 4 3 9 1 0 6 1 0 6 1 0 6 1 0 6 1 0 6 1 0 6 1 0 6 1 0 6 2 1 7 2 1 7 2 1 7 2 1 7 2 1 7 2 1 7 2 1 7 2 1 7 6 5 11 6 5 11 6 5 11 6 5 11 6 5 11 6 5 11 6 5 11 5 6 11 6 7 11 4 8 11 4 8 11 4 8 11 4 8 11 4 8 11 4 8 11 4 8 11 10 14 17 8 12 15 6 10 13 3 7 10 0 3 6 0 1 4 0 1 4 0 1 2 0 2 3 0 2 1 0 2 1 0 2 1 0 2 1 0 2 1 0 2 1 0 2 1 2 6 5 4 8 7 9 13 12 16 20 19 22 26 25 29 33 32 34 38 37 36 41 37 41 46 42 43 48 42 48 53 47 55 60 54 61 66 60 68 73 67 73 78 72 75 80 74 78 83 77 80 85 79 82 87 81 85 90 84 89 94 88 92 97 91 94 99 93 98 100 95 90 91 86 81 80 76 66 65 61 51 50 46 40 39 35 36 35 31 37 36 32 39 38 34 37 36 32 37 36 32 37 36 32 37 36 32 37 36 32 37 36 32 37 36 32 37 36 32 36 34 35 36 34 35 36 34 35 36 34 35 36 34 35 36 34 35 36 34 35 36 34 35 35 33 34 35 33 34 35 33 34 35 33 34 35 33 34 35 33 34 35 33 34 35 33 34
3 2 8 3 2 8 3 2 8 3 2 8 2 1 7 2 1 7 2 1 7 2 1 7 2 1 7 2 1 7 2 1 7 2 1 7 1 0 8 1 0 8 1 0 8 1 0 8 1 0 8 1 0 8 1 0 8 1 0 8 3 2 10 3 2 10 3 2 10 3 2 10 3 2 10 3 2 10 3 2 10 3 2 10 2 1 9 2 1 9 2 1 9 2 1 9 2 1 9 2 1 9 2 1 9 2 1 9 3 2 10 3 2 10 3 2 10 3 2 10 3 2 10 3 2 10 3 2 10 3 2 10 3 2 10 3 2 10 3 2 10 3 2 10 3 2 10 3 2 10 3 2 10 3 2 10 3 2 10 3 2 10 3 2 10 3 2 10 3 2 10 3 2 10 3 2 10 3 2 10 4 3 9 4 3 9 4 3 9 4 3 9 4 3 9 4 3 9 4 3 9 4 3 9 1 0 6 1 0 6 1 0 6 1 0 6 1 0 6 1 0 6 1 0 6 1 0 6 2 1 7 2 1 7 2 1 7 2 1 7 2 1 7 2 1 7 2 1 7 2 1 7 6 5 11 6 5 11 6 5 11 6 5 11 6 5 11 6 5 11 6 5 11 5 6 11 6 7 11 4 8 11 4 8 11 4 8 11 4 8 11 4 8 11 4 8 11 4 8 11 10 14 17 8 12 15 6 10 13 3 7 10 0 3 6 0 1 4 0 1 4 0 1 2 0 2 3 0 2 1 0 2 1 0 2 1 0 2 1 0 2 1 0 2 1 0 2 1 2 6 5 4 8 7 9 13 12 16 20 19 22 26 25 29 33 32 34 38 37 36 41 37 41 46 42 43 48 42 48 53 47 55 60 54 61 66 60 68 73 67 73 78 72 75 80 74 76 81 75 77 82 76 80 85 79 83 88 82 86 91 85 90 95 89 92 97 91 95 97 92 90 91 86 81 80 76 66 65 61 51 50 46 40 39 35 36 35 31 37 36 32 39 38 34 37 36 32 37 36 32 37 36 32 37 36 32 37 36 32 37 36 32 37 36 32 37 36 32 36 34 35 36 34 35 36 34 35 36 34 35 36 34 35 36 34 35 36 34 35 36 34 35 35 33 34 35 33 34 35 33 34 35 33 34 35 33 34 35 33 34 35 33 34 35 33 34
3 2 8 3 2 8 3 2 8 3 2 8 2 1 7 2 1 7 2 1 7 2 1 7 2 1 7 2 1 7 2 1 7 2 1 7 1 0 8 1 0 8 1 0 8 1 0 8 1 0 8 1 0 8 1 0 8 1 0 8 3 2 10 3 2 10 3 2 10 3 2 10 3 2 10 3 2 10 3 2 10 3 2 10 2 1 9 2 1 9 2 1 9 2 1 9 2 1 9 2 1 9 2 1 9 2 1 9 3 2 10 3 2 10 3 2 10 3 2 10 3 2 10 3 2 10 3 2 10 3 2 10 3 2 10 3 2 10 3 2 10 3 2 10 3 2 10 3 2 10 3 2 10 3 2 10 3 2 10 3 2 10 3 2 10 3 2 10 3 2 10 3 2 10 3 2 10 3 2 10 4 3 9 4 3 9 4 3 9 4 3 9 4 3 9 4 3 9 4 3 9 4 3 9 1 0 6 1 0 6 1 0 6 1 0 6 1 0 6 1 0 6 1 0 6 1 0 6 2 1 7 2 1 7 2 1 7 2 1 7 2 1 7 2 1 7 2 1 7 2 1 7 6 5 11 6 5 11 6 5 11 6 5 11 6 5 11 6 5 11 6 5 11 5 6 11 6 7 11 4 8 11 4 8 11 4 8 11 4 8 11 4 8 11 4 8 11 4 8 11 10 14 17 8 12 15 6 10 13 3 7 10 0 3 6 0 1 4 0 1 4 0 1 2 0 2 3 0 2 1 0 2 1 0 2 1 0 2 1 0 2 1 0 2 1 0 2 1 2 6 5 4 8 7 9 13 12 16 20 19 22 26 25 29 33 32 34 38 37 36 41 37 41 46 42 43 48 42 48 53 47 55 60 54 61 66 60 68 73 67 73 78 72 75 80 74 75 80 74 76 81 75 78 83 77 82 87 81 85 90 84 88 93 87 91 96 90 94 96 91 90 91 86 81 80 76 66 65 61 51 50 46 40 39 35 36 35 31 37 36 32 39 38 34 37 36 32 37 36 32 37 36 32 37 36 32 37 36 32 37 36 32 37 36 32 37 36 32 36 34 35 36 34 35 36 34 35 36 34 35 36 34 35 36 34 35 36 34 35 36 34 35 35 33 34 35 33 34 35 33 34 35 33 34 35 33 34 35 33 34 35 33 34 35 33 34
2 1 7 2 1 7 2 1 7 2 1 7 1 0 6 1 0 6 1 0 6 1 0 6 1 0 6 1 0 6 1 0 6 1 0 6 2 1 9 2 1 9 2 1 9 2 1 9 2 1 9 2 1 9 2 1 9 2 1 9 3 2 10 3 2 10 3 2 10 3 2 10 3 2 10 3 2 10 3 2 10 3 2 10 2 1 9 2 1 9 2 1 9 2 1 9 2 1 9 2 1 9 2 1 9 2 1 9 2 1 9 2 1 9 2 1 9 2 1 9 2 1 9 2 1 9 2 1 9 2 1 9 3 2 10 3 2 10 3 2 10 3 2 10 3 2 10 3 2 10 3 2 10 3 2 10 3 2 10 3 2 10 3 2 10 3 2 10 3 2 10 3 2 10 3 2 10 3 2 10 4 3 9 4 3 9 4 3 9 4 3 9 4 3 9 4 3 9 4 3 9 4 3 9 4 3 9 4 3 9 4 3 9 4 3 9 4 3 9 4 3 9 4 3 9 4 3 9 4 3 9 4 3 9 4 3 9 4 3 9 4 3 9 4 3 9 4 3 9 4 3 9 6 5 11 6 5 11 6 5 11 6 5 11 6 5 11 6 5 11 6 5 11 5 6 11 0 0 4 0 1 4 0 1 4 0 4 7 5 9 12 9 13 16 13 17 20 14 18 21 13 17 20 11 15 18 9 13 16 6 10 13 2 6 9 0 3 6 0 1 4 0 1 2 0 3 4 0 3 2 0 3 2 0 3 2 0 3 2 0 3 2 0 3 2 0 3 2 12 16 15 14 18 17 16 20 19 19 23 22 23 27 26 26 30 29 28 32 31 30 35 31 41 46 42 43 48 42 45 50 44 48 53 47 52 57 51 55 60 54 57 62 56 59 64 58 70 75 69 71 76 70 74 79 73 77 82 76 80 85 79 84 89 83 86 91 85 89 91 86 64 65 60 63 62 58 58 57 53 51 50 46 45 44 40 38 37 33 33 32 28 31 30 26 32 31 27 32 31 27 32 31 27 32 31 27 32 31 27 32 31 27 32 31 27 32 31 27 31 29 30 31 29 30 31 29 30 31 29 30 31 29 30 31 29 30 31 29 30 31 29 30 33 31 32 33 31 32 33 31 32 33 31 32 33 31 32 33 31 32 33 31 32 33 31 32
2 1 7 2 1 7 2 1 7 2 1 7 1 0 6 1 0 6 1 0 6 1 0 6 1 0 6 1 0 6 1 0 6 1 0 6 2 1 9 2 1 9 2 1 9 2 1 9 2 1 9 2 1 9 2 1 9 2 1 9 3 2 10 3 2 10 3 2 10 3 2 10 3 2 10 3 2 10 3 2 10 3 2 10 2 1 9 2 1 9 2 1 9 2 1 9 2 1 9 2 1 9 2 1 9 2 1 9 2 1 9 2 1 9 2 1 9 2 1 9 2 1 9 2 1 9 2 1 9 2 1 9 3 2 10 3 2 10 3 2 10 3 2 10 3 2 10 3 2 10 3 2 10 3 2 10 3 2 10 3 2 10 3 2 10 3 2 10 3 2 10 3 2 10 3 2 10 3 2 10 4 3 9 4 3 9 4 3 9 4 3 9 4 3 9 4 3 9 4 3 9 4 3 9 4 3 9 4 3 9 4 3 9 4 3 9 4 3 9 4 3 9 4 3 9 4 3 9 4 3 9 4 3 9 4 3 9 4 3 9 4 3 9 4 3 9 4 3 9 4 3 9 6 5 11 6 5 11 6 5 11 6 5 11 6 5 11 6 5 11 6 5 11 5 6 11 0 0 4 0 1 4 0 2 5 2 6 9 6 10 13 9 13 16 12 16 19 14 18 21 13 17 20 11 15 18 9 13 16 6 10 13 2 6 9 0 3 6 0 1 4 0 1 2 0 3 4 0 3 2 0 3 2 0 3 2 0 3 2 0 3 2 0 3 2 0 3 2 12 16 15 14 18 17 16 20 19 19 23 22 23 27 26 26 30 29 28 32 31 30 35 31 41 46 42 43 48 42 45 50 44 48 53 47 52 57 51 55 60 54 57 62 56 59 64 58 69 74 68 70 75 69 72 77 71 76 81 75 79 84 78 82 87 81 85 90 84 88 90 85 64 65 60 63 62 58 58 57 53 51 50 46 45 44 40 38 37 33 33 32 28 31 30 26 32 31 27 32 31 27 32 31 27 32 31 27 32 31 27 32 31 27 32 31 27 32 31 27 31 29 30 31 29 30 31 29 30 31 29 30 31 29 30 31 29 30 31 29 30 31 29 30 33 31 32 33 31 32 33 31 32 33 31 32 33 31 32 33 31 32 33 31 32 33 31 32
2 1 7 2 1 7 2 1 7 2 1 7 1 0 6 1 0 6 1 0 6 1 0 6 1 0 6 1 0 6 1 0 6 1 0 6 2 1 9 2 1 9 2 1 9 2 1 9 2 1 9 2 1 9 2 1 9 2 1 9 3 2 10 3 2 10 3 2 10 3 2 10 3 2 10 3 2 10 3 2 10 3 2 10 2 1 9 2 1 9 2 1 9 2 1 9 2 1 9 2 1 9 2 1 9 2 1 9 2 1 9 2 1 9 2 1 9 2 1 9 2 1 9 2 1 9 2 1 9 2 1 9 3 2 10 3 2 10 3 2 10 3 2 10 3 2 10 3 2 10 3 2 10 3 2 10 3 2 10 3 2 10 3 2 10 3 2 10 3 2 10 3 2 10 3 2 10 3 2 10 4 3 9 4 3 9 4 3 9 4 3 9 4 3 9 4 3 9 4 3 9 4 3 9 4 3 9 4 3 9 4 3 9 4 3 9 4 3 9 4 3 9 4 3 9 4 3 9 4 3 9 4 3 9 4 3 9 4 3 9 4 3 9 4 3 9 4 3 9 4 3 9 6 5 11 6 5 11 6 5 11 6 5 11 6 5 11 6 5 11 6 5 11 5 6 11 1 2 6 0 4 7 2 6 9 5 9 12 7 11 14 10 14 17 12 16 19 13 17 20 13 17 20 11 15 18 9 13 16 6 10 13 2 6 9 0 3 6 0 1 4 0 1 2 0 3 4 0 3 2 0 3 2 0 3 2 0 3 2 0 3 2 0 3 2 0 3 2 12 16 15 14 18 17 16 20 19 19 23 22 23 27 26 26 30 29 28 32 31 30 35 31 41 46 42 43 48 42 45 50 44 48 53 47 52 57 51 55 60 54 57 62 56 59 64 58 66 71 65 68 73 67 70 75 69 73 78 72 77 82 76 80 85 79 82 87 81 86 88 83 64 65 60 63 62 58 58 57 53 51 50 46 45 44 40 38 37 33 33 32 28 31 30 26 32 31 27 32 31 27 32 31 27 32 31 27 32 31 27 32 31 27 32 31 27 32 31 27 31 29 30 31 29 30 31 29 30 31 29 30 31 29 30 31 29 30 31 29 30 31 29 30 33 31 32 33 31 32 33 31 32 33 31 32 33 31 32 33 31 32 33 31 32 33 31 32
2 1 7 2 1 7 2 1 7 2 1 7 1 0 6 1 0 6 1 0 6 1 0 6 1 0 6 1 0 6 1 0 6 1 0 6 2 1 9 2 1 9 2 1 9 2 1 9 2 1 9 2 1 9 2 1 9 2 1 9 3 2 10 3 2 10 3 2 10 3 2 10 3 2 10 3 2 10 3 2 10 3 2 10 2 1 9 2 1 9 2 1 9 2 1 9 2 1 9 2 1 9 2 1 9 2 1 9 2 1 9 2 1 9 2 1 9 2 1 9 2 1 9 2 1 9 2 1 9 2 1 9 3 2 10 3 2 10 3 2 10 3 2 10 3 2 10 3 2 10 3 2 10 3 2 10 3 2 10 3 2 10 3 2 10 3 2 10 3 2 10 3 2 10 3 2 10 3 2 10 4 3 9 4 3 9 4 3 9 4 3 9 4 3 9 4 3 9 4 3 9 4 3 9 4 3 9 4 3 9 4 3 9 4 3 9 4 3 9 4 3 9 4 3 9 4 3 9 4 3 9 4 3 9 4 3 9 4 3 9 4 3 9 4 3 9 4 3 9 4 3 9 6 5 11 6 5 11 6 5 11 6 5 11 6 5 11 6 5 11 6 5 11 5 6 11 9 10 14 7 11 14 8 12 15 9 13 16 10 14 17 11 15 18 11 15 18 12 16 19 13 17 20 11 15 18 9 13 16 6 10 13 2 6 9 0 3 6 0 1 4 0 1 2 0 3 4 0 3 2 0 3 2 0 3 2 0 3 2 0 3 2 0 3 2 0 3 2 12 16 15 14 18 17 16 20 19 19 23 22 23 27 26 26 30 29 28 32 31 30 35 31 41 46 42 43 48 42 45 50 44 48 53 47 52 57 51 55 60 54 57 62 56 59 64 58 63 68 62 64 69 63 67 72 66 70 75 69 73 78 72 77 82 76 79 84 78 82 84 79 64 65 60 63 62 58 58 57 53 51 50 46 45 44 40 38 37 33 33 32 28 31 30 26 32 31 27 32 31 27 32 31 27 32 31 27 32 31 27 32 31 27 32 31 27 32 31 27 31 29 30 31 29 30 31 29 30 31 29 30 31 29 30 31 29 30 31 29 30 31 29 30 33 31 32 33 31 32 33 31 32 33 31 32 33 31 32 33 31 32 33 31 32 33 31 32
2 1 7 2 1 7 2 1 7 2 1 7 1 0 6 1 0 6 1 0 6 1 0 6 1 0 6 1 0 6 1 0 6 1 0 6 2 1 9 2 1 9 2 1 9 2 1 9 2 1 9 2 1 9 2 1 9 2 1 9 3 2 10 3 2 10 3 2 10 3 2 10 3 2 10 3 2 10 3 2 10 3 2 10 2 1 9 2 1 9 2 1 9 2 1 9 2 1 9 2 1 9 2 1 9 2 1 9 2 1 9 2 1 9 2 1 9 2 1 9 2 1 9 2 1 9 2 1 9 2 1 9 3 2 10 3 2 10 3 2 10 3 2 10 3 2 10 3 2 10 3 2 10 3 2 10 3 2 10 3 2 10 3 2 10 3 2 10 3 2 10 3 2 10 3 2 10 3 2 10 4 3 9 4 3 9 4 3 9 4 3 9 4 3 9 4 3 9 4 3 9 4 3 9 4 3 9 4 3 9 4 3 9 4 3 9 4 3 9 4 3 9 4 3 9 4 3 9 4 3 9 4 3 9 4 3 9 4 3 9 4 3 9 4 3 9 4 3 9 4 3 9 6 5 11 6 5 11 6 5 11 6 5 11 6 5 11 6 5 11 6 5 11 5 6 11 17 18 22 15 19 22 14 18 21 13 17 20 12 16 19 11 15 18 11 15 18 10 14 17 13 17 20 11 15 18 9 13 16 6 10 13 2 6 9 0 3 6 0 1 4 0 1 2 0 3 4 0 3 2 0 3 2 0 3 2 0 3 2 0 3 2 0 3 2 0 3 2 12 16 15 14 18 17 16 20 19 19 23 22 23 27 26 26 30 29 28 32 31 30 35 31 41 46 42 43 48 42 45 50 44 48 53 47 52 57 51 55 60 54 57 62 56 59 64 58 60 65 59 61 66 60 63 68 62 67 72 66 70 75 69 73 78 72 76 81 75 79 81 76 64 65 60 63 62 58 58 57 53 51 50 46 45 44 40 38 37 33 33 32 28 31 30 26 32 31 27 32 31 27 32 31 27 32 31 27 32 31 27 32 31 27 32 31 27 32 31 27 31 29 30 31 29 30 31 29 30 31 29 30 31 29 30 31 29 30 31 29 30 31 29 30 33 31 32 33 31 32 33 31 32 33 31 32 33 31 32 33 31 32 33 31 32 33 31 32
2 1 7 2 1 7 2 1 7 2 1 7 1 0 6 1 0 6 1 0 6 1 0 6 1 0 6 1 0 6 1 0 6 1 0 6 2 1 9 2 1 9 2 1 9 2 1 9 2 1 9 2 1 9 2 1 9 2 1 9 3 2 10 3 2 10 3 2 10 3 2 10 3 2 10 3 2 10 3 2 10 3 2 10 2 1 9 2 1 9 2 1 9 2 1 9 2 1 9 2 1 9 2 1 9 2 1 9 2 1 9 2 1 9 2 1 9 2 1 9 2 1 9 2 1 9 2 1 9 2 1 9 3 2 10 3 2 10 3 2 10 3 2 10 3 2 10 3 2 10 3 2 10 3 2 10 3 2 10 3 2 10 3 2 10 3 2 10 3 2 10 3 2 10 3 2 10 3 2 10 4 3 9 4 3 9 4 3 9 4 3 9 4 3 9 4 3 9 4 3 9 4 3 9 4 3 9 4 3 9 4 3 9 4 3 9 4 3 9 4 3 9 4 3 9 4 3 9 4 3 9 4 3 9 4 3 9 4 3 9 4 3 9 4 3 9 4 3 9 4 3 9 6 5 11 6 5 11 6 5 11 6 5 11 6 5 11 6 5 11 6 5 11 5 6 11 25 26 30 22 26 29 20 24 27 17 21 24 15 19 22 12 16 19 10 14 17 9 13 16 13 17 20 11 15 18 9 13 16 6 10 13 2 6 9 0 3 6 0 1 4 0 1 2 0 3 4 0 3 2 0 3 2 0 3 2 0 3 2 0 3 2 0 3 2 0 3 2 12 16 15 14 18 17 16 20 19 19 23 22 23 27 26 26 30 29 28 32 31 30 35 31 41 46 42 43 48 42 45 50 44 48 53 47 52 57 51 55 60 54 57 62 56 59 64 58 56 61 55 58 63 57 60 65 59 63 68 62 67 72 66 70 75 69 72 77 71 76 78 73 64 65 60 63 62 58 58 57 53 51 50 46 45 44 40 38 37 33 33 32 28 31 30 26 32 31 27 32 31 27 32 31 27 32 31 27 32 31 27 32 31 27 32 31 27 32 31 27 31 29 30 31 29 30 31 29 30 31 29 30 31 29 30 31 29 30 31 29 30 31 29 30 33 31 32 33 31 32 33 31 32 33 31 32 33 31 32 33 31 32 33 31 32 33 31 32
2 1 7 2 1 7 2 1 7 2 1 7 1 0 6 1 0 6 1 0 6 1 0 6 1 0 6 1 0 6 1 0 6 1 0 6 2 1 9 2 1 9 2 1 9 2 1 9 2 1 9 2 1 9 2 1 9 2 1 9 3 2 10 3 2 10 3 2 10 3 2 10 3 2 10 3 2 10 3 2 10 3 2 10 2 1 9 2 1 9 2 1 9 2 1 9 2 1 9 2 1 9 2 1 9 2 1 9 2 1 9 2 1 9 2 1 9 2 1 9 2 1 9 2 1 9 2 1 9 2 1 9 3 2 10 3 2 10 3 2 10 3 2 10 3 2 10 3 2 10 3 2 10 3 2 10 3 2 10 3 2 10 3 2 10 3 2 10 3 2 10 3 2 10 3 2 10 3 2 10 4 3 9 4 3 9 4 3 9 4 3 9 4 3 9 4 3 9 4 3 9 4 3 9 4 3 9 4 3 9 4 3 9 4 3 9 4 3 9 4 3 9 4 3 9 4 3 9 4 3 9 4 3 9 4 3 9 4 3 9 4 3 9 4 3 9 4 3 9 4 3 9 6 5 11 6 5 11 6 5 11 6 5 11 6 5 11 6 5 11 6 5 11 5 6 11 31 32 36 27 31 34 24 28 31 20 24 27 16 20 23 13 17 20 10 14 17 8 12 15 13 17 20 11 15 18 9 13 16 6 10 13 2 6 9 0 3 6 0 1 4 0 1 2 0 3 4 0 3 2 0 3 2 0 3 2 0 3 2 0 3 2 0 3 2 0 3 2 12 16 15 14 18 17 16 20 19 19 23 22 23 27 26 26 30 29 28 32 31 30 35 31 41 46 42 43 48 42 45 50 44 48 53 47 52 57 51 55 60 54 57 62 56 59 64 58 54 59 53 55 60 54 58 63 57 61 66 60 64 69 63 68 73 67 70 75 69 73 75 70 64 65 60 63 62 58 58 57 53 51 50 46 45 44 40 38 37 33 33 32 28 31 30 26 32 31 27 32 31 27 32 31 27 32 31 27 32 31 27 32 31 27 32 31 27 32 31 27 31 29 30 31 29 30 31 29 30 31 29 30 31 29 30 31 29 30 31 29 30 31 29 30 33 31 32 33 31 32 33 31 32 33 31 32 33 31 32 33 31 32 33 31 32 33 31 32
2 1 7 2 1 6 2 1 7 2 1 6 1 0 6 1 0 5 1 0 6 1 0 5 1 0 6 1 0 5 1 0 6 1 0 6 2 1 7 2 1 7 2 1 7 2 1 7 2 1 7 2 1 7 2 1 7 2 1 7 3 2 8 3 2 8 3 2 8 3 2 8 3 2 8 3 2 8 3 2 8 3 2 8 2 1 7 2 1 7 2 1 9 2 1 7 2 1 9 2 1 7 2 1 9 2 1 7 2 1 9 2 1 7 2 1 9 2 1 7 2 1 9 2 1 7 2 1 9 2 1 7 3 2 8 3 2 8 3 2 8 3 2 8 3 2 8 3 2 8 3 2 8 3 2 8 3 2 8 3 2 8 3 2 8 3 2 8 3 2 8 3 2 8 3 2 8 3 2 8 4 3 9 4 3 9 4 3 9 4 3 9 4 3 9 4 3 9 4 3 9 4 3 9 4 3 9 4 3 9 4 3 9 4 3 9 4 3 9 4 3 9 4 3 9 4 3 9 3 4 9 3 4 9 3 4 9 3 4 9 3 4 9 3 4 9 3 4 9 3 4 9 5 6 11 5 6 11 5 6 11 5 6 11 5 6 11 5 6 11 5 6 11 5 6 11 32 36 39 30 34 37 26 30 33 22 26 29 17 21 24 13 17 20 9 13 16 8 12 15 13 17 20 11 15 18 9 13 16 6 10 13 2 6 9 0 3 6 0 1 4 0 1 2 0 3 2 0 3 2 0 3 2 0 3 2 0 3 2 0 3 2 0 3 2 0 3 2 12 16 15 14 18 17 16 20 19 19 23 22 23 27 26 26 30 29 28 32 31 30 34 33 41 46 42 43 48 42 45 50 44 48 53 47 52 57 51 55 60 54 57 62 56 59 64 58 53 58 52 54 59 53 56 61 55 60 65 59 63 68 62 66 71 65 69 74 68 72 74 69 64 65 60 63 62 58 58 57 53 51 50 46 45 44 40 38 37 33 33 32 28 31 30 26 32 31 27 32 31 27 32 31 27 32 31 27 32 31 27 32 31 27 32 31 27 32 31 27 31 30 28 31 30 28 33 29 28 31 30 28 33 29 28 31 30 28 33 29 28 31 30 28 35 31 30 33 32 30 35 31 30 33 32 30 35 31 30 33 32 30 35 31 30 33 32 30
2 1 6 2 2 4 2 1 6 2 2 4 1 0 5 1 1 3 1 0 5 1 1 3 1 0 5 1 1 3 1 0 5 1 0 5 1 0 5 1 0 5 1 0 5 1 0 5 1 0 5 1 0 5 1 0 5 1 0 5 1 0 5 1 0 5 1 0 5 1 0 5 1 0 5 1 0 5 1 0 5 1 0 5 1 0 5 1 0 5 1 0 6 1 0 5 1 0 6 1 0 5 1 0 6 1 0 5 1 0 6 1 0 5 1 0 6 1 0 5 1 0 6 1 0 5 1 0 6 1 0 5 1 0 5 1 0 5 1 0 5 1 0 5 1 0 5 1 0 5 1 0 5 1 0 5 1 0 5 1 0 5 1 0 5 1 0 5 1 0 5 1 0 5 1 0 5 1 0 5 2 3 7 2 3 7 2 3 7 2 3 7 2 3 7 2 3 7 2 3 7 2 3 7 4 5 9 4 5 9 4 5 9 4 5 9 4 5 9 4 5 9 4 5 9 4 5 9 17 20 25 15 18 23 12 15 20 7 10 15 3 6 11 0 1 6 0 0 5 0 0 5 0 0 5 0 0 5 0 1 6 6 9 14 14 17 22 21 24 29 27 30 35 30 33 38 34 39 42 32 38 38 30 36 36 27 33 33 23 29 29 20 26 26 18 24 24 16 22 22 0 4 4 0 4 4 0 4 4 0 4 4 0 4 4 0 4 4 0 4 4 0 4 4 0 3 2 0 3 2 0 3 2 0 3 2 0 3 2 0 3 2 0 3 2 0 3 2 12 16 15 14 18 17 16 20 19 19 23 22 23 27 26 26 30 29 28 32 31 30 34 33 33 38 34 35 40 36 37 42 38 40 45 41 44 49 45 47 52 48 49 54 50 51 56 52 63 68 64 63 68 64 63 68 64 63 68 64 63 68 64 63 68 64 63 68 64 65 67 64 50 49 45 50 46 43 48 44 41 45 41 38 41 37 34 38 34 31 36 32 29 34 30 27 31 27 24 31 27 24 31 27 24 31 27 24 31 27 24 31 27 24 31 27 24 31 27 24 33 29 26 33 29 26 34 29 26 33 29 26 34 29 26 33 29 26 34 29 26 33 29 26 35 30 27 34 30 27 35 30 27 34 30 27 35 30 27 34 30 27 35 30 27 34 30 27
2 2 4 2 2 4 2 2 4 2 2 4 1 1 3 1 1 3 1 1 3 1 1 3 1 1 3 1 1 3 1 1 3 1 1 3 1 1 3 1 1 3 1 1 3 1 1 3 1 1 3 1 1 3 1 1 3 1 1 3 1 1 3 1 1 3 1 1 3 1 1 3 1 1 3 1 1 3 1 1 3 1 1 3 1 0 5 1 0 5 1 0 5 1 0 5 1 0 5 1 0 5 1 0 5 1 0 5 1 0 5 1 0 5 1 0 5 1 0 5 1 0 5 1 0 5 1 0 5 1 0 5 1 1 3 1 1 3 1 1 3 1 1 3 1 1 3 1 1 3 1 1 3 1 1 3 1 1 3 1 1 3 1 1 3 1 1 3 1 1 3 1 1 3 1 1 3 1 1 3 2 3 7 2 3 7 2 3 7 2 3 7 2 3 7 2 3 7 2 3 7 2 3 7 4 5 9 4 5 9 4 5 9 4 5 9 4 5 9 4 5 9 4 5 9 2 6 9 15 18 23 13 18 22 10 15 19 6 11 15 2 7 11 0 3 7 0 1 5 0 1 5 0 1 5 0 1 5 1 6 10 8 13 17 15 20 24 22 27 31 27 32 36 30 35 38 34 39 42 32 38 38 30 36 36 27 33 33 23 29 29 20 26 26 18 24 24 16 22 22 0 4 4 0 4 4 0 4 4 0 4 4 0 4 4 0 4 4 0 4 4 0 4 4 0 3 2 0 3 2 0 3 2 0 3 2 0 3 2 0 3 2 0 3 2 0 3 2 12 16 15 14 18 17 16 20 19 19 23 22 23 27 26 26 30 29 28 32 31 30 34 33 33 38 34 35 40 36 37 42 38 40 45 41 44 49 45 47 52 48 49 54 50 51 56 52 61 66 62 61 66 62 61 66 62 61 66 62 61 66 62 61 66 62 61 66 62 63 65 62 50 49 45 50 46 43 48 44 41 45 41 38 41 37 34 38 34 31 36 32 29 34 30 27 31 27 24 31 27 24 31 27 24 31 27 24 31 27 24 31 27 24 31 27 24 31 27 24 34 29 25 34 29 25 34 29 25 34 29 25 34 29 25 34 29 25 34 29 25 34 29 25 35 30 26 35 30 26 35 30 26 35 30 26 35 30 26 35 30 26 35 30 26 35 30 26
2 2 4 2 2 4 2 2 4 2 2 4 1 1 3 1 1 3 1 1 3 1 1 3 1 1 3 1 1 3 1 1 3 1 1 3 1 1 3 1 1 3 1 1 3 1 1 3 1 1 3 1 1 3 1 1 3 1 1 3 1 1 3 1 1 3 1 1 3 1 1 3 1 1 3 1 1 3 1 1 3 1 1 3 1 0 5 1 0 5 1 0 5 1 0 5 1 0 5 1 0 5 1 0 5 1 0 5 1 0 5 1 0 5 1 0 5 1 0 5 1 0 5 1 0 5 1 0 5 1 0 5 1 1 3 1 1 3 1 1 3 1 1 3 1 1 3 1 1 3 1 1 3 1 1 3 1 1 3 1 1 3 1 1 3 1 1 3 1 1 3 1 1 3 1 1 3 1 1 3 2 3 7 2 3 7 2 3 7 2 3 7 2 3 7 2 3 7 2 3 7 2 3 7 4 5 9 4 5 9 4 5 9 4 5 9 4 5 9 4 5 9 4 5 9 2 6 9 12 15 20 10 15 19 8 13 17 5 10 14 3 8 12 0 5 9 0 3 7 0 2 6 1 6 10 3 8 12 7 12 16 13 18 22 19 24 28 25 30 34 29 34 38 32 37 40 34 39 42 32 38 38 30 36 36 27 33 33 23 29 29 20 26 26 18 24 24 16 22 22 0 4 4 0 4 4 0 4 4 0 4 4 0 4 4 0 4 4 0 4 4 0 4 4 0 3 2 0 3 2 0 3 2 0 3 2 0 3 2 0 3 2 0 3 2 0 3 2 12 16 15 14 18 17 16 20 19 19 23 22 23 27 26 26 30 29 28 32 31 30 34 33 33 38 34 35 40 36 37 42 38 40 45 41 44 49 45 47 52 48 49 54 50 51 56 52 59 64 60 59 64 60 59 64 60 59 64 60 59 64 60 59 64 60 59 64 60 61 63 60 50 49 45 50 46 43 48 44 41 45 41 38 41 37 34 38 34 31 36 32 29 34 30 27 31 27 24 31 27 24 31 27 24 31 27 24 31 27 24 31 27 24 31 27 24 31 27 24 34 29 25 34 29 25 34 29 25 34 29 25 34 29 25 34 29 25 34 29 25 34 29 25 35 30 26 35 30 26 35 30 26 35 30 26 35 30 26 35 30 26 35 30 26 35 30 26
2 2 4 2 2 4 2 2 4 2 2 4 1 1 3 1 1 3 1 1 3 1 1 3 1 1 3 1 1 3 1 1 3 1 1 3 1 1 3 1 1 3 1 1 3 1 1 3 1 1 3 1 1 3 1 1 3 1 1 3 1 1 3 1 1 3 1 1 3 1 1 3 1 1 3 1 1 3 1 1 3 1 1 3 1 0 5 1 0 5 1 0 5 1 0 5 1 0 5 1 0 5 1 0 5 1 0 5 1 0 5 1 0 5 1 0 5 1 0 5 1 0 5 1 0 5 1 0 5 1 0 5 1 1 3 1 1 3 1 1 3 1 1 3 1 1 3 1 1 3 1 1 3 1 1 3 1 1 3 1 1 3 1 1 3 1 1 3 1 1 3 1 1 3 1 1 3 1 1 3 2 3 7 2 3 7 2 3 7 2 3 7 2 3 7 2 3 7 2 3 7 2 3 7 4 5 9 4 5 9 4 5 9 4 5 9 4 5 9 4 5 9 4 5 9 2 6 9 7 10 15 6 11 15 5 10 14 4 9 13 4 9 13 3 8 12 2 7 11 2 7 11 12 17 21 13 18 22 16 21 25 20 25 29 25 30 34 29 34 38 32 37 41 34 39 42 34 39 42 32 38 38 30 36 36 27 33 33 23 29 29 20 26 26 18 24 24 16 22 22 0 4 4 0 4 4 0 4 4 0 4 4 0 4 4 0 4 4 0 4 4 0 4 4 0 3 2 0 3 2 0 3 2 0 3 2 0 3 2 0 3 2 0 3 2 0 3 2 12 16 15 14 18 17 16 20 19 19 23 22 23 27 26 26 30 29 28 32 31 30 34 33 33 38 34 35 40 36 37 42 38 40 45 41 44 49 45 47 52 48 49 54 50 51 56 52 56 61 57 56 61 57 56 61 57 56 61 57 56 61 57 56 61 57 56 61 57 58 60 57 50 49 45 50 46 43 48 44 41 45 41 38 41 37 34 38 34 31 36 32 29 34 30 27 31 27 24 31 27 24 31 27 24 31 27 24 31 27 24 31 27 24 31 27 24 31 27 24 34 29 25 34 29 25 34 29 25 34 29 25 34 29 25 34 29 25 34 29 25 34 29 25 35 30 26 35 30 26 35 30 26 35 30 26 35 30 26 35 30 26 35 30 26 35 30 26
2 2 4 2 2 4 2 2 4 2 2 4 1 1 3 1 1 3 1 1 3 1 1 3 1 1 3 1 1 3 1 1 3 1 1 3 1 1 3 1 1 3 1 1 3 1 1 3 1 1 3 1 1 3 1 1 3 1 1 3 1 1 3 1 1 3 1 1 3 1 1 3 1 1 3 1 1 3 1 1 3 1 1 3 1 0 5 1 0 5 1 0 5 1 0 5 1 0 5 1 0 5 1 0 5 1 0 5 1 0 5 1 0 5 1 0 5 1 0 5 1 0 5 1 0 5 1 0 5 1 0 5 1 1 3 1 1 3 1 1 3 1 1 3 1 1 3 1 1 3 1 1 3 1 1 3 1 1 3 1 1 3 1 1 3 1 1 3 1 1 3 1 1 3 1 1 3 1 1 3 2 3 7 2 3 7 2 3 7 2 3 7 2 3 7 2 3 7 2 3 7 2 3 7 4 5 9 4 5 9 4 5 9 4 5 9 4 5 9 4 5 9 4 5 9 2 6 9 3 6 11 2 7 11 3 8 12 4 9 13 4 9 13 5 10 14 6 11 15 6 11 15 23 28 32 24 29 33 26 31 35 28 33 37 31 36 40 33 38 42 35 40 44 36 41 44 34 39 42 32 38 38 30 36 36 27 33 33 23 29 29 20 26 26 18 24 24 16 22 22 0 4 4 0 4 4 0 4 4 0 4 4 0 4 4 0 4 4 0 4 4 0 4 4 0 3 2 0 3 2 0 3 2 0 3 2 0 3 2 0 3 2 0 3 2 0 3 2 12 16 15 14 18 17 16 20 19 19 23 22 23 27 26 26 30 29 28 32 31 30 34 33 33 38 34 35 40 36 37 42 38 40 45 41 44 49 45 47 52 48 49 54 50 51 56 52 52 57 53 52 57 53 52 57 53 52 57 53 52 57 53 52 57 53 52 57 53 54 56 53 50 49 45 50 46 43 48 44 41 45 41 38 41 37 34 38 34 31 36 32 29 34 30 27 31 27 24 31 27 24 31 27 24 31 27 24 31 27 24 31 27 24 31 27 24 31 27 24 34 29 25 34 29 25 34 29 25 34 29 25 34 29 25 34 29 25 34 29 25 34 29 25 35 30 26 35 30 26 35 30 26 35 30 26 35 30 26 35 30 26 35 30 26 35 30 26
2 2 4 2 2 4 2 2 4 2 2 4 1 1 3 1 1 3 1 1 3 1 1 3 1 1 3 1 1 3 1 1 3 1 1 3 1 1 3 1 1 3 1 1 3 1 1 3 1 1 3 1 1 3 1 1 3 1 1 3 1 1 3 1 1 3 1 1 3 1 1 3 1 1 3 1 1 3 1 1 3 1 1 3 1 0 5 1 0 5 1 0 5 1 0 5 1 0 5 1 0 5 1 0 5 1 0 5 1 0 5 1 0 5 1 0 5 1 0 5 1 0 5 1 0 5 1 0 5 1 0 5 1 1 3 1 1 3 1 1 3 1 1 3 1 1 3 1 1 3 1 1 3 1 1 3 1 1 3 1 1 3 1 1 3 1 1 3 1 1 3 1 1 3 1 1 3 1 1 3 2 3 7 2 3 7 2 3 7 2 3 7 2 3 7 2 3 7 2 3 7 2 3 7 4 5 9 4 5 9 4 5 9 4 5 9 4 5 9 4 5 9 4 5 9 2 6 9 0 1 6 0 3 7 0 5 9 3 8 12 5 10 14 8 13 17 10 15 19 11 16 20 34 39 43 34 39 43 35 40 44 35 40 44 36 41 45 37 42 46 37 42 46 38 43 46 34 39 42 32 38 38 30 36 36 27 33 33 23 29 29 20 26 26 18 24 24 16 22 22 0 4 4 0 4 4 0 4 4 0 4 4 0 4 4 0 4 4 0 4 4 0 4 4 0 3 2 0 3 2 0 3 2 0 3 2 0 3 2 0 3 2 0 3 2 0 3 2 12 16 15 14 18 17 16 20 19 19 23 22 23 27 26 26 30 29 28 32 31 30 34 33 33 38 34 35 40 36 37 42 38 40 45 41 44 49 45 47 52 48 49 54 50 51 56 52 49 54 50 49 54 50 49 54 50 49 54 50 49 54 50 49 54 50 49 54 50 51 53 50 50 49 45 50 46 43 48 44 41 45 41 38 41 37 34 38 34 31 36 32 29 34 30 27 31 27 24 31 27 24 31 27 24 31 27 24 31 27 24 31 27 24 31 27 24 31 27 24 34 29 25 34 29 25 34 29 25 34 29 25 34 29 25 34 29 25 34 29 25 34 29 25 35 30 26 35 30 26 35 30 26 35 30 26 35 30 26 35 30 26 35 30 26 35 30 26
2 2 4 2 2 4 2 2 4 2 2 4 1 1 3 1 1 3 1 1 3 1 1 3 1 1 3 1 1 3 1 1 3 1 1 3 1 1 3 1 1 3 1 1 3 1 1 3 1 1 3 1 1 3 1 1 3 1 1 3 1 1 3 1 1 3 1 1 3 1 1 3 1 1 3 1 1 3 1 1 3 1 1 3 1 0 5 1 0 5 1 0 5 1 0 5 1 0 5 1 0 5 1 0 5 1 0 5 1 0 5 1 0 5 1 0 5 1 0 5 1 0 5 1 0 5 1 0 5 1 0 5 1 1 3 1 1 3 1 1 3 1 1 3 1 1 3 1 1 3 1 1 3 1 1 3 1 1 3 1 1 3 1 1 3 1 1 3 1 1 3 1 1 3 1 1 3 1 1 3 2 3 7 2 3 7 2 3 7 2 3 7 2 3 7 2 3 7 2 3 7 2 3 7 4 5 9 4 5 9 4 5 9 4 5 9 4 5 9 4 5 9 4 5 9 2 6 9 0 0 5 0 1 5 0 3 7 2 7 11 6 11 15 10 15 19 13 18 22 14 19 23 42 47 51 42 47 51 42 47 51 41 46 50 40 45 49 40 45 49 39 44 48 39 44 47 34 39 42 32 38 38 30 36 36 27 33 33 23 29 29 20 26 26 18 24 24 16 22 22 0 4 4 0 4 4 0 4 4 0 4 4 0 4 4 0 4 4 0 4 4 0 4 4 0 3 2 0 3 2 0 3 2 0 3 2 0 3 2 0 3 2 0 3 2 0 3 2 12 16 15 14 18 17 16 20 19 19 23 22 23 27 26 26 30 29 28 32 31 30 34 33 33 38 34 35 40 36 37 42 38 40 45 41 44 49 45 47 52 48 49 54 50 51 56 52 47 52 48 47 52 48 47 52 48 47 52 48 47 52 48 47 52 48 47 52 48 49 51 48 50 49 45 50 46 43 48 44 41 45 41 38 41 37 34 38 34 31 36 32 29 34 30 27 31 27 24 31 27 24 31 27 24 31 27 24 31 27 24 31 27 24 31 27 24 31 27 24 34 29 25 34 29 25 34 29 25 34 29 25 34 29 25 34 29 25 34 29 25 34 29 25 35 30 26 35 30 26 35 30 26 35 30 26 35 30 26 35 30 26 35 30 26 35 30 26
2 2 4 2 2 4 2 2 4 2 2 4 1 1 3 1 1 3 1 1 3 1 1 3 1 1 3 1 1 3 1 1 3 1 1 3 1 1 3 1 1 3 1 1 3 1 1 3 1 1 3 1 1 3 1 1 3 1 1 3 1 1 3 1 1 3 1 1 3 1 1 3 1 1 3 1 1 3 1 1 3 1 1 3 1 0 5 1 0 5 1 0 5 1 0 5 1 0 5 1 0 5 1 0 5 1 0 5 1 0 5 1 0 5 1 0 5 1 0 5 1 0 5 1 0 5 1 0 5 1 0 5 1 1 3 1 1 3 1 1 3 1 1 3 1 1 3 1 1 3 1 1 3 1 1 3 1 1 3 1 1 3 1 1 3 1 1 3 1 1 3 1 1 3 1 1 3 1 1 3 2 3 7 2 3 7 2 3 7 2 3 7 2 3 7 2 3 7 2 3 7 2 3 7 4 5 9 4 5 9 4 5 9 4 5 9 4 5 9 4 5 9 4 5 9 2 6 9 0 0 5 0 1 5 0 2 6 2 7 11 6 11 15 11 16 20 14 19 23 16 21 25 47 52 56 46 51 55 45 50 54 44 49 53 43 48 52 41 46 50 41 46 50 40 45 48 34 39 42 32 38 38 30 36 36 27 33 33 23 29 29 20 26 26 18 24 24 16 22 22 0 4 4 0 4 4 0 4 4 0 4 4 0 4 4 0 4 4 0 4 4 0 4 4 0 3 2 0 3 2 0 3 2 0 3 2 0 3 2 0 3 2 0 3 2 0 3 2 12 16 15 14 18 17 16 20 19 19 23 22 23 27 26 26 30 29 28 32 31 30 34 33 33 38 34 35 40 36 37 42 38 40 45 41 44 49 45 47 52 48 49 54 50 51 56 52 45 50 46 45 50 46 45 50 46 45 50 46 45 50 46 45 50 46 45 50 46 47 49 46 50 49 45 50 46 43 48 44 41 45 41 38 41 37 34 38 34 31 36 32 29 34 30 27 31 27 24 31 27 24 31 27 24 31 27 24 31 27 24 31 27 24 31 27 24 31 27 24 34 29 25 34 29 25 34 29 25 34 29 25 34 29 25 34 29 25 34 29 25 34 29 25 35 30 26 35 30 26 35 30 26 35 30 26 35 30 26 35 30 26 35 30 26 35 30 26
1 1 3 1 1 3 1 1 3 1 1 3 0 0 2 0 0 2 0 0 2 0 0 2 0 0 2 0 0 2 0 0 2 0 0 2 0 0 2 0 0 2 0 0 2 0 0 2 0 0 2 0 0 2 0 0 2 0 0 2 1 1 3 1 1 3 1 1 3 1 1 3 1 1 3 1 1 3 1 1 3 1 1 3 0 0 4 0 0 4 0 0 4 0 0 4 0 0 4 0 0 4 0 0 4 0 0 4 2 1 6 2 1 6 2 1 6 2 1 6 2 1 6 2 1 6 2 1 6 2 1 6 1 1 3 1 1 3 1 1 3 1 1 3 1 1 3 1 1 3 1 1 3 1 1 3 1 1 3 1 1 3 1 1 3 1 1 3 1 1 3 1 1 3 1 1 3 1 1 3 1 2 6 1 2 6 1 2 6 1 2 6 1 2 6 1 2 6 1 2 6 1 2 6 0 0 4 0 0 4 0 0 4 1 2 6 4 5 9 7 8 12 10 11 15 9 13 16 20 23 28 20 25 29 22 27 31 26 31 35 29 34 38 32 37 41 35 40 44 36 41 45 44 49 53 44 49 53 44 49 53 44 49 53 44 49 53 44 49 53 44 49 53 44 49 52 37 42 45 35 41 41 33 39 39 30 36 36 26 32 32 23 29 29 21 27 27 19 25 25 9 15 15 7 13 13 5 11 11 2 8 8 0 4 4 0 2 2 0 2 2 0 2 2 0 2 1 0 2 1 0 2 1 0 2 1 0 2 1 0 2 1 0 2 1 0 2 1 11 15 14 13 17 16 15 19 18 18 22 21 22 26 25 25 29 28 27 31 30 29 33 32 34 39 35 34 39 35 34 39 35 34 39 35 34 39 35 34 39 35 34 39 35 34 39 35 47 52 48 47 52 48 47 52 48 47 52 48 47 52 48 47 52 48 47 52 48 49 51 48 32 31 27 34 30 27 34 30 27 34 30 27 34 30 27 34 30 27 34 30 27 34 30 27 32 28 25 32 28 25 32 28 25 32 28 25 32 28 25 32 28 25 32 28 25 32 28 25 34 29 25 34 29 25 34 29 25 34 29 25 34 29 25 34 29 25 34 29 25 34 29 25 34 29 25 34 29 25 34 29 25 34 29 25 34 29 25 34 29 25 34 29 25 34 29 25
1 1 3 1 1 3 1 1 3 1 1 3 0 0 2 0 0 2 0 0 2 0 0 2 0 0 2 0 0 2 0 0 2 0 0 2 0 0 2 0 0 2 0 0 2 0 0 2 0 0 2 0 0 2 0 0 2 0 0 2 1 1 3 1 1 3 1 1 3 1 1 3 1 1 3 1 1 3 1 1 3 1 1 3 0 0 4 0 0 4 0 0 4 0 0 4 0 0 4 0 0 4 0 0 4 0 0 4 2 1 6 2 1 6 2 1 6 2 1 6 2 1 6 2 1 6 2 1 6 2 1 6 1 1 3 1 1 3 1 1 3 1 1 3 1 1 3 1 1 3 1 1 3 1 1 3 1 1 3 1 1 3 1 1 3 1 1 3 1 1 3 1 1 3 1 1 3 1 1 3 1 2 6 1 2 6 1 2 6 1 2 6 1 2 6 1 2 6 1 2 6 1 2 6 0 0 4 0 0 4 0 0 4 2 3 7 5 6 10 9 10 14 11 12 16 10 14 17 21 24 29 21 26 30 24 29 33 27 32 36 30 35 39 34 39 43 36 41 45 37 42 46 44 49 53 44 49 53 44 49 53 44 49 53 44 49 53 44 49 53 44 49 53 44 49 52 37 42 45 35 41 41 33 39 39 30 36 36 26 32 32 23 29 29 21 27 27 19 25 25 9 15 15 7 13 13 5 11 11 2 8 8 0 4 4 0 2 2 0 2 2 0 2 2 0 2 1 0 2 1 0 2 1 0 2 1 0 2 1 0 2 1 0 2 1 0 2 1 11 15 14 13 17 16 15 19 18 18 22 21 22 26 25 25 29 28 27 31 30 29 33 32 34 39 35 34 39 35 34 39 35 34 39 35 34 39 35 34 39 35 34 39 35 34 39 35 45 50 46 45 50 46 45 50 46 45 50 46 45 50 46 45 50 46 45 50 46 47 49 46 32 31 27 34 30 27 34 30 27 34 30 27 34 30 27 34 30 27 34 30 27 34 30 27 32 28 25 32 28 25 32 28 25 32 28 25 32 28 25 32 28 25 32 28 25 32 28 25 34 29 25 34 29 25 34 29 25 34 29 25 34 29 25 34 29 25 34 29 25 34 29 25 34 29 25 34 29 25 34 29 25 34 29 25 34 29 25 34 29 25 34 29 25 34 29 25
1 1 3 1 1 3 1 1 3 1 1 3 0 0 2 0 0 2 0 0 2 0 0 2 0 0 2 0 0 2 0 0 2 0 0 2 0 0 2 0 0 2 0 0 2 0 0 2 0 0 2 0 0 2 0 0 2 0 0 2 1 1 3 1 1 3 1 1 3 1 1 3 1 1 3 1 1 3 1 1 3 1 1 3 0 0 4 0 0 4 0 0 4 0 0 4 0 0 4 0 0 4 0 0 4 0 0 4 2 1 6 2 1 6 2 1 6 2 1 6 2 1 6 2 1 6 2 1 6 2 1 6 1 1 3 1 1 3 1 1 3 1 1 3 1 1 3 1 1 3 1 1 3 1 1 3 1 1 3 1 1 3 1 1 3 1 1 3 1 1 3 1 1 3 1 1 3 1 1 3 1 2 6 1 2 6 1 2 6 1 2 6 1 2 6 1 2 6 1 2 6 1 2 6 0 0 4 0 0 4 1 2 6 4 5 9 8 9 13 11 12 16 13 14 18 13 17 20 23 26 31 24 29 33 26 31 35 29 34 38 33 38 42 36 41 45 38 43 47 40 45 49 44 49 53 44 49 53 44 49 53 44 49 53 44 49 53 44 49 53 44 49 53 44 49 52 37 42 45 35 41 41 33 39 39 30 36 36 26 32 32 23 29 29 21 27 27 19 25 25 9 15 15 7 13 13 5 11 11 2 8 8 0 4 4 0 2 2 0 2 2 0 2 2 0 2 1 0 2 1 0 2 1 0 2 1 0 2 1 0 2 1 0 2 1 0 2 1 11 15 14 13 17 16 15 19 18 18 22 21 22 26 25 25 29 28 27 31 30 29 33 32 34 39 35 34 39 35 34 39 35 34 39 35 34 39 35 34 39 35 34 39 35 34 39 35 43 48 44 43 48 44 43 48 44 43 48 44 43 48 44 43 48 44 43 48 44 45 47 44 32 31 27 34 30 27 34 30 27 34 30 27 34 30 27 34 30 27 34 30 27 34 30 27 32 28 25 32 28 25 32 28 25 32 28 25 32 28 25 32 28 25 32 28 25 32 28 25 34 29 25 34 29 25 34 29 25 34 29 25 34 29 25 34 29 25 34 29 25 34 29 25 34 29 25 34 29 25 34 29 25 34 29 25 34 29 25 34 29 25 34 29 25 34 29 25
1 1 3 1 1 3 1 1 3 1 1 3 0 0 2 0 0 2 0 0 2 0 0 2 0 0 2 0 0 2 0 0 2 0 0 2 0 0 2 0 0 2 0 0 2 0 0 2 0 0 2 0 0 2 0 0 2 0 0 2 1 1 3 1 1 3 1 1 3 1 1 3 1 1 3 1 1 3 1 1 3 1 1 3 0 0 4 0 0 4 0 0 4 0 0 4 0 0 4 0 0 4 0 0 4 0 0 4 2 1 6 2 1 6 2 1 6 2 1 6 2 1 6 2 1 6 2 1 6 2 1 6 1 1 3 1 1 3 1 1 3 1 1 3 1 1 3 1 1 3 1 1 3 1 1 3 1 1 3 1 1 3 1 1 3 1 1 3 1 1 3 1 1 3 1 1 3 1 1 3 1 2 6 1 2 6 1 2 6 1 2 6 1 2 6 1 2 6 1 2 6 1 2 6 1 2 6 2 3 7 4 5 9 8 9 13 11 12 16 14 15 19 17 18 22 16 20 23 27 30 35 27 32 36 29 34 38 33 38 42 36 41 45 39 44 48 42 47 51 43 48 52 44 49 53 44 49 53 44 49 53 44 49 53 44 49 53 44 49 53 44 49 53 44 49 52 37 42 45 35 41 41 33 39 39 30 36 36 26 32 32 23 29 29 21 27 27 19 25 25 9 15 15 7 13 13 5 11 11 2 8 8 0 4 4 0 2 2 0 2 2 0 2 2 0 2 1 0 2 1 0 2 1 0 2 1 0 2 1 0 2 1 0 2 1 0 2 1 11 15 14 13 17 16 15 19 18 18 22 21 22 26 25 25 29 28 27 31 30 29 33 32 34 39 35 34 39 35 34 39 35 34 39 35 34 39 35 34 39 35 34 39 35 34 39 35 40 45 41 40 45 41 40 45 41 40 45 41 40 45 41 40 45 41 40 45 41 42 44 41 32 31 27 34 30 27 34 30 27 34 30 27 34 30 27 34 30 27 34 30 27 34 30 27 32 28 25 32 28 25 32 28 25 32 28 25 32 28 25 32 28 25 32 28 25 32 28 25 34 29 25 34 29 25 34 29 25 34 29 25 34 29 25 34 29 25 34 29 25 34 29 25 34 29 25 34 29 25 34 29 25 34 29 25 34 29 25 34 29 25 34 29 25 34 29 25
1 1 3 1 1 3 1 1 3 1 1 3 0 0 2 0 0 2 0 0 2 0 0 2 0 0 2 0 0 2 0 0 2 0 0 2 0 0 2 0 0 2 0 0 2 0 0 2 0 0 2 0 0 2 0 0 2 0 0 2 1 1 3 1 1 3 1 1 3 1 1 3 1 1 3 1 1 3 1 1 3 1 1 3 0 0 4 0 0 4 0 0 4 0 0 4 0 0 4 0 0 4 0 0 4 0 0 4 2 1 6 2 1 6 2 1 6 2 1 6 2 1 6 2 1 6 2 1 6 2 1 6 1 1 3 1 1 3 1 1 3 1 1 3 1 1 3 1 1 3 1 1 3 1 1 3 1 1 3 1 1 3 1 1 3 1 1 3 1 1 3 1 1 3 1 1 3 1 1 3 1 2 6 1 2 6 1 2 6 1 2 6 1 2 6 1 2 6 1 2 6 1 2 6 4 5 9 5 6 10 8 9 13 11 12 16 14 15 19 18 19 23 20 21 25 19 23 26 30 33 38 30 35 39 33 38 42 36 41 45 39 44 48 43 48 52 45 50 54 46 51 55 44 49 53 44 49 53 44 49 53 44 49 53 44 49 53 44 49 53 44 49 53 44 49 52 37 42 45 35 41 41 33 39 39 30 36 36 26 32 32 23 29 29 21 27 27 19 25 25 9 15 15 7 13 13 5 11 11 2 8 8 0 4 4 0 2 2 0 2 2 0 2 2 0 2 1 0 2 1 0 2 1 0 2 1 0 2 1 0 2 1 0 2 1 0 2 1 11 15 14 13 17 16 15 19 18 18 22 21 22 26 25 25 29 28 27 31 30 29 33 32 34 39 35 34 39 35 34 39 35 34 39 35 34 39 35 34 39 35 34 39 35 34 39 35 36 41 37 36 41 37 36 41 37 36 41 37 36 41 37 36 41 37 36 41 37 38 40 37 32 31 27 34 30 27 34 30 27 34 30 27 34 30 27 34 30 27 34 30 27 34 30 27 32 28 25 32 28 25 32 28 25 32 28 25 32 28 25 32 28 25 32 28 25 32 28 25 34 29 25 34 29 25 34 29 25 34 29 25 34 29 25 34 29 25 34 29 25 34 29 25 34 29 25 34 29 25 34 29 25 34 29 25 34 29 25 34 29 25 34 29 25 34 29 25
1 1 3 1 1 3 1 1 3 1 1 3 0 0 2 0 0 2 0 0 2 0 0 2 0 0 2 0 0 2 0 0 2 0 0 2 0 0 2 0 0 2 0 0 2 0 0 2 0 0 2 0 0 2 0 0 2 0 0 2 1 1 3 1 1 3 1 1 3 1 1 3 1 1 3 1 1 3 1 1 3 1 1 3 0 0 4 0 0 4 0 0 4 0 0 4 0 0 4 0 0 4 0 0 4 0 0 4 2 1 6 2 1 6 2 1 6 2 1 6 2 1 6 2 1 6 2 1 6 2 1 6 1 1 3 1 1 3 1 1 3 1 1 3 1 1 3 1 1 3 1 1 3 1 1 3 1 1 3 1 1 3 1 1 3 1 1 3 1 1 3 1 1 3 1 1 3 1 1 3 1 2 6 1 2 6 1 2 6 1 2 6 1 2 6 1 2 6 1 2 6 1 2 6 7 8 12 9 10 14 11 12 16 14 15 19 18 19 23 21 22 26 23 24 28 23 27 30 33 36 41 34 39 43 36 41 45 39 44 48 43 48 52 46 51 55 48 53 57 50 55 59 44 49 53 44 49 53 44 49 53 44 49 53 44 49 53 44 49 53 44 49 53 44 49 52 37 42 45 35 41 41 33 39 39 30 36 36 26 32 32 23 29 29 21 27 27 19 25 25 9 15 15 7 13 13 5 11 11 2 8 8 0 4 4 0 2 2 0 2 2 0 2 2 0 2 1 0 2 1 0 2 1 0 2 1 0 2 1 0 2 1 0 2 1 0 2 1 11 15 14 13 17 16 15 19 18 18 22 21 22 26 25 25 29 28 27 31 30 29 33 32 34 39 35 34 39 35 34 39 35 34 39 35 34 39 35 34 39 35 34 39 35 34 39 35 33 38 34 33 38 34 33 38 34 33 38 34 33 38 34 33 38 34 33 38 34 35 37 34 32 31 27 34 30 27 34 30 27 34 30 27 34 30 27 34 30 27 34 30 27 34 30 27 32 28 25 32 28 25 32 28 25 32 28 25 32 28 25 32 28 25 32 28 25 32 28 25 34 29 25 34 29 25 34 29 25 34 29 25 34 29 25 34 29 25 34 29 25 34 29 25 34 29 25 34 29 25 34 29 25 34 29 25 34 29 25 34 29 25 34 29 25 34 29 25
1 1 3 1 1 3 1 1 3 1 1 3 0 0 2 0 0 2 0 0 2 0 0 2 0 0 2 0 0 2 0 0 2 0 0 2 0 0 2 0 0 2 0 0 2 0 0 2 0 0 2 0 0 2 0 0 2 0 0 2 1 1 3 1 1 3 1 1 3 1 1 3 1 1 3 1 1 3 1 1 3 1 1 3 0 0 4 0 0 4 0 0 4 0 0 4 0 0 4 0 0 4 0 0 4 0 0 4 2 1 6 2 1 6 2 1 6 2 1 6 2 1 6 2 1 6 2 1 6 2 1 6 1 1 3 1 1 3 1 1 3 1 1 3 1 1 3 1 1 3 1 1 3 1 1 3 1 1 3 1 1 3 1 1 3 1 1 3 1 1 3 1 1 3 1 1 3 1 1 3 1 2 6 1 2 6 1 2 6 1 2 6 1 2 6 1 2 6 1 2 6 1 2 6 10 11 15 11 12 16 13 14 18 17 18 22 20 21 25 23 24 28 26 27 31 25 29 32 36 39 44 36 41 45 38 43 47 42 47 51 45 50 54 48 53 57 51 56 60 52 57 61 44 49 53 44 49 53 44 49 53 44 49 53 44 49 53 44 49 53 44 49 53 44 49 52 37 42 45 35 41 41 33 39 39 30 36 36 26 32 32 23 29 29 21 27 27 19 25 25 9 15 15 7 13 13 5 11 11 2 8 8 0 4 4 0 2 2 0 2 2 0 2 2 0 2 1 0 2 1 0 2 1 0 2 1 0 2 1 0 2 1 0 2 1 0 2 1 11 15 14 13 17 16 15 19 18 18 22 21 22 26 25 25 29 28 27 31 30 29 33 32 34 39 35 34 39 35 34 39 35 34 39 35 34 39 35 34 39 35 34 39 35 34 39 35 31 36 32 31 36 32 31 36 32 31 36 32 31 36 32 31 36 32 31 36 32 33 35 32 32 31 27 34 30 27 34 30 27 34 30 27 34 30 27 34 30 27 34 30 27 34 30 27 32 28 25 32 28 25 32 28 25 32 28 25 32 28 25 32 28 25 32 28 25 32 28 25 34 29 25 34 29 25 34 29 25 34 29 25 34 29 25 34 29 25 34 29 25 34 29 25 34 29 25 34 29 25 34 29 25 34 29 25 34 29 25 34 29 25 34 29 25 34 29 25
1 1 3 1 1 3 1 1 3 1 1 3 0 0 2 0 0 2 0 0 2 0 0 2 0 0 2 0 0 2 0 0 2 0 0 2 0 0 2 0 0 2 0 0 2 0 0 2 0 0 2 0 0 2 0 0 2 0 0 2 1 1 3 1 1 3 1 1 3 1 1 3 1 1 3 1 1 3 1 1 3 1 1 3 0 0 2 0 0 2 0 0 4 0 0 2 0 0 4 0 0 2 0 0 4 0 0 2 2 1 6 2 2 4 2 1 6 2 2 4 2 1 6 2 2 4 2 1 6 2 2 4 1 1 3 0 1 3 1 1 3 0 1 3 1 1 3 0 1 3 1 1 3 0 1 3 1 1 3 0 1 3 1 1 3 0 1 3 1 1 3 0 1 3 1 1 3 0 1 3 1 2 6 0 3 6 0 3 6 0 3 6 0 3 6 0 3 6 0 3 6 0 3 6 9 13 16 10 14 17 13 17 20 16 20 23 19 23 26 23 27 30 25 29 32 26 30 33 36 41 45 37 42 46 40 45 49 43 48 52 46 51 55 50 55 59 52 57 61 53 58 62 44 49 53 44 49 53 44 49 53 44 49 53 44 49 53 44 49 53 44 49 53 44 49 52 37 42 45 35 41 41 33 39 39 30 36 36 26 32 32 23 29 29 21 27 27 19 25 25 9 15 15 7 13 13 5 11 11 2 8 8 0 4 4 0 2 2 0 2 2 0 2 2 0 2 3 0 2 1 0 2 1 0 2 1 0 2 1 0 2 1 0 2 1 0 2 1 11 15 14 13 17 16 15 19 18 18 22 21 22 26 25 25 29 28 27 31 30 29 33 32 34 38 37 34 39 35 34 38 37 34 39 35 34 38 37 34 39 35 34 38 37 34 39 35 29 33 32 29 34 30 29 33 32 29 34 30 29 33 32 29 34 30 29 33 32 31 33 30 32 31 29 34 30 27 34 30 27 34 30 27 34 30 27 34 30 27 34 30 27 34 30 27 32 28 25 32 28 25 32 28 25 32 28 25 32 28 25 32 28 25 32 28 25 32 28 25 34 29 25 34 29 25 34 29 25 34 29 25 34 29 25 34 29 25 34 29 25 34 29 25 34 29 25 34 29 25 34 29 25 34 29 25 34 29 25 34 29 25 34 29 25 34 29 25
0 0 0 0 0 0 0 0 0 0 0 0 0 0 0 0 0 0 0 0 0 0 0 0 0 0 0 0 0 0 0 0 0 0 0 0 0 0 0 0 0 0 0 0 0 0 0 0 0 0 0 0 0 0 0 0 0 0 0 0 0 0 0 0 0 0 0 0 0 0 0 0 0 0 0 0 0 0 0 0 0 0 0 0 0 0 0 0 0 0 0 0 2 0 0 0 0 0 2 0 0 0 0 0 2 0 0 0 0 0 2 0 0 0 0 0 2 0 0 0 0 0 2 0 0 0 0 0 2 0 0 2 0 0 2 0 1 2 0 0 2 0 1 2 0 0 2 0 1 2 0 0 2 0 1 2 4 5 7 2 6 7 4 5 7 2 6 7 4 5 7 2 6 7 4 5 7 2 6 7 0 1 4 0 1 4 0 1 4 0 4 7 2 7 10 6 11 14 8 13 16 9 14 17 29 34 37 30 35 38 32 37 40 36 41 44 39 44 47 42 47 50 45 50 53 46 51 54 53 61 63 53 61 63 53 61 63 53 61 63 53 61 63 53 61 63 53 61 63 53 61 63 41 49 51 41 49 51 41 49 51 41 49 51 41 49 51 41 49 51 41 49 51 41 49 51 42 47 50 39 44 47 34 39 42 28 33 36 21 26 29 15 20 23 10 15 18 7 12 15 9 14 17 8 13 16 5 10 13 2 7 10 0 4 7 0 1 4 0 1 4 0 2 2 5 11 11 5 11 11 5 11 11 5 11 11 5 11 11 5 11 11 5 11 11 5 11 11 18 24 24 18 24 24 18 24 24 18 24 24 18 24 24 18 24 24 18 24 24 18 24 24 24 30 30 24 30 28 24 30 30 24 30 28 24 30 30 24 30 28 24 30 30 24 30 28 24 30 30 24 30 28 24 30 30 24 30 28 24 30 30 24 30 28 24 30 30 27 29 28 27 26 24 30 24 24 30 24 24 30 24 24 30 24 24 30 24 24 30 24 24 30 24 24 33 27 27 33 27 27 33 27 27 33 27 27 33 27 27 33 27 27 33 27 27 33 28 25 36 28 25 36 28 25 36 28 25 36 28 25 36 28 25 36 28 25 36 28 25 36 28 25 35 27 24 35 27 24 35 27 24 35 27 24 35 27 24 35 27 24 35 27 24 35 27 24
0 0 0 0 0 0 0 0 0 0 0 0 0 0 0 0 0 0 0 0 0 0 0 0 0 0 0 0 0 0 0 0 0 0 0 0 0 0 0 0 0 0 0 0 0 0 0 0 0 0 0 0 0 0 0 0 0 0 0 0 0 0 0 0 0 0 0 0 0 0 0 0 0 0 0 0 0 0 0 0 0 0 0 0 0 0 0 0 0 0 0 0 0 0 0 0 0 0 0 0 0 0 0 0 0 0 0 0 0 0 0 0 0 0 0 0 0 0 0 0 0 0 0 0 0 0 0 0 0 0 1 0 0 0 2 0 1 2 0 1 2 0 1 2 0 1 2 0 1 2 0 1 2 0 1 2 2 6 7 2 6 7 2 6 7 2 6 7 2 6 7 2 6 7 2 6 7 1 7 7 0 1 4 0 2 4 0 4 6 0 8 10 3 11 13 6 14 16 9 17 19 10 18 20 28 36 38 29 37 39 32 40 42 35 43 45 38 46 48 42 50 52 44 52 54 45 53 55 53 61 63 53 61 63 53 61 63 53 61 63 53 61 63 53 61 63 53 61 63 53 61 63 43 51 53 43 51 53 43 51 53 43 51 53 43 51 53 43 51 53 43 51 53 43 51 53 43 48 51 40 45 48 35 40 43 29 34 37 22 27 30 16 21 24 11 16 19 8 13 16 10 15 18 9 14 17 7 12 15 3 8 11 0 5 8 0 2 5 0 1 4 0 1 4 5 11 11 5 11 11 5 11 11 5 11 11 5 11 11 5 11 11 5 11 11 5 11 11 18 24 24 18 24 24 18 24 24 18 24 24 18 24 24 18 24 24 18 24 24 18 24 24 24 30 30 24 30 30 24 30 30 24 30 30 24 30 30 24 30 30 24 30 30 24 30 30 24 30 30 24 30 30 24 30 30 24 30 30 24 30 30 24 30 30 24 30 30 25 29 28 29 25 26 30 24 24 30 24 24 30 24 24 30 24 24 30 24 24 30 24 24 30 24 24 33 27 27 33 27 27 33 27 27 33 27 27 33 27 27 33 27 27 33 27 27 33 28 25 36 28 26 36 28 25 36 28 25 36 28 25 36 28 25 36 28 25 36 28 25 36 28 25 35 27 24 35 27 24 35 27 24 35 27 24 35 27 24 35 27 24 35 27 24 35 27 24
0 0 0 0 0 0 0 0 0 0 0 0 0 0 0 0 0 0 0 0 0 0 0 0 0 0 0 0 0 0 0 0 0 0 0 0 0 0 0 0 0 0 0 0 0 0 0 0 0 0 0 0 0 0 0 0 0 0 0 0 0 0 0 0 0 0 0 0 0 0 0 0 0 0 0 0 0 0 0 0 0 0 0 0 0 0 0 0 0 0 0 0 0 0 0 0 0 0 0 0 0 0 0 0 0 0 0 0 0 0 0 0 0 0 0 0 0 0 0 0 0 0 0 0 0 0 0 0 0 0 1 0 0 0 2 0 1 2 0 1 2 0 1 2 0 1 2 0 1 2 0 1 2 0 1 2 2 6 7 2 6 7 2 6 7 2 6 7 2 6 7 2 6 7 2 6 7 1 7 7 0 5 8 0 7 9 1 9 11 4 12 14 8 16 18 11 19 21 14 22 24 15 23 25 30 38 40 32 40 42 34 42 44 37 45 47 41 49 51 44 52 54 46 54 56 48 56 58 53 61 63 53 61 63 53 61 63 53 61 63 53 61 63 53 61 63 53 61 63 53 61 63 45 53 55 45 53 55 45 53 55 45 53 55 45 53 55 45 53 55 45 53 55 45 53 55 45 50 53 43 48 51 38 43 46 32 37 40 25 30 33 18 23 26 13 18 21 11 16 19 13 18 21 11 16 19 9 14 17 6 11 14 2 7 10 0 4 7 0 2 5 0 1 4 5 11 11 5 11 11 5 11 11 5 11 11 5 11 11 5 11 11 5 11 11 5 11 11 18 24 24 18 24 24 18 24 24 18 24 24 18 24 24 18 24 24 18 24 24 18 24 24 24 30 30 24 30 30 24 30 30 24 30 30 24 30 30 24 30 30 24 30 30 24 30 30 24 30 30 24 30 30 24 30 30 24 30 30 24 30 30 24 30 30 24 30 30 25 29 28 29 25 26 30 24 24 30 24 24 30 24 24 30 24 24 30 24 24 30 24 24 30 24 24 33 27 27 33 27 27 33 27 27 33 27 27 33 27 27 33 27 27 33 27 27 33 28 25 36 28 26 36 28 25 36 28 25 36 28 25 36 28 25 36 28 25 36 28 25 36 28 25 35 27 24 35 27 24 35 27 24 35 27 24 35 27 24 35 27 24 35 27 24 35 27 24
