P3
172 37
255
0 9 1 0 9 1 0 9 1 0 9 1 0 10 2 0 10 2 0 10 2 0 10 2 0 10 2 0 10 2 0 10 2 0 10 2 0 9 0 0 9 0 0 9 0 0 9 0 0 9 0 0 9 0 0 9 0 0 9 0 0 8 0 0 8 0 0 8 0 0 8 0 0 8 0 0 8 0 0 8 0 0 8 0 0 9 0 0 9 0 0 9 0 0 9 0 0 9 0 0 9 0 0 9 0 0 9 0 0 9 0 0 9 0 0 9 0 0 9 0 0 9 0 0 9 0 0 9 0 0 9 0 0 10 2 0 10 2 0 10 2 0 10 2 0 10 2 0 10 2 0 10 2 0 10 2 0 11 3 0 11 3 0 11 3 0 11 3 0 11 3 0 11 3 0 11 3 0 11 3 0 11 5 0 11 5 0 11 5 0 11 5 0 11 5 0 11 5 0 11 5 0 11 5 0 12 6 0 12 6 0 12 6 0 12 6 0 12 6 0 12 6 0 12 6 0 12 6 0 10 2 0 10 2 0 10 2 0 10 2 0 10 2 0 10 2 0 10 2 0 10 2 0 9 1 0 9 1 0 9 1 0 9 1 0 9 1 0 9 1 0 9 1 0 9 1 0 10 0 0 10 0 0 10 0 0 10 0 0 10 0 0 10 0 0 10 0 0 10 0 0 22 12 0 21 11 0 18 8 0 14 4 0 10 0 0 8 0 0 8 0 0 7 0 0 4 0 0 4 2 3 9 7 10 16 14 16 22 20 23 29 27 28 34 32 30 36 34 40 46 44 42 48 46 44 50 48 47 53 51 51 57 55 54 60 58 56 62 60 61 63 62 76 66 67 79 64 67 79 64 67 79 64 67 79 64 67 79 64 67 79 64 67 79 64 67 84 69 72 86 71 74 88 73 76 91 76 79 95 80 83 98 83 86 100 85 88 102 88 88 101 85 86 101 85 85 101 85 85 101 85 85 101 85 85 101 85 85 101 85 85 101 85 85 110 94 94 110 94 94 110 94 94 110 94 94 110 94 94 110 94 94 110 94 94 110 94 94 113 97 98 113 97 98 113 97 98 113 97 98 113 97 98 113 97 98 113 97 98 113 97 98 119 103 104 122 106 107 125 109 110 123 107 108 116 100 101 103 87 88 90 74 75 81 67 67
0 8 1 0 9 1 0 8 1 0 9 1 0 9 2 0 10 2 0 9 2 0 10 2 0 9 2 0 10 2 0 9 2 0 10 2 0 8 1 0 9 0 0 8 1 0 9 0 0 8 1 0 9 0 0 8 1 0 9 0 0 7 0 0 8 0 0 7 0 0 8 0 0 7 0 0 8 0 0 7 0 0 8 0 0 8 1 0 9 0 0 8 1 0 9 0 0 8 1 0 9 0 0 8 1 0 9 0 0 8 1 0 9 0 0 8 1 0 9 0 0 8 1 0 9 0 0 8 1 0 9 1 0 9 2 0 10 2 0 9 2 0 10 2 0 9 2 0 10 2 0 9 2 0 10 2 0 10 3 0 11 3 0 10 3 0 11 3 0 10 3 0 11 3 0 10 3 0 11 3 0 10 5 0 11 5 0 10 5 0 11 5 0 10 5 0 11 5 0 10 5 0 11 5 0 11 6 0 12 6 0 11 6 0 12 6 0 11 6 0 12 6 0 11 6 0 12 6 0 9 2 0 10 2 0 9 2 0 10 2 0 9 2 0 10 2 0 9 2 0 10 2 0 8 1 0 9 1 0 8 1 0 9 1 0 8 1 0 9 1 0 8 1 0 9 1 0 10 2 0 10 2 0 10 2 0 10 2 0 10 2 0 10 2 0 10 2 0 10 2 1 24 16 0 22 14 0 19 11 0 14 6 0 10 2 0 8 0 0 8 0 0 6 0 0 3 0 0 3 2 4 8 9 11 15 14 17 21 22 24 28 27 29 33 34 31 35 34 41 45 46 43 47 46 45 49 50 48 52 51 52 56 57 55 59 58 57 61 62 62 62 62 75 66 67 76 66 67 77 65 67 76 66 67 77 65 67 76 66 67 77 65 67 76 66 67 82 70 72 83 73 74 86 74 76 88 78 79 93 81 83 95 85 86 98 86 88 100 88 88 98 86 86 100 86 85 100 86 85 100 86 85 100 86 85 100 86 85 100 86 85 100 86 85 109 95 94 109 95 94 109 95 94 109 95 94 109 95 94 109 95 94 109 95 94 109 95 94 110 98 98 110 98 98 110 98 98 110 98 98 110 98 98 110 98 98 110 98 98 110 98 98 118 106 106 121 109 109 123 111 111 121 109 109 113 101 101 99 87 87 85 73 73 77 65 65
0 2 2 0 3 2 0 2 2 0 3 2 0 3 3 0 4 3 0 3 3 0 4 3 0 3 3 0 4 3 0 3 3 0 4 3 0 3 3 0 4 1 0 3 3 0 4 1 0 3 3 0 4 1 0 3 3 0 4 1 0 2 2 0 3 0 0 2 2 0 3 0 0 2 2 0 3 0 0 2 2 0 3 0 0 2 2 0 3 0 0 2 2 0 3 0 0 2 2 0 3 0 0 2 2 0 3 0 0 4 4 0 5 2 0 4 4 0 5 2 0 4 4 0 5 2 0 4 4 0 5 2 0 2 0 0 3 0 0 2 0 0 3 0 0 2 0 0 3 0 0 2 0 0 3 0 0 3 1 0 4 1 0 3 1 0 4 1 0 3 1 0 4 1 0 3 1 0 4 1 0 5 3 0 6 3 0 5 3 0 6 3 0 5 3 0 6 3 0 5 3 0 6 3 0 3 1 0 4 1 0 3 1 0 4 1 0 3 1 0 4 1 0 3 1 0 4 1 0 3 3 0 4 3 0 3 3 0 4 3 0 3 3 0 4 3 0 3 3 0 4 3 0 3 3 0 4 3 0 3 3 0 4 3 0 3 3 0 4 3 0 3 3 0 4 3 0 3 2 0 3 2 0 3 2 0 3 2 0 3 2 0 3 2 0 3 2 0 3 2 26 36 35 24 34 33 19 29 28 12 22 21 6 16 15 0 9 8 0 4 3 0 3 2 2 3 5 1 0 2 1 0 4 1 0 2 6 4 9 18 16 19 31 29 34 39 37 40 42 40 45 44 42 45 46 44 49 49 47 50 53 51 56 56 54 57 58 56 61 63 57 61 81 66 71 82 66 69 84 65 69 82 66 69 84 65 69 82 66 69 84 65 69 82 66 69 90 71 75 90 74 77 94 75 79 95 79 82 101 82 86 102 86 89 106 87 91 108 89 91 109 89 91 109 89 90 109 89 90 109 89 90 109 89 90 109 89 90 109 89 90 109 89 90 116 96 97 116 96 97 116 96 97 116 96 97 116 96 97 116 96 97 116 96 97 116 96 97 121 103 103 121 103 103 121 103 103 121 103 103 121 103 103 121 103 103 121 103 103 121 103 103 123 105 105 125 107 107 125 107 107 121 103 103 111 93 93 96 78 78 81 63 63 68 54 54
0 0 2 0 0 2 0 0 2 0 0 2 1 1 3 1 1 3 1 1 3 1 1 3 1 1 3 1 1 3 1 1 3 1 1 3 1 1 3 1 1 3 1 1 3 1 1 3 1 1 3 1 1 3 1 1 3 1 1 3 0 0 2 0 0 2 0 0 2 0 0 2 0 0 2 0 0 2 0 0 2 0 0 2 0 0 2 0 0 2 0 0 2 0 0 2 0 0 2 0 0 2 0 0 2 0 0 2 2 2 4 2 2 4 2 2 4 2 2 4 2 2 4 2 2 4 2 2 4 2 2 4 0 0 0 0 0 0 0 0 0 0 0 0 0 0 0 0 0 0 0 0 0 0 0 0 1 1 1 1 1 1 1 1 1 1 1 1 1 1 1 1 1 1 1 1 1 1 1 1 3 3 3 3 3 3 3 3 3 3 3 3 3 3 3 3 3 3 3 3 3 3 3 3 1 1 1 1 1 1 1 1 1 1 1 1 1 1 1 1 1 1 1 1 1 1 1 1 1 1 3 1 1 3 1 1 3 1 1 3 1 1 3 1 1 3 1 1 3 1 1 3 1 1 3 1 1 3 1 1 3 1 1 3 1 1 3 1 1 3 1 1 3 0 1 3 0 1 5 0 2 5 0 2 5 0 2 5 0 2 5 0 2 5 0 2 5 0 2 5 30 34 37 28 32 35 23 27 30 16 20 23 10 14 17 3 7 10 0 2 5 0 0 4 4 2 7 3 0 4 3 0 4 3 0 4 8 3 9 20 15 21 33 28 34 41 36 42 44 39 45 46 41 47 48 43 49 51 46 52 55 50 56 58 53 59 60 55 61 65 56 61 82 65 71 85 64 69 85 64 69 85 64 69 85 64 69 85 64 69 85 64 69 85 64 69 91 70 75 93 72 77 95 74 79 98 77 82 102 81 86 105 84 89 107 86 91 109 89 91 112 87 91 112 87 90 112 87 90 112 87 90 112 87 90 112 87 90 112 87 90 112 87 90 119 94 97 119 94 97 119 94 97 119 94 97 119 94 97 119 94 97 119 94 97 117 95 97 123 101 103 122 102 103 122 102 103 122 102 103 122 102 103 122 102 103 122 102 103 122 102 103 123 103 104 124 104 105 125 105 106 121 101 102 111 91 92 96 76 77 80 60 61 68 52 52
0 0 2 0 0 2 0 0 2 0 0 2 1 1 3 1 1 3 1 1 3 1 1 3 1 1 3 1 1 3 1 1 3 1 1 3 1 1 3 1 1 3 1 1 3 1 1 3 1 1 3 1 1 3 1 1 3 1 1 3 0 0 2 0 0 2 0 0 2 0 0 2 0 0 2 0 0 2 0 0 2 0 0 2 0 0 2 0 0 2 0 0 2 0 0 2 0 0 2 0 0 2 0 0 2 0 0 2 2 2 4 2 2 4 2 2 4 2 2 4 2 2 4 2 2 4 2 2 4 2 2 4 0 0 0 0 0 0 0 0 0 0 0 0 0 0 0 0 0 0 0 0 0 0 0 0 1 1 1 1 1 1 1 1 1 1 1 1 1 1 1 1 1 1 1 1 1 1 1 1 3 3 3 3 3 3 3 3 3 3 3 3 3 3 3 3 3 3 3 3 3 3 3 3 1 1 1 1 1 1 1 1 1 1 1 1 1 1 1 1 1 1 1 1 1 1 1 1 1 1 3 1 1 3 1 1 3 1 1 3 1 1 3 1 1 3 1 1 3 1 1 3 1 1 3 1 1 3 1 1 3 1 1 3 1 1 3 1 1 3 1 1 3 0 1 3 2 3 7 0 4 7 0 4 7 0 4 7 0 4 7 0 4 7 0 4 7 0 4 7 30 34 37 28 32 35 23 27 30 16 20 23 10 14 17 3 7 10 0 2 5 0 0 4 4 2 7 3 0 4 3 0 4 3 0 4 8 3 9 20 15 21 33 28 34 41 36 42 44 39 45 46 41 47 48 43 49 51 46 52 55 50 56 58 53 59 60 55 61 65 56 61 82 65 71 85 64 69 85 64 69 85 64 69 85 64 69 85 64 69 85 64 69 85 64 69 91 70 75 93 72 77 95 74 79 98 77 82 102 81 86 105 84 89 107 86 91 109 89 91 112 87 91 112 87 90 112 87 90 112 87 90 112 87 90 112 87 90 112 87 90 112 87 90 119 94 97 119 94 97 119 94 97 119 94 97 119 94 97 119 94 97 119 94 97 117 95 97 123 101 103 122 102 103 122 102 103 122 102 103 122 102 103 122 102 103 122 102 103 122 102 103 120 100 101 122 102 103 123 103 104 119 99 100 108 88 89 93 73 74 78 58 59 65 49 49
0 0 2 0 0 2 0 0 2 0 0 2 1 1 3 1 1 3 1 1 3 1 1 3 1 1 3 1 1 3 1 1 3 1 1 3 1 1 3 1 1 3 1 1 3 1 1 3 1 1 3 1 1 3 1 1 3 1 1 3 0 0 2 0 0 2 0 0 2 0 0 2 0 0 2 0 0 2 0 0 2 0 0 2 0 0 2 0 0 2 0 0 2 0 0 2 0 0 2 0 0 2 0 0 2 0 0 2 2 2 4 2 2 4 2 2 4 2 2 4 2 2 4 2 2 4 2 2 4 2 2 4 0 0 0 0 0 0 0 0 0 0 0 0 0 0 0 0 0 0 0 0 0 0 0 0 1 1 1 1 1 1 1 1 1 1 1 1 1 1 1 1 1 1 1 1 1 1 1 1 3 3 3 3 3 3 3 3 3 3 3 3 3 3 3 3 3 3 3 3 3 3 3 3 1 1 1 1 1 1 1 1 1 1 1 1 1 1 1 1 1 1 1 1 1 1 1 1 1 1 3 1 1 3 1 1 3 1 1 3 1 1 3 1 1 3 1 1 3 1 1 3 1 1 3 1 1 3 1 1 3 1 1 3 1 1 3 1 1 3 1 1 3 0 1 3 5 6 10 3 7 10 3 7 10 3 7 10 3 7 10 3 7 10 3 7 10 3 7 10 30 34 37 28 32 35 23 27 30 16 20 23 10 14 17 3 7 10 0 2 5 0 0 4 4 2 7 3 0 4 3 0 4 3 0 4 8 3 9 20 15 21 33 28 34 41 36 42 44 39 45 46 41 47 48 43 49 51 46 52 55 50 56 58 53 59 60 55 61 65 56 61 82 65 71 85 64 69 85 64 69 85 64 69 85 64 69 85 64 69 85 64 69 85 64 69 91 70 75 93 72 77 95 74 79 98 77 82 102 81 86 105 84 89 107 86 91 109 89 91 112 87 91 112 87 90 112 87 90 112 87 90 112 87 90 112 87 90 112 87 90 112 87 90 119 94 97 119 94 97 119 94 97 119 94 97 119 94 97 119 94 97 119 94 97 117 95 97 123 101 103 122 102 103 122 102 103 122 102 103 122 102 103 122 102 103 122 102 103 122 102 103 117 97 98 119 99 100 119 99 100 116 96 97 105 85 86 90 70 71 75 55 56 62 46 46
0 0 2 0 0 2 0 0 2 0 0 2 1 1 3 1 1 3 1 1 3 1 1 3 1 1 3 1 1 3 1 1 3 1 1 3 1 1 3 1 1 3 1 1 3 1 1 3 1 1 3 1 1 3 1 1 3 1 1 3 0 0 2 0 0 2 0 0 2 0 0 2 0 0 2 0 0 2 0 0 2 0 0 2 0 0 2 0 0 2 0 0 2 0 0 2 0 0 2 0 0 2 0 0 2 0 0 2 2 2 4 2 2 4 2 2 4 2 2 4 2 2 4 2 2 4 2 2 4 2 2 4 0 0 0 0 0 0 0 0 0 0 0 0 0 0 0 0 0 0 0 0 0 0 0 0 1 1 1 1 1 1 1 1 1 1 1 1 1 1 1 1 1 1 1 1 1 1 1 1 3 3 3 3 3 3 3 3 3 3 3 3 3 3 3 3 3 3 3 3 3 3 3 3 1 1 1 1 1 1 1 1 1 1 1 1 1 1 1 1 1 1 1 1 1 1 1 1 1 1 3 1 1 3 1 1 3 1 1 3 1 1 3 1 1 3 1 1 3 1 1 3 1 1 3 1 1 3 1 1 3 1 1 3 1 1 3 1 1 3 1 1 3 0 1 3 9 10 14 7 11 14 7 11 14 7 11 14 7 11 14 7 11 14 7 11 14 7 11 14 30 34 37 28 32 35 23 27 30 16 20 23 10 14 17 3 7 10 0 2 5 0 0 4 4 2 7 3 0 4 3 0 4 3 0 4 8 3 9 20 15 21 33 28 34 41 36 42 44 39 45 46 41 47 48 43 49 51 46 52 55 50 56 58 53 59 60 55 61 65 56 61 82 65 71 85 64 69 85 64 69 85 64 69 85 64 69 85 64 69 85 64 69 85 64 69 91 70 75 93 72 77 95 74 79 98 77 82 102 81 86 105 84 89 107 86 91 109 89 91 112 87 91 112 87 90 112 87 90 112 87 90 112 87 90 112 87 90 112 87 90 112 87 90 119 94 97 119 94 97 119 94 97 119 94 97 119 94 97 119 94 97 119 94 97 117 95 97 123 101 103 122 102 103 122 102 103 122 102 103 122 102 103 122 102 103 122 102 103 122 102 103 114 94 95 115 95 96 116 96 97 112 92 93 102 82 83 87 67 68 71 51 52 59 43 43
0 0 2 0 0 2 0 0 2 0 0 2 1 1 3 1 1 3 1 1 3 1 1 3 1 1 3 1 1 3 1 1 3 1 1 3 1 1 3 1 1 3 1 1 3 1 1 3 1 1 3 1 1 3 1 1 3 1 1 3 0 0 2 0 0 2 0 0 2 0 0 2 0 0 2 0 0 2 0 0 2 0 0 2 0 0 2 0 0 2 0 0 2 0 0 2 0 0 2 0 0 2 0 0 2 0 0 2 2 2 4 2 2 4 2 2 4 2 2 4 2 2 4 2 2 4 2 2 4 2 2 4 0 0 0 0 0 0 0 0 0 0 0 0 0 0 0 0 0 0 0 0 0 0 0 0 1 1 1 1 1 1 1 1 1 1 1 1 1 1 1 1 1 1 1 1 1 1 1 1 3 3 3 3 3 3 3 3 3 3 3 3 3 3 3 3 3 3 3 3 3 3 3 3 1 1 1 1 1 1 1 1 1 1 1 1 1 1 1 1 1 1 1 1 1 1 1 1 1 1 3 1 1 3 1 1 3 1 1 3 1 1 3 1 1 3 1 1 3 1 1 3 1 1 3 1 1 3 1 1 3 1 1 3 1 1 3 1 1 3 1 1 3 0 1 3 12 13 17 10 14 17 10 14 17 10 14 17 10 14 17 10 14 17 10 14 17 10 14 17 30 34 37 28 32 35 23 27 30 16 20 23 10 14 17 3 7 10 0 2 5 0 0 4 4 2 7 3 0 4 3 0 4 3 0 4 8 3 9 20 15 21 33 28 34 41 36 42 44 39 45 46 41 47 48 43 49 51 46 52 55 50 56 58 53 59 60 55 61 65 56 61 82 65 71 85 64 69 85 64 69 85 64 69 85 64 69 85 64 69 85 64 69 85 64 69 91 70 75 93 72 77 95 74 79 98 77 82 102 81 86 105 84 89 107 86 91 109 89 91 112 87 91 112 87 90 112 87 90 112 87 90 112 87 90 112 87 90 112 87 90 112 87 90 119 94 97 119 94 97 119 94 97 119 94 97 119 94 97 119 94 97 119 94 97 117 95 97 123 101 103 122 102 103 122 102 103 122 102 103 122 102 103 122 102 103 122 102 103 122 102 103 110 90 91 112 92 93 113 93 94 109 89 90 99 79 80 83 63 64 68 48 49 55 39 39
0 0 2 0 0 2 0 0 2 0 0 2 1 1 3 1 1 3 1 1 3 1 1 3 1 1 3 1 1 3 1 1 3 1 1 3 1 1 3 1 1 3 1 1 3 1 1 3 1 1 3 1 1 3 1 1 3 1 1 3 0 0 2 0 0 2 0 0 2 0 0 2 0 0 2 0 0 2 0 0 2 0 0 2 0 0 2 0 0 2 0 0 2 0 0 2 0 0 2 0 0 2 0 0 2 0 0 2 2 2 4 2 2 4 2 2 4 2 2 4 2 2 4 2 2 4 2 2 4 2 2 4 0 0 0 0 0 0 0 0 0 0 0 0 0 0 0 0 0 0 0 0 0 0 0 0 1 1 1 1 1 1 1 1 1 1 1 1 1 1 1 1 1 1 1 1 1 1 1 1 3 3 3 3 3 3 3 3 3 3 3 3 3 3 3 3 3 3 3 3 3 3 3 3 1 1 1 1 1 1 1 1 1 1 1 1 1 1 1 1 1 1 1 1 1 1 1 1 1 1 3 1 1 3 1 1 3 1 1 3 1 1 3 1 1 3 1 1 3 1 1 3 1 1 3 1 1 3 1 1 3 1 1 3 1 1 3 1 1 3 1 1 3 0 1 3 14 15 19 12 16 19 12 16 19 12 16 19 12 16 19 12 16 19 12 16 19 12 16 19 30 34 37 28 32 35 23 27 30 16 20 23 10 14 17 3 7 10 0 2 5 0 0 4 4 2 7 3 0 4 3 0 4 3 0 4 8 3 9 20 15 21 33 28 34 41 36 42 44 39 45 46 41 47 48 43 49 51 46 52 55 50 56 58 53 59 60 55 61 65 56 61 82 65 71 85 64 69 85 64 69 85 64 69 85 64 69 85 64 69 85 64 69 85 64 69 91 70 75 93 72 77 95 74 79 98 77 82 102 81 86 105 84 89 107 86 91 109 89 91 112 87 91 112 87 90 112 87 90 112 87 90 112 87 90 112 87 90 112 87 90 112 87 90 119 94 97 119 94 97 119 94 97 119 94 97 119 94 97 119 94 97 119 94 97 117 95 97 123 101 103 122 102 103 122 102 103 122 102 103 122 102 103 122 102 103 122 102 103 122 102 103 108 88 89 110 90 91 110 90 91 106 86 87 96 76 77 81 61 62 66 46 47 53 37 37
0 0 2 0 0 2 0 0 2 0 0 2 1 1 3 1 1 3 1 1 3 1 1 3 1 1 3 1 1 3 1 1 3 1 1 3 1 1 3 1 1 3 1 1 3 1 1 3 1 1 3 1 1 3 1 1 3 1 1 3 0 0 2 0 0 2 0 0 2 0 0 2 0 0 2 0 0 2 0 0 2 0 0 2 0 0 2 0 0 2 0 0 2 0 0 2 0 0 2 0 0 2 0 0 2 0 0 2 2 2 4 2 2 4 2 2 4 2 2 4 2 2 4 2 2 4 2 2 4 2 2 4 0 0 0 0 0 0 0 0 0 0 0 0 0 0 0 0 0 0 0 0 0 0 0 0 1 1 1 1 1 1 1 1 1 1 1 1 1 1 1 1 1 1 1 1 1 1 1 1 3 3 3 3 3 3 3 3 3 3 3 3 3 3 3 3 3 3 3 3 3 3 3 3 1 1 1 1 1 1 1 1 1 1 1 1 1 1 1 1 1 1 1 1 1 1 1 1 1 1 3 1 1 3 1 1 3 1 1 3 1 1 3 1 1 3 1 1 3 1 1 3 1 1 3 1 1 3 1 1 3 1 1 3 1 1 3 1 1 3 1 1 3 0 1 3 16 17 21 14 18 21 14 18 21 14 18 21 14 18 21 14 18 21 14 18 21 14 18 21 30 34 37 28 32 35 23 27 30 16 20 23 10 14 17 3 7 10 0 2 5 0 0 4 4 2 7 3 0 4 3 0 4 3 0 4 8 3 9 20 15 21 33 28 34 41 36 42 44 39 45 46 41 47 48 43 49 51 46 52 55 50 56 58 53 59 60 55 61 65 56 61 82 65 71 85 64 69 85 64 69 85 64 69 85 64 69 85 64 69 85 64 69 85 64 69 91 70 75 93 72 77 95 74 79 98 77 82 102 81 86 105 84 89 107 86 91 109 89 91 112 87 91 112 87 90 112 87 90 112 87 90 112 87 90 112 87 90 112 87 90 112 87 90 119 94 97 119 94 97 119 94 97 119 94 97 119 94 97 119 94 97 119 94 97 117 95 97 123 101 103 122 102 103 122 102 103 122 102 103 122 102 103 122 102 103 122 102 103 122 102 103 107 87 88 108 88 89 109 89 90 105 85 86 95 75 76 80 60 61 64 44 45 52 36 36
1 1 3 1 1 3 1 1 3 1 1 3 0 0 2 0 0 2 0 0 2 0 0 2 0 0 2 0 0 2 0 0 2 0 0 2 1 1 3 1 1 3 1 1 3 1 1 3 1 1 3 1 1 3 1 1 3 1 1 3 0 0 2 0 0 2 0 0 2 0 0 2 0 0 2 0 0 2 0 0 2 0 0 2 0 0 2 0 0 2 0 0 2 0 0 2 0 0 2 0 0 2 0 0 2 0 0 2 1 1 3 1 1 3 1 1 3 1 1 3 1 1 3 1 1 3 1 1 3 1 1 3 1 1 1 1 1 1 1 1 1 1 1 1 1 1 1 1 1 1 1 1 1 1 1 1 0 0 0 0 0 0 0 0 0 0 0 0 0 0 0 0 0 0 0 0 0 0 0 0 0 0 0 0 0 0 0 0 0 0 0 0 0 0 0 0 0 0 0 0 0 0 0 0 0 0 0 0 0 0 0 0 0 0 0 0 0 0 0 0 0 0 0 0 0 0 0 0 3 3 5 3 3 5 3 3 5 3 3 5 3 3 5 3 3 5 3 3 5 3 3 5 0 0 2 0 0 2 0 0 2 0 0 2 2 2 4 5 5 7 8 8 10 8 9 11 26 27 31 24 28 31 24 28 31 24 28 31 24 28 31 24 28 31 24 28 31 24 28 31 17 21 24 15 19 22 13 17 20 10 14 17 6 10 13 3 7 10 1 5 8 1 2 6 11 9 14 9 4 10 3 0 4 3 0 4 4 0 5 13 8 14 23 18 24 30 25 31 44 39 45 46 41 47 48 43 49 51 46 52 55 50 56 58 53 59 60 55 61 65 56 61 74 57 63 79 58 63 81 60 65 84 63 68 88 67 72 91 70 75 93 72 77 95 74 79 97 76 81 97 76 81 97 76 81 97 76 81 97 76 81 97 76 81 97 76 81 97 77 79 115 90 94 115 90 93 115 90 93 115 90 93 115 90 93 115 90 93 115 90 93 115 90 93 125 100 103 125 100 103 125 100 103 125 100 103 125 100 103 125 100 103 125 100 103 123 101 103 125 103 105 124 104 105 124 104 105 124 104 105 124 104 105 124 104 105 124 104 105 124 104 105 124 104 105 115 95 96 99 79 80 84 64 65 74 54 55 70 50 51 71 51 52 69 53 53
1 1 3 1 1 3 1 1 3 1 1 3 0 0 2 0 0 2 0 0 2 0 0 2 0 0 2 0 0 2 0 0 2 0 0 2 1 1 3 1 1 3 1 1 3 1 1 3 1 1 3 1 1 3 1 1 3 1 1 3 0 0 2 0 0 2 0 0 2 0 0 2 0 0 2 0 0 2 0 0 2 0 0 2 0 0 2 0 0 2 0 0 2 0 0 2 0 0 2 0 0 2 0 0 2 0 0 2 1 1 3 1 1 3 1 1 3 1 1 3 1 1 3 1 1 3 1 1 3 1 1 3 1 1 1 1 1 1 1 1 1 1 1 1 1 1 1 1 1 1 1 1 1 1 1 1 0 0 0 0 0 0 0 0 0 0 0 0 0 0 0 0 0 0 0 0 0 0 0 0 0 0 0 0 0 0 0 0 0 0 0 0 0 0 0 0 0 0 0 0 0 0 0 0 0 0 0 0 0 0 0 0 0 0 0 0 0 0 0 0 0 0 0 0 0 0 0 0 3 3 5 3 3 5 3 3 5 3 3 5 3 3 5 3 3 5 3 3 5 3 3 5 0 0 2 0 0 2 0 0 2 0 0 2 3 3 5 7 7 9 9 9 11 9 10 12 26 27 31 24 28 31 24 28 31 24 28 31 24 28 31 24 28 31 24 28 31 24 28 31 17 21 24 15 19 22 13 17 20 10 14 17 6 10 13 3 7 10 1 5 8 1 2 6 11 9 14 9 4 10 3 0 4 3 0 4 4 0 5 13 8 14 23 18 24 30 25 31 44 39 45 46 41 47 48 43 49 51 46 52 55 50 56 58 53 59 60 55 61 65 56 61 74 57 63 79 58 63 81 60 65 84 63 68 88 67 72 91 70 75 93 72 77 95 74 79 97 76 81 97 76 81 97 76 81 97 76 81 97 76 81 97 76 81 97 76 81 97 77 79 115 90 94 115 90 93 115 90 93 115 90 93 115 90 93 115 90 93 115 90 93 115 90 93 125 100 103 125 100 103 125 100 103 125 100 103 125 100 103 125 100 103 125 100 103 123 101 103 125 103 105 124 104 105 124 104 105 124 104 105 124 104 105 124 104 105 124 104 105 124 104 105 123 103 104 113 93 94 98 78 79 83 63 64 73 53 54 69 49 50 69 49 50 68 52 52
1 1 3 1 1 3 1 1 3 1 1 3 0 0 2 0 0 2 0 0 2 0 0 2 0 0 2 0 0 2 0 0 2 0 0 2 1 1 3 1 1 3 1 1 3 1 1 3 1 1 3 1 1 3 1 1 3 1 1 3 0 0 2 0 0 2 0 0 2 0 0 2 0 0 2 0 0 2 0 0 2 0 0 2 0 0 2 0 0 2 0 0 2 0 0 2 0 0 2 0 0 2 0 0 2 0 0 2 1 1 3 1 1 3 1 1 3 1 1 3 1 1 3 1 1 3 1 1 3 1 1 3 1 1 1 1 1 1 1 1 1 1 1 1 1 1 1 1 1 1 1 1 1 1 1 1 0 0 0 0 0 0 0 0 0 0 0 0 0 0 0 0 0 0 0 0 0 0 0 0 0 0 0 0 0 0 0 0 0 0 0 0 0 0 0 0 0 0 0 0 0 0 0 0 0 0 0 0 0 0 0 0 0 0 0 0 0 0 0 0 0 0 0 0 0 0 0 0 3 3 5 3 3 5 3 3 5 3 3 5 3 3 5 3 3 5 3 3 5 3 3 5 0 0 2 0 0 2 0 0 2 2 2 4 6 6 8 9 9 11 11 11 13 12 13 15 26 27 31 24 28 31 24 28 31 24 28 31 24 28 31 24 28 31 24 28 31 24 28 31 17 21 24 15 19 22 13 17 20 10 14 17 6 10 13 3 7 10 1 5 8 1 2 6 11 9 14 9 4 10 3 0 4 3 0 4 4 0 5 13 8 14 23 18 24 30 25 31 44 39 45 46 41 47 48 43 49 51 46 52 55 50 56 58 53 59 60 55 61 65 56 61 74 57 63 79 58 63 81 60 65 84 63 68 88 67 72 91 70 75 93 72 77 95 74 79 97 76 81 97 76 81 97 76 81 97 76 81 97 76 81 97 76 81 97 76 81 97 77 79 115 90 94 115 90 93 115 90 93 115 90 93 115 90 93 115 90 93 115 90 93 115 90 93 125 100 103 125 100 103 125 100 103 125 100 103 125 100 103 125 100 103 125 100 103 123 101 103 125 103 105 124 104 105 124 104 105 124 104 105 124 104 105 124 104 105 124 104 105 124 104 105 121 101 102 111 91 92 96 76 77 80 60 61 70 50 51 66 46 47 67 47 48 66 50 50
1 1 3 1 1 3 1 1 3 1 1 3 0 0 2 0 0 2 0 0 2 0 0 2 0 0 2 0 0 2 0 0 2 0 0 2 1 1 3 1 1 3 1 1 3 1 1 3 1 1 3 1 1 3 1 1 3 1 1 3 0 0 2 0 0 2 0 0 2 0 0 2 0 0 2 0 0 2 0 0 2 0 0 2 0 0 2 0 0 2 0 0 2 0 0 2 0 0 2 0 0 2 0 0 2 0 0 2 1 1 3 1 1 3 1 1 3 1 1 3 1 1 3 1 1 3 1 1 3 1 1 3 1 1 1 1 1 1 1 1 1 1 1 1 1 1 1 1 1 1 1 1 1 1 1 1 0 0 0 0 0 0 0 0 0 0 0 0 0 0 0 0 0 0 0 0 0 0 0 0 0 0 0 0 0 0 0 0 0 0 0 0 0 0 0 0 0 0 0 0 0 0 0 0 0 0 0 0 0 0 0 0 0 0 0 0 0 0 0 0 0 0 0 0 0 0 0 0 3 3 5 3 3 5 3 3 5 3 3 5 3 3 5 3 3 5 3 3 5 3 3 5 0 0 2 0 0 2 2 2 4 6 6 8 9 9 11 12 12 14 15 15 17 15 16 18 26 27 31 24 28 31 24 28 31 24 28 31 24 28 31 24 28 31 24 28 31 24 28 31 17 21 24 15 19 22 13 17 20 10 14 17 6 10 13 3 7 10 1 5 8 1 2 6 11 9 14 9 4 10 3 0 4 3 0 4 4 0 5 13 8 14 23 18 24 30 25 31 44 39 45 46 41 47 48 43 49 51 46 52 55 50 56 58 53 59 60 55 61 65 56 61 74 57 63 79 58 63 81 60 65 84 63 68 88 67 72 91 70 75 93 72 77 95 74 79 97 76 81 97 76 81 97 76 81 97 76 81 97 76 81 97 76 81 97 76 81 97 77 79 115 90 94 115 90 93 115 90 93 115 90 93 115 90 93 115 90 93 115 90 93 115 90 93 125 100 103 125 100 103 125 100 103 125 100 103 125 100 103 125 100 103 125 100 103 123 101 103 125 103 105 124 104 105 124 104 105 124 104 105 124 104 105 124 104 105 124 104 105 124 104 105 117 97 98 108 88 89 92 72 73 77 57 58 67 47 48 63 43 44 64 44 45 62 46 46
1 1 3 1 1 3 1 1 3 1 1 3 0 0 2 0 0 2 0 0 2 0 0 2 0 0 2 0 0 2 0 0 2 0 0 2 1 1 3 1 1 3 1 1 3 1 1 3 1 1 3 1 1 3 1 1 3 1 1 3 0 0 2 0 0 2 0 0 2 0 0 2 0 0 2 0 0 2 0 0 2 0 0 2 0 0 2 0 0 2 0 0 2 0 0 2 0 0 2 0 0 2 0 0 2 0 0 2 1 1 3 1 1 3 1 1 3 1 1 3 1 1 3 1 1 3 1 1 3 1 1 3 1 1 1 1 1 1 1 1 1 1 1 1 1 1 1 1 1 1 1 1 1 1 1 1 0 0 0 0 0 0 0 0 0 0 0 0 0 0 0 0 0 0 0 0 0 0 0 0 0 0 0 0 0 0 0 0 0 0 0 0 0 0 0 0 0 0 0 0 0 0 0 0 0 0 0 0 0 0 0 0 0 0 0 0 0 0 0 0 0 0 0 0 0 0 0 0 3 3 5 3 3 5 3 3 5 3 3 5 3 3 5 3 3 5 3 3 5 3 3 5 2 2 4 3 3 5 6 6 8 9 9 11 12 12 14 16 16 18 18 18 20 18 19 21 26 27 31 24 28 31 24 28 31 24 28 31 24 28 31 24 28 31 24 28 31 24 28 31 17 21 24 15 19 22 13 17 20 10 14 17 6 10 13 3 7 10 1 5 8 1 2 6 11 9 14 9 4 10 3 0 4 3 0 4 4 0 5 13 8 14 23 18 24 30 25 31 44 39 45 46 41 47 48 43 49 51 46 52 55 50 56 58 53 59 60 55 61 65 56 61 74 57 63 79 58 63 81 60 65 84 63 68 88 67 72 91 70 75 93 72 77 95 74 79 97 76 81 97 76 81 97 76 81 97 76 81 97 76 81 97 76 81 97 76 81 97 77 79 115 90 94 115 90 93 115 90 93 115 90 93 115 90 93 115 90 93 115 90 93 115 90 93 125 100 103 125 100 103 125 100 103 125 100 103 125 100 103 125 100 103 125 100 103 123 101 103 125 103 105 124 104 105 124 104 105 124 104 105 124 104 105 124 104 105 124 104 105 124 104 105 114 94 95 104 84 85 89 69 70 74 54 55 63 43 44 60 40 41 60 40 41 59 43 43
1 1 3 1 1 3 1 1 3 1 1 3 0 0 2 0 0 2 0 0 2 0 0 2 0 0 2 0 0 2 0 0 2 0 0 2 1 1 3 1 1 3 1 1 3 1 1 3 1 1 3 1 1 3 1 1 3 1 1 3 0 0 2 0 0 2 0 0 2 0 0 2 0 0 2 0 0 2 0 0 2 0 0 2 0 0 2 0 0 2 0 0 2 0 0 2 0 0 2 0 0 2 0 0 2 0 0 2 1 1 3 1 1 3 1 1 3 1 1 3 1 1 3 1 1 3 1 1 3 1 1 3 1 1 1 1 1 1 1 1 1 1 1 1 1 1 1 1 1 1 1 1 1 1 1 1 0 0 0 0 0 0 0 0 0 0 0 0 0 0 0 0 0 0 0 0 0 0 0 0 0 0 0 0 0 0 0 0 0 0 0 0 0 0 0 0 0 0 0 0 0 0 0 0 0 0 0 0 0 0 0 0 0 0 0 0 0 0 0 0 0 0 0 0 0 0 0 0 3 3 5 3 3 5 3 3 5 3 3 5 3 3 5 3 3 5 3 3 5 3 3 5 5 5 7 7 7 9 9 9 11 12 12 14 16 16 18 19 19 21 21 21 23 22 23 25 26 27 31 24 28 31 24 28 31 24 28 31 24 28 31 24 28 31 24 28 31 24 28 31 17 21 24 15 19 22 13 17 20 10 14 17 6 10 13 3 7 10 1 5 8 1 2 6 11 9 14 9 4 10 3 0 4 3 0 4 4 0 5 13 8 14 23 18 24 30 25 31 44 39 45 46 41 47 48 43 49 51 46 52 55 50 56 58 53 59 60 55 61 65 56 61 74 57 63 79 58 63 81 60 65 84 63 68 88 67 72 91 70 75 93 72 77 95 74 79 97 76 81 97 76 81 97 76 81 97 76 81 97 76 81 97 76 81 97 76 81 97 77 79 115 90 94 115 90 93 115 90 93 115 90 93 115 90 93 115 90 93 115 90 93 115 90 93 125 100 103 125 100 103 125 100 103 125 100 103 125 100 103 125 100 103 125 100 103 123 101 103 125 103 105 124 104 105 124 104 105 124 104 105 124 104 105 124 104 105 124 104 105 124 104 105 111 91 92 101 81 82 86 66 67 71 51 52 60 40 41 56 36 37 57 37 38 56 40 40
1 1 3 1 1 3 1 1 3 1 1 3 0 0 2 0 0 2 0 0 2 0 0 2 0 0 2 0 0 2 0 0 2 0 0 2 1 1 3 1 1 3 1 1 3 1 1 3 1 1 3 1 1 3 1 1 3 1 1 3 0 0 2 0 0 2 0 0 2 0 0 2 0 0 2 0 0 2 0 0 2 0 0 2 0 0 2 0 0 2 0 0 2 0 0 2 0 0 2 0 0 2 0 0 2 0 0 2 1 1 3 1 1 3 1 1 3 1 1 3 1 1 3 1 1 3 1 1 3 1 1 3 1 1 1 1 1 1 1 1 1 1 1 1 1 1 1 1 1 1 1 1 1 1 1 1 0 0 0 0 0 0 0 0 0 0 0 0 0 0 0 0 0 0 0 0 0 0 0 0 0 0 0 0 0 0 0 0 0 0 0 0 0 0 0 0 0 0 0 0 0 0 0 0 0 0 0 0 0 0 0 0 0 0 0 0 0 0 0 0 0 0 0 0 0 0 0 0 3 3 5 3 3 5 3 3 5 3 3 5 3 3 5 3 3 5 3 3 5 3 3 5 8 8 10 9 9 11 11 11 13 15 15 17 18 18 20 21 21 23 24 24 26 24 25 27 26 27 31 24 28 31 24 28 31 24 28 31 24 28 31 24 28 31 24 28 31 24 28 31 17 21 24 15 19 22 13 17 20 10 14 17 6 10 13 3 7 10 1 5 8 1 2 6 11 9 14 9 4 10 3 0 4 3 0 4 4 0 5 13 8 14 23 18 24 30 25 31 44 39 45 46 41 47 48 43 49 51 46 52 55 50 56 58 53 59 60 55 61 65 56 61 74 57 63 79 58 63 81 60 65 84 63 68 88 67 72 91 70 75 93 72 77 95 74 79 97 76 81 97 76 81 97 76 81 97 76 81 97 76 81 97 76 81 97 76 81 97 77 79 115 90 94 115 90 93 115 90 93 115 90 93 115 90 93 115 90 93 115 90 93 115 90 93 125 100 103 125 100 103 125 100 103 125 100 103 125 100 103 125 100 103 125 100 103 123 101 103 125 103 105 124 104 105 124 104 105 124 104 105 124 104 105 124 104 105 124 104 105 124 104 105 108 88 89 99 79 80 83 63 64 68 48 49 58 38 39 54 34 35 55 35 36 53 37 37
1 1 3 1 1 3 1 1 3 1 1 3 0 0 2 0 0 2 0 0 2 0 0 2 0 0 2 0 0 2 0 0 2 0 0 2 1 1 3 1 1 3 1 1 3 1 1 3 1 1 3 1 1 3 1 1 3 1 1 3 0 0 2 0 0 2 0 0 2 0 0 2 0 0 2 0 0 2 0 0 2 0 0 2 0 0 2 0 0 2 0 0 2 0 0 2 0 0 2 0 0 2 0 0 2 0 0 2 1 1 3 1 1 3 1 1 3 1 1 3 1 1 3 1 1 3 1 1 3 1 1 3 1 1 1 1 1 1 1 1 1 1 1 1 1 1 1 1 1 1 1 1 1 1 1 1 0 0 0 0 0 0 0 0 0 0 0 0 0 0 0 0 0 0 0 0 0 0 0 0 0 0 0 0 0 0 0 0 0 0 0 0 0 0 0 0 0 0 0 0 0 0 0 0 0 0 0 0 0 0 0 0 0 0 0 0 0 0 0 0 0 0 0 0 0 0 0 2 2 3 5 2 3 5 2 3 7 2 3 5 2 3 7 2 3 5 2 3 7 2 3 5 8 9 13 9 10 12 12 13 17 15 16 18 18 19 23 22 23 25 24 25 29 25 26 30 24 28 31 23 28 31 24 28 31 23 28 31 24 28 31 23 28 31 24 28 31 23 28 31 17 21 24 14 19 22 13 17 20 9 14 17 6 10 13 2 7 10 1 5 8 1 2 6 11 9 14 9 4 8 3 0 4 3 0 2 4 0 5 13 8 12 23 18 24 30 25 29 44 39 45 46 41 45 48 43 49 51 46 50 55 50 56 58 53 57 60 55 61 65 56 61 74 57 63 79 58 63 81 60 65 84 63 68 88 67 72 91 70 75 93 72 77 95 74 79 97 76 81 97 76 81 97 76 81 97 76 81 97 76 81 97 76 81 97 76 81 97 77 79 113 91 93 115 90 93 115 90 93 115 90 93 115 90 93 115 90 93 115 90 93 115 90 93 125 100 103 125 100 103 125 100 103 125 100 103 125 100 103 125 100 103 125 100 103 123 101 103 124 104 105 124 104 105 124 104 105 124 104 105 124 104 105 124 104 105 124 104 105 124 104 105 107 87 88 97 77 78 82 62 63 67 47 48 57 37 38 53 33 34 53 33 34 52 36 36
0 0 0 0 0 0 0 0 0 0 0 0 0 0 0 0 0 0 0 0 0 0 0 0 0 0 0 0 0 0 0 0 0 0 0 0 1 1 3 1 1 3 1 1 3 1 1 3 1 1 3 1 1 3 1 1 3 1 1 3 1 1 3 1 1 3 1 1 3 1 1 3 1 1 3 1 1 3 1 1 3 1 1 3 1 1 3 1 1 3 1 1 3 1 1 3 1 1 3 1 1 3 1 1 3 1 1 3 1 1 3 1 1 3 1 1 3 1 1 3 1 1 3 1 1 3 1 1 3 1 1 3 0 0 0 0 0 0 0 0 0 0 0 0 0 0 0 0 0 0 0 0 0 0 0 0 0 0 0 0 0 0 0 0 0 0 0 0 0 0 0 0 0 0 0 0 0 0 0 0 1 1 3 1 1 3 1 1 3 1 1 3 1 1 3 1 1 3 1 1 3 1 1 3 1 1 3 1 1 3 1 1 3 1 1 3 1 1 3 1 1 3 1 1 3 0 1 3 0 4 7 0 3 6 0 2 6 0 1 4 0 1 5 0 1 4 0 1 5 0 1 4 8 13 17 10 15 18 14 19 23 18 23 26 23 28 32 27 32 35 31 36 40 32 37 40 29 34 37 27 35 37 29 34 37 27 35 37 29 34 37 27 35 37 29 34 37 27 35 37 15 20 23 11 19 21 11 16 19 6 14 16 4 9 12 0 7 9 0 4 7 0 2 5 1 0 2 3 0 0 5 0 4 12 8 9 18 13 17 25 21 22 30 25 29 32 28 29 48 43 47 50 46 47 52 47 51 55 51 52 59 54 58 62 58 59 64 59 63 69 60 63 82 66 69 85 64 69 85 64 69 85 64 69 85 64 69 85 64 69 85 64 69 85 64 69 98 77 82 98 77 82 98 77 82 98 77 82 98 77 82 98 77 82 98 77 82 98 78 80 106 84 86 108 87 86 110 89 88 113 92 91 117 96 95 120 99 98 122 101 100 124 103 102 124 103 102 124 103 102 124 103 102 124 103 102 124 103 102 124 103 102 124 103 102 124 103 102 128 108 109 125 107 107 123 105 105 120 102 102 116 98 98 113 95 95 111 93 93 109 91 91 110 92 92 100 82 82 83 65 65 67 49 49 55 37 37 50 32 32 50 32 32 49 33 33
0 0 0 0 0 0 0 0 0 0 0 0 0 0 0 0 0 0 0 0 0 0 0 0 0 0 0 0 0 0 0 0 0 0 0 0 1 1 3 1 1 3 1 1 3 1 1 3 1 1 3 1 1 3 1 1 3 1 1 3 1 1 3 1 1 3 1 1 3 1 1 3 1 1 3 1 1 3 1 1 3 1 1 3 1 1 3 1 1 3 1 1 3 1 1 3 1 1 3 1 1 3 1 1 3 1 1 3 1 1 3 1 1 3 1 1 3 1 1 3 1 1 3 1 1 3 1 1 3 1 1 3 0 0 0 0 0 0 0 0 0 0 0 0 0 0 0 0 0 0 0 0 0 0 0 0 0 0 0 0 0 0 0 0 0 0 0 0 0 0 0 0 0 0 0 0 0 0 0 0 1 1 3 1 1 3 1 1 3 1 1 3 1 1 3 1 1 3 1 1 3 1 1 3 1 1 3 1 1 3 1 1 3 1 1 3 1 1 3 1 1 3 1 1 3 0 1 3 0 3 7 0 4 7 0 4 7 0 3 6 0 2 5 0 2 5 0 2 5 0 2 5 9 17 20 11 19 22 14 22 25 18 26 29 22 30 33 25 33 36 28 36 39 30 38 41 27 35 37 27 35 37 27 35 37 27 35 37 27 35 37 27 35 37 27 35 37 27 35 37 13 21 23 11 19 21 9 17 19 6 14 16 2 10 12 0 7 9 0 5 7 0 3 3 1 0 2 3 0 0 5 1 2 12 8 9 18 14 15 25 21 22 30 26 27 32 28 29 48 44 45 50 46 47 52 48 49 55 51 52 59 55 56 62 58 59 64 60 61 69 60 63 82 66 69 85 64 69 85 64 69 85 64 69 85 64 69 85 64 69 85 64 69 85 64 69 98 77 82 98 77 82 98 77 82 98 77 82 98 77 82 98 77 82 98 77 82 98 78 80 106 84 86 108 87 86 110 89 88 113 92 91 117 96 95 120 99 98 122 101 100 124 103 102 124 103 102 124 103 102 124 103 102 124 103 102 124 103 102 124 103 102 124 103 102 123 103 102 128 108 109 125 107 107 123 105 105 120 102 102 116 98 98 113 95 95 111 93 93 109 91 91 107 89 89 97 79 79 81 63 63 65 47 47 54 36 36 50 32 32 50 32 32 48 34 33
0 0 0 0 0 0 0 0 0 0 0 0 0 0 0 0 0 0 0 0 0 0 0 0 0 0 0 0 0 0 0 0 0 0 0 0 1 1 3 1 1 3 1 1 3 1 1 3 1 1 3 1 1 3 1 1 3 1 1 3 1 1 3 1 1 3 1 1 3 1 1 3 1 1 3 1 1 3 1 1 3 1 1 3 1 1 3 1 1 3 1 1 3 1 1 3 1 1 3 1 1 3 1 1 3 1 1 3 1 1 3 1 1 3 1 1 3 1 1 3 1 1 3 1 1 3 1 1 3 1 1 3 0 0 0 0 0 0 0 0 0 0 0 0 0 0 0 0 0 0 0 0 0 0 0 0 0 0 0 0 0 0 0 0 0 0 0 0 0 0 0 0 0 0 0 0 0 0 0 0 1 1 3 1 1 3 1 1 3 1 1 3 1 1 3 1 1 3 1 1 3 1 1 3 1 1 3 1 1 3 1 1 3 1 1 3 1 1 3 1 1 3 1 1 3 0 1 3 0 2 6 0 4 7 0 4 7 0 5 8 0 5 8 0 6 9 0 7 10 0 7 10 15 23 26 16 24 27 18 26 29 21 29 32 23 31 34 26 34 37 28 36 39 29 37 40 27 35 37 27 35 37 27 35 37 27 35 37 27 35 37 27 35 37 27 35 37 27 35 37 13 21 23 11 19 21 9 17 19 6 14 16 2 10 12 0 7 9 0 5 7 0 3 3 1 0 2 3 0 0 5 1 2 12 8 9 18 14 15 25 21 22 30 26 27 32 28 29 48 44 45 50 46 47 52 48 49 55 51 52 59 55 56 62 58 59 64 60 61 69 60 63 82 66 69 85 64 69 85 64 69 85 64 69 85 64 69 85 64 69 85 64 69 85 64 69 98 77 82 98 77 82 98 77 82 98 77 82 98 77 82 98 77 82 98 77 82 98 78 80 106 84 86 108 87 86 110 89 88 113 92 91 117 96 95 120 99 98 122 101 100 124 103 102 124 103 102 124 103 102 124 103 102 124 103 102 124 103 102 124 103 102 124 103 102 123 103 102 128 108 109 125 107 107 123 105 105 120 102 102 116 98 98 113 95 95 111 93 93 109 91 91 101 83 83 91 73 73 77 59 59 62 44 44 52 34 34 49 31 31 50 32 32 49 35 34
0 0 0 0 0 0 0 0 0 0 0 0 0 0 0 0 0 0 0 0 0 0 0 0 0 0 0 0 0 0 0 0 0 0 0 0 1 1 3 1 1 3 1 1 3 1 1 3 1 1 3 1 1 3 1 1 3 1 1 3 1 1 3 1 1 3 1 1 3 1 1 3 1 1 3 1 1 3 1 1 3 1 1 3 1 1 3 1 1 3 1 1 3 1 1 3 1 1 3 1 1 3 1 1 3 1 1 3 1 1 3 1 1 3 1 1 3 1 1 3 1 1 3 1 1 3 1 1 3 1 1 3 0 0 0 0 0 0 0 0 0 0 0 0 0 0 0 0 0 0 0 0 0 0 0 0 0 0 0 0 0 0 0 0 0 0 0 0 0 0 0 0 0 0 0 0 0 0 0 0 1 1 3 1 1 3 1 1 3 1 1 3 1 1 3 1 1 3 1 1 3 1 1 3 1 1 3 1 1 3 1 1 3 1 1 3 1 1 3 1 1 3 1 1 3 0 1 3 0 1 5 0 3 6 0 5 8 0 7 10 2 10 13 4 12 15 6 14 17 7 15 18 23 31 34 23 31 34 24 32 35 25 33 36 26 34 37 27 35 38 27 35 38 28 36 39 27 35 37 27 35 37 27 35 37 27 35 37 27 35 37 27 35 37 27 35 37 27 35 37 13 21 23 11 19 21 9 17 19 6 14 16 2 10 12 0 7 9 0 5 7 0 3 3 1 0 2 3 0 0 5 1 2 12 8 9 18 14 15 25 21 22 30 26 27 32 28 29 48 44 45 50 46 47 52 48 49 55 51 52 59 55 56 62 58 59 64 60 61 69 60 63 82 66 69 85 64 69 85 64 69 85 64 69 85 64 69 85 64 69 85 64 69 85 64 69 98 77 82 98 77 82 98 77 82 98 77 82 98 77 82 98 77 82 98 77 82 98 78 80 106 84 86 108 87 86 110 89 88 113 92 91 117 96 95 120 99 98 122 101 100 124 103 102 124 103 102 124 103 102 124 103 102 124 103 102 124 103 102 124 103 102 124 103 102 123 103 102 128 108 109 125 107 107 123 105 105 120 102 102 116 98 98 113 95 95 111 93 93 109 91 91 93 75 75 84 66 66 71 53 53 58 40 40 50 32 32 49 31 31 51 33 33 51 37 36
0 0 0 0 0 0 0 0 0 0 0 0 0 0 0 0 0 0 0 0 0 0 0 0 0 0 0 0 0 0 0 0 0 0 0 0 1 1 3 1 1 3 1 1 3 1 1 3 1 1 3 1 1 3 1 1 3 1 1 3 1 1 3 1 1 3 1 1 3 1 1 3 1 1 3 1 1 3 1 1 3 1 1 3 1 1 3 1 1 3 1 1 3 1 1 3 1 1 3 1 1 3 1 1 3 1 1 3 1 1 3 1 1 3 1 1 3 1 1 3 1 1 3 1 1 3 1 1 3 1 1 3 0 0 0 0 0 0 0 0 0 0 0 0 0 0 0 0 0 0 0 0 0 0 0 0 0 0 0 0 0 0 0 0 0 0 0 0 0 0 0 0 0 0 0 0 0 0 0 0 1 1 3 1 1 3 1 1 3 1 1 3 1 1 3 1 1 3 1 1 3 1 1 3 1 1 3 1 1 3 1 1 3 1 1 3 1 1 3 1 1 3 1 1 3 0 1 3 0 1 5 0 2 5 0 5 8 2 10 13 6 14 17 10 18 21 13 21 24 15 23 26 31 39 42 31 39 42 30 38 41 29 37 40 28 36 39 27 35 38 27 35 38 26 34 37 27 35 37 27 35 37 27 35 37 27 35 37 27 35 37 27 35 37 27 35 37 27 35 37 13 21 23 11 19 21 9 17 19 6 14 16 2 10 12 0 7 9 0 5 7 0 3 3 1 0 2 3 0 0 5 1 2 12 8 9 18 14 15 25 21 22 30 26 27 32 28 29 48 44 45 50 46 47 52 48 49 55 51 52 59 55 56 62 58 59 64 60 61 69 60 63 82 66 69 85 64 69 85 64 69 85 64 69 85 64 69 85 64 69 85 64 69 85 64 69 98 77 82 98 77 82 98 77 82 98 77 82 98 77 82 98 77 82 98 77 82 98 78 80 106 84 86 108 87 86 110 89 88 113 92 91 117 96 95 120 99 98 122 101 100 124 103 102 124 103 102 124 103 102 124 103 102 124 103 102 124 103 102 124 103 102 124 103 102 123 103 102 128 108 109 125 107 107 123 105 105 120 102 102 116 98 98 113 95 95 111 93 93 109 91 91 85 67 67 77 59 59 65 47 47 54 36 36 48 30 30 48 30 30 52 34 34 52 38 37
0 0 0 0 0 0 0 0 0 0 0 0 0 0 0 0 0 0 0 0 0 0 0 0 0 0 0 0 0 0 0 0 0 0 0 0 1 1 3 1 1 3 1 1 3 1 1 3 1 1 3 1 1 3 1 1 3 1 1 3 1 1 3 1 1 3 1 1 3 1 1 3 1 1 3 1 1 3 1 1 3 1 1 3 1 1 3 1 1 3 1 1 3 1 1 3 1 1 3 1 1 3 1 1 3 1 1 3 1 1 3 1 1 3 1 1 3 1 1 3 1 1 3 1 1 3 1 1 3 1 1 3 0 0 0 0 0 0 0 0 0 0 0 0 0 0 0 0 0 0 0 0 0 0 0 0 0 0 0 0 0 0 0 0 0 0 0 0 0 0 0 0 0 0 0 0 0 0 0 0 1 1 3 1 1 3 1 1 3 1 1 3 1 1 3 1 1 3 1 1 3 1 1 3 1 1 3 1 1 3 1 1 3 1 1 3 1 1 3 1 1 3 1 1 3 0 1 3 0 1 5 0 2 5 0 6 9 4 12 15 10 18 21 16 24 27 20 28 31 22 30 33 39 47 50 38 46 49 36 44 47 33 41 44 31 39 42 28 36 39 26 34 37 25 33 36 27 35 37 27 35 37 27 35 37 27 35 37 27 35 37 27 35 37 27 35 37 27 35 37 13 21 23 11 19 21 9 17 19 6 14 16 2 10 12 0 7 9 0 5 7 0 3 3 1 0 2 3 0 0 5 1 2 12 8 9 18 14 15 25 21 22 30 26 27 32 28 29 48 44 45 50 46 47 52 48 49 55 51 52 59 55 56 62 58 59 64 60 61 69 60 63 82 66 69 85 64 69 85 64 69 85 64 69 85 64 69 85 64 69 85 64 69 85 64 69 98 77 82 98 77 82 98 77 82 98 77 82 98 77 82 98 77 82 98 77 82 98 78 80 106 84 86 108 87 86 110 89 88 113 92 91 117 96 95 120 99 98 122 101 100 124 103 102 124 103 102 124 103 102 124 103 102 124 103 102 124 103 102 124 103 102 124 103 102 123 103 102 128 108 109 125 107 107 123 105 105 120 102 102 116 98 98 113 95 95 111 93 93 109 91 91 77 59 59 70 52 52 59 41 41 50 32 32 45 27 27 47 29 29 52 34 34 53 39 38
0 0 0 0 0 0 0 0 0 0 0 0 0 0 0 0 0 0 0 0 0 0 0 0 0 0 0 0 0 0 0 0 0 0 0 0 1 1 3 1 1 3 1 1 3 1 1 3 1 1 3 1 1 3 1 1 3 1 1 3 1 1 3 1 1 3 1 1 3 1 1 3 1 1 3 1 1 3 1 1 3 1 1 3 1 1 3 1 1 3 1 1 3 1 1 3 1 1 3 1 1 3 1 1 3 1 1 3 1 1 3 1 1 3 1 1 3 1 1 3 1 1 3 1 1 3 1 1 3 1 1 3 0 0 0 0 0 0 0 0 0 0 0 0 0 0 0 0 0 0 0 0 0 0 0 0 0 0 0 0 0 0 0 0 0 0 0 0 0 0 0 0 0 0 0 0 0 0 0 0 1 1 3 1 1 3 1 1 3 1 1 3 1 1 3 1 1 3 1 1 3 1 1 3 1 1 3 1 1 3 1 1 3 1 1 3 1 1 3 1 1 3 1 1 3 0 1 3 0 1 5 0 2 5 0 7 10 6 14 17 13 21 24 20 28 31 25 33 36 28 36 39 45 53 56 43 51 54 40 48 51 36 44 47 32 40 43 29 37 40 26 34 37 24 32 35 27 35 37 27 35 37 27 35 37 27 35 37 27 35 37 27 35 37 27 35 37 27 35 37 13 21 23 11 19 21 9 17 19 6 14 16 2 10 12 0 7 9 0 5 7 0 3 3 1 0 2 3 0 0 5 1 2 12 8 9 18 14 15 25 21 22 30 26 27 32 28 29 48 44 45 50 46 47 52 48 49 55 51 52 59 55 56 62 58 59 64 60 61 69 60 63 82 66 69 85 64 69 85 64 69 85 64 69 85 64 69 85 64 69 85 64 69 85 64 69 98 77 82 98 77 82 98 77 82 98 77 82 98 77 82 98 77 82 98 77 82 98 78 80 106 84 86 108 87 86 110 89 88 113 92 91 117 96 95 120 99 98 122 101 100 124 103 102 124 103 102 124 103 102 124 103 102 124 103 102 124 103 102 124 103 102 124 103 102 123 103 102 128 108 109 125 107 107 123 105 105 120 102 102 116 98 98 113 95 95 111 93 93 109 91 91 71 53 53 65 47 47 55 37 37 46 28 28 44 26 26 47 29 29 53 35 35 54 40 39
0 0 0 0 0 0 0 0 0 0 0 0 0 0 0 0 0 0 0 0 0 0 0 0 0 0 0 0 0 0 0 0 0 0 0 0 1 1 3 1 1 3 1 1 3 1 1 3 1 1 3 1 1 3 1 1 3 1 1 3 1 1 3 1 1 3 1 1 3 1 1 3 1 1 3 1 1 3 1 1 3 1 1 3 1 1 3 1 1 3 1 1 3 1 1 3 1 1 3 1 1 3 1 1 3 1 1 3 1 1 3 1 1 3 1 1 3 1 1 3 1 1 3 1 1 3 1 1 3 1 1 3 0 0 0 0 0 0 0 0 0 0 0 0 0 0 0 0 0 0 0 0 0 0 0 0 0 0 0 0 0 0 0 0 0 0 0 0 0 0 0 0 0 0 0 0 0 0 0 0 1 1 3 1 1 3 1 1 3 1 1 3 1 1 3 1 1 3 1 1 3 1 1 3 1 1 3 1 1 3 1 1 3 1 1 3 1 1 3 1 1 3 1 1 3 0 1 3 0 1 5 0 2 5 0 7 10 7 15 18 15 23 26 22 30 33 28 36 39 31 39 42 48 56 59 46 54 57 42 50 53 38 46 49 33 41 44 29 37 40 25 33 36 24 32 35 27 35 37 27 35 37 27 35 37 27 35 37 27 35 37 27 35 37 27 35 37 27 35 37 13 21 23 11 19 21 9 17 19 6 14 16 2 10 12 0 7 9 0 5 7 0 3 3 1 0 2 3 0 0 5 1 2 12 8 9 18 14 15 25 21 22 30 26 27 32 28 29 48 44 45 50 46 47 52 48 49 55 51 52 59 55 56 62 58 59 64 60 61 69 60 63 82 66 69 85 64 69 85 64 69 85 64 69 85 64 69 85 64 69 85 64 69 85 64 69 98 77 82 98 77 82 98 77 82 98 77 82 98 77 82 98 77 82 98 77 82 98 78 80 106 84 86 108 87 86 110 89 88 113 92 91 117 96 95 120 99 98 122 101 100 124 103 102 124 103 102 124 103 102 124 103 102 124 103 102 124 103 102 124 103 102 124 103 102 123 103 102 128 108 109 125 107 107 123 105 105 120 102 102 116 98 98 113 95 95 111 93 93 109 91 91 68 50 50 62 44 44 52 34 34 45 27 27 43 25 25 46 28 28 53 35 35 55 41 40
0 0 0 0 0 0 0 0 0 0 0 0 0 0 0 0 0 0 0 0 0 0 0 0 0 0 0 0 0 0 0 0 0 0 0 0 0 0 2 0 0 2 0 0 2 0 0 2 0 0 2 0 0 2 0 0 2 0 0 2 0 0 2 0 0 2 0 0 2 0 0 2 0 0 2 0 0 2 0 0 2 0 0 2 0 0 2 0 0 2 0 0 2 0 0 2 0 0 2 0 0 2 0 0 2 0 0 2 0 0 2 0 0 2 0 0 2 0 0 2 0 0 2 0 0 2 0 0 2 0 0 2 0 0 0 0 0 0 0 0 0 0 0 0 0 0 0 0 0 0 0 0 0 0 0 0 0 0 0 0 0 0 0 0 0 0 0 0 0 0 0 0 0 0 0 0 0 0 0 0 0 0 2 0 0 2 0 0 2 0 0 2 0 0 2 0 0 2 0 0 2 0 0 2 6 6 8 5 5 7 4 4 6 3 3 5 2 2 4 0 0 2 0 0 2 0 0 2 6 11 15 7 15 18 13 21 24 20 28 31 28 36 39 36 44 47 42 50 53 45 53 56 35 43 46 35 43 46 35 43 46 35 43 46 35 43 46 35 43 46 35 43 46 35 43 46 34 42 44 32 40 42 30 38 40 27 35 37 23 31 33 20 28 30 18 26 28 16 24 26 12 20 22 10 18 20 8 16 18 5 13 15 1 9 11 0 6 8 0 4 6 0 2 2 1 0 2 4 0 1 9 5 6 16 12 13 22 18 19 29 25 26 34 30 31 36 32 33 51 47 48 53 49 50 55 51 52 58 54 55 62 58 59 65 61 62 67 63 64 72 63 66 84 68 71 87 66 71 87 66 71 87 66 71 87 66 71 87 66 71 87 66 71 87 66 71 91 70 75 93 72 77 95 74 79 98 77 82 102 81 86 105 84 89 107 86 91 109 89 91 114 92 94 114 93 92 114 93 92 114 93 92 114 93 92 114 93 92 114 93 92 114 93 92 120 99 98 120 99 98 120 99 98 120 99 98 120 99 98 120 99 98 120 99 98 119 99 98 119 99 100 121 103 103 124 106 106 124 106 106 117 99 99 105 87 87 92 74 74 84 66 66 52 34 34 52 34 34 52 34 34 52 34 34 52 34 34 52 34 34 52 34 34 49 35 34
0 0 0 0 0 0 0 0 0 0 0 0 0 0 0 0 0 0 0 0 0 0 0 0 0 0 0 0 0 0 0 0 0 0 0 0 0 0 2 0 0 2 0 0 2 0 0 2 0 0 2 0 0 2 0 0 2 0 0 2 0 0 2 0 0 2 0 0 2 0 0 2 0 0 2 0 0 2 0 0 2 0 0 2 0 0 2 0 0 2 0 0 2 0 0 2 0 0 2 0 0 2 0 0 2 0 0 2 0 0 2 0 0 2 0 0 2 0 0 2 0 0 2 0 0 2 0 0 2 0 0 2 0 0 0 0 0 0 0 0 0 0 0 0 0 0 0 0 0 0 0 0 0 0 0 0 0 0 0 0 0 0 0 0 0 0 0 0 0 0 0 0 0 0 0 0 0 0 0 0 0 0 2 0 0 2 0 0 2 0 0 2 0 0 2 0 0 2 0 0 2 0 0 2 5 5 7 5 5 7 5 5 7 4 4 6 3 3 5 3 3 5 2 2 4 1 2 4 9 14 18 10 18 21 15 23 26 22 30 33 29 37 40 36 44 47 42 50 53 45 53 56 35 43 46 35 43 46 35 43 46 35 43 46 35 43 46 35 43 46 35 43 46 35 43 46 34 42 44 32 40 42 30 38 40 27 35 37 23 31 33 20 28 30 18 26 28 16 24 26 12 20 22 10 18 20 8 16 18 5 13 15 1 9 11 0 6 8 0 4 6 0 2 2 1 0 2 4 0 1 9 5 6 16 12 13 22 18 19 29 25 26 34 30 31 36 32 33 51 47 48 53 49 50 55 51 52 58 54 55 62 58 59 65 61 62 67 63 64 72 63 66 84 68 71 87 66 71 87 66 71 87 66 71 87 66 71 87 66 71 87 66 71 87 66 71 91 70 75 93 72 77 95 74 79 98 77 82 102 81 86 105 84 89 107 86 91 109 89 91 114 92 94 114 93 92 114 93 92 114 93 92 114 93 92 114 93 92 114 93 92 114 93 92 120 99 98 120 99 98 120 99 98 120 99 98 120 99 98 120 99 98 120 99 98 119 99 98 118 98 99 120 102 102 123 105 105 122 104 104 116 98 98 104 86 86 91 73 73 82 64 64 52 34 34 52 34 34 52 34 34 52 34 34 52 34 34 52 34 34 52 34 34 49 35 34
0 0 0 0 0 0 0 0 0 0 0 0 0 0 0 0 0 0 0 0 0 0 0 0 0 0 0 0 0 0 0 0 0 0 0 0 0 0 2 0 0 2 0 0 2 0 0 2 0 0 2 0 0 2 0 0 2 0 0 2 0 0 2 0 0 2 0 0 2 0 0 2 0 0 2 0 0 2 0 0 2 0 0 2 0 0 2 0 0 2 0 0 2 0 0 2 0 0 2 0 0 2 0 0 2 0 0 2 0 0 2 0 0 2 0 0 2 0 0 2 0 0 2 0 0 2 0 0 2 0 0 2 0 0 0 0 0 0 0 0 0 0 0 0 0 0 0 0 0 0 0 0 0 0 0 0 0 0 0 0 0 0 0 0 0 0 0 0 0 0 0 0 0 0 0 0 0 0 0 0 0 0 2 0 0 2 0 0 2 0 0 2 0 0 2 0 0 2 0 0 2 0 0 2 4 4 6 5 5 7 5 5 7 6 6 8 6 6 8 7 7 9 8 8 10 7 8 10 15 20 24 15 23 26 19 27 30 25 33 36 31 39 42 37 45 48 41 49 52 44 52 55 35 43 46 35 43 46 35 43 46 35 43 46 35 43 46 35 43 46 35 43 46 35 43 46 34 42 44 32 40 42 30 38 40 27 35 37 23 31 33 20 28 30 18 26 28 16 24 26 12 20 22 10 18 20 8 16 18 5 13 15 1 9 11 0 6 8 0 4 6 0 2 2 1 0 2 4 0 1 9 5 6 16 12 13 22 18 19 29 25 26 34 30 31 36 32 33 51 47 48 53 49 50 55 51 52 58 54 55 62 58 59 65 61 62 67 63 64 72 63 66 84 68 71 87 66 71 87 66 71 87 66 71 87 66 71 87 66 71 87 66 71 87 66 71 91 70 75 93 72 77 95 74 79 98 77 82 102 81 86 105 84 89 107 86 91 109 89 91 114 92 94 114 93 92 114 93 92 114 93 92 114 93 92 114 93 92 114 93 92 114 93 92 120 99 98 120 99 98 120 99 98 120 99 98 120 99 98 120 99 98 120 99 98 119 99 98 116 96 97 118 100 100 121 103 103 120 102 102 113 95 95 101 83 83 88 70 70 80 62 62 52 34 34 52 34 34 52 34 34 52 34 34 52 34 34 52 34 34 52 34 34 49 35 34
0 0 0 0 0 0 0 0 0 0 0 0 0 0 0 0 0 0 0 0 0 0 0 0 0 0 0 0 0 0 0 0 0 0 0 0 0 0 2 0 0 2 0 0 2 0 0 2 0 0 2 0 0 2 0 0 2 0 0 2 0 0 2 0 0 2 0 0 2 0 0 2 0 0 2 0 0 2 0 0 2 0 0 2 0 0 2 0 0 2 0 0 2 0 0 2 0 0 2 0 0 2 0 0 2 0 0 2 0 0 2 0 0 2 0 0 2 0 0 2 0 0 2 0 0 2 0 0 2 0 0 2 0 0 0 0 0 0 0 0 0 0 0 0 0 0 0 0 0 0 0 0 0 0 0 0 0 0 0 0 0 0 0 0 0 0 0 0 0 0 0 0 0 0 0 0 0 0 0 0 0 0 2 0 0 2 0 0 2 0 0 2 0 0 2 0 0 2 0 0 2 0 0 2 3 3 5 4 4 6 6 6 8 8 8 10 11 11 13 13 13 15 15 15 17 15 16 18 22 27 31 22 30 33 25 33 36 29 37 40 33 41 44 38 46 49 41 49 52 42 50 53 35 43 46 35 43 46 35 43 46 35 43 46 35 43 46 35 43 46 35 43 46 35 43 46 34 42 44 32 40 42 30 38 40 27 35 37 23 31 33 20 28 30 18 26 28 16 24 26 12 20 22 10 18 20 8 16 18 5 13 15 1 9 11 0 6 8 0 4 6 0 2 2 1 0 2 4 0 1 9 5 6 16 12 13 22 18 19 29 25 26 34 30 31 36 32 33 51 47 48 53 49 50 55 51 52 58 54 55 62 58 59 65 61 62 67 63 64 72 63 66 84 68 71 87 66 71 87 66 71 87 66 71 87 66 71 87 66 71 87 66 71 87 66 71 91 70 75 93 72 77 95 74 79 98 77 82 102 81 86 105 84 89 107 86 91 109 89 91 114 92 94 114 93 92 114 93 92 114 93 92 114 93 92 114 93 92 114 93 92 114 93 92 120 99 98 120 99 98 120 99 98 120 99 98 120 99 98 120 99 98 120 99 98 119 99 98 112 92 93 114 96 96 118 100 100 117 99 99 110 92 92 98 80 80 85 67 67 77 59 59 52 34 34 52 34 34 52 34 34 52 34 34 52 34 34 52 34 34 52 34 34 49 35 34
0 0 0 0 0 0 0 0 0 0 0 0 0 0 0 0 0 0 0 0 0 0 0 0 0 0 0 0 0 0 0 0 0 0 0 0 0 0 2 0 0 2 0 0 2 0 0 2 0 0 2 0 0 2 0 0 2 0 0 2 0 0 2 0 0 2 0 0 2 0 0 2 0 0 2 0 0 2 0 0 2 0 0 2 0 0 2 0 0 2 0 0 2 0 0 2 0 0 2 0 0 2 0 0 2 0 0 2 0 0 2 0 0 2 0 0 2 0 0 2 0 0 2 0 0 2 0 0 2 0 0 2 0 0 0 0 0 0 0 0 0 0 0 0 0 0 0 0 0 0 0 0 0 0 0 0 0 0 0 0 0 0 0 0 0 0 0 0 0 0 0 0 0 0 0 0 0 0 0 0 0 0 2 0 0 2 0 0 2 0 0 2 0 0 2 0 0 2 0 0 2 0 0 2 2 2 4 3 3 5 6 6 8 11 11 13 15 15 17 19 19 21 22 22 24 23 24 26 30 35 39 29 37 40 31 39 42 33 41 44 36 44 47 38 46 49 40 48 51 41 49 52 35 43 46 35 43 46 35 43 46 35 43 46 35 43 46 35 43 46 35 43 46 35 43 46 34 42 44 32 40 42 30 38 40 27 35 37 23 31 33 20 28 30 18 26 28 16 24 26 12 20 22 10 18 20 8 16 18 5 13 15 1 9 11 0 6 8 0 4 6 0 2 2 1 0 2 4 0 1 9 5 6 16 12 13 22 18 19 29 25 26 34 30 31 36 32 33 51 47 48 53 49 50 55 51 52 58 54 55 62 58 59 65 61 62 67 63 64 72 63 66 84 68 71 87 66 71 87 66 71 87 66 71 87 66 71 87 66 71 87 66 71 87 66 71 91 70 75 93 72 77 95 74 79 98 77 82 102 81 86 105 84 89 107 86 91 109 89 91 114 92 94 114 93 92 114 93 92 114 93 92 114 93 92 114 93 92 114 93 92 114 93 92 120 99 98 120 99 98 120 99 98 120 99 98 120 99 98 120 99 98 120 99 98 119 99 98 109 89 90 111 93 93 114 96 96 113 95 95 106 88 88 94 76 76 82 64 64 73 55 55 52 34 34 52 34 34 52 34 34 52 34 34 52 34 34 52 34 34 52 34 34 49 35 34
0 0 0 0 0 0 0 0 0 0 0 0 0 0 0 0 0 0 0 0 0 0 0 0 0 0 0 0 0 0 0 0 0 0 0 0 0 0 2 0 0 2 0 0 2 0 0 2 0 0 2 0 0 2 0 0 2 0 0 2 0 0 2 0 0 2 0 0 2 0 0 2 0 0 2 0 0 2 0 0 2 0 0 2 0 0 2 0 0 2 0 0 2 0 0 2 0 0 2 0 0 2 0 0 2 0 0 2 0 0 2 0 0 2 0 0 2 0 0 2 0 0 2 0 0 2 0 0 2 0 0 2 0 0 0 0 0 0 0 0 0 0 0 0 0 0 0 0 0 0 0 0 0 0 0 0 0 0 0 0 0 0 0 0 0 0 0 0 0 0 0 0 0 0 0 0 0 0 0 0 0 0 2 0 0 2 0 0 2 0 0 2 0 0 2 0 0 2 0 0 2 0 0 2 0 0 2 3 3 5 7 7 9 13 13 15 19 19 21 25 25 27 29 29 31 30 31 33 38 43 47 36 44 47 37 45 48 38 46 49 38 46 49 39 47 50 39 47 50 40 48 51 35 43 46 35 43 46 35 43 46 35 43 46 35 43 46 35 43 46 35 43 46 35 43 46 34 42 44 32 40 42 30 38 40 27 35 37 23 31 33 20 28 30 18 26 28 16 24 26 12 20 22 10 18 20 8 16 18 5 13 15 1 9 11 0 6 8 0 4 6 0 2 2 1 0 2 4 0 1 9 5 6 16 12 13 22 18 19 29 25 26 34 30 31 36 32 33 51 47 48 53 49 50 55 51 52 58 54 55 62 58 59 65 61 62 67 63 64 72 63 66 84 68 71 87 66 71 87 66 71 87 66 71 87 66 71 87 66 71 87 66 71 87 66 71 91 70 75 93 72 77 95 74 79 98 77 82 102 81 86 105 84 89 107 86 91 109 89 91 114 92 94 114 93 92 114 93 92 114 93 92 114 93 92 114 93 92 114 93 92 114 93 92 120 99 98 120 99 98 120 99 98 120 99 98 120 99 98 120 99 98 120 99 98 119 99 98 106 86 87 108 90 90 111 93 93 110 92 92 103 85 85 91 73 73 78 60 60 70 52 52 52 34 34 52 34 34 52 34 34 52 34 34 52 34 34 52 34 34 52 34 34 49 35 34
0 0 0 0 0 0 0 0 0 0 0 0 0 0 0 0 0 0 0 0 0 0 0 0 0 0 0 0 0 0 0 0 0 0 0 0 0 0 2 0 0 2 0 0 2 0 0 2 0 0 2 0 0 2 0 0 2 0 0 2 0 0 2 0 0 2 0 0 2 0 0 2 0 0 2 0 0 2 0 0 2 0 0 2 0 0 2 0 0 2 0 0 2 0 0 2 0 0 2 0 0 2 0 0 2 0 0 2 0 0 2 0 0 2 0 0 2 0 0 2 0 0 2 0 0 2 0 0 2 0 0 2 0 0 0 0 0 0 0 0 0 0 0 0 0 0 0 0 0 0 0 0 0 0 0 0 0 0 0 0 0 0 0 0 0 0 0 0 0 0 0 0 0 0 0 0 0 0 0 0 0 0 2 0 0 2 0 0 2 0 0 2 0 0 2 0 0 2 0 0 2 0 0 2 0 0 2 2 2 4 8 8 10 15 15 17 22 22 24 29 29 31 34 34 36 36 37 39 44 49 53 42 50 53 41 49 52 41 49 52 40 48 51 39 47 50 39 47 50 39 47 50 35 43 46 35 43 46 35 43 46 35 43 46 35 43 46 35 43 46 35 43 46 35 43 46 34 42 44 32 40 42 30 38 40 27 35 37 23 31 33 20 28 30 18 26 28 16 24 26 12 20 22 10 18 20 8 16 18 5 13 15 1 9 11 0 6 8 0 4 6 0 2 2 1 0 2 4 0 1 9 5 6 16 12 13 22 18 19 29 25 26 34 30 31 36 32 33 51 47 48 53 49 50 55 51 52 58 54 55 62 58 59 65 61 62 67 63 64 72 63 66 84 68 71 87 66 71 87 66 71 87 66 71 87 66 71 87 66 71 87 66 71 87 66 71 91 70 75 93 72 77 95 74 79 98 77 82 102 81 86 105 84 89 107 86 91 109 89 91 114 92 94 114 93 92 114 93 92 114 93 92 114 93 92 114 93 92 114 93 92 114 93 92 120 99 98 120 99 98 120 99 98 120 99 98 120 99 98 120 99 98 120 99 98 119 99 98 103 83 84 105 87 87 108 90 90 108 90 90 101 83 83 89 71 71 76 58 58 68 50 50 52 34 34 52 34 34 52 34 34 52 34 34 52 34 34 52 34 34 52 34 34 49 35 34
0 0 0 0 0 0 0 0 0 0 0 0 0 0 0 0 0 0 0 0 0 0 0 0 0 0 0 0 0 0 0 0 0 0 0 0 0 0 2 0 0 2 0 0 2 0 0 2 0 0 2 0 0 2 0 0 2 0 0 2 0 0 2 0 0 2 0 0 2 0 0 2 0 0 2 0 0 2 0 0 2 0 0 2 0 0 2 0 0 2 0 0 2 0 0 2 0 0 2 0 0 2 0 0 2 0 0 2 0 0 2 0 0 2 0 0 2 0 0 2 0 0 2 0 0 2 0 0 2 0 0 2 0 0 0 0 0 0 0 0 0 0 0 0 0 0 0 0 0 0 0 0 0 0 0 0 0 0 0 0 0 0 0 0 0 0 0 0 0 0 0 0 0 0 0 0 0 0 0 2 0 0 2 0 0 2 0 0 4 0 0 2 0 0 4 0 0 2 0 0 4 0 0 2 0 0 4 1 2 4 7 8 12 15 16 18 23 24 28 30 31 33 36 37 41 37 41 44 47 52 56 44 52 55 44 52 55 42 50 53 41 49 52 40 48 51 39 47 50 38 46 49 35 43 46 35 43 46 35 43 46 35 43 46 35 43 46 35 43 46 35 43 46 35 43 46 34 42 44 32 40 42 30 38 40 27 35 37 23 31 33 20 28 30 18 26 28 16 24 26 12 20 22 10 18 20 8 16 18 5 13 15 1 9 11 0 6 8 0 4 6 0 1 4 1 0 2 4 0 1 9 5 6 16 12 13 22 18 19 29 25 26 34 30 31 36 32 33 51 47 48 53 49 50 55 51 52 58 54 55 62 58 59 65 61 62 67 63 64 72 63 66 84 68 71 87 67 69 87 66 71 87 67 69 87 66 71 87 67 69 87 66 71 87 67 69 91 70 75 93 73 75 95 74 79 98 78 80 102 81 86 105 85 87 107 86 91 109 89 91 114 92 94 114 93 92 114 93 92 114 93 92 114 93 92 114 93 92 114 93 92 114 93 92 120 99 98 120 99 98 120 99 98 120 99 98 120 99 98 120 99 98 120 99 98 119 99 98 101 83 83 104 86 86 107 89 89 106 88 88 100 82 82 88 70 70 75 57 57 66 48 48 52 34 34 52 34 34 52 34 34 52 34 34 52 34 34 52 34 34 52 34 34 49 35 34
0 0 0 0 0 0 0 0 0 0 0 0 0 0 0 0 0 0 0 0 0 0 0 0 0 0 0 0 0 0 0 0 0 0 0 0 0 0 0 0 0 0 0 0 0 0 0 0 0 0 0 0 0 0 0 0 0 0 0 0 0 0 0 0 0 0 0 0 0 0 0 0 0 0 0 0 0 0 0 0 0 0 0 0 0 0 0 0 0 0 0 0 0 0 0 0 0 0 0 0 0 0 0 0 0 0 0 0 0 0 0 0 0 0 0 0 0 0 0 0 0 0 0 0 0 0 0 0 0 0 0 0 0 0 2 0 0 2 0 0 2 0 0 2 0 0 2 0 0 2 0 0 2 0 0 2 0 0 2 0 0 2 0 0 2 0 0 2 0 0 2 0 0 2 0 0 2 0 0 2 0 1 4 0 1 4 0 0 5 0 1 4 0 0 5 0 1 4 0 0 5 0 1 4 21 24 29 22 26 29 24 27 32 28 32 35 31 34 39 34 38 41 37 40 45 37 42 46 42 50 53 42 50 53 42 50 53 42 50 53 42 50 53 42 50 53 42 50 53 42 50 53 39 47 50 39 47 50 39 47 50 39 47 50 39 47 50 39 47 50 39 47 50 39 47 50 29 34 38 29 34 38 29 34 38 29 34 38 29 34 38 29 34 38 29 34 38 29 34 38 15 20 24 15 20 24 15 20 24 15 20 24 15 20 24 15 20 24 15 20 24 16 20 23 3 1 4 8 4 5 14 10 11 22 18 19 30 26 27 38 34 35 44 40 41 47 43 44 51 47 48 53 49 50 55 51 52 58 54 55 62 58 59 65 61 62 67 63 64 72 63 64 91 75 76 94 74 75 94 74 76 94 74 75 94 74 76 94 74 75 94 74 76 94 74 75 100 80 82 100 80 81 100 80 82 100 80 81 100 80 82 100 80 81 100 80 82 100 80 81 112 91 90 112 91 90 112 91 90 112 91 90 112 91 90 112 91 90 112 91 90 112 91 90 115 94 93 115 94 93 115 94 93 115 94 93 115 94 93 115 94 93 115 94 93 114 94 93 121 103 103 115 99 99 107 91 91 98 82 82 87 71 71 78 62 62 71 55 55 67 51 51 47 31 31 47 31 31 47 31 31 47 31 31 47 31 31 47 31 31 47 31 31 46 32 31
0 0 0 0 0 0 0 0 0 0 0 0 0 0 0 0 0 0 0 0 0 0 0 0 0 0 0 0 0 0 0 0 0 0 0 0 0 0 0 0 0 0 0 0 0 0 0 0 0 0 0 0 0 0 0 0 0 0 0 0 0 0 0 0 0 0 0 0 0 0 0 0 0 0 0 0 0 0 0 0 0 0 0 0 0 0 0 0 0 0 0 0 0 0 0 0 0 0 0 0 0 0 0 0 0 0 0 0 0 0 0 0 0 0 0 0 0 0 0 0 0 0 0 0 0 0 0 0 0 0 0 0 0 0 2 0 0 2 0 0 2 0 0 2 0 0 2 0 0 2 0 0 2 0 0 2 0 0 2 0 0 2 0 0 2 0 0 2 0 0 2 0 0 2 0 0 2 0 1 2 0 0 5 0 1 5 0 1 5 0 1 5 0 1 5 0 1 5 0 1 5 0 1 5 21 26 30 22 27 31 25 30 34 28 33 37 31 36 40 35 40 44 37 42 46 38 43 47 42 50 53 42 50 53 42 50 53 42 50 53 42 50 53 42 50 53 42 50 53 42 50 53 39 47 50 39 47 50 39 47 50 39 47 50 39 47 50 39 47 50 39 47 50 39 47 50 31 36 40 31 36 40 31 36 40 31 36 40 31 36 40 31 36 40 31 36 40 31 36 40 15 20 24 15 20 24 15 20 24 15 20 24 15 20 24 15 20 24 15 20 24 16 20 23 5 3 6 10 6 7 15 11 12 22 18 19 30 26 27 37 33 34 42 38 39 45 41 42 51 47 48 53 49 50 55 51 52 58 54 55 62 58 59 65 61 62 67 63 64 72 63 64 91 75 76 94 74 75 94 74 75 94 74 75 94 74 75 94 74 75 94 74 75 94 74 75 100 80 81 100 80 81 100 80 81 100 80 81 100 80 81 100 80 81 100 80 81 100 80 81 112 91 90 112 91 90 112 91 90 112 91 90 112 91 90 112 91 90 112 91 90 112 91 90 115 94 93 115 94 93 115 94 93 115 94 93 115 94 93 115 94 93 115 94 93 114 94 93 119 101 101 113 97 97 106 90 90 97 81 81 86 70 70 77 61 61 69 53 53 65 49 49 47 31 31 47 31 31 47 31 31 47 31 31 47 31 31 47 31 31 47 31 31 46 32 31
0 0 0 0 0 0 0 0 0 0 0 0 0 0 0 0 0 0 0 0 0 0 0 0 0 0 0 0 0 0 0 0 0 0 0 0 0 0 0 0 0 0 0 0 0 0 0 0 0 0 0 0 0 0 0 0 0 0 0 0 0 0 0 0 0 0 0 0 0 0 0 0 0 0 0 0 0 0 0 0 0 0 0 0 0 0 0 0 0 0 0 0 0 0 0 0 0 0 0 0 0 0 0 0 0 0 0 0 0 0 0 0 0 0 0 0 0 0 0 0 0 0 0 0 0 0 0 0 0 0 0 0 0 0 2 0 0 2 0 0 2 0 0 2 0 0 2 0 0 2 0 0 2 0 0 2 0 0 2 0 0 2 0 0 2 0 0 2 0 0 2 0 0 2 0 0 2 0 1 2 0 1 6 0 3 7 0 3 7 0 4 8 0 5 9 0 5 9 1 6 10 1 6 10 23 28 32 25 30 34 27 32 36 30 35 39 34 39 43 37 42 46 39 44 48 41 46 50 42 50 53 42 50 53 42 50 53 42 50 53 42 50 53 42 50 53 42 50 53 42 50 53 39 47 50 39 47 50 39 47 50 39 47 50 39 47 50 39 47 50 39 47 50 39 47 50 33 38 42 33 38 42 33 38 42 33 38 42 33 38 42 33 38 42 33 38 42 33 38 42 15 20 24 15 20 24 15 20 24 15 20 24 15 20 24 15 20 24 15 20 24 16 20 23 9 7 10 13 9 10 17 13 14 23 19 20 29 25 26 35 31 32 39 35 36 41 37 38 51 47 48 53 49 50 55 51 52 58 54 55 62 58 59 65 61 62 67 63 64 72 63 64 91 75 76 94 74 75 94 74 75 94 74 75 94 74 75 94 74 75 94 74 75 94 74 75 100 80 81 100 80 81 100 80 81 100 80 81 100 80 81 100 80 81 100 80 81 100 80 81 112 91 90 112 91 90 112 91 90 112 91 90 112 91 90 112 91 90 112 91 90 112 91 90 115 94 93 115 94 93 115 94 93 115 94 93 115 94 93 115 94 93 115 94 93 114 94 93 117 99 99 111 95 95 104 88 88 94 78 78 84 68 68 74 58 58 67 51 51 63 47 47 47 31 31 47 31 31 47 31 31 47 31 31 47 31 31 47 31 31 47 31 31 46 32 31
